%
(HELENA_WAND)
(HELENA WAND TOP)
(T1  D=0.25 CR=0. - ZMIN=0.0234 - FLAT END MILL)
(T4  D=0.0787 CR=0. - ZMIN=0.375 - FLAT END MILL)
N10 G90 G94 G17 G91.1
N15 G20
N20 G53 G0 Z0.
(DRILL1)
N25 M9
N30 T1 M6
N35 T4
N40 S1700 M3
N45 G54
N50 M8
N60 G0 X0.2553 Y0.
N65 G43 Z1.35 H1
N75 G0 Z0.95
N80 G98 G81 X0.2553 Y0. Z0.375 R0.575 F75.405
N85 G80
N90 G0 Z1.35
(ADAPTIVE2)
N100 M9
N105 G0 X-0.2672 Y-1.9774
N110 Z1.35
N115 Z0.95
N120 Z0.4064
N125 G1 Z0.3814 F60.
N130 X-0.2671 Y-1.9771 Z0.3774
N135 X-0.2669 Y-1.9763 Z0.3736
N140 X-0.2665 Y-1.9748 Z0.37
N145 X-0.266 Y-1.9728 Z0.3667
N150 X-0.2654 Y-1.9704 Z0.3637
N155 X-0.2647 Y-1.9675 Z0.3611
N160 X-0.2638 Y-1.9642 Z0.3591
N165 X-0.2629 Y-1.9607 Z0.3576
N170 X-0.262 Y-1.957 Z0.3567
N175 X-0.261 Y-1.9532 Z0.3564
N180 G3 X-0.2498 Y-1.8755 I-0.3532 J0.0905
N185 G1 Y-1.8747
N190 X-0.2531 Y-1.8589
N195 X-0.2559 Y-1.843
N200 X-0.2583 Y-1.8271
N205 X-0.2605 Y-1.8112
N210 X-0.2623 Y-1.7952
N215 X-0.264 Y-1.7791
N220 X-0.2654 Y-1.7631
N225 X-0.2666 Y-1.747
N230 X-0.2677 Y-1.731
N235 X-0.2686 Y-1.7149
N240 X-0.2694 Y-1.6988
N245 X-0.2701 Y-1.6827
N250 X-0.2708 Y-1.6666
N255 X-0.2713 Y-1.6505
N260 X-0.2718 Y-1.6344
N265 X-0.2722 Y-1.6183
N270 X-0.2725 Y-1.6022
N275 X-0.2728 Y-1.5861
N280 X-0.2731 Y-1.57
N285 X-0.2733 Y-1.5539
N290 X-0.2735 Y-1.5378
N295 X-0.2737 Y-1.5217
N300 X-0.2738 Y-1.5056
N305 X-0.274 Y-1.4895
N310 X-0.2741 Y-1.4734
N315 X-0.2742 Y-1.4573
N320 X-0.2743 Y-1.4412
N325 Y-1.4251
N330 X-0.2744 Y-1.409
N335 X-0.2745 Y-1.3768
N340 X-0.2746 Y-1.3446
N345 Y-1.3123
N350 X-0.2747 Y-1.264
N355 X-0.2748 Y-1.1996
N360 Y-1.1191
N365 Y-0.9741
N370 Y-0.5232
N375 Y0.1049
N380 Y1.6349
N385 X-0.2715 Y1.6507
N390 X-0.2645 Y1.6651
N395 X-0.2551 Y1.6782
N400 X-0.244 Y1.6899
N405 X-0.2317 Y1.7003
N410 X-0.2185 Y1.7095
N415 X-0.2046 Y1.7176
N420 X-0.1902 Y1.7248
N425 X-0.1753 Y1.7311
N430 X-0.1602 Y1.7367
N435 X-0.1449 Y1.7415
N440 X-0.1293 Y1.7458
N445 X-0.1137 Y1.7495
N450 X-0.0979 Y1.7528
N455 X-0.0821 Y1.7556
N460 X-0.0661 Y1.7581
N465 X-0.0502 Y1.7603
N470 X-0.0342 Y1.7622
N475 X-0.0182 Y1.7638
N480 X-0.0021 Y1.7653
N485 X0.0139 Y1.7665
N490 X0.03 Y1.7676
N495 X0.0461 Y1.7686
N500 X0.0622 Y1.7694
N505 X0.0782 Y1.7701
N510 X0.0943 Y1.7707
N515 X0.1104 Y1.7713
N520 X0.1265 Y1.7717
N525 X0.1426 Y1.7721
N530 X0.1587 Y1.7725
N535 X0.1748 Y1.7728
N540 X0.1909 Y1.7731
N545 X0.207 Y1.7733
N550 X0.2231 Y1.7735
N555 X0.2393 Y1.7737
N560 X0.2554 Y1.7738
N565 X0.2715 Y1.774
N570 X0.2876 Y1.7741
N575 X0.3037 Y1.7742
N580 X0.3198 Y1.7743
N585 X0.3359
N590 X0.352 Y1.7744
N595 X0.3842 Y1.7745
N600 X0.4164 Y1.7746
N605 X0.4486 Y1.7747
N610 X0.4969
N615 X0.5613 Y1.7748
N620 X0.6419
N625 X0.7868
N630 X1.2378
N635 X2.1074
N640 X4.0884
N645 X6.0693
N650 X8.0502
N655 X10.0311
N660 X12.012
N665 X13.9929
N670 X15.9739
N675 X16.1349
N680 X16.1507 Y1.7715
N685 X16.1652 Y1.7645
N690 X16.1782 Y1.755
N695 X16.1899 Y1.744
N700 X16.2003 Y1.7317
N705 X16.2095 Y1.7184
N710 X16.2177 Y1.7045
N715 X16.2248 Y1.6901
N720 X16.2311 Y1.6753
N725 X16.2367 Y1.6602
N730 X16.2416 Y1.6448
N735 X16.2458 Y1.6293
N740 X16.2495 Y1.6136
N745 X16.2528 Y1.5979
N750 X16.2556 Y1.582
N755 X16.2581 Y1.5661
N760 X16.2603 Y1.5501
N765 X16.2622 Y1.5342
N770 X16.2638 Y1.5181
N775 X16.2653 Y1.5021
N780 X16.2665 Y1.486
N785 X16.2676 Y1.47
N790 X16.2686 Y1.4539
N795 X16.2694 Y1.4378
N800 X16.2701 Y1.4217
N805 X16.2707 Y1.4056
N810 X16.2713 Y1.3895
N815 X16.2717 Y1.3734
N820 X16.2721 Y1.3573
N825 X16.2725 Y1.3412
N830 X16.2728 Y1.3251
N835 X16.2731 Y1.309
N840 X16.2733 Y1.2929
N845 X16.2735 Y1.2768
N850 X16.2737 Y1.2607
N855 X16.2738 Y1.2446
N860 X16.274 Y1.2285
N865 X16.2741 Y1.2124
N870 X16.2742 Y1.1963
N875 X16.2743 Y1.1802
N880 X16.2744 Y1.1641
N885 Y1.148
N890 X16.2745 Y1.1158
N895 X16.2746 Y1.0836
N900 X16.2747 Y1.0514
N905 Y1.003
N910 X16.2748 Y0.9386
N915 Y0.8581
N920 X16.2749 Y0.7131
N925 Y0.2622
N930 Y0.0045
N935 X16.275 Y-1.6382
N940 X16.2708 Y-1.6537
N945 X16.2632 Y-1.6679
N950 X16.2534 Y-1.6807
N955 X16.242 Y-1.6922
N960 X16.2295 Y-1.7023
N965 X16.2162 Y-1.7113
N970 X16.2022 Y-1.7192
N975 X16.1877 Y-1.7262
N980 X16.1728 Y-1.7324
N985 X16.1576 Y-1.7378
N990 X16.1422 Y-1.7425
N995 X16.1267 Y-1.7467
N1000 X16.111 Y-1.7503
N1005 X16.0952 Y-1.7535
N1010 X16.0793 Y-1.7563
N1015 X16.0634 Y-1.7587
N1020 X16.0474 Y-1.7608
N1025 X16.0314 Y-1.7626
N1030 X16.0154 Y-1.7643
N1035 X15.9994 Y-1.7656
N1040 X15.9833 Y-1.7669
N1045 X15.9672 Y-1.7679
N1050 X15.9511 Y-1.7688
N1055 X15.9351 Y-1.7696
N1060 X15.919 Y-1.7703
N1065 X15.9029 Y-1.7709
N1070 X15.8868 Y-1.7715
N1075 X15.8707 Y-1.7719
N1080 X15.8546 Y-1.7723
N1085 X15.8385 Y-1.7727
N1090 X15.8224 Y-1.773
N1095 X15.8063 Y-1.7732
N1100 X15.7902 Y-1.7735
N1105 X15.7741 Y-1.7737
N1110 X15.758 Y-1.7738
N1115 X15.7419 Y-1.774
N1120 X15.7258 Y-1.7741
N1125 X15.7097 Y-1.7742
N1130 X15.6935 Y-1.7743
N1135 X15.6774 Y-1.7744
N1140 X15.6613 Y-1.7745
N1145 X15.6452
N1150 X15.613 Y-1.7746
N1155 X15.5808 Y-1.7747
N1160 X15.5486 Y-1.7748
N1165 X15.5003
N1170 X15.4359 Y-1.7749
N1175 X15.3553
N1180 X15.2104
N1185 X14.7433
N1190 X14.0025
N1195 X12.0216
N1200 X10.0407
N1205 X8.0598
N1210 X6.0788 Y-1.7748
N1215 X4.0979
N1220 X2.117
N1225 X0.1361
N1230 X-0.025
N1235 X-0.0409 Y-1.7724
N1240 X-0.0557 Y-1.7661
N1245 X-0.0693 Y-1.7574
N1250 X-0.0815 Y-1.7469
N1255 X-0.0925 Y-1.7351
N1260 X-0.1022 Y-1.7223
N1265 X-0.111 Y-1.7088
N1270 X-0.1187 Y-1.6947
N1275 X-0.1255 Y-1.6801
N1280 X-0.1315 Y-1.6651
N1285 X-0.1369 Y-1.6499
N1290 X-0.1416 Y-1.6345
N1295 X-0.1457 Y-1.619
N1300 X-0.1493 Y-1.6033
N1305 X-0.1525 Y-1.5875
N1310 X-0.1553 Y-1.5716
N1315 X-0.1578 Y-1.5557
N1320 X-0.1599 Y-1.5398
N1325 X-0.1618 Y-1.5238
N1330 X-0.1634 Y-1.5077
N1335 X-0.1649 Y-1.4917
N1340 X-0.1661 Y-1.4756
N1345 X-0.1672 Y-1.4596
N1350 X-0.1682 Y-1.4435
N1355 X-0.169 Y-1.4274
N1360 X-0.1698 Y-1.4113
N1365 X-0.1704 Y-1.3952
N1370 X-0.171 Y-1.3791
N1375 X-0.1715 Y-1.363
N1380 X-0.1719 Y-1.3469
N1385 X-0.1723 Y-1.3308
N1390 X-0.1726 Y-1.3147
N1395 X-0.1729 Y-1.2986
N1400 X-0.1731 Y-1.2825
N1405 X-0.1733 Y-1.2664
N1410 X-0.1735 Y-1.2503
N1415 X-0.1737 Y-1.2342
N1420 X-0.1738 Y-1.2181
N1425 X-0.174 Y-1.202
N1430 X-0.1741 Y-1.1859
N1435 X-0.1742 Y-1.1698
N1440 X-0.1743 Y-1.1537
N1445 Y-1.1376
N1450 X-0.1744 Y-1.1215
N1455 X-0.1745 Y-1.0893
N1460 X-0.1746 Y-1.0571
N1465 X-0.1747 Y-1.0088
N1470 Y-0.9604
N1475 X-0.1748 Y-0.896
N1480 Y-0.7994
N1485 Y-0.6383
N1490 Y-0.0102
N1495 Y1.4875
N1500 X-0.1739 Y1.5036
N1505 X-0.1703 Y1.5193
N1510 X-0.1644 Y1.5343
N1515 X-0.1564 Y1.5483
N1520 X-0.1468 Y1.5612
N1525 X-0.136 Y1.5731
N1530 X-0.1241 Y1.5839
N1535 X-0.1113 Y1.5938
N1540 X-0.0978 Y1.6026
N1545 X-0.0839 Y1.6106
N1550 X-0.0694 Y1.6178
N1555 X-0.0547 Y1.6242
N1560 X-0.0396 Y1.63
N1565 X-0.0244 Y1.6351
N1570 X-0.0089 Y1.6397
N1575 X0.0067 Y1.6437
N1580 X0.0224 Y1.6473
N1585 X0.0381 Y1.6505
N1590 X0.054 Y1.6534
N1595 X0.0699 Y1.6559
N1600 X0.0859 Y1.6581
N1605 X0.1018 Y1.6601
N1610 X0.1178 Y1.6619
N1615 X0.1339 Y1.6634
N1620 X0.1499 Y1.6648
N1625 X0.166 Y1.666
N1630 X0.1821 Y1.667
N1635 X0.1981 Y1.668
N1640 X0.2142 Y1.6688
N1645 X0.2303 Y1.6695
N1650 X0.2464 Y1.6702
N1655 X0.2625 Y1.6707
N1660 X0.2786 Y1.6712
N1665 X0.2947 Y1.6717
N1670 X0.3108 Y1.672
N1675 X0.3269 Y1.6724
N1680 X0.343 Y1.6727
N1685 X0.3591 Y1.6729
N1690 X0.3752 Y1.6732
N1695 X0.3913 Y1.6734
N1700 X0.4074 Y1.6736
N1705 X0.4235 Y1.6737
N1710 X0.4396 Y1.6739
N1715 X0.4557 Y1.674
N1720 X0.4718 Y1.6741
N1725 X0.4879 Y1.6742
N1730 X0.504 Y1.6743
N1735 X0.5201
N1740 X0.5523 Y1.6744
N1745 X0.5846 Y1.6745
N1750 X0.6168 Y1.6746
N1755 X0.6651 Y1.6747
N1760 X0.7134
N1765 X0.7778 Y1.6748
N1770 X0.8744
N1775 X1.0516
N1780 X1.9535
N1785 X2.2112
N1790 X4.1921
N1795 X6.173
N1800 X8.1539
N1805 X10.1348
N1810 X12.1158
N1815 X14.0967
N1820 X15.9971
N1825 X16.013 Y1.6723
N1830 X16.0283 Y1.6672
N1835 X16.0427 Y1.66
N1840 X16.0561 Y1.6511
N1845 X16.0684 Y1.6407
N1850 X16.0796 Y1.6292
N1855 X16.0899 Y1.6167
N1860 X16.0991 Y1.6035
N1865 X16.1075 Y1.5898
N1870 X16.115 Y1.5755
N1875 X16.1217 Y1.5609
N1880 X16.1277 Y1.5459
N1885 X16.1331 Y1.5308
N1890 X16.1379 Y1.5154
N1895 X16.1421 Y1.4998
N1900 X16.1459 Y1.4842
N1905 X16.1493 Y1.4684
N1910 X16.1523 Y1.4526
N1915 X16.1549 Y1.4367
N1920 X16.1573 Y1.4208
N1925 X16.1593 Y1.4048
N1930 X16.1612 Y1.3888
N1935 X16.1628 Y1.3728
N1940 X16.1642 Y1.3568
N1945 X16.1655 Y1.3407
N1950 X16.1666 Y1.3246
N1955 X16.1676 Y1.3086
N1960 X16.1685 Y1.2925
N1965 X16.1692 Y1.2764
N1970 X16.1699 Y1.2603
N1975 X16.1705 Y1.2442
N1980 X16.171 Y1.2281
N1985 X16.1715 Y1.212
N1990 X16.1719 Y1.1959
N1995 X16.1723 Y1.1798
N2000 X16.1726 Y1.1637
N2005 X16.1729 Y1.1476
N2010 X16.1731 Y1.1315
N2015 X16.1733 Y1.1154
N2020 X16.1735 Y1.0993
N2025 X16.1737 Y1.0832
N2030 X16.1738 Y1.0671
N2035 X16.1739 Y1.051
N2040 X16.1741 Y1.0349
N2045 X16.1742 Y1.0188
N2050 Y1.0027
N2055 X16.1743 Y0.9866
N2060 X16.1744 Y0.9705
N2065 X16.1745 Y0.9383
N2070 X16.1746 Y0.906
N2075 X16.1747 Y0.8738
N2080 Y0.8255
N2085 X16.1748 Y0.7611
N2090 Y0.6806
N2095 X16.1749 Y0.5517
N2100 Y0.2618
N2105 Y-0.3179
N2110 X16.175 Y-1.4936
N2115 X16.1731 Y-1.5096
N2120 X16.1686 Y-1.5251
N2125 X16.1618 Y-1.5397
N2130 X16.1533 Y-1.5533
N2135 X16.1432 Y-1.5659
N2140 X16.1319 Y-1.5774
N2145 X16.1196 Y-1.5878
N2150 X16.1066 Y-1.5973
N2155 X16.093 Y-1.6058
N2160 X16.0788 Y-1.6135
N2165 X16.0642 Y-1.6204
N2170 X16.0494 Y-1.6266
N2175 X16.0342 Y-1.6321
N2180 X16.0189 Y-1.637
N2185 X16.0034 Y-1.6413
N2190 X15.9878 Y-1.6452
N2195 X15.972 Y-1.6487
N2200 X15.9562 Y-1.6518
N2205 X15.9403 Y-1.6545
N2210 X15.9244 Y-1.6569
N2215 X15.9085 Y-1.659
N2220 X15.8925 Y-1.6609
N2225 X15.8765 Y-1.6626
N2230 X15.8604 Y-1.664
N2235 X15.8444 Y-1.6653
N2240 X15.8283 Y-1.6665
N2245 X15.8122 Y-1.6675
N2250 X15.7961 Y-1.6684
N2255 X15.7801 Y-1.6692
N2260 X15.764 Y-1.6699
N2265 X15.7479 Y-1.6705
N2270 X15.7318 Y-1.671
N2275 X15.7157 Y-1.6715
N2280 X15.6996 Y-1.6719
N2285 X15.6835 Y-1.6723
N2290 X15.6674 Y-1.6726
N2295 X15.6513 Y-1.6729
N2300 X15.6352 Y-1.6731
N2305 X15.6191 Y-1.6734
N2310 X15.603 Y-1.6736
N2315 X15.5869 Y-1.6737
N2320 X15.5708 Y-1.6739
N2325 X15.5547 Y-1.674
N2330 X15.5385 Y-1.6741
N2335 X15.5224 Y-1.6742
N2340 X15.5063 Y-1.6743
N2345 X15.4902 Y-1.6744
N2350 X15.4741 Y-1.6745
N2355 X15.4419 Y-1.6746
N2360 X15.4097 Y-1.6747
N2365 X15.3775
N2370 X15.3292 Y-1.6748
N2375 X15.2809 Y-1.6749
N2380 X15.2003
N2385 X15.0876
N2390 X14.8621
N2395 X13.461
N2400 X11.4801
N2405 X9.4992
N2410 X7.5182
N2415 X5.5373 Y-1.6748
N2420 X3.5564
N2425 X1.5755
N2430 X0.1099
N2435 X0.0939 Y-1.6728
N2440 X0.0785 Y-1.6683
N2445 X0.0638 Y-1.6617
N2450 X0.0501 Y-1.6532
N2455 X0.0374 Y-1.6433
N2460 X0.0258 Y-1.6321
N2465 X0.0152 Y-1.62
N2470 X0.0056 Y-1.6071
N2475 X-0.0031 Y-1.5935
N2480 X-0.0109 Y-1.5794
N2485 X-0.018 Y-1.565
N2490 X-0.0243 Y-1.5502
N2495 X-0.03 Y-1.5351
N2500 X-0.035 Y-1.5198
N2505 X-0.0395 Y-1.5043
N2510 X-0.0435 Y-1.4887
N2515 X-0.0471 Y-1.473
N2520 X-0.0503 Y-1.4572
N2525 X-0.0531 Y-1.4414
N2530 X-0.0556 Y-1.4255
N2535 X-0.0579 Y-1.4095
N2540 X-0.0598 Y-1.3935
N2545 X-0.0616 Y-1.3775
N2550 X-0.0631 Y-1.3615
N2555 X-0.0645 Y-1.3455
N2560 X-0.0657 Y-1.3294
N2565 X-0.0668 Y-1.3133
N2570 X-0.0677 Y-1.2972
N2575 X-0.0686 Y-1.2812
N2580 X-0.0693 Y-1.2651
N2585 X-0.07 Y-1.249
N2590 X-0.0706 Y-1.2329
N2595 X-0.0711 Y-1.2168
N2600 X-0.0715 Y-1.2007
N2605 X-0.0719 Y-1.1846
N2610 X-0.0723 Y-1.1685
N2615 X-0.0726 Y-1.1524
N2620 X-0.0728 Y-1.1363
N2625 X-0.0731 Y-1.1202
N2630 X-0.0733 Y-1.1041
N2635 X-0.0735 Y-1.088
N2640 X-0.0736 Y-1.0719
N2645 X-0.0738 Y-1.0558
N2650 X-0.0739 Y-1.0397
N2655 X-0.074 Y-1.0236
N2660 X-0.0741 Y-1.0075
N2665 X-0.0742 Y-0.9914
N2670 X-0.0743 Y-0.9752
N2675 Y-0.9591
N2680 X-0.0744 Y-0.9269
N2685 X-0.0745 Y-0.8947
N2690 X-0.0746 Y-0.8625
N2695 X-0.0747 Y-0.8142
N2700 Y-0.7659
N2705 X-0.0748 Y-0.6854
N2710 Y-0.5726
N2715 Y-0.3633
N2720 Y-0.2379
N2725 X-0.0758 Y-0.2269
N2730 X-0.0789 Y-0.2163
N2735 X-0.084 Y-0.2065
N2740 X-0.0908 Y-0.1978
N2745 X-0.0936 Y-0.1947
N2750 X-0.0945 Y-0.1938
N2755 X-0.0997 Y-0.1872
N2760 X-0.102 Y-0.1843
N2765 X-0.1049 Y-0.1798
N2770 X-0.1095 Y-0.1722
N2775 X-0.1132 Y-0.1648
N2780 X-0.1164 Y-0.1573
N2785 X-0.1169 Y-0.1558
N2790 X-0.1191 Y-0.1498
N2795 X-0.1212 Y-0.1423
N2800 X-0.1228 Y-0.1348
N2805 X-0.124 Y-0.1273
N2810 X-0.1244 Y-0.1234
N2815 X-0.1247 Y-0.1198
N2820 X-0.125 Y-0.1123
N2825 Y-0.1049
N2830 Y0.1049
N2835 Y0.1123
N2840 X-0.1247 Y0.1198
N2845 X-0.1244 Y0.1235
N2850 X-0.124 Y0.1273
N2855 X-0.1229 Y0.1348
N2860 X-0.1212 Y0.1423
N2865 X-0.1191 Y0.1498
N2870 X-0.1169 Y0.1558
N2875 X-0.1164 Y0.1573
N2880 X-0.1133 Y0.1648
N2885 X-0.1115 Y0.1691
N2890 X-0.1065 Y0.1844
N2895 X-0.1022 Y0.1999
N2900 X-0.0985 Y0.2156
N2905 X-0.0953 Y0.2314
N2910 X-0.0926 Y0.2472
N2915 X-0.0902 Y0.2632
N2920 X-0.0882 Y0.2791
N2925 X-0.0864 Y0.2951
N2930 X-0.0848 Y0.3112
N2935 X-0.0835 Y0.3272
N2940 X-0.0824 Y0.3433
N2945 X-0.0814 Y0.3594
N2950 X-0.0805 Y0.3754
N2955 X-0.0797 Y0.3915
N2960 X-0.0791 Y0.4076
N2965 X-0.0785 Y0.4237
N2970 X-0.078 Y0.4398
N2975 X-0.0776 Y0.4559
N2980 X-0.0772 Y0.472
N2985 X-0.0769 Y0.4881
N2990 X-0.0766 Y0.5042
N2995 X-0.0764 Y0.5203
N3000 X-0.0762 Y0.5364
N3005 X-0.076 Y0.5525
N3010 X-0.0758 Y0.5686
N3015 X-0.0757 Y0.5847
N3020 X-0.0756 Y0.6008
N3025 X-0.0755 Y0.617
N3030 X-0.0754 Y0.6331
N3035 X-0.0753 Y0.6492
N3040 X-0.0752 Y0.6653
N3045 X-0.0751 Y0.6975
N3050 X-0.075 Y0.7297
N3055 Y0.7619
N3060 X-0.0749 Y0.8102
N3065 Y0.8746
N3070 X-0.0748 Y0.9552
N3075 Y1.084
N3080 Y1.3739
N3085 X-0.0731 Y1.3899
N3090 X-0.0692 Y1.4055
N3095 X-0.0634 Y1.4206
N3100 X-0.0558 Y1.4348
N3105 X-0.0467 Y1.4481
N3110 X-0.0364 Y1.4604
N3115 X-0.0249 Y1.4717
N3120 X-0.0126 Y1.4821
N3125 X0.0004 Y1.4916
N3130 X0.014 Y1.5002
N3135 X0.0281 Y1.508
N3140 X0.0426 Y1.5151
N3145 X0.0573 Y1.5215
N3150 X0.0724 Y1.5272
N3155 X0.0877 Y1.5323
N3160 X0.1031 Y1.537
N3165 X0.1187 Y1.5411
N3170 X0.1343 Y1.5448
N3175 X0.1501 Y1.5481
N3180 X0.1659 Y1.5511
N3185 X0.1818 Y1.5537
N3190 X0.1977 Y1.5561
N3195 X0.2137 Y1.5582
N3200 X0.2297 Y1.56
N3205 X0.2457 Y1.5617
N3210 X0.2618 Y1.5632
N3215 X0.2778 Y1.5645
N3220 X0.2939 Y1.5657
N3225 X0.3099 Y1.5667
N3230 X0.326 Y1.5676
N3235 X0.3421 Y1.5685
N3240 X0.3582 Y1.5692
N3245 X0.3743 Y1.5698
N3250 X0.3904 Y1.5704
N3255 X0.4065 Y1.5709
N3260 X0.4226 Y1.5714
N3265 X0.4387 Y1.5718
N3270 X0.4548 Y1.5721
N3275 X0.4709 Y1.5724
N3280 X0.487 Y1.5727
N3285 X0.5031 Y1.573
N3290 X0.5192 Y1.5732
N3295 X0.5353 Y1.5734
N3300 X0.5514 Y1.5735
N3305 X0.5675 Y1.5737
N3310 X0.5836 Y1.5738
N3315 X0.5997 Y1.5739
N3320 X0.6158 Y1.5741
N3325 X0.6319
N3330 X0.648 Y1.5742
N3335 X0.6641 Y1.5743
N3340 X0.6963 Y1.5744
N3345 X0.7285 Y1.5745
N3350 X0.7608 Y1.5746
N3355 X0.8091 Y1.5747
N3360 X0.8574
N3365 X0.9218 Y1.5748
N3370 X1.0184
N3375 X1.1795
N3380 X1.6787
N3385 X2.5806
N3390 X4.5615
N3395 X6.5425
N3400 X8.5234
N3405 X10.5043
N3410 X12.4852
N3415 X14.4661
N3420 X15.8673
N3425 X15.8834 Y1.5739
N3430 X15.8992 Y1.571
N3435 X15.9145 Y1.566
N3440 X15.9291 Y1.5591
N3445 X15.9427 Y1.5506
N3450 X15.9554 Y1.5407
N3455 X15.9672 Y1.5297
N3460 X15.978 Y1.5177
N3465 X15.9878 Y1.505
N3470 X15.9968 Y1.4916
N3475 X16.0049 Y1.4777
N3480 X16.0123 Y1.4634
N3485 X16.0189 Y1.4487
N3490 X16.0249 Y1.4338
N3495 X16.0303 Y1.4186
N3500 X16.0351 Y1.4032
N3505 X16.0395 Y1.3877
N3510 X16.0433 Y1.3721
N3515 X16.0468 Y1.3564
N3520 X16.0499 Y1.3406
N3525 X16.0527 Y1.3247
N3530 X16.0552 Y1.3088
N3535 X16.0574 Y1.2928
N3540 X16.0593 Y1.2768
N3545 X16.0611 Y1.2608
N3550 X16.0626 Y1.2448
N3555 X16.064 Y1.2287
N3560 X16.0652 Y1.2127
N3565 X16.0663 Y1.1966
N3570 X16.0673 Y1.1805
N3575 X16.0682 Y1.1645
N3580 X16.0689 Y1.1484
N3585 X16.0696 Y1.1323
N3590 X16.0702 Y1.1162
N3595 X16.0707 Y1.1001
N3600 X16.0712 Y1.084
N3605 X16.0716 Y1.0679
N3610 X16.072 Y1.0518
N3615 X16.0723 Y1.0357
N3620 X16.0726 Y1.0196
N3625 X16.0729 Y1.0035
N3630 X16.0731 Y0.9874
N3635 X16.0733 Y0.9713
N3640 X16.0735 Y0.9552
N3645 X16.0737 Y0.9391
N3650 X16.0738 Y0.923
N3655 X16.0739 Y0.9069
N3660 X16.074 Y0.8908
N3665 X16.0741 Y0.8747
N3670 X16.0742 Y0.8586
N3675 X16.0743 Y0.8424
N3680 X16.0744 Y0.8102
N3685 X16.0745 Y0.778
N3690 X16.0746 Y0.7458
N3695 X16.0747 Y0.6975
N3700 X16.0748 Y0.6492
N3705 Y0.5848
N3710 Y0.4881
N3715 X16.0749 Y0.4201
N3720 X16.0759 Y0.4092
N3725 X16.0789 Y0.3988
N3730 X16.0838 Y0.3891
N3735 X16.0904 Y0.3805
N3740 X16.0945 Y0.3761
N3745 X16.0958 Y0.3745
N3750 X16.1016 Y0.367
N3755 X16.102 Y0.3666
N3760 X16.1064 Y0.3595
N3765 X16.1095 Y0.3545
N3770 X16.1108 Y0.352
N3775 X16.1144 Y0.3445
N3780 X16.1169 Y0.338
N3785 X16.1173 Y0.337
N3790 X16.1198 Y0.3295
N3795 X16.1219 Y0.3221
N3800 X16.1233 Y0.3146
N3805 X16.1242 Y0.3071
N3810 X16.1244 Y0.3051
N3815 X16.1248 Y0.2996
N3820 X16.125 Y0.2921
N3825 Y-0.2921
N3830 X16.1248 Y-0.2996
N3835 X16.1244 Y-0.3051
N3840 X16.1242 Y-0.3071
N3845 X16.1233 Y-0.3146
N3850 X16.1219 Y-0.3221
N3855 X16.1198 Y-0.3295
N3860 X16.1173 Y-0.337
N3865 X16.1169 Y-0.338
N3870 X16.1144 Y-0.3445
N3875 X16.1089 Y-0.3587
N3880 X16.1043 Y-0.3742
N3885 X16.1003 Y-0.3898
N3890 X16.0969 Y-0.4055
N3895 X16.094 Y-0.4214
N3900 X16.0914 Y-0.4373
N3905 X16.0892 Y-0.4532
N3910 X16.0873 Y-0.4692
N3915 X16.0857 Y-0.4852
N3920 X16.0842 Y-0.5013
N3925 X16.083 Y-0.5173
N3930 X16.0819 Y-0.5334
N3935 X16.081 Y-0.5495
N3940 X16.0802 Y-0.5656
N3945 X16.0795 Y-0.5816
N3950 X16.0789 Y-0.5977
N3955 X16.0784 Y-0.6138
N3960 X16.0779 Y-0.6299
N3965 X16.0775 Y-0.646
N3970 X16.0772 Y-0.6621
N3975 X16.0769 Y-0.6782
N3980 X16.0766 Y-0.6943
N3985 X16.0764 Y-0.7104
N3990 X16.0762 Y-0.7265
N3995 X16.076 Y-0.7427
N4000 X16.0759 Y-0.7588
N4005 X16.0758 Y-0.7749
N4010 X16.0757 Y-0.791
N4015 X16.0756 Y-0.8071
N4020 X16.0755 Y-0.8232
N4025 X16.0754 Y-0.8393
N4030 X16.0753 Y-0.8554
N4035 X16.0752 Y-0.8876
N4040 Y-0.9198
N4045 X16.0751 Y-0.9681
N4050 X16.075 Y-1.0164
N4055 Y-1.0809
N4060 Y-1.1775
N4065 Y-1.3546
N4070 Y-1.3707
N4075 X16.0737 Y-1.3868
N4080 X16.0703 Y-1.4025
N4085 X16.0649 Y-1.4177
N4090 X16.0576 Y-1.4321
N4095 X16.0488 Y-1.4456
N4100 X16.0387 Y-1.4581
N4105 X16.0275 Y-1.4696
N4110 X16.0153 Y-1.4802
N4115 X16.0024 Y-1.4899
N4120 X15.9889 Y-1.4987
N4125 X15.9749 Y-1.5066
N4130 X15.9605 Y-1.5138
N4135 X15.9458 Y-1.5203
N4140 X15.9308 Y-1.5262
N4145 X15.9156 Y-1.5315
N4150 X15.9002 Y-1.5362
N4155 X15.8846 Y-1.5404
N4160 X15.869 Y-1.5442
N4165 X15.8532 Y-1.5476
N4170 X15.8374 Y-1.5506
N4175 X15.8216 Y-1.5533
N4180 X15.8056 Y-1.5557
N4185 X15.7897 Y-1.5579
N4190 X15.7737 Y-1.5598
N4195 X15.7577 Y-1.5615
N4200 X15.7416 Y-1.563
N4205 X15.7256 Y-1.5644
N4210 X15.7095 Y-1.5656
N4215 X15.6935 Y-1.5666
N4220 X15.6774 Y-1.5676
N4225 X15.6613 Y-1.5684
N4230 X15.6452 Y-1.5692
N4235 X15.6291 Y-1.5698
N4240 X15.613 Y-1.5704
N4245 X15.5969 Y-1.5709
N4250 X15.5808 Y-1.5714
N4255 X15.5647 Y-1.5718
N4260 X15.5486 Y-1.5722
N4265 X15.5325 Y-1.5725
N4270 X15.5164 Y-1.5728
N4275 X15.5003 Y-1.573
N4280 X15.4842 Y-1.5733
N4285 X15.4681 Y-1.5735
N4290 X15.452 Y-1.5736
N4295 X15.4359 Y-1.5738
N4300 X15.4198 Y-1.5739
N4305 X15.4037 Y-1.574
N4310 X15.3876 Y-1.5741
N4315 X15.3715 Y-1.5742
N4320 X15.3554 Y-1.5743
N4325 X15.3393 Y-1.5744
N4330 X15.3071 Y-1.5745
N4335 X15.2749 Y-1.5746
N4340 X15.2426 Y-1.5747
N4345 X15.2104 Y-1.5748
N4350 X15.1621
N4355 X15.0977 Y-1.5749
N4360 X15.0172
N4365 X14.8883
N4370 X14.5984
N4375 X13.2295
N4380 X11.2486
N4385 X9.2677
N4390 X7.2868
N4395 X5.3058 Y-1.5748
N4400 X3.3249
N4405 X1.344
N4410 X0.2328
N4415 X0.2167 Y-1.5736
N4420 X0.2009 Y-1.5704
N4425 X0.1857 Y-1.5652
N4430 X0.1712 Y-1.5581
N4435 X0.1576 Y-1.5495
N4440 X0.1449 Y-1.5396
N4445 X0.1332 Y-1.5285
N4450 X0.1225 Y-1.5165
N4455 X0.1127 Y-1.5037
N4460 X0.1037 Y-1.4903
N4465 X0.0956 Y-1.4764
N4470 X0.0882 Y-1.4621
N4475 X0.0816 Y-1.4474
N4480 X0.0756 Y-1.4325
N4485 X0.0702 Y-1.4173
N4490 X0.0654 Y-1.402
N4495 X0.061 Y-1.3864
N4500 X0.0571 Y-1.3708
N4505 X0.0536 Y-1.3551
N4510 X0.0505 Y-1.3393
N4515 X0.0477 Y-1.3234
N4520 X0.0452 Y-1.3075
N4525 X0.043 Y-1.2916
N4530 X0.041 Y-1.2756
N4535 X0.0393 Y-1.2596
N4540 X0.0377 Y-1.2436
N4545 X0.0363 Y-1.2275
N4550 X0.035 Y-1.2115
N4555 X0.0339 Y-1.1954
N4560 X0.0329 Y-1.1793
N4565 X0.0321 Y-1.1632
N4570 X0.0313 Y-1.1471
N4575 X0.0306 Y-1.1311
N4580 X0.03 Y-1.115
N4585 X0.0294 Y-1.0989
N4590 X0.0289 Y-1.0828
N4595 X0.0285 Y-1.0667
N4600 X0.0281 Y-1.0506
N4605 X0.0278 Y-1.0345
N4610 X0.0275 Y-1.0184
N4615 X0.0272 Y-1.0023
N4620 X0.027 Y-0.9862
N4625 X0.0268 Y-0.9701
N4630 X0.0266 Y-0.954
N4635 X0.0264 Y-0.9378
N4640 X0.0263 Y-0.9217
N4645 X0.0262 Y-0.9056
N4650 X0.0261 Y-0.8895
N4655 X0.0259 Y-0.8734
N4660 Y-0.8573
N4665 X0.0258 Y-0.8412
N4670 X0.0257 Y-0.8251
N4675 X0.0256 Y-0.7929
N4680 X0.0255 Y-0.7607
N4685 X0.0254 Y-0.7285
N4690 Y-0.6802
N4695 X0.0253 Y-0.6319
N4700 Y-0.5674
N4705 X0.0252 Y-0.4708
N4710 Y-0.342
N4715 X0.025 Y-0.3259
N4720 X0.0246 Y-0.3098
N4725 X0.0237 Y-0.2937
N4730 X0.023 Y-0.2863
N4735 X0.0205 Y-0.2741
N4740 X0.0155 Y-0.2627
N4745 X0.0082 Y-0.2527
N4750 X-0.0011 Y-0.2444
N4755 X-0.0119 Y-0.2383
N4760 X-0.0238 Y-0.2346
N4765 G3 X-0.0318 Y-0.284 I-0.004 J-0.0247
N4770 G1 X-0.0279 Y-0.2846 Z0.3567
N4775 X-0.0241 Y-0.2852 Z0.3576
N4780 X-0.0206 Y-0.2858 Z0.3591
N4785 X-0.0173 Y-0.2863 Z0.3611
N4790 X-0.0143 Y-0.2868 Z0.3637
N4795 X-0.0118 Y-0.2872 Z0.3667
N4800 X-0.0098 Y-0.2875 Z0.37
N4805 X-0.0083 Y-0.2878 Z0.3736
N4810 X-0.0074 Y-0.2879 Z0.3774
N4815 X-0.0071 Y-0.288 Z0.3814
N4820 G0 Z0.95
N4825 X-0.175 Y0.0818
N4830 Z0.4064
N4835 G1 Z0.3814 F60.
N4840 X-0.1748 Y0.082 Z0.3774
N4845 X-0.1742 Y0.0827 Z0.3736
N4850 X-0.1732 Y0.0838 Z0.37
N4855 X-0.1718 Y0.0853 Z0.3667
N4860 X-0.1701 Y0.0873 Z0.3637
N4865 X-0.1682 Y0.0895 Z0.3611
N4870 X-0.166 Y0.092 Z0.3591
N4875 X-0.1636 Y0.0947 Z0.3576
N4880 X-0.1611 Y0.0976 Z0.3567
N4885 X-0.1585 Y0.1005 Z0.3564
N4890 G3 X-0.1133 Y0.1648 I-0.2738 J0.2407
N4895 G1 X-0.1095 Y0.1723
N4900 X-0.105 Y0.1798
N4905 X-0.102 Y0.1844
N4910 X-0.0998 Y0.1872
N4915 X-0.0945 Y0.1939
N4920 X-0.0937 Y0.1947
N4925 X-0.087 Y0.2019
N4930 X-0.0866 Y0.2022
N4935 X-0.0795 Y0.2085
N4940 X-0.078 Y0.2097
N4945 X-0.072 Y0.2143
N4950 X-0.0704 Y0.2155
N4955 X-0.0635 Y0.2216
N4960 X-0.056 Y0.2295
N4965 X-0.048 Y0.2394
N4970 X-0.0394 Y0.252
N4975 X-0.0314 Y0.2659
N4980 X-0.0245 Y0.2805
N4985 X-0.0184 Y0.2954
N4990 X-0.013 Y0.3106
N4995 X-0.0084 Y0.326
N5000 X-0.0043 Y0.3415
N5005 X-0.0007 Y0.3572
N5010 X0.0025 Y0.373
N5015 X0.0053 Y0.3889
N5020 X0.0077 Y0.4048
N5025 X0.0098 Y0.4208
N5030 X0.0117 Y0.4368
N5035 X0.0133 Y0.4528
N5040 X0.0148 Y0.4688
N5045 X0.016 Y0.4849
N5050 X0.0172 Y0.501
N5055 X0.0181 Y0.517
N5060 X0.019 Y0.5331
N5065 X0.0198 Y0.5492
N5070 X0.0204 Y0.5653
N5075 X0.021 Y0.5814
N5080 X0.0215 Y0.5975
N5085 X0.022 Y0.6136
N5090 X0.0224 Y0.6297
N5095 X0.0227 Y0.6458
N5100 X0.023 Y0.6619
N5105 X0.0233 Y0.678
N5110 X0.0235 Y0.6941
N5115 X0.0237 Y0.7102
N5120 X0.0239 Y0.7263
N5125 X0.0241 Y0.7424
N5130 X0.0242 Y0.7585
N5135 X0.0243 Y0.7746
N5140 X0.0244 Y0.7907
N5145 X0.0245 Y0.8068
N5150 X0.0246 Y0.8229
N5155 X0.0247 Y0.839
N5160 X0.0248 Y0.8713
N5165 X0.0249 Y0.9035
N5170 X0.025 Y0.9357
N5175 X0.0251 Y0.984
N5180 Y1.0323
N5185 X0.0252 Y1.0967
N5190 Y1.1934
N5195 Y1.2578
N5200 X0.0263 Y1.2738
N5205 X0.0292 Y1.2897
N5210 X0.034 Y1.305
N5215 X0.0406 Y1.3197
N5220 X0.0488 Y1.3336
N5225 X0.0583 Y1.3466
N5230 X0.0689 Y1.3587
N5235 X0.0806 Y1.3699
N5240 X0.093 Y1.3801
N5245 X0.1061 Y1.3895
N5250 X0.1197 Y1.398
N5255 X0.1338 Y1.4058
N5260 X0.1483 Y1.4129
N5265 X0.1631 Y1.4193
N5270 X0.1781 Y1.425
N5275 X0.1934 Y1.4302
N5280 X0.2088 Y1.4349
N5285 X0.2243 Y1.4391
N5290 X0.24 Y1.4429
N5295 X0.2557 Y1.4463
N5300 X0.2715 Y1.4494
N5305 X0.2874 Y1.4521
N5310 X0.3033 Y1.4546
N5315 X0.3193 Y1.4568
N5320 X0.3353 Y1.4587
N5325 X0.3513 Y1.4605
N5330 X0.3673 Y1.462
N5335 X0.3833 Y1.4634
N5340 X0.3994 Y1.4647
N5345 X0.4155 Y1.4658
N5350 X0.4315 Y1.4668
N5355 X0.4476 Y1.4677
N5360 X0.4637 Y1.4685
N5365 X0.4798 Y1.4692
N5370 X0.4959 Y1.4698
N5375 X0.512 Y1.4704
N5380 X0.5281 Y1.4709
N5385 X0.5442 Y1.4713
N5390 X0.5603 Y1.4717
N5395 X0.5764 Y1.4721
N5400 X0.5925 Y1.4724
N5405 X0.6086 Y1.4726
N5410 X0.6247 Y1.4729
N5415 X0.6408 Y1.4731
N5420 X0.6569 Y1.4733
N5425 X0.673 Y1.4735
N5430 X0.6891 Y1.4736
N5435 X0.7052 Y1.4738
N5440 X0.7213 Y1.4739
N5445 X0.7374 Y1.474
N5450 X0.7535 Y1.4741
N5455 X0.7696 Y1.4742
N5460 X0.7857 Y1.4743
N5465 X0.8179 Y1.4744
N5470 X0.8501 Y1.4745
N5475 X0.8824 Y1.4746
N5480 X0.9307
N5485 X0.979 Y1.4747
N5490 X1.0434 Y1.4748
N5495 X1.1239
N5500 X1.2528
N5505 X1.5266
N5510 X2.8311
N5515 X4.812
N5520 X6.7929
N5525 X8.7738
N5530 X10.7547
N5535 X12.7357
N5540 X14.7166
N5545 X15.7473
N5550 X15.7634 Y1.4746
N5555 X15.7794 Y1.4729
N5560 X15.7951 Y1.4693
N5565 X15.8103 Y1.4639
N5570 X15.8247 Y1.4567
N5575 X15.8383 Y1.4481
N5580 X15.851 Y1.4381
N5585 X15.8627 Y1.4271
N5590 X15.8735 Y1.4152
N5595 X15.8835 Y1.4026
N5600 X15.8926 Y1.3893
N5605 X15.9009 Y1.3754
N5610 X15.9084 Y1.3612
N5615 X15.9152 Y1.3466
N5620 X15.9213 Y1.3317
N5625 X15.9269 Y1.3166
N5630 X15.9319 Y1.3013
N5635 X15.9364 Y1.2858
N5640 X15.9405 Y1.2703
N5645 X15.9442 Y1.2546
N5650 X15.9474 Y1.2388
N5655 X15.9504 Y1.223
N5660 X15.953 Y1.2071
N5665 X15.9554 Y1.1912
N5670 X15.9575 Y1.1752
N5675 X15.9594 Y1.1592
N5680 X15.9611 Y1.1432
N5685 X15.9626 Y1.1271
N5690 X15.9639 Y1.1111
N5695 X15.9651 Y1.095
N5700 X15.9662 Y1.079
N5705 X15.9671 Y1.0629
N5710 X15.968 Y1.0468
N5715 X15.9688 Y1.0307
N5720 X15.9694 Y1.0146
N5725 X15.97 Y0.9985
N5730 X15.9706 Y0.9824
N5735 X15.971 Y0.9663
N5740 X15.9715 Y0.9502
N5745 X15.9719 Y0.9341
N5750 X15.9722 Y0.918
N5755 X15.9725 Y0.9019
N5760 X15.9728 Y0.8858
N5765 X15.973 Y0.8697
N5770 X15.9732 Y0.8536
N5775 X15.9734 Y0.8375
N5780 X15.9736 Y0.8214
N5785 X15.9737 Y0.8053
N5790 X15.9738 Y0.7892
N5795 X15.974 Y0.7731
N5800 X15.9741 Y0.757
N5805 X15.9742 Y0.7409
N5810 Y0.7248
N5815 X15.9743 Y0.7087
N5820 X15.9744 Y0.6765
N5825 X15.9745 Y0.6443
N5830 X15.9746 Y0.6282
N5835 X15.9747 Y0.5799
N5840 Y0.5315
N5845 X15.9748 Y0.5154
N5850 X15.9751 Y0.4993
N5855 X15.9758 Y0.4832
N5860 X15.9768 Y0.4709
N5865 X15.9788 Y0.4595
N5870 X15.983 Y0.4487
N5875 X15.9893 Y0.439
N5880 X15.9974 Y0.4307
N5885 X16.007 Y0.4241
N5890 X16.0177 Y0.4196
N5895 X16.027 Y0.4168
N5900 X16.0345 Y0.4144
N5905 G3 X16.0483 Y0.4625 I0.0066 J0.0241
N5910 X16.0477 Y0.4626 I-0.0073 J-0.0239
N5915 G1 X16.0439 Y0.4637 Z0.3567
N5920 X16.0402 Y0.4647 Z0.3576
N5925 X16.0367 Y0.4656 Z0.3591
N5930 X16.0335 Y0.4665 Z0.3611
N5935 X16.0306 Y0.4673 Z0.3637
N5940 X16.0282 Y0.468 Z0.3667
N5945 X16.0262 Y0.4685 Z0.37
N5950 X16.0248 Y0.4689 Z0.3736
N5955 X16.0239 Y0.4692 Z0.3774
N5960 X16.0236 Y0.4693 Z0.3814
N5965 G0 Z0.95
N5970 X16.1741 Y-0.26
N5975 Z0.4064
N5980 G1 Z0.3814 F60.
N5985 X16.1739 Y-0.2603 Z0.3774
N5990 X16.1733 Y-0.261 Z0.3736
N5995 X16.1723 Y-0.2621 Z0.37
N6000 X16.171 Y-0.2637 Z0.3667
N6005 X16.1694 Y-0.2657 Z0.3637
N6010 X16.1675 Y-0.2679 Z0.3611
N6015 X16.1653 Y-0.2705 Z0.3591
N6020 X16.163 Y-0.2733 Z0.3576
N6025 X16.1605 Y-0.2762 Z0.3567
N6030 X16.158 Y-0.2792 Z0.3564
N6035 G3 X16.1144 Y-0.3445 I0.2796 J-0.234
N6040 G1 X16.1108 Y-0.352
N6045 X16.1095 Y-0.3545
N6050 X16.1064 Y-0.3595
N6055 X16.102 Y-0.3666
N6060 X16.1016 Y-0.367
N6065 X16.0958 Y-0.3745
N6070 X16.0945 Y-0.3761
N6075 X16.089 Y-0.382
N6080 X16.087 Y-0.384
N6085 X16.081 Y-0.3895
N6090 X16.0795 Y-0.3907
N6095 X16.072 Y-0.3965
N6100 X16.0698 Y-0.3981
N6105 X16.0629 Y-0.4044
N6110 X16.0554 Y-0.4124
N6115 X16.0473 Y-0.4226
N6120 X16.0387 Y-0.4354
N6125 X16.0308 Y-0.4494
N6130 X16.0239 Y-0.464
N6135 X16.0179 Y-0.4789
N6140 X16.0126 Y-0.4942
N6145 X16.008 Y-0.5096
N6150 X16.004 Y-0.5252
N6155 X16.0004 Y-0.5409
N6160 X15.9973 Y-0.5567
N6165 X15.9946 Y-0.5726
N6170 X15.9922 Y-0.5885
N6175 X15.9901 Y-0.6045
N6180 X15.9883 Y-0.6205
N6185 X15.9866 Y-0.6365
N6190 X15.9852 Y-0.6525
N6195 X15.984 Y-0.6686
N6200 X15.9829 Y-0.6846
N6205 X15.9819 Y-0.7007
N6210 X15.9811 Y-0.7168
N6215 X15.9803 Y-0.7329
N6220 X15.9797 Y-0.749
N6225 X15.9791 Y-0.7651
N6230 X15.9786 Y-0.7812
N6235 X15.9781 Y-0.7973
N6240 X15.9777 Y-0.8134
N6245 X15.9774 Y-0.8295
N6250 X15.9771 Y-0.8456
N6255 X15.9768 Y-0.8617
N6260 X15.9766 Y-0.8778
N6265 X15.9764 Y-0.8939
N6270 X15.9762 Y-0.91
N6275 X15.9761 Y-0.9261
N6280 X15.9759 Y-0.9422
N6285 X15.9758 Y-0.9583
N6290 X15.9757 Y-0.9744
N6295 X15.9756 Y-0.9905
N6300 X15.9755 Y-1.0066
N6305 X15.9754 Y-1.0227
N6310 X15.9753 Y-1.0549
N6315 X15.9752 Y-1.0871
N6320 Y-1.1193
N6325 X15.9751 Y-1.1677
N6330 X15.975 Y-1.216
N6335 Y-1.2482
N6340 X15.9748 Y-1.2643
N6345 X15.973 Y-1.2803
N6350 X15.9693 Y-1.296
N6355 X15.9638 Y-1.3111
N6360 X15.9566 Y-1.3255
N6365 X15.9478 Y-1.339
N6370 X15.9379 Y-1.3517
N6375 X15.9268 Y-1.3634
N6380 X15.9148 Y-1.3742
N6385 X15.9021 Y-1.3841
N6390 X15.8888 Y-1.3931
N6395 X15.875 Y-1.4013
N6400 X15.8607 Y-1.4088
N6405 X15.8461 Y-1.4156
N6410 X15.8312 Y-1.4217
N6415 X15.8161 Y-1.4273
N6420 X15.8008 Y-1.4323
N6425 X15.7853 Y-1.4368
N6430 X15.7697 Y-1.4408
N6435 X15.754 Y-1.4444
N6440 X15.7383 Y-1.4477
N6445 X15.7224 Y-1.4506
N6450 X15.7065 Y-1.4532
N6455 X15.6906 Y-1.4556
N6460 X15.6746 Y-1.4577
N6465 X15.6586 Y-1.4596
N6470 X15.6426 Y-1.4612
N6475 X15.6266 Y-1.4627
N6480 X15.6105 Y-1.4641
N6485 X15.5945 Y-1.4653
N6490 X15.5784 Y-1.4663
N6495 X15.5623 Y-1.4673
N6500 X15.5462 Y-1.4681
N6505 X15.5302 Y-1.4689
N6510 X15.5141 Y-1.4696
N6515 X15.498 Y-1.4702
N6520 X15.4819 Y-1.4707
N6525 X15.4658 Y-1.4712
N6530 X15.4497 Y-1.4716
N6535 X15.4336 Y-1.472
N6540 X15.4175 Y-1.4723
N6545 X15.4014 Y-1.4726
N6550 X15.3853 Y-1.4729
N6555 X15.3692 Y-1.4731
N6560 X15.3531 Y-1.4733
N6565 X15.337 Y-1.4735
N6570 X15.3209 Y-1.4737
N6575 X15.3048 Y-1.4738
N6580 X15.2886 Y-1.4739
N6585 X15.2725 Y-1.474
N6590 X15.2564 Y-1.4741
N6595 X15.2403 Y-1.4742
N6600 X15.2242 Y-1.4743
N6605 X15.2081 Y-1.4744
N6610 X15.1759 Y-1.4745
N6615 X15.1437 Y-1.4746
N6620 X15.1115 Y-1.4747
N6625 X15.0632 Y-1.4748
N6630 X15.0149
N6635 X14.9666 Y-1.4749
N6640 X14.886
N6645 X14.7572
N6650 X14.4995
N6655 X12.9856
N6660 X11.0047
N6665 X9.0238
N6670 X7.0429
N6675 X5.062 Y-1.4748
N6680 X3.081
N6685 X1.1001
N6690 X0.3432
N6695 X0.3271 Y-1.4736
N6700 X0.3113 Y-1.4706
N6705 X0.2959 Y-1.4658
N6710 X0.2812 Y-1.4592
N6715 X0.2673 Y-1.4511
N6720 X0.2543 Y-1.4416
N6725 X0.2422 Y-1.431
N6730 X0.231 Y-1.4194
N6735 X0.2208 Y-1.407
N6740 X0.2114 Y-1.3939
N6745 X0.2028 Y-1.3803
N6750 X0.1949 Y-1.3662
N6755 X0.1879 Y-1.3517
N6760 X0.1814 Y-1.337
N6765 X0.1756 Y-1.322
N6770 X0.1704 Y-1.3067
N6775 X0.1657 Y-1.2913
N6780 X0.1614 Y-1.2758
N6785 X0.1576 Y-1.2602
N6790 X0.1541 Y-1.2444
N6795 X0.1511 Y-1.2286
N6800 X0.1483 Y-1.2127
N6805 X0.1458 Y-1.1968
N6810 X0.1436 Y-1.1809
N6815 X0.1416 Y-1.1649
N6820 X0.1398 Y-1.1489
N6825 X0.1382 Y-1.1329
N6830 X0.1368 Y-1.1168
N6835 X0.1356 Y-1.1008
N6840 X0.1344 Y-1.0847
N6845 X0.1334 Y-1.0686
N6850 X0.1325 Y-1.0525
N6855 X0.1317 Y-1.0365
N6860 X0.131 Y-1.0204
N6865 X0.1304 Y-1.0043
N6870 X0.1298 Y-0.9882
N6875 X0.1293 Y-0.9721
N6880 X0.1288 Y-0.956
N6885 X0.1284 Y-0.9399
N6890 X0.1281 Y-0.9238
N6895 X0.1277 Y-0.9077
N6900 X0.1275 Y-0.8916
N6905 X0.1272 Y-0.8755
N6910 X0.127 Y-0.8594
N6915 X0.1268 Y-0.8433
N6920 X0.1266 Y-0.8272
N6925 X0.1264 Y-0.8111
N6930 X0.1263 Y-0.795
N6935 X0.1262 Y-0.7789
N6940 X0.1261 Y-0.7628
N6945 X0.126 Y-0.7467
N6950 X0.1259 Y-0.7305
N6955 X0.1258 Y-0.7144
N6960 X0.1257 Y-0.6822
N6965 X0.1256 Y-0.65
N6970 X0.1255 Y-0.6178
N6975 X0.1254 Y-0.5695
N6980 X0.1253 Y-0.5212
N6985 Y-0.4568
N6990 Y-0.4407
N6995 X0.1252 Y-0.4246
N7000 X0.1251 Y-0.4084
N7005 X0.1249 Y-0.3923
N7010 X0.1245 Y-0.3762
N7015 X0.1237 Y-0.3602
N7020 X0.1225 Y-0.3441
N7025 X0.1206 Y-0.3281
N7030 X0.118 Y-0.3122
N7035 X0.1144 Y-0.2965
N7040 X0.1099 Y-0.2811
N7045 X0.1079 Y-0.2758
N7050 X0.1027 Y-0.2655
N7055 X0.0957 Y-0.2565
N7060 X0.087 Y-0.249
N7065 X0.077 Y-0.2433
N7070 X0.0661 Y-0.2397
N7075 X0.0547 Y-0.2383
N7080 X0.003 Y-0.2371
N7085 X-0.0011 Y-0.237
N7090 G3 X-0.0262 Y-0.2619 I-0.0001 J-0.025
N7095 X-0.0012 Y-0.287 I0.025 J-0.0001
N7100 G1 X0.0027 Z0.3567
N7105 X0.0065 Z0.3576
N7110 X0.0101 Z0.3591
N7115 X0.0134 Z0.3611
N7120 X0.0164 Z0.3637
N7125 X0.019 Z0.3667
N7130 X0.021 Z0.37
N7135 X0.0225 Z0.3736
N7140 X0.0234 Z0.3774
N7145 X0.0238 Z0.3814
N7150 G0 Z0.95
N7155 X-0.1673 Y0.1743
N7160 Z0.4064
N7165 G1 Z0.3814 F60.
N7170 X-0.167 Y0.1744 Z0.3774
N7175 X-0.1662 Y0.1747 Z0.3736
N7180 X-0.1647 Y0.1751 Z0.37
N7185 X-0.1628 Y0.1758 Z0.3667
N7190 X-0.1604 Y0.1766 Z0.3637
N7195 X-0.1575 Y0.1775 Z0.3611
N7200 X-0.1544 Y0.1785 Z0.3591
N7205 X-0.1509 Y0.1796 Z0.3576
N7210 X-0.1473 Y0.1808 Z0.3567
N7215 X-0.1436 Y0.182 Z0.3564
N7220 G3 X-0.072 Y0.2143 I-0.1131 J0.3466
N7225 G1 X-0.0674 Y0.2172
N7230 X-0.0645 Y0.219
N7235 X-0.057 Y0.2233
N7240 X-0.0541 Y0.2247
N7245 X-0.0495 Y0.2268
N7250 X-0.042 Y0.2298
N7255 X-0.0347 Y0.2322
N7260 X-0.0345 Y0.2323
N7265 X-0.027 Y0.234
N7270 X-0.0258 Y0.2343
N7275 X-0.0199 Y0.2364
N7280 X-0.0131 Y0.2393
N7285 X-0.0058 Y0.2432
N7290 X0.002 Y0.2482
N7295 X0.0106 Y0.2547
N7300 X0.0197 Y0.2628
N7305 X0.0293 Y0.273
N7310 X0.0394 Y0.2854
N7315 X0.0485 Y0.2987
N7320 X0.0567 Y0.3126
N7325 X0.064 Y0.327
N7330 X0.0705 Y0.3417
N7335 X0.0763 Y0.3567
N7340 X0.0816 Y0.3719
N7345 X0.0863 Y0.3873
N7350 X0.0905 Y0.4029
N7355 X0.0942 Y0.4185
N7360 X0.0976 Y0.4343
N7365 X0.1005 Y0.4501
N7370 X0.1032 Y0.466
N7375 X0.1056 Y0.4819
N7380 X0.1077 Y0.4979
N7385 X0.1097 Y0.5139
N7390 X0.1114 Y0.5299
N7395 X0.1129 Y0.5459
N7400 X0.1142 Y0.562
N7405 X0.1154 Y0.578
N7410 X0.1165 Y0.5941
N7415 X0.1175 Y0.6102
N7420 X0.1183 Y0.6263
N7425 X0.1191 Y0.6424
N7430 X0.1198 Y0.6584
N7435 X0.1204 Y0.6745
N7440 X0.1209 Y0.6906
N7445 X0.1214 Y0.7067
N7450 X0.1218 Y0.7228
N7455 X0.1222 Y0.7389
N7460 X0.1226 Y0.755
N7465 X0.1229 Y0.7711
N7470 X0.1231 Y0.7872
N7475 X0.1234 Y0.8033
N7480 X0.1236 Y0.8194
N7485 X0.1238 Y0.8356
N7490 X0.1239 Y0.8517
N7495 X0.1241 Y0.8678
N7500 X0.1242 Y0.8839
N7505 X0.1243 Y0.9
N7510 X0.1244 Y0.9161
N7515 X0.1245 Y0.9322
N7520 X0.1246 Y0.9483
N7525 X0.1247 Y0.9644
N7530 X0.1248 Y0.9966
N7535 X0.1249 Y1.0288
N7540 X0.125 Y1.061
N7545 Y1.1093
N7550 X0.1251 Y1.1415
N7555 X0.1254 Y1.1576
N7560 X0.1272 Y1.1737
N7565 X0.1308 Y1.1894
N7570 X0.1361 Y1.2045
N7575 X0.1431 Y1.2191
N7580 X0.1516 Y1.2328
N7585 X0.1613 Y1.2456
N7590 X0.1721 Y1.2576
N7595 X0.1838 Y1.2686
N7600 X0.1963 Y1.2788
N7605 X0.2094 Y1.2881
N7610 X0.2231 Y1.2966
N7615 X0.2372 Y1.3043
N7620 X0.2517 Y1.3114
N7625 X0.2665 Y1.3178
N7630 X0.2815 Y1.3236
N7635 X0.2967 Y1.3288
N7640 X0.3121 Y1.3336
N7645 X0.3277 Y1.3378
N7650 X0.3433 Y1.3417
N7655 X0.359 Y1.3451
N7660 X0.3748 Y1.3482
N7665 X0.3907 Y1.351
N7670 X0.4066 Y1.3535
N7675 X0.4225 Y1.3558
N7680 X0.4385 Y1.3578
N7685 X0.4545 Y1.3596
N7690 X0.4705 Y1.3612
N7695 X0.4866 Y1.3627
N7700 X0.5026 Y1.364
N7705 X0.5187 Y1.3652
N7710 X0.5348 Y1.3662
N7715 X0.5509 Y1.3671
N7720 X0.5669 Y1.368
N7725 X0.583 Y1.3687
N7730 X0.5991 Y1.3694
N7735 X0.6152 Y1.37
N7740 X0.6313 Y1.3705
N7745 X0.6474 Y1.371
N7750 X0.6635 Y1.3714
N7755 X0.6796 Y1.3718
N7760 X0.6957 Y1.3721
N7765 X0.7118 Y1.3724
N7770 X0.7279 Y1.3727
N7775 X0.744 Y1.3729
N7780 X0.7601 Y1.3731
N7785 X0.7762 Y1.3733
N7790 X0.7923 Y1.3735
N7795 X0.8084 Y1.3736
N7800 X0.8245 Y1.3738
N7805 X0.8406 Y1.3739
N7810 X0.8567 Y1.374
N7815 X0.8728 Y1.3741
N7820 X0.889 Y1.3742
N7825 X0.9051
N7830 X0.9373 Y1.3744
N7835 X0.9695 Y1.3745
N7840 X1.0017
N7845 X1.0339 Y1.3746
N7850 X1.0822 Y1.3747
N7855 X1.1466
N7860 X1.2272 Y1.3748
N7865 X1.3399
N7870 X1.5493
N7875 X3.0148
N7880 X4.9957
N7885 X6.9767
N7890 X8.9576
N7895 X10.9385
N7900 X12.9194
N7905 X14.9003
N7910 X15.6412
N7915 X15.6573 Y1.3745
N7920 X15.6733 Y1.3727
N7925 X15.689 Y1.3692
N7930 X15.7042 Y1.3639
N7935 X15.7187 Y1.357
N7940 X15.7325 Y1.3486
N7945 X15.7453 Y1.3389
N7950 X15.7573 Y1.3281
N7955 X15.7684 Y1.3164
N7960 X15.7785 Y1.3039
N7965 X15.7879 Y1.2908
N7970 X15.7964 Y1.2772
N7975 X15.8042 Y1.2631
N7980 X15.8113 Y1.2486
N7985 X15.8177 Y1.2338
N7990 X15.8235 Y1.2188
N7995 X15.8287 Y1.2036
N8000 X15.8335 Y1.1882
N8005 X15.8377 Y1.1727
N8010 X15.8416 Y1.157
N8015 X15.8451 Y1.1413
N8020 X15.8482 Y1.1255
N8025 X15.851 Y1.1096
N8030 X15.8535 Y1.0937
N8035 X15.8558 Y1.0778
N8040 X15.8578 Y1.0618
N8045 X15.8596 Y1.0458
N8050 X15.8612 Y1.0298
N8055 X15.8627 Y1.0137
N8060 X15.864 Y0.9977
N8065 X15.8652 Y0.9816
N8070 X15.8662 Y0.9655
N8075 X15.8671 Y0.9495
N8080 X15.868 Y0.9334
N8085 X15.8687 Y0.9173
N8090 X15.8694 Y0.9012
N8095 X15.87 Y0.8851
N8100 X15.8705 Y0.869
N8105 X15.871 Y0.8529
N8110 X15.8714 Y0.8368
N8115 X15.8718 Y0.8207
N8120 X15.8721 Y0.8046
N8125 X15.8724 Y0.7885
N8130 X15.8727 Y0.7724
N8135 X15.8729 Y0.7563
N8140 X15.8731 Y0.7402
N8145 X15.8733 Y0.7241
N8150 X15.8735 Y0.708
N8155 X15.8737 Y0.6919
N8160 X15.8738 Y0.6758
N8165 X15.8739 Y0.6597
N8170 X15.8741 Y0.6275
N8175 X15.8742 Y0.6114
N8180 X15.8744 Y0.5953
N8185 X15.8746 Y0.5792
N8190 X15.875 Y0.5631
N8195 X15.8757 Y0.547
N8200 X15.8768 Y0.5309
N8205 X15.8786 Y0.5149
N8210 X15.8811 Y0.499
N8215 X15.8824 Y0.4926
N8220 X15.8863 Y0.4809
N8225 X15.8925 Y0.4703
N8230 X15.9009 Y0.4612
N8235 X15.9109 Y0.454
N8240 X15.9222 Y0.4492
N8245 X16.0177 Y0.4196
N8250 G3 X16.0314 Y0.4677 I0.0066 J0.0241
N8255 X16.0308 Y0.4679 I-0.0072 J-0.0239
N8260 G1 X16.027 Y0.4689 Z0.3567
N8265 X16.0233 Y0.4699 Z0.3576
N8270 X16.0198 Y0.4709 Z0.3591
N8275 X16.0166 Y0.4717 Z0.3611
N8280 X16.0137 Y0.4725 Z0.3637
N8285 X16.0113 Y0.4732 Z0.3667
N8290 X16.0093 Y0.4737 Z0.37
N8295 X16.0078 Y0.4741 Z0.3736
N8300 X16.0069 Y0.4744 Z0.3774
N8305 X16.0066 Z0.3814
N8310 G0 Z0.95
N8315 X16.1659 Y-0.3531
N8320 Z0.4064
N8325 G1 Z0.3814 F60.
N8330 X16.1656 Y-0.3532 Z0.3774
N8335 X16.1647 Y-0.3535 Z0.3736
N8340 X16.1633 Y-0.354 Z0.37
N8345 X16.1614 Y-0.3547 Z0.3667
N8350 X16.159 Y-0.3556 Z0.3637
N8355 X16.1562 Y-0.3566 Z0.3611
N8360 X16.153 Y-0.3578 Z0.3591
N8365 X16.1496 Y-0.359 Z0.3576
N8370 X16.146 Y-0.3603 Z0.3567
N8375 X16.1424 Y-0.3617 Z0.3564
N8380 G3 X16.072 Y-0.3965 I0.1253 J-0.3424
N8385 G1 X16.0712 Y-0.397
N8390 X16.0645 Y-0.4012
N8395 X16.059 Y-0.4044
N8400 X16.057 Y-0.4055
N8405 X16.0495 Y-0.409
N8410 X16.0419 Y-0.4119
N8415 X16.0345 Y-0.4144
N8420 X16.027 Y-0.4168
N8425 X16.0179 Y-0.4201
N8430 X16.0111 Y-0.4232
N8435 X16.0036 Y-0.4274
N8440 X15.9956 Y-0.4328
N8445 X15.9869 Y-0.4396
N8450 X15.9777 Y-0.4483
N8455 X15.968 Y-0.4589
N8460 X15.9581 Y-0.4717
N8465 X15.9493 Y-0.4852
N8470 X15.9414 Y-0.4992
N8475 X15.9343 Y-0.5136
N8480 X15.9279 Y-0.5284
N8485 X15.9223 Y-0.5435
N8490 X15.9172 Y-0.5588
N8495 X15.9126 Y-0.5742
N8500 X15.9086 Y-0.5898
N8505 X15.9049 Y-0.6055
N8510 X15.9017 Y-0.6213
N8515 X15.8988 Y-0.6371
N8520 X15.8962 Y-0.653
N8525 X15.8939 Y-0.669
N8530 X15.8918 Y-0.6849
N8535 X15.89 Y-0.7009
N8540 X15.8883 Y-0.717
N8545 X15.8868 Y-0.733
N8550 X15.8855 Y-0.749
N8555 X15.8844 Y-0.7651
N8560 X15.8833 Y-0.7812
N8565 X15.8824 Y-0.7973
N8570 X15.8816 Y-0.8133
N8575 X15.8808 Y-0.8294
N8580 X15.8802 Y-0.8455
N8585 X15.8796 Y-0.8616
N8590 X15.8791 Y-0.8777
N8595 X15.8786 Y-0.8938
N8600 X15.8782 Y-0.9099
N8605 X15.8778 Y-0.926
N8610 X15.8775 Y-0.9421
N8615 X15.8772 Y-0.9582
N8620 X15.877 Y-0.9743
N8625 X15.8767 Y-0.9904
N8630 X15.8765 Y-1.0065
N8635 X15.8763 Y-1.0226
N8640 X15.8762 Y-1.0387
N8645 X15.876 Y-1.0548
N8650 X15.8759 Y-1.0709
N8655 X15.8758 Y-1.087
N8660 X15.8757 Y-1.1032
N8665 X15.8756 Y-1.1193
N8670 X15.8755 Y-1.1354
N8675 X15.8754 Y-1.1515
N8680 X15.8742 Y-1.1675
N8685 X15.8714 Y-1.1834
N8690 X15.8667 Y-1.1988
N8695 X15.8603 Y-1.2136
N8700 X15.8524 Y-1.2276
N8705 X15.8431 Y-1.2408
N8710 X15.8327 Y-1.2531
N8715 X15.8214 Y-1.2645
N8720 X15.8091 Y-1.275
N8725 X15.7962 Y-1.2846
N8730 X15.7828 Y-1.2934
N8735 X15.7688 Y-1.3015
N8740 X15.7545 Y-1.3088
N8745 X15.7398 Y-1.3155
N8750 X15.7249 Y-1.3215
N8755 X15.7097 Y-1.3269
N8760 X15.6944 Y-1.3319
N8765 X15.6789 Y-1.3363
N8770 X15.6633 Y-1.3403
N8775 X15.6476 Y-1.3439
N8780 X15.6318 Y-1.3472
N8785 X15.616 Y-1.3501
N8790 X15.6001 Y-1.3527
N8795 X15.5842 Y-1.355
N8800 X15.5682 Y-1.3571
N8805 X15.5522 Y-1.359
N8810 X15.5362 Y-1.3607
N8815 X15.5202 Y-1.3622
N8820 X15.5041 Y-1.3636
N8825 X15.4881 Y-1.3648
N8830 X15.472 Y-1.3659
N8835 X15.4559 Y-1.3669
N8840 X15.4398 Y-1.3677
N8845 X15.4237 Y-1.3685
N8850 X15.4077 Y-1.3692
N8855 X15.3916 Y-1.3698
N8860 X15.3755 Y-1.3704
N8865 X15.3594 Y-1.3709
N8870 X15.3433 Y-1.3713
N8875 X15.3272 Y-1.3717
N8880 X15.3111 Y-1.3721
N8885 X15.295 Y-1.3724
N8890 X15.2789 Y-1.3727
N8895 X15.2628 Y-1.3729
N8900 X15.2467 Y-1.3731
N8905 X15.2306 Y-1.3733
N8910 X15.2144 Y-1.3735
N8915 X15.1983 Y-1.3737
N8920 X15.1822 Y-1.3738
N8925 X15.1661 Y-1.3739
N8930 X15.15 Y-1.3741
N8935 X15.1339 Y-1.3742
N8940 X15.1178
N8945 X15.1017 Y-1.3743
N8950 X15.0695 Y-1.3745
N8955 X15.0373 Y-1.3746
N8960 X15.0051
N8965 X14.9568 Y-1.3747
N8970 X14.9085 Y-1.3748
N8975 X14.844 Y-1.3749
N8980 X14.7796
N8985 X14.6669
N8990 X14.4575
N8995 X12.7987
N9000 X10.8178
N9005 X8.8369
N9010 X6.8559
N9015 X4.875 Y-1.3748
N9020 X2.8941
N9025 X0.9132
N9030 X0.4622
N9035 X0.4461 Y-1.3746
N9040 X0.4301 Y-1.3731
N9045 X0.4143 Y-1.3699
N9050 X0.399 Y-1.3649
N9055 X0.3844 Y-1.3582
N9060 X0.3705 Y-1.35
N9065 X0.3575 Y-1.3406
N9070 X0.3453 Y-1.33
N9075 X0.3341 Y-1.3184
N9080 X0.3237 Y-1.3061
N9085 X0.3142 Y-1.2931
N9090 X0.3055 Y-1.2795
N9095 X0.2976 Y-1.2655
N9100 X0.2904 Y-1.2511
N9105 X0.2839 Y-1.2364
N9110 X0.2779 Y-1.2214
N9115 X0.2726 Y-1.2062
N9120 X0.2677 Y-1.1909
N9125 X0.2633 Y-1.1754
N9130 X0.2594 Y-1.1598
N9135 X0.2559 Y-1.1441
N9140 X0.2527 Y-1.1283
N9145 X0.2498 Y-1.1124
N9150 X0.2472 Y-1.0965
N9155 X0.2449 Y-1.0806
N9160 X0.2428 Y-1.0646
N9165 X0.2409 Y-1.0486
N9170 X0.2393 Y-1.0326
N9175 X0.2378 Y-1.0166
N9180 X0.2364 Y-1.0005
N9185 X0.2352 Y-0.9845
N9190 X0.2342 Y-0.9684
N9195 X0.2332 Y-0.9523
N9200 X0.2323 Y-0.9362
N9205 X0.2316 Y-0.9202
N9210 X0.2309 Y-0.9041
N9215 X0.2303 Y-0.888
N9220 X0.2297 Y-0.8719
N9225 X0.2292 Y-0.8558
N9230 X0.2288 Y-0.8397
N9235 X0.2284 Y-0.8236
N9240 X0.2281 Y-0.8075
N9245 X0.2277 Y-0.7914
N9250 X0.2275 Y-0.7753
N9255 X0.2272 Y-0.7592
N9260 X0.227 Y-0.7431
N9265 X0.2268 Y-0.727
N9270 X0.2266 Y-0.7109
N9275 X0.2265 Y-0.6948
N9280 X0.2263 Y-0.6787
N9285 X0.2262 Y-0.6625
N9290 X0.2261 Y-0.6464
N9295 X0.226 Y-0.6303
N9300 X0.2259 Y-0.6142
N9305 X0.2258 Y-0.5981
N9310 X0.2257 Y-0.5659
N9315 X0.2255 Y-0.5176
N9320 X0.2254 Y-0.5015
N9325 X0.2253 Y-0.4854
N9330 X0.2252 Y-0.4693
N9335 X0.2249 Y-0.4532
N9340 X0.2245 Y-0.4371
N9345 X0.2239 Y-0.421
N9350 X0.223 Y-0.4049
N9355 X0.2218 Y-0.3889
N9360 X0.2203 Y-0.3728
N9365 X0.2184 Y-0.3568
N9370 X0.216 Y-0.3409
N9375 X0.213 Y-0.3251
N9380 X0.2093 Y-0.3094
N9385 X0.2047 Y-0.294
N9390 X0.1992 Y-0.2788
N9395 X0.1974 Y-0.2747
N9400 X0.1907 Y-0.2635
N9405 X0.1816 Y-0.254
N9410 X0.1707 Y-0.2468
N9415 X0.1585 Y-0.2422
N9420 X0.1455 Y-0.2404
N9425 X0.0547 Y-0.2383
N9430 G3 X0.0553 Y-0.2883 I0.0003 J-0.025
N9435 G1 X0.0592 Z0.3567
N9440 X0.063 Y-0.2882 Z0.3576
N9445 X0.0667 Z0.3591
N9450 X0.07 Y-0.2881 Z0.3611
N9455 X0.073 Z0.3637
N9460 X0.0755 Z0.3667
N9465 X0.0776 Y-0.288 Z0.37
N9470 X0.0791 Z0.3736
N9475 X0.08 Z0.3774
N9480 X0.0803 Z0.3814
N9485 G0 Z0.95
N9490 X-0.1304 Y0.2313
N9495 Z0.4064
N9500 G1 Z0.3814 F60.
N9505 X-0.1301 Z0.3774
N9510 X-0.1291 Y0.2312 Z0.3736
N9515 X-0.1276 Y0.2311 Z0.37
N9520 X-0.1256 Y0.231 Z0.3667
N9525 X-0.1231 Y0.2309 Z0.3637
N9530 X-0.1201 Y0.2307 Z0.3611
N9535 X-0.1167 Y0.2305 Z0.3591
N9540 X-0.1131 Y0.2303 Z0.3576
N9545 X-0.1093 Y0.2301 Z0.3567
N9550 X-0.1054 Y0.2299 Z0.3564
N9555 G3 X-0.027 Y0.234 I0.0201 J0.364
N9560 G1 X-0.0195 Y0.2355
N9565 X-0.012 Y0.2365
N9570 X-0.0045 Y0.237
N9575 X0.003 Y0.2374
N9580 X0.0255 Y0.2384
N9585 X0.0315 Y0.239
N9590 X0.0382 Y0.2401
N9595 X0.0457 Y0.2421
N9600 X0.0539 Y0.245
N9605 X0.0626 Y0.2488
N9610 X0.072 Y0.2539
N9615 X0.0821 Y0.2605
N9620 X0.0928 Y0.2687
N9625 X0.1039 Y0.2788
N9630 X0.1149 Y0.2906
N9635 X0.125 Y0.3032
N9640 X0.1343 Y0.3163
N9645 X0.1427 Y0.3301
N9650 X0.1504 Y0.3442
N9655 X0.1574 Y0.3587
N9660 X0.1638 Y0.3735
N9665 X0.1696 Y0.3885
N9670 X0.1749 Y0.4037
N9675 X0.1797 Y0.4191
N9680 X0.184 Y0.4346
N9685 X0.188 Y0.4502
N9690 X0.1916 Y0.4659
N9695 X0.1949 Y0.4817
N9700 X0.1978 Y0.4975
N9705 X0.2005 Y0.5134
N9710 X0.2029 Y0.5293
N9715 X0.2051 Y0.5453
N9720 X0.2071 Y0.5613
N9725 X0.2089 Y0.5773
N9730 X0.2106 Y0.5933
N9735 X0.212 Y0.6093
N9740 X0.2133 Y0.6254
N9745 X0.2145 Y0.6414
N9750 X0.2156 Y0.6575
N9755 X0.2166 Y0.6736
N9760 X0.2175 Y0.6897
N9765 X0.2183 Y0.7057
N9770 X0.219 Y0.7218
N9775 X0.2196 Y0.7379
N9780 X0.2202 Y0.754
N9785 X0.2207 Y0.7701
N9790 X0.2212 Y0.7862
N9795 X0.2216 Y0.8023
N9800 X0.222 Y0.8184
N9805 X0.2223 Y0.8345
N9810 X0.2226 Y0.8506
N9815 X0.2229 Y0.8667
N9820 X0.2231 Y0.8828
N9825 X0.2234 Y0.8989
N9830 X0.2236 Y0.915
N9835 X0.2237 Y0.9311
N9840 X0.2239 Y0.9472
N9845 X0.224 Y0.9633
N9850 X0.2242 Y0.9794
N9855 X0.2243 Y0.9956
N9860 X0.2244 Y1.0117
N9865 X0.2245 Y1.0278
N9870 X0.2246 Y1.0439
N9875 X0.2255 Y1.0599
N9880 X0.228 Y1.0759
N9885 X0.2323 Y1.0914
N9890 X0.2382 Y1.1064
N9895 X0.2456 Y1.1206
N9900 X0.2545 Y1.1341
N9905 X0.2645 Y1.1467
N9910 X0.2756 Y1.1584
N9915 X0.2875 Y1.1693
N9920 X0.3001 Y1.1793
N9925 X0.3133 Y1.1884
N9930 X0.3271 Y1.1968
N9935 X0.3413 Y1.2044
N9940 X0.3558 Y1.2114
N9945 X0.3706 Y1.2177
N9950 X0.3857 Y1.2234
N9955 X0.4009 Y1.2286
N9960 X0.4163 Y1.2333
N9965 X0.4319 Y1.2375
N9970 X0.4475 Y1.2413
N9975 X0.4633 Y1.2448
N9980 X0.4791 Y1.2479
N9985 X0.4949 Y1.2507
N9990 X0.5108 Y1.2532
N9995 X0.5268 Y1.2554
N10000 X0.5428 Y1.2574
N10005 X0.5588 Y1.2593
N10010 X0.5748 Y1.2609
N10015 X0.5908 Y1.2624
N10020 X0.6069 Y1.2637
N10025 X0.6229 Y1.2649
N10030 X0.639 Y1.2659
N10035 X0.6551 Y1.2669
N10040 X0.6712 Y1.2677
N10045 X0.6872 Y1.2685
N10050 X0.7033 Y1.2691
N10055 X0.7194 Y1.2697
N10060 X0.7355 Y1.2703
N10065 X0.7516 Y1.2708
N10070 X0.7677 Y1.2712
N10075 X0.7838 Y1.2716
N10080 X0.7999 Y1.2719
N10085 X0.816 Y1.2723
N10090 X0.8321 Y1.2725
N10095 X0.8482 Y1.2728
N10100 X0.8643 Y1.273
N10105 X0.8804 Y1.2732
N10110 X0.8965 Y1.2734
N10115 X0.9127 Y1.2735
N10120 X0.9288 Y1.2737
N10125 X0.9449 Y1.2738
N10130 X0.961 Y1.2739
N10135 X0.9771 Y1.274
N10140 X0.9932 Y1.2741
N10145 X1.0093 Y1.2742
N10150 X1.0415 Y1.2743
N10155 X1.0737 Y1.2744
N10160 X1.1059 Y1.2745
N10165 X1.1542 Y1.2746
N10170 X1.2025 Y1.2747
N10175 X1.2186
N10180 X1.2831
N10185 X1.3636 Y1.2748
N10190 X1.4924
N10195 X1.7501
N10200 X3.1996
N10205 X5.1805
N10210 X7.1614
N10215 X9.1423
N10220 X11.1232
N10225 X13.1042
N10230 X15.0851
N10235 X15.5199
N10240 X15.536
N10245 X15.5521 Y1.2745
N10250 X15.5681 Y1.2728
N10255 X15.5839 Y1.2695
N10260 X15.5992 Y1.2644
N10265 X15.6138 Y1.2577
N10270 X15.6277 Y1.2495
N10275 X15.6407 Y1.2401
N10280 X15.6529 Y1.2295
N10285 X15.6642 Y1.218
N10290 X15.6746 Y1.2057
N10295 X15.6841 Y1.1927
N10300 X15.6929 Y1.1792
N10305 X15.7009 Y1.1652
N10310 X15.7081 Y1.1509
N10315 X15.7148 Y1.1362
N10320 X15.7208 Y1.1213
N10325 X15.7262 Y1.1061
N10330 X15.7311 Y1.0908
N10335 X15.7356 Y1.0753
N10340 X15.7396 Y1.0597
N10345 X15.7432 Y1.044
N10350 X15.7465 Y1.0282
N10355 X15.7494 Y1.0124
N10360 X15.752 Y0.9965
N10365 X15.7544 Y0.9806
N10370 X15.7565 Y0.9646
N10375 X15.7584 Y0.9486
N10380 X15.7602 Y0.9326
N10385 X15.7617 Y0.9166
N10390 X15.7631 Y0.9005
N10395 X15.7643 Y0.8845
N10400 X15.7654 Y0.8684
N10405 X15.7664 Y0.8523
N10410 X15.7673 Y0.8362
N10415 X15.7681 Y0.8202
N10420 X15.7688 Y0.8041
N10425 X15.7695 Y0.788
N10430 X15.7701 Y0.7719
N10435 X15.7706 Y0.7558
N10440 X15.771 Y0.7397
N10445 X15.7714 Y0.7236
N10450 X15.7718 Y0.7075
N10455 X15.7725 Y0.6753
N10460 X15.7729 Y0.6592
N10465 X15.7733 Y0.6431
N10470 X15.7739 Y0.627
N10475 X15.7745 Y0.6109
N10480 X15.7754 Y0.5948
N10485 X15.7766 Y0.5788
N10490 X15.7781 Y0.5627
N10495 X15.7802 Y0.5467
N10500 X15.7829 Y0.5309
N10505 X15.7848 Y0.5223
N10510 X15.7887 Y0.5108
N10515 X15.795 Y0.5003
N10520 X15.8033 Y0.4913
N10525 X15.8132 Y0.4842
N10530 X15.8245 Y0.4794
N10535 X15.9222 Y0.4492
N10540 G3 X15.936 Y0.4972 I0.0066 J0.0241
N10545 X15.9353 Y0.4974 I-0.0072 J-0.0239
N10550 G1 X15.9315 Y0.4985 Z0.3567
N10555 X15.9279 Y0.4995 Z0.3576
N10560 X15.9244 Y0.5004 Z0.3591
N10565 X15.9211 Y0.5013 Z0.3611
N10570 X15.9183 Y0.5021 Z0.3637
N10575 X15.9158 Y0.5027 Z0.3667
N10580 X15.9138 Y0.5033 Z0.37
N10585 X15.9124 Y0.5037 Z0.3736
N10590 X15.9115 Y0.5039 Z0.3774
N10595 X15.9112 Y0.504 Z0.3814
N10600 G0 Z0.95
N10605 X16.1295 Y-0.4032
N10610 Z0.4064
N10615 G1 Z0.3814 F60.
N10620 X16.1292 Z0.3774
N10625 X16.1283 Y-0.4033 Z0.3736
N10630 X16.1268 Y-0.4034 Z0.37
N10635 X16.1247 Y-0.4035 Z0.3667
N10640 X16.1222 Y-0.4036 Z0.3637
N10645 X16.1192 Y-0.4037 Z0.3611
N10650 X16.1159 Y-0.4039 Z0.3591
N10655 X16.1123 Y-0.4041 Z0.3576
N10660 X16.1084 Y-0.4043 Z0.3567
N10665 X16.1045 Y-0.4045 Z0.3564
N10670 G3 X16.027 Y-0.4168 I0.018 J-0.3641
N10675 G1 X15.9458 Y-0.4419
N10680 X15.9373 Y-0.445
N10685 X15.9291 Y-0.4487
N10690 X15.9203 Y-0.4537
N10695 X15.9109 Y-0.46
N10700 X15.9009 Y-0.4679
N10705 X15.8903 Y-0.4778
N10710 X15.8795 Y-0.4897
N10715 X15.8696 Y-0.5025
N10720 X15.8606 Y-0.5158
N10725 X15.8524 Y-0.5297
N10730 X15.845 Y-0.544
N10735 X15.8383 Y-0.5586
N10740 X15.8322 Y-0.5735
N10745 X15.8266 Y-0.5886
N10750 X15.8216 Y-0.6039
N10755 X15.8171 Y-0.6194
N10760 X15.8129 Y-0.635
N10765 X15.8092 Y-0.6506
N10770 X15.8058 Y-0.6664
N10775 X15.8028 Y-0.6822
N10780 X15.8 Y-0.6981
N10785 X15.7975 Y-0.714
N10790 X15.7953 Y-0.7299
N10795 X15.7932 Y-0.7459
N10800 X15.7914 Y-0.7619
N10805 X15.7897 Y-0.7779
N10810 X15.7882 Y-0.7939
N10815 X15.7869 Y-0.81
N10820 X15.7857 Y-0.826
N10825 X15.7846 Y-0.8421
N10830 X15.7836 Y-0.8582
N10835 X15.7827 Y-0.8743
N10840 X15.7819 Y-0.8904
N10845 X15.7812 Y-0.9064
N10850 X15.7805 Y-0.9225
N10855 X15.78 Y-0.9386
N10860 X15.7794 Y-0.9547
N10865 X15.779 Y-0.9708
N10870 X15.7785 Y-0.9869
N10875 X15.7782 Y-1.003
N10880 X15.7778 Y-1.0191
N10885 X15.7775 Y-1.0352
N10890 X15.777 Y-1.0513
N10895 X15.7752 Y-1.0673
N10900 X15.7718 Y-1.0831
N10905 X15.7668 Y-1.0984
N10910 X15.7601 Y-1.113
N10915 X15.7519 Y-1.1269
N10920 X15.7425 Y-1.14
N10925 X15.732 Y-1.1522
N10930 X15.7205 Y-1.1635
N10935 X15.7082 Y-1.1739
N10940 X15.6953 Y-1.1835
N10945 X15.6818 Y-1.1923
N10950 X15.6679 Y-1.2003
N10955 X15.6535 Y-1.2076
N10960 X15.6389 Y-1.2143
N10965 X15.6239 Y-1.2203
N10970 X15.6088 Y-1.2258
N10975 X15.5935 Y-1.2308
N10980 X15.578 Y-1.2353
N10985 X15.5624 Y-1.2393
N10990 X15.5467 Y-1.243
N10995 X15.5309 Y-1.2462
N11000 X15.5151 Y-1.2492
N11005 X15.4992 Y-1.2519
N11010 X15.4833 Y-1.2543
N11015 X15.4673 Y-1.2564
N11020 X15.4514 Y-1.2583
N11025 X15.4353 Y-1.2601
N11030 X15.4193 Y-1.2616
N11035 X15.4033 Y-1.263
N11040 X15.3872 Y-1.2643
N11045 X15.3712 Y-1.2654
N11050 X15.3551 Y-1.2664
N11055 X15.339 Y-1.2673
N11060 X15.3229 Y-1.2681
N11065 X15.3068 Y-1.2689
N11070 X15.2907 Y-1.2695
N11075 X15.2746 Y-1.2701
N11080 X15.2585 Y-1.2706
N11085 X15.2424 Y-1.2711
N11090 X15.2263 Y-1.2715
N11095 X15.2102 Y-1.2719
N11100 X15.1941 Y-1.2722
N11105 X15.178 Y-1.2725
N11110 X15.1619 Y-1.2727
N11115 X15.1458 Y-1.273
N11120 X15.1297 Y-1.2732
N11125 X15.1136 Y-1.2734
N11130 X15.0975 Y-1.2736
N11135 X15.0814 Y-1.2737
N11140 X15.0653 Y-1.2738
N11145 X15.0492 Y-1.274
N11150 X15.0331 Y-1.2741
N11155 X15.017 Y-1.2742
N11160 X15.0009
N11165 X14.9848 Y-1.2743
N11170 X14.9526 Y-1.2745
N11175 X14.9204 Y-1.2746
N11180 X14.8882
N11185 X14.8398 Y-1.2747
N11190 X14.7915 Y-1.2748
N11195 X14.7271
N11200 X14.6466 Y-1.2749
N11205 X14.55
N11210 X14.3567
N11215 X13.3743
N11220 X12.569
N11225 X10.5881
N11230 X8.6072
N11235 X6.6263 Y-1.2748
N11240 X4.6454
N11245 X2.6644
N11250 X0.6835
N11255 X0.5708
N11260 X0.5547 Y-1.2747
N11265 X0.5386 Y-1.2736
N11270 X0.5227 Y-1.271
N11275 X0.5072 Y-1.2666
N11280 X0.4923 Y-1.2605
N11285 X0.4781 Y-1.2529
N11290 X0.4648 Y-1.2439
N11295 X0.4522 Y-1.2338
N11300 X0.4406 Y-1.2226
N11305 X0.4299 Y-1.2106
N11310 X0.42 Y-1.1979
N11315 X0.4109 Y-1.1846
N11320 X0.4026 Y-1.1708
N11325 X0.395 Y-1.1566
N11330 X0.3881 Y-1.1421
N11335 X0.3819 Y-1.1272
N11340 X0.3762 Y-1.1121
N11345 X0.3711 Y-1.0969
N11350 X0.3664 Y-1.0815
N11355 X0.3622 Y-1.0659
N11360 X0.3584 Y-1.0503
N11365 X0.355 Y-1.0345
N11370 X0.352 Y-1.0187
N11375 X0.3492 Y-1.0028
N11380 X0.3467 Y-0.9869
N11385 X0.3445 Y-0.971
N11390 X0.3425 Y-0.955
N11395 X0.3407 Y-0.939
N11400 X0.3391 Y-0.923
N11405 X0.3376 Y-0.9069
N11410 X0.3363 Y-0.8909
N11415 X0.3351 Y-0.8748
N11420 X0.3341 Y-0.8587
N11425 X0.3331 Y-0.8427
N11430 X0.3323 Y-0.8266
N11435 X0.3316 Y-0.8105
N11440 X0.3309 Y-0.7944
N11445 X0.3303 Y-0.7783
N11450 X0.3297 Y-0.7622
N11455 X0.3292 Y-0.7461
N11460 X0.3288 Y-0.73
N11465 X0.3284 Y-0.7139
N11470 X0.3281 Y-0.6978
N11475 X0.3278 Y-0.6817
N11480 X0.3275 Y-0.6656
N11485 X0.3273 Y-0.6495
N11490 X0.327 Y-0.6334
N11495 X0.3268 Y-0.6173
N11500 X0.3263 Y-0.569
N11505 X0.3261 Y-0.5529
N11510 X0.3258 Y-0.5368
N11515 X0.3256 Y-0.5207
N11520 X0.3252 Y-0.5046
N11525 X0.3247 Y-0.4885
N11530 X0.3241 Y-0.4724
N11535 X0.3234 Y-0.4563
N11540 X0.3224 Y-0.4402
N11545 X0.3213 Y-0.4242
N11550 X0.3199 Y-0.4081
N11555 X0.3181 Y-0.3921
N11560 X0.3161 Y-0.3761
N11565 X0.3136 Y-0.3602
N11570 X0.3108 Y-0.3444
N11575 X0.3074 Y-0.3286
N11580 X0.3033 Y-0.313
N11585 X0.2985 Y-0.2977
N11590 X0.2928 Y-0.2826
N11595 X0.2883 Y-0.2726
N11600 X0.282 Y-0.2621
N11605 X0.2737 Y-0.2532
N11610 X0.2636 Y-0.2464
N11615 X0.2522 Y-0.2419
N11620 X0.2402 Y-0.2399
N11625 X0.228 Y-0.2407
N11630 X0.2205 Y-0.2414
N11635 X0.213 Y-0.2416
N11640 X0.2055 Y-0.2417
N11645 X0.183 Y-0.2412
N11650 X0.1755 Y-0.2411
N11655 X0.168 Y-0.2409
N11660 X0.1455 Y-0.2404
N11665 G3 X0.1208 Y-0.2657 I0.0003 J-0.025
N11670 X0.1461 Y-0.2904 I0.025 J0.0003
N11675 G1 X0.15 Z0.3567
N11680 X0.1538 Y-0.2903 Z0.3576
N11685 X0.1575 Z0.3591
N11690 X0.1608 Y-0.2902 Z0.3611
N11695 X0.1638 Z0.3637
N11700 X0.1663 Z0.3667
N11705 X0.1684 Y-0.2901 Z0.37
N11710 X0.1699 Z0.3736
N11715 X0.1708 Z0.3774
N11720 X0.1711 Z0.3814
N11725 G0 Z0.95
N11730 X-0.0728 Y0.2689
N11735 Z0.4064
N11740 G1 Z0.3814 F60.
N11745 X-0.0725 Y0.2688 Z0.3774
N11750 X-0.0717 Y0.2683 Z0.3736
N11755 X-0.0704 Y0.2676 Z0.37
N11760 X-0.0686 Y0.2667 Z0.3667
N11765 X-0.0663 Y0.2655 Z0.3637
N11770 X-0.0637 Y0.264 Z0.3611
N11775 X-0.0608 Y0.2625 Z0.3591
N11780 X-0.0576 Y0.2608 Z0.3576
N11785 X-0.0542 Y0.259 Z0.3567
N11790 X-0.0508 Y0.2571 Z0.3564
N11795 G3 X0.0255 Y0.2384 I0.0747 J0.1395
N11800 G1 X0.048 Y0.2394
N11805 X0.0555 Y0.2397
N11810 X0.063 Y0.24
N11815 X0.0855 Y0.2406
N11820 X0.093 Y0.2408
N11825 X0.1005 Y0.2409
N11830 X0.104 Y0.2412
N11835 X0.1115 Y0.2422
N11840 X0.1197 Y0.244
N11845 X0.1288 Y0.2468
N11850 X0.1384 Y0.2507
N11855 X0.1487 Y0.2558
N11860 X0.1598 Y0.2625
N11865 X0.1716 Y0.2709
N11870 X0.1839 Y0.2813
N11875 X0.1954 Y0.2926
N11880 X0.206 Y0.3048
N11885 X0.2158 Y0.3175
N11890 X0.2248 Y0.3308
N11895 X0.2332 Y0.3446
N11900 X0.2409 Y0.3587
N11905 X0.2481 Y0.3732
N11910 X0.2546 Y0.3879
N11915 X0.2607 Y0.4028
N11920 X0.2662 Y0.4179
N11925 X0.2713 Y0.4332
N11930 X0.276 Y0.4486
N11935 X0.2803 Y0.4641
N11940 X0.2842 Y0.4798
N11945 X0.2878 Y0.4955
N11950 X0.2912 Y0.5112
N11955 X0.2942 Y0.527
N11960 X0.297 Y0.5429
N11965 X0.2995 Y0.5588
N11970 X0.3018 Y0.5747
N11975 X0.304 Y0.5907
N11980 X0.3059 Y0.6067
N11985 X0.3077 Y0.6227
N11990 X0.3093 Y0.6387
N11995 X0.3108 Y0.6547
N12000 X0.3121 Y0.6708
N12005 X0.3133 Y0.6869
N12010 X0.3145 Y0.7029
N12015 X0.3155 Y0.719
N12020 X0.3164 Y0.7351
N12025 X0.3172 Y0.7512
N12030 X0.318 Y0.7672
N12035 X0.3187 Y0.7833
N12040 X0.3193 Y0.7994
N12045 X0.3199 Y0.8155
N12050 X0.3204 Y0.8316
N12055 X0.3209 Y0.8477
N12060 X0.3213 Y0.8638
N12065 X0.3217 Y0.8799
N12070 X0.322 Y0.896
N12075 X0.3223 Y0.9121
N12080 X0.3226 Y0.9282
N12085 X0.323 Y0.9443
N12090 X0.3244 Y0.9604
N12095 X0.3274 Y0.9762
N12100 X0.3319 Y0.9916
N12105 X0.3382 Y1.0065
N12110 X0.3458 Y1.0207
N12115 X0.3549 Y1.034
N12120 X0.365 Y1.0465
N12125 X0.3762 Y1.0581
N12130 X0.3881 Y1.0689
N12135 X0.4008 Y1.0788
N12140 X0.4141 Y1.0879
N12145 X0.4279 Y1.0962
N12150 X0.4421 Y1.1039
N12155 X0.4566 Y1.1108
N12160 X0.4714 Y1.1171
N12165 X0.4865 Y1.1228
N12170 X0.5017 Y1.128
N12175 X0.5172 Y1.1327
N12180 X0.5327 Y1.1369
N12185 X0.5483 Y1.1408
N12190 X0.5641 Y1.1442
N12195 X0.5799 Y1.1473
N12200 X0.5957 Y1.1501
N12205 X0.6116 Y1.1527
N12210 X0.6276 Y1.1549
N12215 X0.6435 Y1.157
N12220 X0.6595 Y1.1588
N12225 X0.6756 Y1.1605
N12230 X0.6916 Y1.162
N12235 X0.7076 Y1.1633
N12240 X0.7237 Y1.1645
N12245 X0.7398 Y1.1656
N12250 X0.7559 Y1.1666
N12255 X0.7719 Y1.1674
N12260 X0.788 Y1.1682
N12265 X0.8041 Y1.1689
N12270 X0.8202 Y1.1695
N12275 X0.8363 Y1.1701
N12280 X0.8524 Y1.1706
N12285 X0.8685 Y1.171
N12290 X0.8846 Y1.1714
N12295 X0.9007 Y1.1718
N12300 X0.9168 Y1.1721
N12305 X0.9329 Y1.1724
N12310 X0.949 Y1.1727
N12315 X0.9651 Y1.1729
N12320 X0.9812 Y1.1731
N12325 X0.9973 Y1.1733
N12330 X1.0134 Y1.1734
N12335 X1.0295 Y1.1736
N12340 X1.0456 Y1.1737
N12345 X1.0617 Y1.1738
N12350 X1.0778 Y1.174
N12355 X1.0939
N12360 X1.11 Y1.1741
N12365 X1.1261 Y1.1742
N12370 X1.1584 Y1.1743
N12375 X1.1906 Y1.1744
N12380 X1.2228 Y1.1745
N12385 X1.2711 Y1.1746
N12390 X1.3194 Y1.1747
N12395 X1.3838
N12400 X1.416 Y1.1748
N12405 X1.5127
N12410 X1.6737
N12415 X2.0602
N12420 X3.397
N12425 X5.3779
N12430 X7.3588
N12435 X9.3397
N12440 X11.3206
N12445 X13.3015
N12450 X15.2825
N12455 X15.4274
N12460 X15.4435 Y1.1747
N12465 X15.4596 Y1.1735
N12470 X15.4755 Y1.1709
N12475 X15.491 Y1.1665
N12480 X15.5059 Y1.1604
N12485 X15.5201 Y1.1529
N12490 X15.5335 Y1.144
N12495 X15.5461 Y1.1339
N12500 X15.5578 Y1.1228
N12505 X15.5686 Y1.1109
N12510 X15.5786 Y1.0982
N12515 X15.5877 Y1.085
N12520 X15.5961 Y1.0712
N12525 X15.6037 Y1.057
N12530 X15.6107 Y1.0425
N12535 X15.617 Y1.0277
N12540 X15.6227 Y1.0126
N12545 X15.6279 Y0.9974
N12550 X15.6326 Y0.982
N12555 X15.6369 Y0.9665
N12560 X15.6407 Y0.9508
N12565 X15.6442 Y0.9351
N12570 X15.6473 Y0.9193
N12575 X15.6502 Y0.9034
N12580 X15.6527 Y0.8875
N12585 X15.655 Y0.8716
N12590 X15.657 Y0.8556
N12595 X15.6589 Y0.8396
N12600 X15.6605 Y0.8236
N12605 X15.662 Y0.8076
N12610 X15.6634 Y0.7915
N12615 X15.6646 Y0.7755
N12620 X15.6657 Y0.7594
N12625 X15.6667 Y0.7433
N12630 X15.6677 Y0.7272
N12635 X15.6695 Y0.6951
N12640 X15.6705 Y0.679
N12645 X15.6715 Y0.6629
N12650 X15.6726 Y0.6469
N12655 X15.6739 Y0.6308
N12660 X15.6754 Y0.6148
N12665 X15.6771 Y0.5988
N12670 X15.6794 Y0.5828
N12675 X15.6821 Y0.5669
N12680 X15.6856 Y0.5512
N12685 X15.6858 Y0.5505
N12690 X15.69 Y0.5396
N12695 X15.6963 Y0.5298
N12700 X15.7044 Y0.5214
N12705 X15.714 Y0.5148
N12710 X15.7248 Y0.5103
N12715 X15.8245 Y0.4794
N12720 G3 X15.8382 Y0.5275 I0.0066 J0.0241
N12725 X15.8376 Y0.5277 I-0.0072 J-0.0239
N12730 G1 X15.8338 Y0.5287 Z0.3567
N12735 X15.8301 Y0.5297 Z0.3576
N12740 X15.8266 Y0.5306 Z0.3591
N12745 X15.8234 Y0.5315 Z0.3611
N12750 X15.8205 Y0.5323 Z0.3637
N12755 X15.8181 Y0.533 Z0.3667
N12760 X15.8161 Y0.5335 Z0.37
N12765 X15.8146 Y0.5339 Z0.3736
N12770 X15.8137 Y0.5341 Z0.3774
N12775 X15.8134 Y0.5342 Z0.3814
N12780 G0 Z0.95
N12785 X16.0486 Y-0.4466
N12790 Z0.4064
N12795 G1 Z0.3814 F60.
N12800 X16.0483 Y-0.4465 Z0.3774
N12805 X16.0474 Y-0.4463 Z0.3736
N12810 X16.0459 Y-0.446 Z0.37
N12815 X16.0439 Y-0.4455 Z0.3667
N12820 X16.0415 Y-0.4449 Z0.3637
N12825 X16.0386 Y-0.4442 Z0.3611
N12830 X16.0353 Y-0.4434 Z0.3591
N12835 X16.0318 Y-0.4426 Z0.3576
N12840 X16.0281 Y-0.4417 Z0.3567
N12845 X16.0243 Y-0.4408 Z0.3564
N12850 G3 X15.9458 Y-0.4419 I-0.0371 J-0.1539
N12855 G1 X15.8545 Y-0.4701
N12860 X15.8492 Y-0.4721
N12865 X15.8405 Y-0.4761
N12870 X15.831 Y-0.4813
N12875 X15.821 Y-0.4881
N12880 X15.8104 Y-0.4965
N12885 X15.799 Y-0.5071
N12890 X15.7882 Y-0.519
N12895 X15.7783 Y-0.5317
N12900 X15.7691 Y-0.545
N12905 X15.7608 Y-0.5588
N12910 X15.7532 Y-0.573
N12915 X15.7462 Y-0.5875
N12920 X15.7398 Y-0.6023
N12925 X15.734 Y-0.6173
N12930 X15.7287 Y-0.6325
N12935 X15.7238 Y-0.6478
N12940 X15.7194 Y-0.6633
N12945 X15.7153 Y-0.6789
N12950 X15.7116 Y-0.6946
N12955 X15.7083 Y-0.7103
N12960 X15.7052 Y-0.7261
N12965 X15.7024 Y-0.742
N12970 X15.6999 Y-0.7579
N12975 X15.6975 Y-0.7738
N12980 X15.6954 Y-0.7898
N12985 X15.6935 Y-0.8058
N12990 X15.6918 Y-0.8218
N12995 X15.6902 Y-0.8378
N13000 X15.6887 Y-0.8539
N13005 X15.6874 Y-0.8699
N13010 X15.6862 Y-0.886
N13015 X15.6851 Y-0.902
N13020 X15.6842 Y-0.9181
N13025 X15.6833 Y-0.9342
N13030 X15.6821 Y-0.9503
N13035 X15.6797 Y-0.9662
N13040 X15.6759 Y-0.9818
N13045 X15.6705 Y-0.997
N13050 X15.6635 Y-1.0115
N13055 X15.6553 Y-1.0253
N13060 X15.6457 Y-1.0383
N13065 X15.6352 Y-1.0505
N13070 X15.6237 Y-1.0618
N13075 X15.6114 Y-1.0722
N13080 X15.5985 Y-1.0818
N13085 X15.585 Y-1.0906
N13090 X15.5711 Y-1.0987
N13095 X15.5567 Y-1.1061
N13100 X15.5421 Y-1.1128
N13105 X15.5272 Y-1.1189
N13110 X15.5121 Y-1.1244
N13115 X15.4968 Y-1.1294
N13120 X15.4813 Y-1.134
N13125 X15.4657 Y-1.1381
N13130 X15.4501 Y-1.1418
N13135 X15.4343 Y-1.1452
N13140 X15.4185 Y-1.1482
N13145 X15.4026 Y-1.1509
N13150 X15.3867 Y-1.1534
N13155 X15.3708 Y-1.1556
N13160 X15.3548 Y-1.1576
N13165 X15.3388 Y-1.1594
N13170 X15.3228 Y-1.161
N13175 X15.3067 Y-1.1624
N13180 X15.2907 Y-1.1637
N13185 X15.2746 Y-1.1649
N13190 X15.2585 Y-1.1659
N13195 X15.2424 Y-1.1669
N13200 X15.2264 Y-1.1677
N13205 X15.2103 Y-1.1685
N13210 X15.1942 Y-1.1691
N13215 X15.1781 Y-1.1698
N13220 X15.162 Y-1.1703
N13225 X15.1459 Y-1.1708
N13230 X15.1298 Y-1.1712
N13235 X15.1137 Y-1.1716
N13240 X15.0976 Y-1.172
N13245 X15.0815 Y-1.1723
N13250 X15.0654 Y-1.1726
N13255 X15.0493 Y-1.1728
N13260 X15.0332 Y-1.173
N13265 X15.0171 Y-1.1732
N13270 X15.001 Y-1.1734
N13275 X14.9849 Y-1.1736
N13280 X14.9688 Y-1.1737
N13285 X14.9527 Y-1.1739
N13290 X14.9366 Y-1.174
N13295 X14.9205 Y-1.1741
N13300 X14.9044 Y-1.1742
N13305 X14.8882 Y-1.1743
N13310 X14.856 Y-1.1744
N13315 X14.8238 Y-1.1745
N13320 X14.7916 Y-1.1746
N13325 X14.7433 Y-1.1747
N13330 X14.695 Y-1.1748
N13335 X14.6306
N13340 X14.55 Y-1.1749
N13345 X14.4373
N13350 X14.3246
N13355 X13.9219
N13360 X12.3437
N13365 X10.3627
N13370 X8.3818
N13375 X6.4009 Y-1.1748
N13380 X4.42
N13385 X2.4391
N13390 X0.6836
N13395 X0.6675
N13400 X0.6514 Y-1.1744
N13405 X0.6354 Y-1.1728
N13410 X0.6196 Y-1.1695
N13415 X0.6043 Y-1.1646
N13420 X0.5896 Y-1.158
N13425 X0.5756 Y-1.15
N13430 X0.5625 Y-1.1407
N13435 X0.5502 Y-1.1303
N13440 X0.5388 Y-1.1189
N13445 X0.5283 Y-1.1067
N13450 X0.5186 Y-1.0938
N13455 X0.5097 Y-1.0804
N13460 X0.5016 Y-1.0665
N13465 X0.4941 Y-1.0522
N13470 X0.4874 Y-1.0376
N13475 X0.4813 Y-1.0227
N13480 X0.4757 Y-1.0076
N13485 X0.4707 Y-0.9923
N13490 X0.4661 Y-0.9768
N13495 X0.462 Y-0.9613
N13500 X0.4583 Y-0.9456
N13505 X0.4549 Y-0.9298
N13510 X0.4519 Y-0.914
N13515 X0.4491 Y-0.8982
N13520 X0.4467 Y-0.8822
N13525 X0.4445 Y-0.8663
N13530 X0.4425 Y-0.8503
N13535 X0.4407 Y-0.8343
N13540 X0.4391 Y-0.8183
N13545 X0.4377 Y-0.8022
N13550 X0.4364 Y-0.7862
N13555 X0.4352 Y-0.7701
N13560 X0.4342 Y-0.754
N13565 X0.4332 Y-0.738
N13570 X0.4324 Y-0.7219
N13575 X0.4316 Y-0.7058
N13580 X0.4309 Y-0.6897
N13585 X0.4303 Y-0.6736
N13590 X0.4298 Y-0.6575
N13595 X0.4293 Y-0.6414
N13600 X0.4288 Y-0.6253
N13605 X0.4278 Y-0.5931
N13610 X0.4273 Y-0.577
N13615 X0.4268 Y-0.5609
N13620 X0.4263 Y-0.5448
N13625 X0.4256 Y-0.5287
N13630 X0.4249 Y-0.5127
N13635 X0.4241 Y-0.4966
N13640 X0.4231 Y-0.4805
N13645 X0.422 Y-0.4644
N13650 X0.4207 Y-0.4484
N13655 X0.4192 Y-0.4323
N13660 X0.4174 Y-0.4163
N13665 X0.4154 Y-0.4004
N13670 X0.4131 Y-0.3844
N13675 X0.4104 Y-0.3685
N13680 X0.4074 Y-0.3527
N13685 X0.4039 Y-0.337
N13690 X0.3999 Y-0.3214
N13695 X0.3953 Y-0.306
N13700 X0.3899 Y-0.2908
N13705 X0.3836 Y-0.276
N13710 X0.3826 Y-0.2739
N13715 X0.3755 Y-0.263
N13720 X0.3662 Y-0.2539
N13725 X0.3551 Y-0.2471
N13730 X0.3428 Y-0.243
N13735 X0.3299 Y-0.2416
N13740 X0.318 Y-0.2417
N13745 X0.3105
N13750 X0.303
N13755 X0.2955 Y-0.2416
N13760 X0.288 Y-0.2412
N13765 X0.2805 Y-0.2403
N13770 X0.2768 Y-0.2397
N13775 X0.273 Y-0.239
N13780 X0.2655 Y-0.2371
N13785 X0.258 Y-0.2356
N13790 X0.2542
N13795 X0.2505 Y-0.2361
N13800 X0.243 Y-0.2378
N13805 G3 X0.2252 Y-0.2684 I0.0064 J-0.0242
N13810 X0.2557 Y-0.2862 I0.0242 J0.0064
N13815 G1 X0.2595 Y-0.2852 Z0.3567
N13820 X0.2632 Y-0.2842 Z0.3576
N13825 X0.2667 Y-0.2833 Z0.3591
N13830 X0.27 Y-0.2824 Z0.3611
N13835 X0.2728 Y-0.2817 Z0.3637
N13840 X0.2753 Y-0.281 Z0.3667
N13845 X0.2773 Y-0.2805 Z0.37
N13850 X0.2787 Y-0.2801 Z0.3736
N13855 X0.2796 Y-0.2799 Z0.3774
N13860 X0.2799 Y-0.2798 Z0.3814
N13865 G0 Z0.95
N13870 X0.0034 Y0.275
N13875 Z0.4064
N13880 G1 Z0.3814 F60.
N13885 X0.0036 Y0.2749 Z0.3774
N13890 X0.0044 Y0.2744 Z0.3736
N13895 X0.0057 Y0.2736 Z0.37
N13900 X0.0075 Y0.2726 Z0.3667
N13905 X0.0097 Y0.2713 Z0.3637
N13910 X0.0123 Y0.2698 Z0.3611
N13915 X0.0151 Y0.2681 Z0.3591
N13920 X0.0183 Y0.2663 Z0.3576
N13925 X0.0216 Y0.2644 Z0.3567
N13930 X0.025 Y0.2624 Z0.3564
N13935 G3 X0.1005 Y0.2409 I0.0797 J0.1367
N13940 G1 X0.1755 Y0.2416
N13945 X0.1847 Y0.2421
N13950 X0.1929 Y0.2433
N13955 X0.2017 Y0.2452
N13960 X0.2114 Y0.2482
N13965 X0.2219 Y0.2524
N13970 X0.2332 Y0.258
N13975 X0.2451 Y0.2652
N13980 X0.2578 Y0.2743
N13985 X0.2701 Y0.2847
N13990 X0.2816 Y0.2959
N13995 X0.2924 Y0.3079
N14000 X0.3024 Y0.3205
N14005 X0.3117 Y0.3337
N14010 X0.3204 Y0.3472
N14015 X0.3284 Y0.3612
N14020 X0.3359 Y0.3755
N14025 X0.3429 Y0.39
N14030 X0.3493 Y0.4047
N14035 X0.3553 Y0.4197
N14040 X0.3608 Y0.4348
N14045 X0.366 Y0.4501
N14050 X0.3707 Y0.4655
N14055 X0.3751 Y0.481
N14060 X0.3792 Y0.4966
N14065 X0.3829 Y0.5122
N14070 X0.3864 Y0.5279
N14075 X0.3896 Y0.5437
N14080 X0.3925 Y0.5596
N14085 X0.3953 Y0.5754
N14090 X0.3978 Y0.5913
N14095 X0.4001 Y0.6073
N14100 X0.4022 Y0.6232
N14105 X0.4042 Y0.6392
N14110 X0.406 Y0.6552
N14115 X0.4076 Y0.6713
N14120 X0.4091 Y0.6873
N14125 X0.4105 Y0.7033
N14130 X0.4118 Y0.7194
N14135 X0.413 Y0.7354
N14140 X0.4141 Y0.7515
N14145 X0.4151 Y0.7676
N14150 X0.416 Y0.7837
N14155 X0.4168 Y0.7998
N14160 X0.4175 Y0.8158
N14165 X0.4183 Y0.8319
N14170 X0.4193 Y0.848
N14175 X0.4215 Y0.864
N14180 X0.4252 Y0.8796
N14185 X0.4305 Y0.8948
N14190 X0.4373 Y0.9094
N14195 X0.4455 Y0.9233
N14200 X0.4549 Y0.9364
N14205 X0.4654 Y0.9486
N14210 X0.4768 Y0.96
N14215 X0.489 Y0.9705
N14220 X0.5018 Y0.9802
N14225 X0.5153 Y0.9891
N14230 X0.5292 Y0.9972
N14235 X0.5434 Y1.0047
N14240 X0.558 Y1.0115
N14245 X0.5729 Y1.0177
N14250 X0.588 Y1.0233
N14255 X0.6033 Y1.0284
N14260 X0.6187 Y1.033
N14265 X0.6343 Y1.0371
N14270 X0.6499 Y1.0409
N14275 X0.6657 Y1.0443
N14280 X0.6815 Y1.0474
N14285 X0.6973 Y1.0502
N14290 X0.7132 Y1.0527
N14295 X0.7292 Y1.0549
N14300 X0.7452 Y1.057
N14305 X0.7612 Y1.0588
N14310 X0.7772 Y1.0604
N14315 X0.7932 Y1.0619
N14320 X0.8093 Y1.0632
N14325 X0.8253 Y1.0644
N14330 X0.8414 Y1.0655
N14335 X0.8575 Y1.0665
N14340 X0.8736 Y1.0673
N14345 X0.8897 Y1.0681
N14350 X0.9057 Y1.0688
N14355 X0.9218 Y1.0694
N14360 X0.9379 Y1.07
N14365 X0.954 Y1.0705
N14370 X0.9701 Y1.0709
N14375 X0.9862 Y1.0714
N14380 X1.0023 Y1.0717
N14385 X1.0184 Y1.072
N14390 X1.0345 Y1.0723
N14395 X1.0506 Y1.0726
N14400 X1.0667 Y1.0728
N14405 X1.0828 Y1.073
N14410 X1.0989 Y1.0732
N14415 X1.1151 Y1.0734
N14420 X1.1312 Y1.0736
N14425 X1.1473 Y1.0737
N14430 X1.1634 Y1.0738
N14435 X1.1795 Y1.0739
N14440 X1.1956 Y1.074
N14445 X1.2117 Y1.0741
N14450 X1.2278 Y1.0742
N14455 X1.26 Y1.0743
N14460 X1.2922 Y1.0744
N14465 X1.3244 Y1.0745
N14470 X1.3727 Y1.0746
N14475 X1.421 Y1.0747
N14480 X1.4855
N14485 X1.566 Y1.0748
N14490 X1.5982
N14495 X1.727
N14500 X1.9847
N14505 X3.5791
N14510 X5.56
N14515 X7.541
N14520 X9.5219
N14525 X11.5028
N14530 X13.4837
N14535 X15.3197
N14540 X15.3358 Y1.0747
N14545 X15.3519 Y1.0741
N14550 X15.3678 Y1.072
N14555 X15.3835 Y1.0682
N14560 X15.3987 Y1.0628
N14565 X15.4132 Y1.0559
N14570 X15.427 Y1.0475
N14575 X15.4399 Y1.0379
N14580 X15.452 Y1.0272
N14585 X15.4632 Y1.0157
N14590 X15.4735 Y1.0033
N14595 X15.483 Y0.9903
N14600 X15.4917 Y0.9768
N14605 X15.4997 Y0.9628
N14610 X15.507 Y0.9484
N14615 X15.5136 Y0.9337
N14620 X15.5196 Y0.9188
N14625 X15.5251 Y0.9036
N14630 X15.53 Y0.8883
N14635 X15.5345 Y0.8728
N14640 X15.5386 Y0.8573
N14645 X15.5422 Y0.8416
N14650 X15.5456 Y0.8258
N14655 X15.5486 Y0.81
N14660 X15.5513 Y0.7941
N14665 X15.5539 Y0.7782
N14670 X15.5562 Y0.7623
N14675 X15.5584 Y0.7463
N14680 X15.5604 Y0.7304
N14685 X15.5624 Y0.7144
N14690 X15.5644 Y0.6984
N14695 X15.5663 Y0.6824
N14700 X15.5683 Y0.6664
N14705 X15.5704 Y0.6505
N14710 X15.5727 Y0.6345
N14715 X15.5753 Y0.6186
N14720 X15.5783 Y0.6028
N14725 X15.5819 Y0.5871
N14730 X15.5834 Y0.5819
N14735 X15.5876 Y0.5711
N14740 X15.5939 Y0.5614
N14745 X15.602 Y0.553
N14750 X15.6116 Y0.5465
N14755 X15.6223 Y0.542
N14760 X15.7248 Y0.5103
N14765 G3 X15.7385 Y0.5583 I0.0066 J0.0241
N14770 X15.7379 Y0.5585 I-0.0072 J-0.0239
N14775 G1 X15.7341 Y0.5595 Z0.3567
N14780 X15.7304 Y0.5605 Z0.3576
N14785 X15.7269 Y0.5615 Z0.3591
N14790 X15.7237 Y0.5624 Z0.3611
N14795 X15.7208 Y0.5631 Z0.3637
N14800 X15.7184 Y0.5638 Z0.3667
N14805 X15.7164 Y0.5644 Z0.37
N14810 X15.7149 Y0.5647 Z0.3736
N14815 X15.714 Y0.565 Z0.3774
N14820 X15.7137 Y0.5651 Z0.3814
N14825 G0 Z0.95
N14830 X15.9573 Y-0.4748
N14835 Z0.4064
N14840 G1 Z0.3814 F60.
N14845 X15.957 Z0.3774
N14850 X15.9562 Y-0.4746 Z0.3736
N14855 X15.9547 Y-0.4742 Z0.37
N14860 X15.9527 Y-0.4737 Z0.3667
N14865 X15.9502 Y-0.4731 Z0.3637
N14870 X15.9473 Y-0.4724 Z0.3611
N14875 X15.9441 Y-0.4717 Z0.3591
N14880 X15.9405 Y-0.4708 Z0.3576
N14885 X15.9368 Y-0.4699 Z0.3567
N14890 X15.933 Y-0.469 Z0.3564
N14895 G3 X15.8545 Y-0.4701 I-0.0371 J-0.1539
N14900 G1 X15.7645 Y-0.498
N14905 X15.7574 Y-0.5006
N14910 X15.7484 Y-0.5047
N14915 X15.7387 Y-0.5101
N14920 X15.7282 Y-0.5171
N14925 X15.7172 Y-0.5259
N14930 X15.7054 Y-0.5369
N14935 X15.6946 Y-0.5488
N14940 X15.6846 Y-0.5615
N14945 X15.6754 Y-0.5747
N14950 X15.667 Y-0.5884
N14955 X15.6592 Y-0.6026
N14960 X15.6521 Y-0.617
N14965 X15.6456 Y-0.6317
N14970 X15.6396 Y-0.6467
N14975 X15.6341 Y-0.6618
N14980 X15.629 Y-0.6771
N14985 X15.6244 Y-0.6925
N14990 X15.6201 Y-0.7081
N14995 X15.6162 Y-0.7237
N15000 X15.6127 Y-0.7394
N15005 X15.6094 Y-0.7552
N15010 X15.6064 Y-0.771
N15015 X15.6036 Y-0.7868
N15020 X15.6011 Y-0.8028
N15025 X15.5988 Y-0.8187
N15030 X15.5967 Y-0.8347
N15035 X15.5942 Y-0.8506
N15040 X15.5908 Y-0.8663
N15045 X15.5861 Y-0.8817
N15050 X15.58 Y-0.8966
N15055 X15.5726 Y-0.9109
N15060 X15.564 Y-0.9245
N15065 X15.5542 Y-0.9373
N15070 X15.5435 Y-0.9493
N15075 X15.5318 Y-0.9605
N15080 X15.5195 Y-0.9708
N15085 X15.5065 Y-0.9804
N15090 X15.493 Y-0.9891
N15095 X15.4791 Y-0.9972
N15100 X15.4648 Y-1.0046
N15105 X15.4501 Y-1.0113
N15110 X15.4353 Y-1.0174
N15115 X15.4202 Y-1.023
N15120 X15.4049 Y-1.0281
N15125 X15.3894 Y-1.0327
N15130 X15.3739 Y-1.0369
N15135 X15.3582 Y-1.0406
N15140 X15.3425 Y-1.0441
N15145 X15.3267 Y-1.0471
N15150 X15.3108 Y-1.0499
N15155 X15.2949 Y-1.0525
N15160 X15.279 Y-1.0547
N15165 X15.263 Y-1.0568
N15170 X15.247 Y-1.0586
N15175 X15.231 Y-1.0603
N15180 X15.2149 Y-1.0618
N15185 X15.1989 Y-1.0631
N15190 X15.1828 Y-1.0643
N15195 X15.1668 Y-1.0654
N15200 X15.1507 Y-1.0664
N15205 X15.1346 Y-1.0673
N15210 X15.1185 Y-1.0681
N15215 X15.1024 Y-1.0688
N15220 X15.0863 Y-1.0694
N15225 X15.0702 Y-1.07
N15230 X15.0541 Y-1.0705
N15235 X15.038 Y-1.0709
N15240 X15.0219 Y-1.0714
N15245 X15.0058 Y-1.0717
N15250 X14.9897 Y-1.0721
N15255 X14.9736 Y-1.0724
N15260 X14.9575 Y-1.0726
N15265 X14.9414 Y-1.0729
N15270 X14.9253 Y-1.0731
N15275 X14.9092 Y-1.0733
N15280 X14.8931 Y-1.0735
N15285 X14.877 Y-1.0736
N15290 X14.8609 Y-1.0738
N15295 X14.8448 Y-1.0739
N15300 X14.8287 Y-1.074
N15305 X14.8126 Y-1.0741
N15310 X14.7965 Y-1.0742
N15315 X14.7804 Y-1.0743
N15320 X14.7482 Y-1.0744
N15325 X14.716 Y-1.0745
N15330 X14.6838 Y-1.0746
N15335 X14.6354 Y-1.0747
N15340 X14.5871 Y-1.0748
N15345 X14.5227
N15350 X14.4422 Y-1.0749
N15355 X14.3294
N15360 X14.1362
N15365 X14.1201
N15370 X13.1216
N15375 X12.1392
N15380 X10.1582
N15385 X8.1773
N15390 X6.1964 Y-1.0748
N15395 X4.2155
N15400 X2.2346
N15405 X0.7851
N15410 X0.769
N15415 X0.7529 Y-1.0744
N15420 X0.7369 Y-1.0727
N15425 X0.7211 Y-1.0695
N15430 X0.7058 Y-1.0645
N15435 X0.6911 Y-1.058
N15440 X0.6771 Y-1.05
N15445 X0.6639 Y-1.0407
N15450 X0.6516 Y-1.0303
N15455 X0.6402 Y-1.019
N15460 X0.6296 Y-1.0069
N15465 X0.6198 Y-0.9941
N15470 X0.6109 Y-0.9807
N15475 X0.6027 Y-0.9668
N15480 X0.5952 Y-0.9525
N15485 X0.5884 Y-0.9379
N15490 X0.5822 Y-0.9231
N15495 X0.5766 Y-0.908
N15500 X0.5715 Y-0.8927
N15505 X0.5669 Y-0.8773
N15510 X0.5627 Y-0.8617
N15515 X0.559 Y-0.8461
N15520 X0.5556 Y-0.8303
N15525 X0.5525 Y-0.8145
N15530 X0.5497 Y-0.7986
N15535 X0.5472 Y-0.7827
N15540 X0.545 Y-0.7668
N15545 X0.5429 Y-0.7508
N15550 X0.5411 Y-0.7348
N15555 X0.5395 Y-0.7188
N15560 X0.5379 Y-0.7027
N15565 X0.5366 Y-0.6867
N15570 X0.5353 Y-0.6706
N15575 X0.5342 Y-0.6546
N15580 X0.5331 Y-0.6385
N15585 X0.532 Y-0.6224
N15590 X0.531 Y-0.6064
N15595 X0.529 Y-0.5742
N15600 X0.528 Y-0.5581
N15605 X0.527 Y-0.5421
N15610 X0.5258 Y-0.526
N15615 X0.5246 Y-0.5099
N15620 X0.5233 Y-0.4939
N15625 X0.5219 Y-0.4779
N15630 X0.5203 Y-0.4618
N15635 X0.5185 Y-0.4458
N15640 X0.5166 Y-0.4298
N15645 X0.5144 Y-0.4139
N15650 X0.512 Y-0.398
N15655 X0.5092 Y-0.3821
N15660 X0.5062 Y-0.3663
N15665 X0.5033 Y-0.3532
N15670 X0.5026 Y-0.3502
N15675 X0.5017 Y-0.3472
N15680 X0.5006 Y-0.3442
N15685 X0.4919 Y-0.3221
N15690 X0.4904 Y-0.3182
N15695 X0.489 Y-0.3146
N15700 X0.4863 Y-0.3071
N15705 X0.484 Y-0.2996
N15710 X0.4829 Y-0.2966
N15715 X0.481 Y-0.2921
N15720 X0.4754 Y-0.2794
N15725 X0.4682 Y-0.265
N15730 X0.462 Y-0.2564
N15735 X0.4542 Y-0.2494
N15740 X0.445 Y-0.2442
N15745 X0.4349 Y-0.2412
N15750 X0.4244 Y-0.2403
N15755 G3 X0.4094 Y-0.2839 I0.0016 J-0.0249
N15760 G1 X0.4242 Y-0.2971
N15765 X0.4269 Y-0.2996
N15770 X0.4356 Y-0.3073
N15775 G3 X0.4754 Y-0.2794 I0.0166 J0.0187
N15780 G1 X0.4678 Y-0.2621
N15785 X0.4661 Y-0.2584
N15790 X0.4637 Y-0.2546
N15795 X0.4604 Y-0.2499
N15800 X0.458 Y-0.2472
N15805 X0.4555 Y-0.245
N15810 X0.4529 Y-0.2433
N15815 X0.4492 Y-0.2415
N15820 X0.4454 Y-0.2404
N15825 X0.4417 Y-0.2399
N15830 X0.4379
N15835 X0.4154 Y-0.2406
N15840 X0.4079 Y-0.2408
N15845 X0.4004 Y-0.241
N15850 X0.3404 Y-0.2415
N15855 G3 X0.3427 Y-0.2915 I0.0011 J-0.025
N15860 G1 X0.3466 Y-0.2913 Z0.3567
N15865 X0.3504 Y-0.2911 Z0.3576
N15870 X0.354 Y-0.291 Z0.3591
N15875 X0.3573 Y-0.2908 Z0.3611
N15880 X0.3603 Y-0.2907 Z0.3637
N15885 X0.3629 Y-0.2906 Z0.3667
N15890 X0.3649 Y-0.2905 Z0.37
N15895 X0.3664 Y-0.2904 Z0.3736
N15900 X0.3673 Z0.3774
N15905 X0.3676 Z0.3814
N15910 G0 Z0.95
N15915 X0.0783 Y0.2757
N15920 Z0.4064
N15925 G1 Z0.3814 F60.
N15930 X0.0786 Y0.2755 Z0.3774
N15935 X0.0794 Y0.2751 Z0.3736
N15940 X0.0807 Y0.2743 Z0.37
N15945 X0.0825 Y0.2733 Z0.3667
N15950 X0.0847 Y0.272 Z0.3637
N15955 X0.0872 Y0.2705 Z0.3611
N15960 X0.0901 Y0.2688 Z0.3591
N15965 X0.0933 Y0.267 Z0.3576
N15970 X0.0966 Y0.2651 Z0.3567
N15975 X0.0999 Y0.2631 Z0.3564
N15980 G3 X0.1755 Y0.2416 I0.0797 J0.1367
N15985 G1 X0.183 Y0.2417
N15990 X0.1905
N15995 X0.198
N16000 X0.2055
N16005 X0.213
N16010 X0.2205 Y0.2414
N16015 X0.228 Y0.2407
N16020 X0.2338 Y0.2397
N16025 X0.2355 Y0.2394
N16030 X0.2396 Y0.2385
N16035 X0.246 Y0.2376
N16040 X0.2527 Y0.2371
N16045 X0.2602 Y0.2372
N16050 X0.2646 Y0.2376
N16055 X0.2674 Y0.2379
N16060 X0.2702 Y0.2384
N16065 X0.273 Y0.239
N16070 G3 X0.2662 Y0.2882 I-0.0063 J0.0242
N16075 G1 X0.2602 Y0.2881
N16080 X0.2513 Y0.2879
N16085 X0.245 Y0.2878
N16090 G3 X0.2396 Y0.2385 I0.0004 J-0.025
N16095 G1 X0.243 Y0.2378
N16100 X0.2505 Y0.2361
N16105 X0.2542 Y0.2356
N16110 X0.258
N16115 X0.2655 Y0.2371
N16120 X0.273 Y0.239
N16125 X0.2733 Y0.2391
N16130 X0.2844 Y0.2416
N16135 X0.295 Y0.2449
N16140 X0.3064 Y0.2495
N16145 X0.3185 Y0.2556
N16150 X0.3314 Y0.2634
N16155 X0.3444 Y0.2728
N16160 X0.3567 Y0.2832
N16165 X0.3683 Y0.2945
N16170 X0.3791 Y0.3064
N16175 X0.3893 Y0.3188
N16180 X0.3988 Y0.3318
N16185 X0.4078 Y0.3452
N16190 X0.4161 Y0.359
N16195 X0.4239 Y0.3731
N16200 X0.4312 Y0.3875
N16205 X0.438 Y0.4021
N16210 X0.4443 Y0.4169
N16215 X0.4503 Y0.4318
N16220 X0.4558 Y0.447
N16225 X0.4609 Y0.4622
N16230 X0.4657 Y0.4776
N16235 X0.4702 Y0.4931
N16240 X0.4743 Y0.5087
N16245 X0.4782 Y0.5243
N16250 X0.4818 Y0.54
N16255 X0.4851 Y0.5557
N16260 X0.4882 Y0.5715
N16265 X0.4911 Y0.5874
N16270 X0.4937 Y0.6033
N16275 X0.4962 Y0.6192
N16280 X0.4985 Y0.6351
N16285 X0.5006 Y0.6511
N16290 X0.5026 Y0.6671
N16295 X0.5044 Y0.6831
N16300 X0.5061 Y0.6991
N16305 X0.5076 Y0.7151
N16310 X0.5091 Y0.7312
N16315 X0.5109 Y0.7472
N16320 X0.5137 Y0.763
N16325 X0.5179 Y0.7786
N16330 X0.5235 Y0.7937
N16335 X0.5306 Y0.8082
N16340 X0.5389 Y0.8219
N16345 X0.5484 Y0.8349
N16350 X0.559 Y0.8471
N16355 X0.5704 Y0.8584
N16360 X0.5826 Y0.8689
N16365 X0.5955 Y0.8786
N16370 X0.6089 Y0.8876
N16375 X0.6227 Y0.8958
N16380 X0.637 Y0.9033
N16385 X0.6516 Y0.9101
N16390 X0.6664 Y0.9163
N16395 X0.6815 Y0.922
N16400 X0.6968 Y0.9272
N16405 X0.7122 Y0.9318
N16410 X0.7277 Y0.9361
N16415 X0.7434 Y0.9399
N16420 X0.7591 Y0.9434
N16425 X0.7749 Y0.9465
N16430 X0.7907 Y0.9493
N16435 X0.8066 Y0.9519
N16440 X0.8226 Y0.9542
N16445 X0.8385 Y0.9563
N16450 X0.8545 Y0.9582
N16455 X0.8706 Y0.9598
N16460 X0.8866 Y0.9614
N16465 X0.9026 Y0.9627
N16470 X0.9187 Y0.964
N16475 X0.9348 Y0.9651
N16480 X0.9508 Y0.9661
N16485 X0.9669 Y0.967
N16490 X0.983 Y0.9678
N16495 X0.9991 Y0.9685
N16500 X1.0152 Y0.9691
N16505 X1.0313 Y0.9697
N16510 X1.0474 Y0.9703
N16515 X1.0635 Y0.9707
N16520 X1.073 Y0.971
N16525 X1.081 Y0.9717
N16530 X1.0888 Y0.9736
N16535 X1.0963 Y0.9765
N16540 X1.0978 Y0.9772
N16545 X1.1063 Y0.9811
N16550 X1.1128 Y0.9837
N16555 X1.1203 Y0.9864
N16560 X1.2253 Y1.0205
N16565 X1.2328 Y1.0228
N16570 X1.2402 Y1.0248
N16575 X1.2477 Y1.0264
N16580 X1.2552 Y1.0278
N16585 X1.3527 Y1.0464
N16590 X1.3602 Y1.0478
N16595 X1.3645 Y1.0486
N16600 X1.3677 Y1.049
N16605 X1.3752 Y1.0496
N16610 X1.3827 Y1.0502
N16615 X1.4877 Y1.0568
N16620 X1.4952 Y1.0571
N16625 X1.5027 Y1.0572
N16630 X1.5102 Y1.0569
N16635 X1.5177 Y1.0565
N16640 X1.6152 Y1.0503
N16645 X1.6227 Y1.0498
N16650 X1.6302 Y1.0492
N16655 X1.6355 Y1.0486
N16660 X1.6377 Y1.0482
N16665 X1.6452 Y1.0468
N16670 X1.7501 Y1.0268
N16675 X1.7536 Y1.0261
N16680 X1.7576 Y1.0253
N16685 X1.7651 Y1.0234
N16690 X1.7726 Y1.0212
N16695 X1.7807 Y1.0186
N16700 X1.8037 Y1.0111
N16705 X1.8193 Y1.0069
N16710 X1.8348 Y1.0026
N16715 X1.8504 Y0.9988
N16720 X1.8662 Y0.9956
N16725 X1.8821 Y0.9928
N16730 X1.898 Y0.9904
N16735 X1.914 Y0.9883
N16740 X1.93 Y0.9865
N16745 X1.946 Y0.985
N16750 X1.9621 Y0.9836
N16755 X1.9781 Y0.9825
N16760 X1.9942 Y0.9815
N16765 X2.0103 Y0.9806
N16770 X2.0264 Y0.9798
N16775 X2.0425 Y0.9792
N16780 X2.0586 Y0.9786
N16785 X2.0747 Y0.9781
N16790 X2.0908 Y0.9777
N16795 X2.1069 Y0.9773
N16800 X2.123 Y0.977
N16805 X2.1391 Y0.9767
N16810 X2.1552 Y0.9764
N16815 X2.1713 Y0.9762
N16820 X2.1874 Y0.976
N16825 X2.2035 Y0.9759
N16830 X2.2196 Y0.9757
N16835 X2.2357 Y0.9756
N16840 X2.2518 Y0.9755
N16845 X2.2679 Y0.9754
N16850 X2.284
N16855 X2.3001 Y0.9753
N16860 X2.3323 Y0.9752
N16865 X2.3645 Y0.9751
N16870 X2.3967 Y0.975
N16875 X2.445
N16880 X2.5095 Y0.9749
N16885 X2.59
N16890 X2.7188 Y0.9748
N16895 X3.0731
N16900 X3.7818
N16905 X5.7627
N16910 X7.7436
N16915 X9.7245
N16920 X11.7054
N16925 X13.6864
N16930 X15.2163
N16935 X15.2324 Y0.9747
N16940 X15.2485 Y0.9742
N16945 X15.2645 Y0.9723
N16950 X15.2802 Y0.9688
N16955 X15.2955 Y0.9636
N16960 X15.3101 Y0.9569
N16965 X15.324 Y0.9488
N16970 X15.3371 Y0.9393
N16975 X15.3493 Y0.9288
N16980 X15.3607 Y0.9174
N16985 X15.3712 Y0.9052
N16990 X15.3808 Y0.8923
N16995 X15.3897 Y0.8789
N17000 X15.3979 Y0.865
N17005 X15.4053 Y0.8507
N17010 X15.4121 Y0.8361
N17015 X15.4184 Y0.8213
N17020 X15.4241 Y0.8062
N17025 X15.4293 Y0.791
N17030 X15.4342 Y0.7757
N17035 X15.4387 Y0.7602
N17040 X15.4429 Y0.7446
N17045 X15.4468 Y0.729
N17050 X15.4505 Y0.7134
N17055 X15.4542 Y0.6977
N17060 X15.4613 Y0.6663
N17065 X15.465 Y0.6506
N17070 X15.469 Y0.635
N17075 X15.4734 Y0.6195
N17080 X15.4755 Y0.6131
N17085 X15.48 Y0.603
N17090 X15.4863 Y0.5938
N17095 X15.4942 Y0.586
N17100 X15.5034 Y0.5799
N17105 X15.5137 Y0.5756
N17110 X15.6223 Y0.542
N17115 G3 X15.6361 Y0.59 I0.0066 J0.0241
N17120 X15.6354 Y0.5902 I-0.0072 J-0.0239
N17125 G1 X15.6316 Y0.5912 Z0.3567
N17130 X15.628 Y0.5922 Z0.3576
N17135 X15.6245 Y0.5932 Z0.3591
N17140 X15.6212 Y0.5941 Z0.3611
N17145 X15.6184 Y0.5948 Z0.3637
N17150 X15.6159 Y0.5955 Z0.3667
N17155 X15.6139 Y0.5961 Z0.37
N17160 X15.6125 Y0.5964 Z0.3736
N17165 X15.6116 Y0.5967 Z0.3774
N17170 X15.6113 Y0.5968 Z0.3814
N17175 G0 Z0.95
N17180 X15.8674 Y-0.5027
N17185 Z0.4064
N17190 G1 Z0.3814 F60.
N17195 X15.8671 Y-0.5026 Z0.3774
N17200 X15.8662 Y-0.5024 Z0.3736
N17205 X15.8647 Y-0.502 Z0.37
N17210 X15.8627 Y-0.5016 Z0.3667
N17215 X15.8602 Y-0.501 Z0.3637
N17220 X15.8573 Y-0.5003 Z0.3611
N17225 X15.8541 Y-0.4995 Z0.3591
N17230 X15.8506 Y-0.4986 Z0.3576
N17235 X15.8469 Y-0.4977 Z0.3567
N17240 X15.8431 Y-0.4968 Z0.3564
N17245 G3 X15.7645 Y-0.498 I-0.0371 J-0.1539
N17250 G1 X15.6745 Y-0.5258
N17255 X15.6634 Y-0.5299
N17260 X15.6543 Y-0.534
N17265 X15.6444 Y-0.5396
N17270 X15.6338 Y-0.5468
N17275 X15.6224 Y-0.5558
N17280 X15.6106 Y-0.5668
N17285 X15.5998 Y-0.5787
N17290 X15.5898 Y-0.5913
N17295 X15.5805 Y-0.6045
N17300 X15.572 Y-0.6181
N17305 X15.5642 Y-0.6322
N17310 X15.5569 Y-0.6466
N17315 X15.5503 Y-0.6612
N17320 X15.5441 Y-0.6761
N17325 X15.5385 Y-0.6912
N17330 X15.5333 Y-0.7065
N17335 X15.5285 Y-0.7219
N17340 X15.524 Y-0.7373
N17345 X15.5194 Y-0.7527
N17350 X15.5141 Y-0.7679
N17355 X15.5079 Y-0.7828
N17360 X15.5006 Y-0.7972
N17365 X15.4923 Y-0.811
N17370 X15.483 Y-0.8241
N17375 X15.4727 Y-0.8365
N17380 X15.4616 Y-0.8482
N17385 X15.4497 Y-0.8591
N17390 X15.4372 Y-0.8692
N17395 X15.4241 Y-0.8786
N17400 X15.4106 Y-0.8873
N17405 X15.3966 Y-0.8953
N17410 X15.3822 Y-0.9026
N17415 X15.3676 Y-0.9093
N17420 X15.3527 Y-0.9155
N17425 X15.3376 Y-0.9211
N17430 X15.3224 Y-0.9262
N17435 X15.307 Y-0.9309
N17440 X15.2914 Y-0.9351
N17445 X15.2758 Y-0.939
N17450 X15.2601 Y-0.9425
N17455 X15.2443 Y-0.9456
N17460 X15.2284 Y-0.9485
N17465 X15.2125 Y-0.9511
N17470 X15.1966 Y-0.9535
N17475 X15.1806 Y-0.9556
N17480 X15.1646 Y-0.9575
N17485 X15.1486 Y-0.9592
N17490 X15.1326 Y-0.9608
N17495 X15.1166 Y-0.9622
N17500 X15.1005 Y-0.9635
N17505 X15.0844 Y-0.9646
N17510 X15.0684 Y-0.9657
N17515 X15.0523 Y-0.9666
N17520 X15.0362 Y-0.9674
N17525 X15.0201 Y-0.9682
N17530 X15.004 Y-0.9689
N17535 X14.9879 Y-0.9695
N17540 X14.9718 Y-0.9701
N17545 X14.9557 Y-0.9706
N17550 X14.9396 Y-0.971
N17555 X14.9235 Y-0.9714
N17560 X14.9074 Y-0.9718
N17565 X14.8913 Y-0.9721
N17570 X14.8752 Y-0.9724
N17575 X14.8591 Y-0.9726
N17580 X14.843 Y-0.9729
N17585 X14.8269 Y-0.9731
N17590 X14.8108 Y-0.9733
N17595 X14.7947 Y-0.9735
N17600 X14.7786 Y-0.9736
N17605 X14.7625 Y-0.9737
N17610 X14.7464 Y-0.9739
N17615 X14.7303 Y-0.974
N17620 X14.7142 Y-0.9741
N17625 X14.6981 Y-0.9742
N17630 X14.682
N17635 X14.6498 Y-0.9744
N17640 X14.6176 Y-0.9745
N17645 X14.5854 Y-0.9746
N17650 X14.537 Y-0.9747
N17655 X14.4887 Y-0.9748
N17660 X14.4243
N17665 X14.3438 Y-0.9749
N17670 X14.231
N17675 X14.0378
N17680 X13.9089
N17685 X11.928
N17690 X9.9471
N17695 X7.9662
N17700 X5.9853 Y-0.9748
N17705 X4.0044
N17710 X2.0234
N17715 X1.9203
N17720 X1.9119 Y-0.9754
N17725 X1.9037 Y-0.9772
N17730 X1.8959 Y-0.9801
N17735 X1.8937 Y-0.9811
N17740 X1.8926 Y-0.9816
N17745 X1.8851 Y-0.9845
N17750 X1.8776 Y-0.9871
N17755 X1.7801 Y-1.0188
N17760 X1.7726 Y-1.0212
N17765 X1.7651 Y-1.0234
N17770 X1.7576 Y-1.0253
N17775 X1.7536 Y-1.0261
N17780 X1.7501 Y-1.0268
N17785 X1.6452 Y-1.0468
N17790 X1.6377 Y-1.0482
N17795 X1.6355 Y-1.0486
N17800 X1.6302 Y-1.0492
N17805 X1.6227 Y-1.0498
N17810 X1.6152 Y-1.0503
N17815 X1.5177 Y-1.0565
N17820 X1.5102 Y-1.0569
N17825 X1.5027 Y-1.0572
N17830 X1.4952 Y-1.0571
N17835 X1.4877 Y-1.0568
N17840 X1.3827 Y-1.0502
N17845 X1.3752 Y-1.0496
N17850 X1.3677 Y-1.049
N17855 X1.3645 Y-1.0486
N17860 X1.3602 Y-1.0478
N17865 X1.3527 Y-1.0464
N17870 X1.2552 Y-1.0278
N17875 X1.2477 Y-1.0264
N17880 X1.2402 Y-1.0248
N17885 X1.2328 Y-1.0228
N17890 X1.2253 Y-1.0205
N17895 X1.1963 Y-1.0111
N17900 X1.1807 Y-1.0069
N17905 X1.1652 Y-1.0026
N17910 X1.1496 Y-0.9988
N17915 X1.1338 Y-0.9956
N17920 X1.1179 Y-0.9928
N17925 X1.102 Y-0.9904
N17930 X1.086 Y-0.9883
N17935 X1.07 Y-0.9865
N17940 X1.054 Y-0.985
N17945 X1.0379 Y-0.9836
N17950 X1.0219 Y-0.9824
N17955 X1.0058 Y-0.9814
N17960 X0.9897 Y-0.9805
N17965 X0.9736 Y-0.9798
N17970 X0.9575 Y-0.9791
N17975 X0.9415 Y-0.9785
N17980 X0.9254 Y-0.978
N17985 X0.9093 Y-0.9776
N17990 X0.8932 Y-0.9772
N17995 X0.8771 Y-0.9769
N18000 X0.861 Y-0.9765
N18005 X0.8449 Y-0.9752
N18010 X0.829 Y-0.9725
N18015 X0.8135 Y-0.9682
N18020 X0.7985 Y-0.9623
N18025 X0.7842 Y-0.9549
N18030 X0.7707 Y-0.9462
N18035 X0.758 Y-0.9362
N18040 X0.7462 Y-0.9253
N18045 X0.7352 Y-0.9135
N18050 X0.725 Y-0.901
N18055 X0.7157 Y-0.8879
N18060 X0.7072 Y-0.8743
N18065 X0.6993 Y-0.8602
N18070 X0.6922 Y-0.8457
N18075 X0.6857 Y-0.831
N18080 X0.6798 Y-0.816
N18085 X0.6744 Y-0.8008
N18090 X0.6695 Y-0.7855
N18095 X0.6651 Y-0.77
N18100 X0.6611 Y-0.7544
N18105 X0.6575 Y-0.7387
N18110 X0.6541 Y-0.723
N18115 X0.6511 Y-0.7071
N18120 X0.6484 Y-0.6913
N18125 X0.6458 Y-0.6754
N18130 X0.6435 Y-0.6594
N18135 X0.6413 Y-0.6435
N18140 X0.6393 Y-0.6275
N18145 X0.6387 Y-0.6228
N18150 X0.6367 Y-0.6131
N18155 X0.6331 Y-0.6039
N18160 X0.628 Y-0.5955
N18165 X0.6179 Y-0.5816
N18170 X0.6104 Y-0.5712
N18175 X0.6091 Y-0.5692
N18180 X0.6044 Y-0.5617
N18185 X0.6029 Y-0.5591
N18190 X0.5879 Y-0.5318
N18195 X0.5504 Y-0.4636
N18200 X0.5467 Y-0.4569
N18205 X0.5431 Y-0.4494
N18210 X0.5398 Y-0.4419
N18215 X0.5367 Y-0.4344
N18220 X0.5245 Y-0.4044
N18225 X0.5215 Y-0.397
N18230 X0.5054 Y-0.3564
N18235 X0.5006 Y-0.3442
N18240 G3 X0.4545 Y-0.3635 I-0.0229 J-0.0099
N18245 X0.4548 Y-0.3641 I0.0232 J0.0093
N18250 G1 X0.4563 Y-0.3677 Z0.3567
N18255 X0.4578 Y-0.3712 Z0.3576
N18260 X0.4593 Y-0.3745 Z0.3591
N18265 X0.4606 Y-0.3776 Z0.3611
N18270 X0.4618 Y-0.3803 Z0.3637
N18275 X0.4628 Y-0.3827 Z0.3667
N18280 X0.4636 Y-0.3846 Z0.37
N18285 X0.4642 Y-0.3859 Z0.3736
N18290 X0.4646 Y-0.3868 Z0.3774
N18295 X0.4647 Y-0.3871 Z0.3814
N18300 G0 Z0.95
N18305 X0.1914 Y0.2545
N18310 Z0.4064
N18315 G1 Z0.3814 F60.
N18320 X0.1917 Y0.2544 Z0.3774
N18325 X0.1925 Y0.2541 Z0.3736
N18330 X0.194 Y0.2535 Z0.37
N18335 X0.1959 Y0.2528 Z0.3667
N18340 X0.1983 Y0.2519 Z0.3637
N18345 X0.201 Y0.2508 Z0.3611
N18350 X0.2042 Y0.2496 Z0.3591
N18355 X0.2076 Y0.2484 Z0.3576
N18360 X0.2111 Y0.247 Z0.3567
N18365 X0.2148 Y0.2456 Z0.3564
N18370 G3 X0.2733 Y0.2391 I0.0421 J0.111
N18375 G1 X0.2768 Y0.2397
N18380 X0.2805 Y0.2403
N18385 X0.288 Y0.2412
N18390 X0.2955 Y0.2416
N18395 X0.303 Y0.2417
N18400 X0.3105 Y0.2415
N18405 X0.3255 Y0.2412
N18410 X0.333 Y0.241
N18415 X0.3479 Y0.2407
N18420 X0.3528 Y0.2408
N18425 X0.3611 Y0.2417
N18430 X0.3702 Y0.2434
N18435 X0.3803 Y0.2461
N18440 X0.3913 Y0.2501
N18445 X0.4031 Y0.2555
N18450 X0.4158 Y0.2625
N18455 X0.4292 Y0.2715
N18460 X0.4419 Y0.2814
N18465 X0.4538 Y0.2922
N18470 X0.465 Y0.3038
N18475 X0.4756 Y0.316
N18480 X0.4855 Y0.3287
N18485 X0.4948 Y0.3418
N18490 X0.5035 Y0.3553
N18495 X0.5065 Y0.3604
N18500 X0.508 Y0.363
N18505 X0.5093 Y0.3657
N18510 X0.5105 Y0.3684
N18515 G3 X0.4712 Y0.3963 I-0.0235 J0.0084
N18520 G1 X0.4606 Y0.3877
N18525 X0.3481 Y0.2967
N18530 X0.3337 Y0.2851
N18535 G3 X0.3479 Y0.2407 I0.0157 J-0.0194
N18540 G1 X0.4304 Y0.2386
N18545 X0.4394 Y0.2388
N18550 X0.4482 Y0.2411
N18555 X0.456 Y0.2457
N18560 X0.4622 Y0.2524
N18565 G3 X0.465 Y0.288 I-0.0321 J0.0204
N18570 X0.4001 Y0.2598 I-0.0324 J-0.0141
N18575 X0.4304 Y0.2386 I0.0324 J0.0141
N18580 G1 X0.4379 Y0.2384
N18585 X0.4417 Y0.2385
N18590 X0.4454 Y0.2392
N18595 X0.4472 Y0.2397
N18600 X0.4501 Y0.2408
N18605 X0.4529 Y0.2424
N18610 X0.4557 Y0.2444
N18615 X0.4584 Y0.2472
N18620 X0.4604 Y0.2499
N18625 X0.4637 Y0.2546
N18630 X0.4661 Y0.2584
N18635 X0.4678 Y0.2621
N18640 X0.481 Y0.2921
N18645 X0.4829 Y0.2966
N18650 X0.484 Y0.2996
N18655 X0.4863 Y0.3071
N18660 X0.489 Y0.3146
N18665 X0.4904 Y0.3181
N18670 X0.492 Y0.3221
N18675 X0.5368 Y0.4344
N18680 X0.5398 Y0.4419
N18685 X0.5429 Y0.449
N18690 X0.5487 Y0.464
N18695 X0.5543 Y0.4791
N18700 X0.5595 Y0.4944
N18705 X0.5644 Y0.5097
N18710 X0.5689 Y0.5252
N18715 X0.5731 Y0.5407
N18720 X0.5769 Y0.5564
N18725 X0.5805 Y0.5721
N18730 X0.5839 Y0.5878
N18735 X0.587 Y0.6036
N18740 X0.5899 Y0.6195
N18745 X0.5927 Y0.6353
N18750 X0.5959 Y0.6511
N18755 X0.6001 Y0.6667
N18760 X0.6054 Y0.6818
N18765 X0.612 Y0.6965
N18770 X0.6198 Y0.7106
N18775 X0.6288 Y0.724
N18780 X0.6387 Y0.7366
N18785 X0.6497 Y0.7485
N18790 X0.6614 Y0.7595
N18795 X0.6738 Y0.7698
N18800 X0.6868 Y0.7792
N18805 X0.7004 Y0.788
N18810 X0.7143 Y0.796
N18815 X0.7287 Y0.8033
N18820 X0.7433 Y0.8101
N18825 X0.7582 Y0.8162
N18830 X0.7733 Y0.8218
N18835 X0.7886 Y0.8269
N18840 X0.804 Y0.8315
N18845 X0.8195 Y0.8357
N18850 X0.8352 Y0.8395
N18855 X0.8509 Y0.843
N18860 X0.8533 Y0.8435
N18865 X0.862 Y0.8459
N18870 X0.8702 Y0.8496
N18875 X0.8777 Y0.8546
N18880 X0.8803 Y0.8566
N18885 X0.8878 Y0.8615
N18890 X0.8953 Y0.8663
N18895 X0.9703 Y0.9139
N18900 X0.9778 Y0.9187
N18905 X0.9853 Y0.9233
N18910 X0.9928 Y0.9276
N18915 X0.9948 Y0.9287
N18920 X1.0003 Y0.9314
N18925 X1.0963 Y0.9765
N18930 X1.1063 Y0.9811
N18935 X1.1128 Y0.9837
N18940 X1.1203 Y0.9864
N18945 X1.1702 Y1.0026
N18950 X1.2253 Y1.0205
N18955 X1.2328 Y1.0228
N18960 X1.2402 Y1.0248
N18965 X1.2477 Y1.0264
N18970 X1.3527 Y1.0464
N18975 X1.3602 Y1.0478
N18980 X1.3645 Y1.0486
N18985 X1.3677 Y1.049
N18990 X1.3752 Y1.0496
N18995 X1.3827 Y1.0502
N19000 X1.4877 Y1.0568
N19005 X1.4952 Y1.0571
N19010 X1.5027 Y1.0572
N19015 X1.5102 Y1.0569
N19020 X1.6152 Y1.0503
N19025 X1.6227 Y1.0498
N19030 X1.6302 Y1.0492
N19035 X1.6355 Y1.0486
N19040 X1.6377 Y1.0482
N19045 X1.6452 Y1.0468
N19050 X1.7279 Y1.031
N19055 X1.7501 Y1.0268
N19060 X1.7536 Y1.0261
N19065 X1.7576 Y1.0253
N19070 X1.7651 Y1.0234
N19075 X1.7726 Y1.0212
N19080 X1.7801 Y1.0188
N19085 X1.8037 Y1.0111
N19090 X1.8776 Y0.9871
N19095 X1.8851 Y0.9845
N19100 X1.8926 Y0.9816
N19105 X1.8937 Y0.9811
N19110 X1.9001 Y0.9782
N19115 X1.9098 Y0.9737
N19120 X1.9976 Y0.9324
N19125 X2.0051 Y0.9288
N19130 X2.0052 Y0.9287
N19135 X2.0197 Y0.9217
N19140 X2.0345 Y0.9156
N19145 X2.0498 Y0.9103
N19150 X2.0652 Y0.9057
N19155 X2.0808 Y0.9017
N19160 X2.0965 Y0.8982
N19165 X2.1123 Y0.8952
N19170 X2.1282 Y0.8926
N19175 X2.1442 Y0.8903
N19180 X2.1602 Y0.8884
N19185 X2.1762 Y0.8866
N19190 X2.1922 Y0.8851
N19195 X2.2083 Y0.8838
N19200 X2.2243 Y0.8827
N19205 X2.2404 Y0.8817
N19210 X2.2565 Y0.8808
N19215 X2.2726 Y0.88
N19220 X2.2887 Y0.8794
N19225 X2.3048 Y0.8788
N19230 X2.3209 Y0.8783
N19235 X2.3369 Y0.8779
N19240 X2.3531 Y0.8775
N19245 X2.3692 Y0.8771
N19250 X2.3853 Y0.8768
N19255 X2.4014 Y0.8766
N19260 X2.4175 Y0.8764
N19265 X2.4336 Y0.8762
N19270 X2.4497 Y0.876
N19275 X2.4658 Y0.8759
N19280 X2.4819 Y0.8757
N19285 X2.498 Y0.8756
N19290 X2.5141 Y0.8755
N19295 X2.5302 Y0.8754
N19300 X2.5463
N19305 X2.5624 Y0.8753
N19310 X2.5946 Y0.8752
N19315 X2.6268 Y0.8751
N19320 X2.659 Y0.875
N19325 X2.7073
N19330 X2.7718 Y0.8749
N19335 X2.8523
N19340 X2.9811 Y0.8748
N19345 X3.3032
N19350 X3.9796
N19355 X5.9606
N19360 X7.9415
N19365 X9.9224
N19370 X11.9033
N19375 X13.8842
N19380 X15.1082
N19385 X15.1243
N19390 X15.1404 Y0.8746
N19395 X15.1565 Y0.8733
N19400 X15.1724 Y0.8706
N19405 X15.1878 Y0.8662
N19410 X15.2028 Y0.8602
N19415 X15.2171 Y0.8527
N19420 X15.2306 Y0.8439
N19425 X15.2432 Y0.834
N19430 X15.2551 Y0.8231
N19435 X15.2661 Y0.8114
N19440 X15.2764 Y0.799
N19445 X15.2859 Y0.786
N19450 X15.2948 Y0.7725
N19455 X15.303 Y0.7587
N19460 X15.3107 Y0.7445
N19465 X15.3179 Y0.7301
N19470 X15.3246 Y0.7155
N19475 X15.3311 Y0.7007
N19480 X15.3373 Y0.6859
N19485 X15.3435 Y0.671
N19490 X15.3497 Y0.6561
N19495 X15.3548 Y0.6443
N19500 X15.3603 Y0.6345
N19505 X15.3676 Y0.626
N19510 X15.3764 Y0.6191
N19515 X15.3863 Y0.6141
N19520 X15.3971 Y0.6111
N19525 X15.4046 Y0.6092
N19530 X15.4121 Y0.607
N19535 X15.5137 Y0.5756
N19540 G3 X15.5275 Y0.6236 I0.0066 J0.0241
N19545 X15.5268 Y0.6238 I-0.0072 J-0.0239
N19550 G1 X15.523 Y0.6248 Z0.3567
N19555 X15.5193 Y0.6258 Z0.3576
N19560 X15.5158 Y0.6268 Z0.3591
N19565 X15.5126 Y0.6277 Z0.3611
N19570 X15.5097 Y0.6285 Z0.3637
N19575 X15.5073 Y0.6291 Z0.3667
N19580 X15.5053 Y0.6297 Z0.37
N19585 X15.5039 Y0.6301 Z0.3736
N19590 X15.503 Y0.6303 Z0.3774
N19595 X15.5027 Y0.6304 Z0.3814
N19600 G0 Z0.95
N19605 X15.7774 Y-0.5305
N19610 Z0.4064
N19615 G1 Z0.3814 F60.
N19620 X15.7771 Z0.3774
N19625 X15.7762 Y-0.5302 Z0.3736
N19630 X15.7747 Y-0.5299 Z0.37
N19635 X15.7727 Y-0.5294 Z0.3667
N19640 X15.7703 Y-0.5288 Z0.3637
N19645 X15.7674 Y-0.5281 Z0.3611
N19650 X15.7641 Y-0.5273 Z0.3591
N19655 X15.7606 Y-0.5265 Z0.3576
N19660 X15.7569 Y-0.5256 Z0.3567
N19665 X15.7531 Y-0.5247 Z0.3564
N19670 G3 X15.6745 Y-0.5258 I-0.0371 J-0.1539
N19675 G1 X15.5771 Y-0.556
N19680 X15.5685 Y-0.5591
N19685 X15.5592 Y-0.5633
N19690 X15.5492 Y-0.569
N19695 X15.5383 Y-0.5763
N19700 X15.5268 Y-0.5855
N19705 X15.515 Y-0.5964
N19710 X15.5041 Y-0.6083
N19715 X15.494 Y-0.6209
N19720 X15.4847 Y-0.634
N19725 X15.476 Y-0.6476
N19730 X15.4675 Y-0.6612
N19735 X15.4589 Y-0.6748
N19740 X15.4499 Y-0.6882
N19745 X15.4404 Y-0.7012
N19750 X15.4304 Y-0.7138
N19755 X15.4197 Y-0.7258
N19760 X15.4083 Y-0.7373
N19765 X15.3964 Y-0.7482
N19770 X15.384 Y-0.7584
N19775 X15.3711 Y-0.768
N19780 X15.3577 Y-0.7769
N19785 X15.3439 Y-0.7853
N19790 X15.3298 Y-0.793
N19795 X15.3153 Y-0.8001
N19800 X15.3006 Y-0.8068
N19805 X15.2857 Y-0.8128
N19810 X15.2706 Y-0.8184
N19815 X15.2554 Y-0.8236
N19820 X15.24 Y-0.8283
N19825 X15.2244 Y-0.8326
N19830 X15.2088 Y-0.8365
N19835 X15.1931 Y-0.8401
N19840 X15.1773 Y-0.8433
N19845 X15.1615 Y-0.8463
N19850 X15.1456 Y-0.849
N19855 X15.1297 Y-0.8515
N19860 X15.1138 Y-0.8537
N19865 X15.0978 Y-0.8557
N19870 X15.0818 Y-0.8576
N19875 X15.0658 Y-0.8593
N19880 X15.0498 Y-0.8608
N19885 X15.0337 Y-0.8622
N19890 X15.0176 Y-0.8634
N19895 X15.0016 Y-0.8645
N19900 X14.9855 Y-0.8655
N19905 X14.9694 Y-0.8665
N19910 X14.9533 Y-0.8673
N19915 X14.9373 Y-0.868
N19920 X14.9212 Y-0.8687
N19925 X14.9051 Y-0.8693
N19930 X14.889 Y-0.8699
N19935 X14.8729 Y-0.8704
N19940 X14.8568 Y-0.8708
N19945 X14.8407 Y-0.8713
N19950 X14.8246 Y-0.8716
N19955 X14.8085 Y-0.872
N19960 X14.7924 Y-0.8723
N19965 X14.7763 Y-0.8725
N19970 X14.7602 Y-0.8728
N19975 X14.7441 Y-0.873
N19980 X14.728 Y-0.8732
N19985 X14.7119 Y-0.8734
N19990 X14.6958 Y-0.8735
N19995 X14.6797 Y-0.8737
N20000 X14.6636 Y-0.8738
N20005 X14.6474 Y-0.8739
N20010 X14.6313 Y-0.874
N20015 X14.6152 Y-0.8741
N20020 X14.5991 Y-0.8742
N20025 X14.5669 Y-0.8743
N20030 X14.5347 Y-0.8745
N20035 X14.5025
N20040 X14.4703 Y-0.8746
N20045 X14.422 Y-0.8747
N20050 X14.3737 Y-0.8748
N20055 X14.3092
N20060 X14.2287 Y-0.8749
N20065 X14.0999
N20070 X13.8744
N20075 X13.7134
N20080 X11.7324
N20085 X9.7515
N20090 X7.7706
N20095 X5.7897 Y-0.8748
N20100 X3.8088
N20105 X2.1083
N20110 X2.0974 Y-0.8758
N20115 X2.0868 Y-0.8789
N20120 X2.077 Y-0.8839
N20125 X2.0276 Y-0.9153
N20130 X2.0201 Y-0.92
N20135 X2.0126 Y-0.9247
N20140 X2.0051 Y-0.9288
N20145 X1.9976 Y-0.9324
N20150 X1.9076 Y-0.9747
N20155 X1.9001 Y-0.9782
N20160 X1.8959 Y-0.9801
N20165 X1.8937 Y-0.9811
N20170 X1.8926 Y-0.9816
N20175 X1.8851 Y-0.9845
N20180 X1.8776 Y-0.9871
N20185 X1.8215 Y-1.0053
N20190 X1.7801 Y-1.0188
N20195 X1.7726 Y-1.0212
N20200 X1.7651 Y-1.0234
N20205 X1.7576 Y-1.0253
N20210 X1.7536 Y-1.0261
N20215 X1.7501 Y-1.0268
N20220 X1.6452 Y-1.0468
N20225 X1.6377 Y-1.0482
N20230 X1.6355 Y-1.0486
N20235 X1.6302 Y-1.0492
N20240 X1.6227 Y-1.0498
N20245 X1.6152 Y-1.0503
N20250 X1.5177 Y-1.0565
N20255 X1.5102 Y-1.0569
N20260 X1.5027 Y-1.0572
N20265 X1.4952 Y-1.0571
N20270 X1.4877 Y-1.0568
N20275 X1.3827 Y-1.0502
N20280 X1.3752 Y-1.0496
N20285 X1.3677 Y-1.049
N20290 X1.3645 Y-1.0486
N20295 X1.3602 Y-1.0478
N20300 X1.3527 Y-1.0464
N20305 X1.2721 Y-1.031
N20310 X1.2552 Y-1.0278
N20315 X1.2477 Y-1.0264
N20320 X1.2402 Y-1.0248
N20325 X1.2328 Y-1.0228
N20330 X1.2253 Y-1.0205
N20335 X1.1963 Y-1.0111
N20340 X1.1203 Y-0.9864
N20345 X1.1128 Y-0.9837
N20350 X1.1063 Y-0.9811
N20355 X1.0978 Y-0.9772
N20360 X1.0003 Y-0.9314
N20365 X0.9948 Y-0.9287
N20370 X0.9928 Y-0.9276
N20375 X0.9804 Y-0.9214
N20380 X0.9655 Y-0.9153
N20385 X0.9503 Y-0.9099
N20390 X0.9352 Y-0.9044
N20395 X0.9203 Y-0.8982
N20400 X0.9059 Y-0.891
N20405 X0.892 Y-0.8828
N20410 X0.8788 Y-0.8737
N20415 X0.8662 Y-0.8636
N20420 X0.8544 Y-0.8527
N20425 X0.8433 Y-0.841
N20430 X0.833 Y-0.8286
N20435 X0.8235 Y-0.8156
N20440 X0.8203 Y-0.8109
N20445 X0.8169 Y-0.8062
N20450 X0.813 Y-0.8019
N20455 X0.8088 Y-0.798
N20460 G3 X0.7783 Y-0.8376 I-0.0153 J-0.0198
N20465 X0.7791 Y-0.8383 I0.0153 J0.0198
N20470 G1 X0.9653 Y-0.9693
N20475 G3 X1.0005 Y-0.9627 I0.0144 J0.0204
N20480 X0.9928 Y-0.9276 I-0.0209 J0.0138
N20485 G1 X0.9853 Y-0.9233
N20490 X0.9778 Y-0.9187
N20495 X0.97 Y-0.9137
N20500 X0.8953 Y-0.8663
N20505 X0.8875 Y-0.8613
N20510 X0.8803 Y-0.8566
N20515 X0.8728 Y-0.8508
N20520 X0.8672 Y-0.8463
N20525 X0.7857 Y-0.7789
N20530 X0.7829 Y-0.7765
N20535 X0.7771 Y-0.7714
N20540 X0.7754 Y-0.7698
N20545 X0.7695 Y-0.7639
N20550 X0.7679 Y-0.7622
N20555 X0.6992 Y-0.6891
N20560 X0.6921 Y-0.6816
N20565 X0.6857 Y-0.6741
N20570 X0.6797 Y-0.6666
N20575 X0.628 Y-0.5955
N20580 G3 X0.5929 Y-0.5912 I-0.0197 J-0.0154
N20585 X0.5886 Y-0.6263 I0.0154 J-0.0197
N20590 G1 X0.591 Y-0.6293 Z0.3567
N20595 X0.5934 Y-0.6323 Z0.3576
N20600 X0.5956 Y-0.6352 Z0.3591
N20605 X0.5976 Y-0.6378 Z0.3611
N20610 X0.5995 Y-0.6402 Z0.3637
N20615 X0.601 Y-0.6422 Z0.3667
N20620 X0.6023 Y-0.6438 Z0.37
N20625 X0.6032 Y-0.645 Z0.3736
N20630 X0.6038 Y-0.6457 Z0.3774
N20635 X0.604 Y-0.646 Z0.3814
N20640 G0 Z0.95
N20645 X0.4719 Y0.3744
N20650 Z0.4064
N20655 G1 Z0.3814 F60.
N20660 X0.4722 Y0.3746 Z0.3774
N20665 X0.4729 Y0.3752 Z0.3736
N20670 X0.4741 Y0.376 Z0.37
N20675 X0.4758 Y0.3772 Z0.3667
N20680 X0.4779 Y0.3787 Z0.3637
N20685 X0.4803 Y0.3804 Z0.3611
N20690 X0.483 Y0.3824 Z0.3591
N20695 X0.486 Y0.3845 Z0.3576
N20700 X0.4891 Y0.3867 Z0.3567
N20705 X0.4923 Y0.389 Z0.3564
N20710 G3 X0.5429 Y0.449 I-0.0919 J0.1289
N20715 G1 X0.5431 Y0.4494
N20720 X0.5467 Y0.4569
N20725 X0.5673 Y0.4943
N20730 X0.6002 Y0.5542
N20735 X0.6029 Y0.5591
N20740 X0.6044 Y0.5617
N20745 X0.6091 Y0.5692
N20750 X0.6104 Y0.5712
N20755 X0.6179 Y0.5816
N20760 X0.6797 Y0.6666
N20765 X0.6857 Y0.6741
N20770 X0.6921 Y0.6816
N20775 X0.7004 Y0.6903
N20780 X0.7679 Y0.7622
N20785 X0.7695 Y0.7639
N20790 X0.7754 Y0.7698
N20795 X0.7771 Y0.7714
N20800 X0.7829 Y0.7765
N20805 X0.7857 Y0.7789
N20810 X0.8653 Y0.8448
N20815 G3 X0.8327 Y0.8826 I-0.0166 J0.0187
N20820 X0.8321 Y0.8822 I0.0161 J-0.0191
N20825 G1 X0.8292 Y0.8796 Z0.3567
N20830 X0.8264 Y0.8771 Z0.3576
N20835 X0.8236 Y0.8746 Z0.3591
N20840 X0.8211 Y0.8724 Z0.3611
N20845 X0.8189 Y0.8704 Z0.3637
N20850 X0.817 Y0.8688 Z0.3667
N20855 X0.8155 Y0.8674 Z0.37
N20860 X0.8144 Y0.8664 Z0.3736
N20865 X0.8137 Y0.8658 Z0.3774
N20870 X0.8134 Y0.8656 Z0.3814
N20875 G0 Z0.95
N20880 X1.9369 Y1.0058
N20885 Z0.4064
N20890 G1 Z0.3814 F60.
N20895 X1.9371 Y1.0056 Z0.3774
N20900 X1.9376 Y1.0048 Z0.3736
N20905 X1.9383 Y1.0035 Z0.37
N20910 X1.9394 Y1.0017 Z0.3667
N20915 X1.9407 Y0.9995 Z0.3637
N20920 X1.9422 Y0.997 Z0.3611
N20925 X1.9439 Y0.9941 Z0.3591
N20930 X1.9457 Y0.991 Z0.3576
N20935 X1.9477 Y0.9877 Z0.3567
N20940 X1.9497 Y0.9843 Z0.3564
N20945 G3 X2.0052 Y0.9287 I0.1362 J0.0805
N20950 G1 X2.0126 Y0.9247
N20955 X2.0201 Y0.92
N20960 X2.0276 Y0.9153
N20965 X2.1026 Y0.8677
N20970 X2.1101 Y0.8629
N20975 X2.1176 Y0.8581
N20980 X2.1233 Y0.8538
N20985 X2.1251 Y0.8525
N20990 X2.1382 Y0.8431
N20995 X2.1518 Y0.8346
N21000 X2.1661 Y0.8272
N21005 X2.1809 Y0.8207
N21010 X2.196 Y0.8151
N21015 X2.2113 Y0.8101
N21020 X2.2268 Y0.8058
N21025 X2.2425 Y0.802
N21030 X2.2582 Y0.7987
N21035 X2.2741 Y0.7958
N21040 X2.29 Y0.7933
N21045 X2.3059 Y0.791
N21050 X2.3219 Y0.7891
N21055 X2.3379 Y0.7873
N21060 X2.354 Y0.7858
N21065 X2.37 Y0.7845
N21070 X2.3861 Y0.7833
N21075 X2.4021 Y0.7823
N21080 X2.4182 Y0.7814
N21085 X2.4343 Y0.7806
N21090 X2.4504 Y0.7799
N21095 X2.4665 Y0.7793
N21100 X2.4826 Y0.7787
N21105 X2.4987 Y0.7783
N21110 X2.5148 Y0.7779
N21115 X2.5309 Y0.7775
N21120 X2.547 Y0.7772
N21125 X2.5631 Y0.7769
N21130 X2.5792 Y0.7766
N21135 X2.5953 Y0.7764
N21140 X2.6114 Y0.7762
N21145 X2.6275 Y0.7761
N21150 X2.6436 Y0.7759
N21155 X2.6597 Y0.7758
N21160 X2.6758 Y0.7757
N21165 X2.6919 Y0.7756
N21170 X2.708 Y0.7755
N21175 X2.7241 Y0.7754
N21180 X2.7402 Y0.7753
N21185 X2.7724 Y0.7752
N21190 X2.8047 Y0.7751
N21195 X2.8369
N21200 X2.8852 Y0.775
N21205 X2.9335 Y0.7749
N21210 X3.014
N21215 X3.1268
N21220 X3.3361 Y0.7748
N21225 X4.0931
N21230 X6.074
N21235 X8.0549
N21240 X10.0358
N21245 X12.0167
N21250 X13.9976
N21255 X15.0123
N21260 X15.0284 Y0.7747
N21265 X15.0445 Y0.7743
N21270 X15.0605 Y0.7727
N21275 X15.0763 Y0.7696
N21280 X15.0917 Y0.7649
N21285 X15.1066 Y0.7588
N21290 X15.1208 Y0.7513
N21295 X15.1344 Y0.7426
N21300 X15.1473 Y0.7329
N21305 X15.1595 Y0.7224
N21310 X15.171 Y0.7111
N21315 X15.1819 Y0.6993
N21320 X15.1924 Y0.6871
N21325 X15.2025 Y0.6745
N21330 X15.2124 Y0.6618
N21335 X15.2223 Y0.6491
N21340 X15.2324 Y0.6366
N21345 X15.2427 Y0.6242
N21350 X15.2498 Y0.6162
N21355 X15.2589 Y0.608
N21360 X15.2694 Y0.6018
N21365 X15.2811 Y0.598
N21370 X15.2932 Y0.5967
N21375 X15.3054 Y0.5979
N21380 X15.317 Y0.6017
