%
(1001)
(HELENA WAND)
(T1  D=0.25 CR=0. - ZMIN=0.0234 - FLAT END MILL)
(T4  D=0.0787 CR=0. - ZMIN=0.375 - FLAT END MILL)
N10 G90 G94 G17 G91.1
N15 G20
N20 G53 G0 Z0.
(DRILL1)
N25 M9
N30 T1 M6
N35 T4
N40 S1700 M3
N45 G54
N50 M8
N60 G0 X0. Y-0.2553
N65 G43 Z1.35 H1
N75 G0 Z0.95
N80 G98 G81 X0. Y-0.2553 Z0.375 R0.575 F193.405
N85 G80
N90 G0 Z1.35
(ADAPTIVE2)
N100 M9
N105 G0 X-0.2035 Y-16.1626
N110 Z1.35
N115 Z0.95
N120 Z0.4064
N125 G1 Z0.3814 F193.405
N130 X-0.2038 Y-16.1624 Z0.3774
N135 X-0.2046 Y-16.1619 Z0.3736
N140 X-0.2058 Y-16.1611 Z0.37
N145 X-0.2076 Y-16.16 Z0.3667
N150 X-0.2097 Y-16.1587 Z0.3637
N155 X-0.2122 Y-16.1571 Z0.3611
N160 X-0.215 Y-16.1553 Z0.3591
N165 X-0.2181 Y-16.1533 Z0.3576
N170 X-0.2213 Y-16.1513 Z0.3567
N175 X-0.2246 Y-16.1492 Z0.3564
N180 G3 X-0.2993 Y-16.1248 I-0.0849 J-0.1335
N185 G1 X-0.2996
N190 X-0.3071 Y-16.1242
N195 X-0.3146 Y-16.1233
N200 X-0.3221 Y-16.1218
N205 X-0.3263 Y-16.1207
N210 X-0.3295 Y-16.1198
N215 X-0.337 Y-16.1173
N220 X-0.3445 Y-16.1144
N225 X-0.347 Y-16.1132
N230 X-0.352 Y-16.1108
N235 X-0.3595 Y-16.1064
N240 X-0.3606 Y-16.1057
N245 X-0.367 Y-16.1016
N250 X-0.3714 Y-16.0982
N255 X-0.3745 Y-16.0958
N260 X-0.3762 Y-16.0943
N265 X-0.3826 Y-16.0892
N270 X-0.3933 Y-16.0819
N275 X-0.4071 Y-16.0741
N280 X-0.4217 Y-16.0673
N285 X-0.4368 Y-16.0615
N290 X-0.4521 Y-16.0565
N295 X-0.4676 Y-16.0522
N300 X-0.4833 Y-16.0485
N305 X-0.4991 Y-16.0453
N310 X-0.5149 Y-16.0426
N315 X-0.5309 Y-16.0402
N320 X-0.5468 Y-16.0381
N325 X-0.5628 Y-16.0364
N330 X-0.5789 Y-16.0348
N335 X-0.5949 Y-16.0335
N340 X-0.611 Y-16.0323
N345 X-0.6271 Y-16.0313
N350 X-0.6431 Y-16.0305
N355 X-0.6592 Y-16.0297
N360 X-0.6753 Y-16.0291
N365 X-0.6914 Y-16.0285
N370 X-0.7075 Y-16.028
N375 X-0.7236 Y-16.0276
N380 X-0.7397 Y-16.0272
N385 X-0.7558 Y-16.0269
N390 X-0.7719 Y-16.0266
N395 X-0.788 Y-16.0264
N400 X-0.8041 Y-16.0262
N405 X-0.8202 Y-16.026
N410 X-0.8363 Y-16.0258
N415 X-0.8524 Y-16.0257
N420 X-0.8685 Y-16.0256
N425 X-0.8847 Y-16.0255
N430 X-0.9008 Y-16.0254
N435 X-0.9169 Y-16.0253
N440 X-0.933 Y-16.0252
N445 X-0.9652 Y-16.0251
N450 X-0.9974 Y-16.025
N455 X-1.0296
N460 X-1.0779 Y-16.0249
N465 X-1.1423 Y-16.0248
N470 X-1.2229
N475 X-1.3517
N480 X-1.6335
N485 X-1.6415 Y-16.0237
N490 X-1.657 Y-16.0193
N495 X-1.6709 Y-16.0111
N500 X-1.6833 Y-16.0009
N505 X-1.6945 Y-15.9892
N510 X-1.7043 Y-15.9765
N515 X-1.7131 Y-15.963
N520 X-1.7208 Y-15.9489
N525 X-1.7276 Y-15.9343
N530 X-1.7336 Y-15.9193
N535 X-1.7388 Y-15.9041
N540 X-1.7434 Y-15.8886
N545 X-1.7475 Y-15.8731
N550 X-1.751 Y-15.8573
N555 X-1.7541 Y-15.8415
N560 X-1.7567 Y-15.8257
N565 X-1.7591 Y-15.8097
N570 X-1.7611 Y-15.7937
N575 X-1.7629 Y-15.7777
N580 X-1.7645 Y-15.7617
N585 X-1.7658 Y-15.7457
N590 X-1.767 Y-15.7296
N595 X-1.768 Y-15.7135
N600 X-1.7689 Y-15.6974
N605 X-1.7697 Y-15.6814
N610 X-1.7704 Y-15.6653
N615 X-1.771 Y-15.6492
N620 X-1.7715 Y-15.6331
N625 X-1.7719 Y-15.617
N630 X-1.7723 Y-15.6009
N635 X-1.7726 Y-15.5848
N640 X-1.7729 Y-15.5687
N645 X-1.7732 Y-15.5526
N650 X-1.7734 Y-15.5365
N655 X-1.7736 Y-15.5204
N660 X-1.7737 Y-15.5043
N665 X-1.7739 Y-15.4882
N670 X-1.774 Y-15.472
N675 X-1.7741 Y-15.4559
N680 X-1.7742 Y-15.4398
N685 X-1.7743 Y-15.4237
N690 X-1.7744 Y-15.4076
N695 Y-15.3915
N700 X-1.7745 Y-15.3754
N705 X-1.7746 Y-15.3432
N710 Y-15.311
N715 X-1.7747 Y-15.2627
N720 X-1.7748 Y-15.2144
N725 Y-15.1338
N730 Y-15.0211
N735 Y-14.7634
N740 Y-13.3945
N745 Y-11.4136
N750 Y-9.4327
N755 Y-7.4517
N760 Y-5.4708
N765 Y-3.4899
N770 Y-1.509
N775 Y-0.1159
N780 X-1.7737 Y-0.1079
N785 X-1.7693 Y-0.0924
N790 X-1.761 Y-0.0786
N795 X-1.7507 Y-0.0662
N800 X-1.739 Y-0.0551
N805 X-1.7263 Y-0.0453
N810 X-1.7127 Y-0.0366
N815 X-1.6986 Y-0.0289
N820 X-1.684 Y-0.0222
N825 X-1.669 Y-0.0162
N830 X-1.6538 Y-0.011
N835 X-1.6383 Y-0.0064
N840 X-1.6227 Y-0.0024
N845 X-1.607 Y0.0011
N850 X-1.5912 Y0.0042
N855 X-1.5753 Y0.0068
N860 X-1.5594 Y0.0092
N865 X-1.5434 Y0.0112
N870 X-1.5274 Y0.013
N875 X-1.5114 Y0.0145
N880 X-1.4953 Y0.0159
N885 X-1.4792 Y0.017
N890 X-1.4632 Y0.018
N895 X-1.4471 Y0.0189
N900 X-1.431 Y0.0197
N905 X-1.4149 Y0.0204
N910 X-1.3988 Y0.021
N915 X-1.3827 Y0.0215
N920 X-1.3666 Y0.0219
N925 X-1.3505 Y0.0223
N930 X-1.3344 Y0.0226
N935 X-1.3183 Y0.0229
N940 X-1.3022 Y0.0232
N945 X-1.2861 Y0.0234
N950 X-1.27 Y0.0236
N955 X-1.2539 Y0.0237
N960 X-1.2378 Y0.0239
N965 X-1.2217 Y0.024
N970 X-1.2056 Y0.0241
N975 X-1.1895 Y0.0242
N980 X-1.1734 Y0.0243
N985 X-1.1573 Y0.0244
N990 X-1.1412
N995 X-1.109 Y0.0245
N1000 X-1.0767 Y0.0246
N1005 X-1.0284 Y0.0247
N1010 X-0.9801
N1015 X-0.9157 Y0.0248
N1020 X-0.8191
N1025 X-0.6419
N1030 X-0.2753
N1035 X-0.2625 Y0.0262
N1040 X-0.2503 Y0.0304
N1045 X-0.2394 Y0.0371
N1050 X-0.2302 Y0.0461
N1055 X-0.2232 Y0.0569
N1060 G3 X-0.2255 Y0.0818 I-0.0227 J0.0105
N1065 G2 X-0.2084 Y0.121 I0.0204 J0.0144
N1070 G1 X-0.2073 Y0.1211
N1075 X0.027 Y0.1529
N1080 G2 X0.0438 Y0.1492 I0.0034 J-0.0248
N1085 G3 X0.1185 Y0.1248 I0.0851 J0.1335
N1090 G1 X0.1198 Y0.1247
N1095 X0.1273 Y0.124
N1100 X0.1348 Y0.1229
N1105 X0.1423 Y0.1213
N1110 X0.1498 Y0.1191
N1115 X0.1573 Y0.1164
N1120 X0.1648 Y0.1132
N1125 X0.1723 Y0.1095
N1130 X0.1798 Y0.105
N1135 X0.1872 Y0.0998
N1140 X0.1893 Y0.0982
N1145 X0.1947 Y0.0937
N1150 X0.2008 Y0.0889
N1155 X0.2116 Y0.0816
N1160 X0.2256 Y0.0737
N1165 X0.2403 Y0.067
N1170 X0.2553 Y0.0612
N1175 X0.2706 Y0.0563
N1180 X0.2862 Y0.052
N1185 X0.3018 Y0.0483
N1190 X0.3176 Y0.0452
N1195 X0.3335 Y0.0425
N1200 X0.3494 Y0.0401
N1205 X0.3654 Y0.0381
N1210 X0.3814 Y0.0363
N1215 X0.3974 Y0.0348
N1220 X0.4135 Y0.0334
N1225 X0.4296 Y0.0323
N1230 X0.4456 Y0.0313
N1235 X0.4617 Y0.0304
N1240 X0.4778 Y0.0297
N1245 X0.4939 Y0.029
N1250 X0.51 Y0.0285
N1255 X0.5261 Y0.028
N1260 X0.5422 Y0.0276
N1265 X0.5583 Y0.0272
N1270 X0.5744 Y0.0269
N1275 X0.5905 Y0.0266
N1280 X0.6066 Y0.0264
N1285 X0.6227 Y0.0262
N1290 X0.6388 Y0.026
N1295 X0.6549 Y0.0258
N1300 X0.671 Y0.0257
N1305 X0.6871 Y0.0256
N1310 X0.7032 Y0.0255
N1315 X0.7193 Y0.0254
N1320 X0.7354 Y0.0253
N1325 X0.7515 Y0.0252
N1330 X0.7837 Y0.0251
N1335 X0.816 Y0.025
N1340 X0.8482
N1345 X0.8965 Y0.0249
N1350 X0.9609 Y0.0248
N1355 X1.0414
N1360 X1.1864
N1365 X1.6212
N1370 X1.6373
N1375 X1.6529 Y0.0208
N1380 X1.6672 Y0.0133
N1385 X1.68 Y0.0036
N1390 X1.6915 Y-0.0077
N1395 X1.7017 Y-0.0201
N1400 X1.7108 Y-0.0335
N1405 X1.7188 Y-0.0474
N1410 X1.7258 Y-0.0619
N1415 X1.732 Y-0.0768
N1420 X1.7374 Y-0.0919
N1425 X1.7422 Y-0.1073
N1430 X1.7464 Y-0.1229
N1435 X1.7501 Y-0.1386
N1440 X1.7532 Y-0.1543
N1445 X1.756 Y-0.1702
N1450 X1.7585 Y-0.1861
N1455 X1.7606 Y-0.2021
N1460 X1.7624 Y-0.2181
N1465 X1.7641 Y-0.2341
N1470 X1.7655 Y-0.2502
N1475 X1.7667 Y-0.2662
N1480 X1.7678 Y-0.2823
N1485 X1.7687 Y-0.2984
N1490 X1.7695 Y-0.3145
N1495 X1.7702 Y-0.3305
N1500 X1.7708 Y-0.3466
N1505 X1.7713 Y-0.3627
N1510 X1.7718 Y-0.3788
N1515 X1.7722 Y-0.3949
N1520 X1.7725 Y-0.411
N1525 X1.7728 Y-0.4271
N1530 X1.7731 Y-0.4432
N1535 X1.7733 Y-0.4593
N1540 X1.7735 Y-0.4754
N1545 X1.7737 Y-0.4915
N1550 X1.7739 Y-0.5077
N1555 X1.774 Y-0.5238
N1560 X1.7741 Y-0.5399
N1565 X1.7742 Y-0.556
N1570 X1.7743 Y-0.5721
N1575 X1.7744 Y-0.5882
N1580 Y-0.6043
N1585 X1.7745 Y-0.6365
N1590 X1.7746 Y-0.6687
N1595 X1.7747 Y-0.7009
N1600 Y-0.7492
N1605 X1.7748 Y-0.8136
N1610 Y-0.8942
N1615 Y-1.0391
N1620 Y-1.4901
N1625 Y-2.4241
N1630 Y-4.4051
N1635 Y-6.386
N1640 Y-8.3669
N1645 Y-10.3478
N1650 Y-12.3287
N1655 Y-14.3097
N1660 Y-15.888
N1665 X1.7706 Y-15.9035
N1670 X1.763 Y-15.9177
N1675 X1.7533 Y-15.9305
N1680 X1.7419 Y-15.9419
N1685 X1.7294 Y-15.9521
N1690 X1.7161 Y-15.9611
N1695 X1.7021 Y-15.9691
N1700 X1.6876 Y-15.9761
N1705 X1.6727 Y-15.9822
N1710 X1.6575 Y-15.9876
N1715 X1.6421 Y-15.9924
N1720 X1.6266 Y-15.9965
N1725 X1.6109 Y-16.0002
N1730 X1.5951 Y-16.0034
N1735 X1.5792 Y-16.0061
N1740 X1.5633 Y-16.0086
N1745 X1.5473 Y-16.0107
N1750 X1.5313 Y-16.0125
N1755 X1.5153 Y-16.0141
N1760 X1.4993 Y-16.0155
N1765 X1.4832 Y-16.0167
N1770 X1.4671 Y-16.0178
N1775 X1.451 Y-16.0187
N1780 X1.435 Y-16.0195
N1785 X1.4189 Y-16.0202
N1790 X1.4028 Y-16.0208
N1795 X1.3867 Y-16.0213
N1800 X1.3706 Y-16.0218
N1805 X1.3545 Y-16.0222
N1810 X1.3384 Y-16.0225
N1815 X1.3223 Y-16.0228
N1820 X1.3062 Y-16.0231
N1825 X1.2901 Y-16.0233
N1830 X1.274 Y-16.0235
N1835 X1.2579 Y-16.0237
N1840 X1.2418 Y-16.0238
N1845 X1.2257 Y-16.024
N1850 X1.2096 Y-16.0241
N1855 X1.1934 Y-16.0242
N1860 X1.1773 Y-16.0243
N1865 X1.1612
N1870 X1.1451 Y-16.0244
N1875 X1.1129 Y-16.0245
N1880 X1.0807 Y-16.0246
N1885 X1.0485
N1890 X1.0002 Y-16.0247
N1895 X0.9358 Y-16.0248
N1900 X0.8552
N1905 X0.7103
N1910 X0.4576
N1915 X0.4446 Y-16.0263
N1920 X0.4323 Y-16.0306
N1925 X0.4213 Y-16.0375
N1930 X0.4121 Y-16.0467
N1935 X0.4051 Y-16.0577
N1940 G3 X0.4505 Y-16.0785 I0.0229 J-0.0101
N1945 X0.4508 Y-16.0779 I-0.0226 J0.0107
N1950 G1 X0.4524 Y-16.0743 Z0.3567
N1955 X0.4539 Y-16.0709 Z0.3576
N1960 X0.4554 Y-16.0675 Z0.3591
N1965 X0.4568 Y-16.0645 Z0.3611
N1970 X0.458 Y-16.0618 Z0.3637
N1975 X0.459 Y-16.0594 Z0.3667
N1980 X0.4598 Y-16.0576 Z0.37
N1985 X0.4604 Y-16.0562 Z0.3736
N1990 X0.4608 Y-16.0553 Z0.3774
N1995 X0.4609 Y-16.0551 Z0.3814
N2000 G0 Z0.95
N2005 X-0.3115 Y-16.175
N2010 Z0.4064
N2015 G1 Z0.3814 F193.405
N2020 X-0.3117 Y-16.1747 Z0.3774
N2025 X-0.3122 Y-16.174 Z0.3736
N2030 X-0.313 Y-16.1727 Z0.37
N2035 X-0.3142 Y-16.171 Z0.3667
N2040 X-0.3156 Y-16.1689 Z0.3637
N2045 X-0.3173 Y-16.1664 Z0.3611
N2050 X-0.3192 Y-16.1637 Z0.3591
N2055 X-0.3212 Y-16.1607 Z0.3576
N2060 X-0.3233 Y-16.1575 Z0.3567
N2065 X-0.3255 Y-16.1543 Z0.3564
N2070 G3 X-0.3762 Y-16.0943 I-0.3021 J-0.204
N2075 G1 X-0.3802 Y-16.0907
N2080 X-0.382 Y-16.089
N2085 X-0.3874 Y-16.0832
N2090 X-0.3895 Y-16.081
N2095 X-0.3936 Y-16.0757
N2100 X-0.397 Y-16.0712
N2105 X-0.3988 Y-16.0682
N2110 X-0.4034 Y-16.0608
N2115 X-0.4044 Y-16.059
N2120 X-0.4072 Y-16.0533
N2125 X-0.4082 Y-16.051
N2130 X-0.4107 Y-16.0458
N2135 X-0.4145 Y-16.0393
N2140 X-0.4196 Y-16.0322
N2145 X-0.426 Y-16.0245
N2150 X-0.434 Y-16.0162
N2155 X-0.4441 Y-16.0075
N2160 X-0.4566 Y-15.9982
N2165 X-0.4703 Y-15.9897
N2170 X-0.4846 Y-15.9822
N2175 X-0.4992 Y-15.9755
N2180 X-0.5142 Y-15.9696
N2185 X-0.5295 Y-15.9644
N2190 X-0.5449 Y-15.9598
N2195 X-0.5605 Y-15.9558
N2200 X-0.5762 Y-15.9522
N2205 X-0.592 Y-15.949
N2210 X-0.6078 Y-15.9462
N2215 X-0.6237 Y-15.9437
N2220 X-0.6397 Y-15.9415
N2225 X-0.6557 Y-15.9395
N2230 X-0.6717 Y-15.9378
N2235 X-0.6877 Y-15.9363
N2240 X-0.7038 Y-15.9349
N2245 X-0.7198 Y-15.9337
N2250 X-0.7359 Y-15.9327
N2255 X-0.752 Y-15.9318
N2260 X-0.7681 Y-15.9309
N2265 X-0.7842 Y-15.9302
N2270 X-0.8002 Y-15.9296
N2275 X-0.8163 Y-15.929
N2280 X-0.8324 Y-15.9285
N2285 X-0.8485 Y-15.9281
N2290 X-0.8646 Y-15.9277
N2295 X-0.8807 Y-15.9273
N2300 X-0.8968 Y-15.927
N2305 X-0.9129 Y-15.9268
N2310 X-0.929 Y-15.9265
N2315 X-0.9451 Y-15.9263
N2320 X-0.9613 Y-15.9261
N2325 X-0.9774 Y-15.926
N2330 X-0.9935 Y-15.9258
N2335 X-1.0096 Y-15.9257
N2340 X-1.0257 Y-15.9256
N2345 X-1.0418 Y-15.9255
N2350 X-1.0579 Y-15.9254
N2355 X-1.074 Y-15.9253
N2360 X-1.0901
N2365 X-1.1223 Y-15.9251
N2370 X-1.1545
N2375 X-1.1867 Y-15.925
N2380 X-1.235 Y-15.9249
N2385 X-1.2995
N2390 X-1.38 Y-15.9248
N2395 X-1.4927
N2400 X-1.5087 Y-15.9231
N2405 X-1.5242 Y-15.9187
N2410 X-1.5389 Y-15.912
N2415 X-1.5526 Y-15.9035
N2420 X-1.5652 Y-15.8935
N2425 X-1.5767 Y-15.8823
N2430 X-1.5872 Y-15.8701
N2435 X-1.5968 Y-15.8571
N2440 X-1.6053 Y-15.8435
N2445 X-1.613 Y-15.8293
N2450 X-1.62 Y-15.8148
N2455 X-1.6262 Y-15.7999
N2460 X-1.6317 Y-15.7848
N2465 X-1.6366 Y-15.7695
N2470 X-1.641 Y-15.754
N2475 X-1.6449 Y-15.7384
N2480 X-1.6484 Y-15.7226
N2485 X-1.6515 Y-15.7068
N2490 X-1.6542 Y-15.691
N2495 X-1.6567 Y-15.675
N2500 X-1.6588 Y-15.6591
N2505 X-1.6607 Y-15.6431
N2510 X-1.6624 Y-15.6271
N2515 X-1.6639 Y-15.611
N2520 X-1.6652 Y-15.595
N2525 X-1.6663 Y-15.5789
N2530 X-1.6673 Y-15.5628
N2535 X-1.6682 Y-15.5468
N2540 X-1.669 Y-15.5307
N2545 X-1.6697 Y-15.5146
N2550 X-1.6704 Y-15.4985
N2555 X-1.6709 Y-15.4824
N2560 X-1.6714 Y-15.4663
N2565 X-1.6718 Y-15.4502
N2570 X-1.6722 Y-15.4341
N2575 X-1.6725 Y-15.418
N2580 X-1.6728 Y-15.4019
N2585 X-1.673 Y-15.3858
N2590 X-1.6732 Y-15.3697
N2595 X-1.6734 Y-15.3536
N2600 X-1.6736 Y-15.3375
N2605 X-1.6738 Y-15.3214
N2610 X-1.6739 Y-15.3053
N2615 X-1.674 Y-15.2892
N2620 X-1.6741 Y-15.2731
N2625 X-1.6742 Y-15.2569
N2630 X-1.6743 Y-15.2408
N2635 Y-15.2247
N2640 X-1.6745 Y-15.1925
N2645 Y-15.1603
N2650 X-1.6746 Y-15.1442
N2655 X-1.6747 Y-15.0959
N2660 Y-15.0476
N2665 X-1.6748 Y-14.9832
N2670 Y-14.8865
N2675 Y-14.7255
N2680 Y-14.1296
N2685 Y-13.1633
N2690 Y-11.1824
N2695 Y-9.2015
N2700 Y-7.2205
N2705 Y-5.2396
N2710 Y-3.2587
N2715 Y-1.2778
N2720 Y-0.2632
N2725 X-1.6741 Y-0.2471
N2730 X-1.6706 Y-0.2313
N2735 X-1.6648 Y-0.2163
N2740 X-1.6569 Y-0.2023
N2745 X-1.6474 Y-0.1893
N2750 X-1.6366 Y-0.1773
N2755 X-1.6247 Y-0.1665
N2760 X-1.612 Y-0.1566
N2765 X-1.5986 Y-0.1477
N2770 X-1.5846 Y-0.1397
N2775 X-1.5702 Y-0.1325
N2780 X-1.5555 Y-0.126
N2785 X-1.5404 Y-0.1202
N2790 X-1.5252 Y-0.1151
N2795 X-1.5097 Y-0.1105
N2800 X-1.4942 Y-0.1064
N2805 X-1.4785 Y-0.1028
N2810 X-1.4627 Y-0.0996
N2815 X-1.4468 Y-0.0967
N2820 X-1.4309 Y-0.0942
N2825 X-1.415 Y-0.092
N2830 X-1.399 Y-0.09
N2835 X-1.383 Y-0.0882
N2840 X-1.367 Y-0.0867
N2845 X-1.3509 Y-0.0853
N2850 X-1.3349 Y-0.0841
N2855 X-1.3188 Y-0.083
N2860 X-1.3027 Y-0.0821
N2865 X-1.2866 Y-0.0813
N2870 X-1.2705 Y-0.0805
N2875 X-1.2544 Y-0.0799
N2880 X-1.2383 Y-0.0793
N2885 X-1.2223 Y-0.0788
N2890 X-1.2062 Y-0.0784
N2895 X-1.1901 Y-0.078
N2900 X-1.174 Y-0.0776
N2905 X-1.1578 Y-0.0773
N2910 X-1.1417 Y-0.0771
N2915 X-1.1256 Y-0.0769
N2920 X-1.1095 Y-0.0766
N2925 X-1.0934 Y-0.0765
N2930 X-1.0773 Y-0.0763
N2935 X-1.0612 Y-0.0762
N2940 X-1.0451 Y-0.0761
N2945 X-1.029 Y-0.0759
N2950 X-1.0129
N2955 X-0.9968 Y-0.0758
N2960 X-0.9807 Y-0.0757
N2965 X-0.9485 Y-0.0756
N2970 X-0.9163 Y-0.0755
N2975 X-0.8841 Y-0.0754
N2980 X-0.8358 Y-0.0753
N2985 X-0.7874
N2990 X-0.723 Y-0.0752
N2995 X-0.6264
N3000 X-0.4492
N3005 X-0.3848
N3010 X-0.3687 Y-0.0751
N3015 X-0.3526 Y-0.0748
N3020 X-0.3365 Y-0.0741
N3025 X-0.3205 Y-0.0727
N3030 X-0.3045 Y-0.0707
N3035 X-0.2887 Y-0.0677
N3040 X-0.2815 Y-0.066
N3045 X-0.2697 Y-0.0616
N3050 X-0.259 Y-0.0548
N3055 X-0.2501 Y-0.0458
N3060 X-0.2433 Y-0.0351
N3065 X-0.239 Y-0.0232
N3070 X-0.2373 Y-0.0107
N3075 X-0.2372 Y-0.0067
N3080 X-0.237 Y0.0008
N3085 G3 X-0.2622 Y0.0256 I-0.025 J-0.0002
N3090 X-0.287 Y0.0004 I0.0002 J-0.025
N3095 G1 Y-0.0035 Z0.3567
N3100 X-0.2869 Y-0.0073 Z0.3576
N3105 Y-0.0109 Z0.3591
N3110 Y-0.0143 Z0.3611
N3115 Y-0.0172 Z0.3637
N3120 Y-0.0198 Z0.3667
N3125 Y-0.0218 Z0.37
N3130 X-0.2868 Y-0.0233 Z0.3736
N3135 Y-0.0243 Z0.3774
N3140 Y-0.0246 Z0.3814
N3145 G0 Z0.95
N3150 X0.1297 Y0.1741
N3155 Z0.4064
N3160 G1 Z0.3814 F193.405
N3165 X0.1299 Y0.1739 Z0.3774
N3170 X0.1304 Y0.1731 Z0.3736
N3175 X0.1313 Y0.1719 Z0.37
N3180 X0.1324 Y0.1702 Z0.3667
N3185 X0.1339 Y0.1681 Z0.3637
N3190 X0.1355 Y0.1656 Z0.3611
N3195 X0.1374 Y0.1629 Z0.3591
N3200 X0.1395 Y0.1599 Z0.3576
N3205 X0.1416 Y0.1567 Z0.3567
N3210 X0.1438 Y0.1535 Z0.3564
N3215 G3 X0.1947 Y0.0937 I0.3014 J0.2051
N3220 G1 X0.1981 Y0.0907
N3225 X0.2022 Y0.0866
N3230 X0.2052 Y0.0832
N3235 X0.2097 Y0.078
N3240 X0.2115 Y0.0757
N3245 X0.2167 Y0.0682
N3250 X0.2213 Y0.0608
N3255 X0.2247 Y0.054
N3260 X0.2251 Y0.0533
N3265 X0.226 Y0.051
N3270 X0.2287 Y0.0456
N3275 X0.2326 Y0.0391
N3280 X0.2376 Y0.0319
N3285 X0.2441 Y0.0242
N3290 X0.2522 Y0.0159
N3295 X0.2624 Y0.0071
N3300 X0.275 Y-0.0022
N3305 X0.2887 Y-0.0106
N3310 X0.303 Y-0.0181
N3315 X0.3177 Y-0.0247
N3320 X0.3327 Y-0.0306
N3325 X0.3479 Y-0.0358
N3330 X0.3634 Y-0.0403
N3335 X0.3789 Y-0.0444
N3340 X0.3946 Y-0.048
N3345 X0.4104 Y-0.0511
N3350 X0.4263 Y-0.0539
N3355 X0.4422 Y-0.0564
N3360 X0.4582 Y-0.0586
N3365 X0.4741 Y-0.0605
N3370 X0.4902 Y-0.0623
N3375 X0.5062 Y-0.0638
N3380 X0.5222 Y-0.0651
N3385 X0.5383 Y-0.0663
N3390 X0.5544 Y-0.0674
N3395 X0.5705 Y-0.0683
N3400 X0.5865 Y-0.0691
N3405 X0.6026 Y-0.0698
N3410 X0.6187 Y-0.0705
N3415 X0.6348 Y-0.071
N3420 X0.6509 Y-0.0715
N3425 X0.667 Y-0.072
N3430 X0.6831 Y-0.0723
N3435 X0.6992 Y-0.0727
N3440 X0.7153 Y-0.073
N3445 X0.7314 Y-0.0733
N3450 X0.7475 Y-0.0735
N3455 X0.7636 Y-0.0737
N3460 X0.7797 Y-0.0739
N3465 X0.7958 Y-0.074
N3470 X0.8119 Y-0.0742
N3475 X0.828 Y-0.0743
N3480 X0.8441 Y-0.0744
N3485 X0.8603 Y-0.0745
N3490 X0.8764 Y-0.0746
N3495 X0.8925 Y-0.0747
N3500 X0.9086
N3505 X0.9408 Y-0.0749
N3510 X0.973
N3515 X1.0052 Y-0.075
N3520 X1.0535 Y-0.0751
N3525 X1.1179
N3530 X1.1985 Y-0.0752
N3535 X1.3273
N3540 X1.4883
N3545 X1.5044 Y-0.0762
N3550 X1.5201 Y-0.0799
N3555 X1.535 Y-0.086
N3560 X1.549 Y-0.094
N3565 X1.5619 Y-0.1037
N3570 X1.5737 Y-0.1146
N3575 X1.5845 Y-0.1266
N3580 X1.5943 Y-0.1394
N3585 X1.6031 Y-0.1528
N3590 X1.611 Y-0.1669
N3595 X1.6182 Y-0.1813
N3600 X1.6245 Y-0.1961
N3605 X1.6303 Y-0.2111
N3610 X1.6353 Y-0.2264
N3615 X1.6399 Y-0.2419
N3620 X1.6439 Y-0.2575
N3625 X1.6475 Y-0.2732
N3630 X1.6507 Y-0.2889
N3635 X1.6535 Y-0.3048
N3640 X1.656 Y-0.3207
N3645 X1.6582 Y-0.3367
N3650 X1.6602 Y-0.3526
N3655 X1.6619 Y-0.3687
N3660 X1.6635 Y-0.3847
N3665 X1.6648 Y-0.4007
N3670 X1.666 Y-0.4168
N3675 X1.6671 Y-0.4329
N3680 X1.668 Y-0.4489
N3685 X1.6688 Y-0.465
N3690 X1.6696 Y-0.4811
N3695 X1.6702 Y-0.4972
N3700 X1.6707 Y-0.5133
N3705 X1.6712 Y-0.5294
N3710 X1.6717 Y-0.5455
N3715 X1.6721 Y-0.5616
N3720 X1.6724 Y-0.5777
N3725 X1.6727 Y-0.5938
N3730 X1.673 Y-0.6099
N3735 X1.6732 Y-0.626
N3740 X1.6734 Y-0.6421
N3745 X1.6736 Y-0.6582
N3750 X1.6737 Y-0.6743
N3755 X1.6739 Y-0.6904
N3760 X1.674 Y-0.7065
N3765 X1.6741 Y-0.7226
N3770 X1.6742 Y-0.7387
N3775 X1.6743 Y-0.7548
N3780 Y-0.771
N3785 X1.6744 Y-0.8032
N3790 X1.6745 Y-0.8354
N3795 X1.6746 Y-0.8676
N3800 X1.6747 Y-0.9159
N3805 Y-0.9642
N3810 X1.6748 Y-1.0286
N3815 Y-1.1253
N3820 Y-1.3024
N3825 Y-2.2204
N3830 Y-2.6552
N3835 Y-4.6362
N3840 Y-6.6171
N3845 Y-8.598
N3850 Y-10.5789
N3855 Y-12.5598
N3860 Y-14.5408
N3865 Y-15.7486
N3870 X1.672 Y-15.7645
N3875 X1.6667 Y-15.7797
N3880 X1.6593 Y-15.794
N3885 X1.6502 Y-15.8073
N3890 X1.6397 Y-15.8195
N3895 X1.6281 Y-15.8307
N3900 X1.6156 Y-15.8408
N3905 X1.6024 Y-15.85
N3910 X1.5885 Y-15.8582
N3915 X1.5742 Y-15.8656
N3920 X1.5596 Y-15.8723
N3925 X1.5446 Y-15.8782
N3930 X1.5294 Y-15.8835
N3935 X1.514 Y-15.8883
N3940 X1.4985 Y-15.8925
N3945 X1.4828 Y-15.8962
N3950 X1.467 Y-15.8996
N3955 X1.4512 Y-15.9025
N3960 X1.4353 Y-15.9051
N3965 X1.4194 Y-15.9074
N3970 X1.4034 Y-15.9095
N3975 X1.3874 Y-15.9113
N3980 X1.3714 Y-15.9129
N3985 X1.3553 Y-15.9143
N3990 X1.3393 Y-15.9156
N3995 X1.3232 Y-15.9167
N4000 X1.3071 Y-15.9177
N4005 X1.291 Y-15.9185
N4010 X1.275 Y-15.9193
N4015 X1.2589 Y-15.9199
N4020 X1.2428 Y-15.9205
N4025 X1.2267 Y-15.9211
N4030 X1.2106 Y-15.9215
N4035 X1.1945 Y-15.9219
N4040 X1.1784 Y-15.9223
N4045 X1.1623 Y-15.9226
N4050 X1.1462 Y-15.9228
N4055 X1.1301 Y-15.9231
N4060 X1.114 Y-15.9233
N4065 X1.0979 Y-15.9235
N4070 X1.0818 Y-15.9236
N4075 X1.0657 Y-15.9238
N4080 X1.0495 Y-15.9239
N4085 X1.0334 Y-15.924
N4090 X1.0173 Y-15.9241
N4095 X1.0012 Y-15.9242
N4100 X0.9851 Y-15.9243
N4105 X0.969
N4110 X0.9368 Y-15.9245
N4115 X0.9046
N4120 X0.8724 Y-15.9246
N4125 X0.8241 Y-15.9247
N4130 X0.7597
N4135 X0.6791 Y-15.9248
N4140 X0.5664
N4145 X0.5503 Y-15.9249
N4150 X0.5342 Y-15.9252
N4155 X0.5181 Y-15.926
N4160 X0.5021 Y-15.9274
N4165 X0.4861 Y-15.9294
N4170 X0.479 Y-15.9308
N4175 X0.4669 Y-15.9344
N4180 X0.4559 Y-15.9406
N4185 X0.4465 Y-15.949
N4190 X0.4391 Y-15.9593
N4195 X0.4341 Y-15.9708
N4200 X0.4156 Y-16.0308
N4205 X0.4143 Y-16.0349
N4210 G3 X0.4623 Y-16.0489 I0.0241 J-0.0067
N4215 X0.4625 Y-16.0482 I-0.0239 J0.0073
N4220 G1 X0.4635 Y-16.0444 Z0.3567
N4225 X0.4645 Y-16.0408 Z0.3576
N4230 X0.4655 Y-16.0373 Z0.3591
N4235 X0.4664 Y-16.034 Z0.3611
N4240 X0.4672 Y-16.0312 Z0.3637
N4245 X0.4679 Y-16.0287 Z0.3667
N4250 X0.4684 Y-16.0267 Z0.37
N4255 X0.4688 Y-16.0253 Z0.3736
N4260 X0.4691 Y-16.0244 Z0.3774
N4265 Y-16.0241 Z0.3814
N4270 G0 Z0.95
N4275 X-0.3843 Y-16.1516
N4280 Z0.4064
N4285 G1 Z0.3814 F193.405
N4290 Y-16.1513 Z0.3774
N4295 X-0.3845 Y-16.1504 Z0.3736
N4300 X-0.3847 Y-16.1489 Z0.37
N4305 X-0.385 Y-16.1469 Z0.3667
N4310 X-0.3854 Y-16.1444 Z0.3637
N4315 X-0.3858 Y-16.1414 Z0.3611
N4320 X-0.3863 Y-16.1381 Z0.3591
N4325 X-0.3869 Y-16.1345 Z0.3576
N4330 X-0.3875 Y-16.1308 Z0.3567
N4335 X-0.3881 Y-16.1269 Z0.3564
N4340 G3 X-0.4082 Y-16.051 I-0.3604 J-0.055
N4345 G1 X-0.4104 Y-16.0458
N4350 X-0.4119 Y-16.0419
N4355 X-0.4132 Y-16.0383
N4360 X-0.4156 Y-16.0308
N4365 X-0.4295 Y-15.9858
N4370 X-0.4323 Y-15.9781
N4375 X-0.4359 Y-15.9704
N4380 X-0.4405 Y-15.9622
N4385 X-0.4464 Y-15.9533
N4390 X-0.4539 Y-15.9439
N4395 X-0.4633 Y-15.9339
N4400 X-0.4748 Y-15.9234
N4405 X-0.4875 Y-15.9135
N4410 X-0.501 Y-15.9046
N4415 X-0.5149 Y-15.8965
N4420 X-0.5293 Y-15.8893
N4425 X-0.544 Y-15.8827
N4430 X-0.559 Y-15.8768
N4435 X-0.5742 Y-15.8715
N4440 X-0.5896 Y-15.8667
N4445 X-0.6051 Y-15.8624
N4450 X-0.6207 Y-15.8585
N4455 X-0.6364 Y-15.855
N4460 X-0.6522 Y-15.8519
N4465 X-0.6681 Y-15.849
N4470 X-0.684 Y-15.8465
N4475 X-0.6999 Y-15.8442
N4480 X-0.7159 Y-15.8422
N4485 X-0.7319 Y-15.8404
N4490 X-0.7479 Y-15.8387
N4495 X-0.764 Y-15.8372
N4500 X-0.78 Y-15.8359
N4505 X-0.7961 Y-15.8347
N4510 X-0.8121 Y-15.8337
N4515 X-0.8282 Y-15.8327
N4520 X-0.8443 Y-15.8318
N4525 X-0.8604 Y-15.8311
N4530 X-0.8765 Y-15.8304
N4535 X-0.8926 Y-15.8298
N4540 X-0.9087 Y-15.8292
N4545 X-0.9248 Y-15.8288
N4550 X-0.9409 Y-15.8283
N4555 X-0.957 Y-15.8279
N4560 X-0.9731 Y-15.8276
N4565 X-0.9892 Y-15.8273
N4570 X-1.0053 Y-15.827
N4575 X-1.0214 Y-15.8268
N4580 X-1.0375 Y-15.8265
N4585 X-1.0536 Y-15.8263
N4590 X-1.0697 Y-15.8262
N4595 X-1.0858 Y-15.826
N4600 X-1.1019 Y-15.8259
N4605 X-1.118 Y-15.8258
N4610 X-1.1341 Y-15.8256
N4615 X-1.1502 Y-15.8255
N4620 X-1.1663
N4625 X-1.1824 Y-15.8254
N4630 X-1.2146 Y-15.8252
N4635 X-1.2468 Y-15.8251
N4640 X-1.279
N4645 X-1.3274 Y-15.825
N4650 X-1.3757 Y-15.8249
N4655 X-1.3917 Y-15.823
N4660 X-1.4072 Y-15.8189
N4665 X-1.4222 Y-15.8129
N4670 X-1.4363 Y-15.8051
N4675 X-1.4495 Y-15.7958
N4680 X-1.4617 Y-15.7853
N4685 X-1.4729 Y-15.7738
N4690 X-1.4832 Y-15.7614
N4695 X-1.4926 Y-15.7483
N4700 X-1.5011 Y-15.7347
N4705 X-1.5088 Y-15.7205
N4710 X-1.5158 Y-15.706
N4715 X-1.5221 Y-15.6912
N4720 X-1.5278 Y-15.6761
N4725 X-1.5329 Y-15.6608
N4730 X-1.5374 Y-15.6454
N4735 X-1.5415 Y-15.6298
N4740 X-1.5452 Y-15.6141
N4745 X-1.5485 Y-15.5984
N4750 X-1.5514 Y-15.5825
N4755 X-1.554 Y-15.5666
N4760 X-1.5563 Y-15.5507
N4765 X-1.5584 Y-15.5347
N4770 X-1.5602 Y-15.5187
N4775 X-1.5619 Y-15.5027
N4780 X-1.5633 Y-15.4867
N4785 X-1.5646 Y-15.4706
N4790 X-1.5658 Y-15.4546
N4795 X-1.5668 Y-15.4385
N4800 X-1.5677 Y-15.4224
N4805 X-1.5686 Y-15.4063
N4810 X-1.5693 Y-15.3902
N4815 X-1.5699 Y-15.3741
N4820 X-1.5705 Y-15.358
N4825 X-1.571 Y-15.342
N4830 X-1.5714 Y-15.3259
N4835 X-1.5718 Y-15.3098
N4840 X-1.5722 Y-15.2936
N4845 X-1.5725 Y-15.2775
N4850 X-1.5727 Y-15.2614
N4855 X-1.573 Y-15.2453
N4860 X-1.5732 Y-15.2292
N4865 X-1.5734 Y-15.2131
N4870 X-1.5736 Y-15.197
N4875 X-1.5737 Y-15.1809
N4880 X-1.5738 Y-15.1648
N4885 X-1.574 Y-15.1487
N4890 X-1.5741 Y-15.1326
N4895 X-1.5742 Y-15.1165
N4900 Y-15.1004
N4905 X-1.5743 Y-15.0843
N4910 X-1.5744 Y-15.0521
N4915 X-1.5745 Y-15.0199
N4920 X-1.5746 Y-14.9877
N4925 X-1.5747 Y-14.9394
N4930 Y-14.9232
N4935 Y-14.8588
N4940 X-1.5748 Y-14.7783
N4945 Y-14.6495
N4950 Y-14.3918
N4955 Y-12.9423
N4960 Y-10.9614
N4965 Y-8.9805
N4970 Y-6.9996
N4975 Y-5.0187
N4980 Y-3.0377
N4985 Y-1.0568
N4990 Y-0.3804
N4995 X-1.5736 Y-0.3643
N5000 X-1.5704 Y-0.3486
N5005 X-1.5651 Y-0.3334
N5010 X-1.558 Y-0.3189
N5015 X-1.5493 Y-0.3054
N5020 X-1.5392 Y-0.2928
N5025 X-1.528 Y-0.2812
N5030 X-1.516 Y-0.2705
N5035 X-1.5031 Y-0.2608
N5040 X-1.4897 Y-0.252
N5045 X-1.4757 Y-0.244
N5050 X-1.4613 Y-0.2367
N5055 X-1.4466 Y-0.2302
N5060 X-1.4316 Y-0.2243
N5065 X-1.4164 Y-0.219
N5070 X-1.401 Y-0.2142
N5075 X-1.3855 Y-0.2099
N5080 X-1.3698 Y-0.2061
N5085 X-1.3541 Y-0.2027
N5090 X-1.3383 Y-0.1997
N5095 X-1.3224 Y-0.197
N5100 X-1.3065 Y-0.1945
N5105 X-1.2905 Y-0.1924
N5110 X-1.2745 Y-0.1904
N5115 X-1.2585 Y-0.1887
N5120 X-1.2425 Y-0.1872
N5125 X-1.2265 Y-0.1858
N5130 X-1.2104 Y-0.1846
N5135 X-1.1943 Y-0.1835
N5140 X-1.1782 Y-0.1826
N5145 X-1.1622 Y-0.1817
N5150 X-1.1461 Y-0.181
N5155 X-1.13 Y-0.1803
N5160 X-1.1139 Y-0.1797
N5165 X-1.0978 Y-0.1792
N5170 X-1.0817 Y-0.1788
N5175 X-1.0656 Y-0.1783
N5180 X-1.0495 Y-0.178
N5185 X-1.0334 Y-0.1777
N5190 X-1.0173 Y-0.1774
N5195 X-1.0012 Y-0.1771
N5200 X-0.9851 Y-0.1769
N5205 X-0.969 Y-0.1767
N5210 X-0.9529 Y-0.1765
N5215 X-0.9368 Y-0.1764
N5220 X-0.9207 Y-0.1762
N5225 X-0.9046 Y-0.1761
N5230 X-0.8885 Y-0.176
N5235 X-0.8724 Y-0.1759
N5240 X-0.8563 Y-0.1758
N5245 X-0.8401 Y-0.1757
N5250 X-0.8079 Y-0.1756
N5255 X-0.7757 Y-0.1755
N5260 X-0.7435 Y-0.1754
N5265 X-0.6952
N5270 X-0.6469 Y-0.1753
N5275 X-0.5825
N5280 X-0.4858 Y-0.1752
N5285 X-0.4697
N5290 X-0.4536 Y-0.1751
N5295 X-0.4375 Y-0.175
N5300 X-0.4214 Y-0.1747
N5305 X-0.4053 Y-0.1742
N5310 X-0.3892 Y-0.1734
N5315 X-0.3732 Y-0.1724
N5320 X-0.3571 Y-0.171
N5325 X-0.3411 Y-0.1691
N5330 X-0.3252 Y-0.1666
N5335 X-0.3095 Y-0.1632
N5340 X-0.2939 Y-0.159
N5345 X-0.2787 Y-0.1537
N5350 X-0.2747 Y-0.152
N5355 X-0.2649 Y-0.1467
N5360 X-0.2564 Y-0.1396
N5365 X-0.2493 Y-0.131
N5370 X-0.244 Y-0.1213
N5375 X-0.2407 Y-0.1107
N5380 X-0.2394 Y-0.0997
N5385 X-0.2373 Y-0.0107
N5390 G3 X-0.2873 Y-0.0113 I-0.025 J-0.0003
N5395 G1 Y-0.0152 Z0.3567
N5400 X-0.2872 Y-0.019 Z0.3576
N5405 Y-0.0226 Z0.3591
N5410 X-0.2871 Y-0.026 Z0.3611
N5415 Y-0.029 Z0.3637
N5420 Y-0.0315 Z0.3667
N5425 X-0.287 Y-0.0336 Z0.37
N5430 Y-0.0351 Z0.3736
N5435 Y-0.036 Z0.3774
N5440 Y-0.0363 Z0.3814
N5445 G0 Z0.95
N5450 X0.2018 Y0.1515
N5455 Z0.4064
N5460 G1 Z0.3814 F193.405
N5465 X0.2019 Y0.1512 Z0.3774
N5470 X0.202 Y0.1503 Z0.3736
N5475 X0.2022 Y0.1488 Z0.37
N5480 X0.2025 Y0.1468 Z0.3667
N5485 X0.2029 Y0.1443 Z0.3637
N5490 X0.2034 Y0.1414 Z0.3611
N5495 X0.2039 Y0.138 Z0.3591
N5500 X0.2045 Y0.1345 Z0.3576
N5505 X0.2051 Y0.1307 Z0.3567
N5510 X0.2057 Y0.1268 Z0.3564
N5515 G3 X0.226 Y0.051 I0.3602 J0.0561
N5520 G1 X0.2283 Y0.0458
N5525 X0.2311 Y0.0383
N5530 X0.2322 Y0.0347
N5535 X0.2332 Y0.0308
N5540 X0.2348 Y0.0233
N5545 X0.236 Y0.0158
N5550 X0.2368 Y0.0083
N5555 X0.2369 Y0.006
N5560 X0.2374 Y0.0014
N5565 X0.2385 Y-0.0046
N5570 X0.2402 Y-0.0111
N5575 X0.2428 Y-0.0184
N5580 X0.2463 Y-0.0262
N5585 X0.251 Y-0.0347
N5590 X0.257 Y-0.0438
N5595 X0.2646 Y-0.0535
N5600 X0.2739 Y-0.0637
N5605 X0.2855 Y-0.0744
N5610 X0.2982 Y-0.0843
N5615 X0.3115 Y-0.0933
N5620 X0.3254 Y-0.1015
N5625 X0.3397 Y-0.1089
N5630 X0.3544 Y-0.1156
N5635 X0.3693 Y-0.1216
N5640 X0.3844 Y-0.127
N5645 X0.3998 Y-0.1319
N5650 X0.4153 Y-0.1364
N5655 X0.4309 Y-0.1403
N5660 X0.4466 Y-0.1439
N5665 X0.4624 Y-0.1472
N5670 X0.4782 Y-0.1501
N5675 X0.4941 Y-0.1527
N5680 X0.51 Y-0.155
N5685 X0.526 Y-0.1571
N5690 X0.542 Y-0.159
N5695 X0.558 Y-0.1607
N5700 X0.574 Y-0.1623
N5705 X0.5901 Y-0.1636
N5710 X0.6061 Y-0.1649
N5715 X0.6222 Y-0.166
N5720 X0.6383 Y-0.167
N5725 X0.6544 Y-0.1678
N5730 X0.6704 Y-0.1686
N5735 X0.6865 Y-0.1693
N5740 X0.7026 Y-0.17
N5745 X0.7187 Y-0.1705
N5750 X0.7348 Y-0.1711
N5755 X0.7509 Y-0.1715
N5760 X0.767 Y-0.1719
N5765 X0.7831 Y-0.1723
N5770 X0.7992 Y-0.1726
N5775 X0.8153 Y-0.1729
N5780 X0.8314 Y-0.1731
N5785 X0.8475 Y-0.1734
N5790 X0.8636 Y-0.1736
N5795 X0.8797 Y-0.1738
N5800 X0.8958 Y-0.1739
N5805 X0.9119 Y-0.1741
N5810 X0.928 Y-0.1742
N5815 X0.9442 Y-0.1743
N5820 X0.9603 Y-0.1744
N5825 X0.9764 Y-0.1745
N5830 X0.9925 Y-0.1746
N5835 X1.0086 Y-0.1747
N5840 X1.0408 Y-0.1748
N5845 X1.073 Y-0.1749
N5850 X1.1052 Y-0.175
N5855 X1.1535
N5860 X1.2018 Y-0.1751
N5865 X1.2663
N5870 X1.3629 Y-0.1752
N5875 X1.379 Y-0.1755
N5880 X1.3949 Y-0.1779
N5885 X1.4104 Y-0.1824
N5890 X1.4252 Y-0.1888
N5895 X1.4391 Y-0.1969
N5900 X1.4521 Y-0.2064
N5905 X1.4641 Y-0.2171
N5910 X1.4751 Y-0.2289
N5915 X1.4852 Y-0.2414
N5920 X1.4944 Y-0.2546
N5925 X1.5028 Y-0.2684
N5930 X1.5103 Y-0.2826
N5935 X1.5172 Y-0.2972
N5940 X1.5233 Y-0.3121
N5945 X1.5289 Y-0.3272
N5950 X1.5339 Y-0.3425
N5955 X1.5383 Y-0.358
N5960 X1.5423 Y-0.3736
N5965 X1.5459 Y-0.3893
N5970 X1.5491 Y-0.4051
N5975 X1.5519 Y-0.4209
N5980 X1.5545 Y-0.4368
N5985 X1.5568 Y-0.4528
N5990 X1.5588 Y-0.4687
N5995 X1.5606 Y-0.4847
N6000 X1.5622 Y-0.5008
N6005 X1.5636 Y-0.5168
N6010 X1.5649 Y-0.5329
N6015 X1.566 Y-0.5489
N6020 X1.567 Y-0.565
N6025 X1.5679 Y-0.5811
N6030 X1.5687 Y-0.5972
N6035 X1.5694 Y-0.6133
N6040 X1.57 Y-0.6293
N6045 X1.5706 Y-0.6454
N6050 X1.5711 Y-0.6615
N6055 X1.5715 Y-0.6776
N6060 X1.5719 Y-0.6937
N6065 X1.5722 Y-0.7098
N6070 X1.5725 Y-0.7259
N6075 X1.5728 Y-0.742
N6080 X1.573 Y-0.7581
N6085 X1.5732 Y-0.7743
N6090 X1.5734 Y-0.7904
N6095 X1.5736 Y-0.8065
N6100 X1.5737 Y-0.8226
N6105 X1.5739 Y-0.8387
N6110 X1.574 Y-0.8548
N6115 X1.5741 Y-0.8709
N6120 X1.5742 Y-0.887
N6125 X1.5743 Y-0.9031
N6130 Y-0.9192
N6135 X1.5744 Y-0.9514
N6140 X1.5745 Y-0.9836
N6145 X1.5746 Y-1.0158
N6150 X1.5747 Y-1.0641
N6155 Y-1.1125
N6160 X1.5748 Y-1.1769
N6165 Y-1.2735
N6170 Y-1.4346
N6175 Y-1.966
N6180 Y-2.8518
N6185 Y-4.8327
N6190 Y-6.8136
N6195 Y-8.7946
N6200 Y-10.7755
N6205 Y-12.7564
N6210 Y-14.7373
N6215 Y-15.6231
N6220 X1.5732 Y-15.6391
N6225 X1.5695 Y-15.6548
N6230 X1.5638 Y-15.6698
N6235 X1.5563 Y-15.6841
N6240 X1.5472 Y-15.6974
N6245 X1.5369 Y-15.7098
N6250 X1.5256 Y-15.7212
N6255 X1.5133 Y-15.7316
N6260 X1.5003 Y-15.7412
N6265 X1.4867 Y-15.7498
N6270 X1.4727 Y-15.7577
N6275 X1.4582 Y-15.7648
N6280 X1.4434 Y-15.7712
N6285 X1.4284 Y-15.7769
N6290 X1.4131 Y-15.7821
N6295 X1.3977 Y-15.7867
N6300 X1.3822 Y-15.7909
N6305 X1.3665 Y-15.7946
N6310 X1.3507 Y-15.798
N6315 X1.3349 Y-15.8009
N6320 X1.319 Y-15.8036
N6325 X1.3031 Y-15.806
N6330 X1.2871 Y-15.8081
N6335 X1.2711 Y-15.81
N6340 X1.2551 Y-15.8116
N6345 X1.2391 Y-15.8131
N6350 X1.223 Y-15.8144
N6355 X1.207 Y-15.8156
N6360 X1.1909 Y-15.8167
N6365 X1.1748 Y-15.8176
N6370 X1.1587 Y-15.8184
N6375 X1.1426 Y-15.8191
N6380 X1.1265 Y-15.8198
N6385 X1.1105 Y-15.8204
N6390 X1.0944 Y-15.8209
N6395 X1.0783 Y-15.8213
N6400 X1.0622 Y-15.8217
N6405 X1.0461 Y-15.8221
N6410 X1.03 Y-15.8224
N6415 X1.0139 Y-15.8227
N6420 X0.9977 Y-15.8229
N6425 X0.9816 Y-15.8232
N6430 X0.9655 Y-15.8233
N6435 X0.9494 Y-15.8235
N6440 X0.9333 Y-15.8237
N6445 X0.9172 Y-15.8238
N6450 X0.9011 Y-15.8239
N6455 X0.885 Y-15.824
N6460 X0.8689 Y-15.8241
N6465 X0.8528 Y-15.8242
N6470 X0.8367 Y-15.8243
N6475 X0.8045 Y-15.8244
N6480 X0.7723 Y-15.8245
N6485 X0.7401 Y-15.8246
N6490 X0.6918
N6495 X0.6757 Y-15.8247
N6500 X0.6596
N6505 X0.6434
N6510 X0.6273 Y-15.8249
N6515 X0.6112 Y-15.8251
N6520 X0.5951 Y-15.8255
N6525 X0.579 Y-15.8261
N6530 X0.563 Y-15.827
N6535 X0.5469 Y-15.8284
N6540 X0.5309 Y-15.8302
N6545 X0.515 Y-15.8328
N6550 X0.5073 Y-15.8345
N6555 X0.4957 Y-15.8384
N6560 X0.4851 Y-15.8446
N6565 X0.476 Y-15.8529
N6570 X0.4689 Y-15.8629
N6575 X0.464 Y-15.8743
N6580 X0.4341 Y-15.9708
N6585 G3 X0.4822 Y-15.9846 I0.0241 J-0.0066
N6590 X0.4824 Y-15.9839 I-0.0239 J0.0072
N6595 G1 X0.4834 Y-15.9802 Z0.3567
N6600 X0.4844 Y-15.9765 Z0.3576
N6605 X0.4854 Y-15.973 Z0.3591
N6610 X0.4862 Y-15.9698 Z0.3611
N6615 X0.487 Y-15.9669 Z0.3637
N6620 X0.4877 Y-15.9644 Z0.3667
N6625 X0.4882 Y-15.9625 Z0.37
N6630 X0.4886 Y-15.961 Z0.3736
N6635 X0.4889 Y-15.9601 Z0.3774
N6640 Y-15.9598 Z0.3814
N6645 G0 Z0.95
N6650 X-0.4342 Y-16.0886
N6655 Z0.4064
N6660 G1 Z0.3814 F193.405
N6665 Y-16.0883 Z0.3774
N6670 X-0.4339 Y-16.0874 Z0.3736
N6675 X-0.4336 Y-16.086 Z0.37
N6680 X-0.4331 Y-16.084 Z0.3667
N6685 X-0.4325 Y-16.0815 Z0.3637
N6690 X-0.4318 Y-16.0786 Z0.3611
N6695 X-0.431 Y-16.0753 Z0.3591
N6700 X-0.4302 Y-16.0718 Z0.3576
N6705 X-0.4293 Y-16.0681 Z0.3567
N6710 X-0.4284 Y-16.0643 Z0.3564
N6715 G3 X-0.4295 Y-15.9858 I-0.1539 J0.0371
N6720 G1 X-0.455 Y-15.9033
N6725 X-0.4588 Y-15.8929
N6730 X-0.4627 Y-15.8845
N6735 X-0.4678 Y-15.8753
N6740 X-0.4743 Y-15.8656
N6745 X-0.4825 Y-15.8553
N6750 X-0.4928 Y-15.8443
N6755 X-0.5047 Y-15.8335
N6760 X-0.5174 Y-15.8236
N6765 X-0.5307 Y-15.8145
N6770 X-0.5446 Y-15.8062
N6775 X-0.5588 Y-15.7987
N6780 X-0.5734 Y-15.7918
N6785 X-0.5882 Y-15.7856
N6790 X-0.6033 Y-15.7799
N6795 X-0.6185 Y-15.7747
N6800 X-0.6339 Y-15.77
N6805 X-0.6495 Y-15.7658
N6810 X-0.6651 Y-15.7619
N6815 X-0.6808 Y-15.7583
N6820 X-0.6966 Y-15.7551
N6825 X-0.7124 Y-15.7522
N6830 X-0.7283 Y-15.7496
N6835 X-0.7442 Y-15.7472
N6840 X-0.7602 Y-15.745
N6845 X-0.7762 Y-15.743
N6850 X-0.7922 Y-15.7413
N6855 X-0.8082 Y-15.7396
N6860 X-0.8242 Y-15.7382
N6865 X-0.8403 Y-15.7369
N6870 X-0.8564 Y-15.7357
N6875 X-0.8724 Y-15.7346
N6880 X-0.8885 Y-15.7336
N6885 X-0.9046 Y-15.7327
N6890 X-0.9207 Y-15.7319
N6895 X-0.9368 Y-15.7312
N6900 X-0.9528 Y-15.7306
N6905 X-0.9689 Y-15.73
N6910 X-0.985 Y-15.7294
N6915 X-1.0011 Y-15.729
N6920 X-1.0172 Y-15.7285
N6925 X-1.0333 Y-15.7282
N6930 X-1.0494 Y-15.7278
N6935 X-1.0655 Y-15.7275
N6940 X-1.0816 Y-15.7272
N6945 X-1.0977 Y-15.727
N6950 X-1.1138 Y-15.7267
N6955 X-1.1299 Y-15.7265
N6960 X-1.1461 Y-15.7263
N6965 X-1.1622 Y-15.7262
N6970 X-1.1783 Y-15.726
N6975 X-1.1944 Y-15.7259
N6980 X-1.2105 Y-15.7258
N6985 X-1.2266 Y-15.7257
N6990 X-1.2427 Y-15.7256
N6995 X-1.2588 Y-15.7255
N7000 X-1.2748 Y-15.7242
N7005 X-1.2906 Y-15.7212
N7010 X-1.306 Y-15.7162
N7015 X-1.3206 Y-15.7095
N7020 X-1.3344 Y-15.7012
N7025 X-1.3474 Y-15.6916
N7030 X-1.3594 Y-15.6809
N7035 X-1.3705 Y-15.6692
N7040 X-1.3807 Y-15.6568
N7045 X-1.39 Y-15.6436
N7050 X-1.3985 Y-15.63
N7055 X-1.4062 Y-15.6158
N7060 X-1.4132 Y-15.6013
N7065 X-1.4196 Y-15.5865
N7070 X-1.4253 Y-15.5715
N7075 X-1.4305 Y-15.5562
N7080 X-1.4352 Y-15.5408
N7085 X-1.4394 Y-15.5253
N7090 X-1.4431 Y-15.5096
N7095 X-1.4465 Y-15.4939
N7100 X-1.4495 Y-15.478
N7105 X-1.4523 Y-15.4622
N7110 X-1.4547 Y-15.4463
N7115 X-1.4569 Y-15.4303
N7120 X-1.4588 Y-15.4143
N7125 X-1.4606 Y-15.3983
N7130 X-1.4621 Y-15.3823
N7135 X-1.4635 Y-15.3662
N7140 X-1.4647 Y-15.3502
N7145 X-1.4659 Y-15.3341
N7150 X-1.4668 Y-15.318
N7155 X-1.4677 Y-15.3019
N7160 X-1.4685 Y-15.2859
N7165 X-1.4692 Y-15.2698
N7170 X-1.4698 Y-15.2537
N7175 X-1.4704 Y-15.2376
N7180 X-1.4709 Y-15.2215
N7185 X-1.4713 Y-15.2054
N7190 X-1.4717 Y-15.1893
N7195 X-1.4721 Y-15.1732
N7200 X-1.4724 Y-15.1571
N7205 X-1.4727 Y-15.141
N7210 X-1.4729 Y-15.1249
N7215 X-1.4731 Y-15.1088
N7220 X-1.4733 Y-15.0927
N7225 X-1.4735 Y-15.0766
N7230 X-1.4736 Y-15.0605
N7235 X-1.4738 Y-15.0444
N7240 X-1.4739 Y-15.0283
N7245 X-1.474 Y-15.0121
N7250 X-1.4741 Y-14.996
N7255 X-1.4742 Y-14.9799
N7260 X-1.4743 Y-14.9638
N7265 X-1.4744 Y-14.9316
N7270 X-1.4745 Y-14.8994
N7275 X-1.4746 Y-14.8672
N7280 Y-14.8189
N7285 X-1.4747 Y-14.7706
N7290 X-1.4748 Y-14.7062
N7295 Y-14.6256
N7300 Y-14.4968
N7305 Y-14.223
N7310 Y-12.7252
N7315 Y-10.7443
N7320 Y-8.7634
N7325 Y-6.7825
N7330 Y-4.8016
N7335 Y-2.8206
N7340 Y-0.8397
N7345 Y-0.5015
N7350 X-1.4746 Y-0.4854
N7355 X-1.4727 Y-0.4694
N7360 X-1.469 Y-0.4538
N7365 X-1.4634 Y-0.4386
N7370 X-1.4561 Y-0.4243
N7375 X-1.4474 Y-0.4108
N7380 X-1.4374 Y-0.3981
N7385 X-1.4263 Y-0.3865
N7390 X-1.4143 Y-0.3757
N7395 X-1.4016 Y-0.3658
N7400 X-1.3882 Y-0.3568
N7405 X-1.3744 Y-0.3486
N7410 X-1.3601 Y-0.3411
N7415 X-1.3455 Y-0.3343
N7420 X-1.3306 Y-0.3282
N7425 X-1.3155 Y-0.3227
N7430 X-1.3002 Y-0.3177
N7435 X-1.2847 Y-0.3132
N7440 X-1.2691 Y-0.3092
N7445 X-1.2534 Y-0.3056
N7450 X-1.2376 Y-0.3023
N7455 X-1.2218 Y-0.2994
N7460 X-1.2059 Y-0.2968
N7465 X-1.19 Y-0.2945
N7470 X-1.174 Y-0.2924
N7475 X-1.158 Y-0.2905
N7480 X-1.142 Y-0.2889
N7485 X-1.1259 Y-0.2874
N7490 X-1.1099 Y-0.286
N7495 X-1.0938 Y-0.2848
N7500 X-1.0778 Y-0.2838
N7505 X-1.0617 Y-0.2828
N7510 X-1.0456 Y-0.282
N7515 X-1.0295 Y-0.2812
N7520 X-1.0134 Y-0.2806
N7525 X-0.9973 Y-0.28
N7530 X-0.9812 Y-0.2794
N7535 X-0.9651 Y-0.279
N7540 X-0.949 Y-0.2785
N7545 X-0.9329 Y-0.2782
N7550 X-0.9168 Y-0.2778
N7555 X-0.9007 Y-0.2775
N7560 X-0.8846 Y-0.2773
N7565 X-0.8685 Y-0.277
N7570 X-0.8524 Y-0.2768
N7575 X-0.8363 Y-0.2766
N7580 X-0.8202 Y-0.2765
N7585 X-0.8041 Y-0.2763
N7590 X-0.788 Y-0.2762
N7595 X-0.7719 Y-0.2761
N7600 X-0.7558 Y-0.276
N7605 X-0.7397 Y-0.2759
N7610 X-0.7236 Y-0.2758
N7615 X-0.7075 Y-0.2757
N7620 X-0.6753 Y-0.2756
N7625 X-0.6431 Y-0.2755
N7630 X-0.6109
N7635 X-0.5625 Y-0.2754
N7640 X-0.5464 Y-0.2753
N7645 X-0.5303 Y-0.2752
N7650 X-0.5142 Y-0.2751
N7655 X-0.4981 Y-0.2749
N7660 X-0.482 Y-0.2746
N7665 X-0.4659 Y-0.2743
N7670 X-0.4498 Y-0.2737
N7675 X-0.4337 Y-0.273
N7680 X-0.4177 Y-0.272
N7685 X-0.4016 Y-0.2708
N7690 X-0.3856 Y-0.2693
N7695 X-0.3696 Y-0.2674
N7700 X-0.3536 Y-0.265
N7705 X-0.3378 Y-0.2622
N7710 X-0.322 Y-0.2588
N7715 X-0.3065 Y-0.2547
N7720 X-0.2912 Y-0.2497
N7725 X-0.2762 Y-0.2438
N7730 X-0.2744 Y-0.2429
N7735 X-0.2635 Y-0.2361
N7740 X-0.2544 Y-0.2271
N7745 X-0.2474 Y-0.2163
N7750 X-0.243 Y-0.2042
N7755 X-0.2414 Y-0.1915
N7760 X-0.2412 Y-0.1792
N7765 X-0.241 Y-0.1717
N7770 X-0.2394 Y-0.0997
N7775 G3 X-0.2893 Y-0.1003 I-0.025 J-0.0003
N7780 G1 Y-0.1042 Z0.3567
N7785 Y-0.108 Z0.3576
N7790 X-0.2892 Y-0.1117 Z0.3591
N7795 Y-0.115 Z0.3611
N7800 X-0.2891 Y-0.118 Z0.3637
N7805 Y-0.1205 Z0.3667
N7810 Y-0.1226 Z0.37
N7815 Y-0.1241 Z0.3736
N7820 Y-0.125 Z0.3774
N7825 X-0.289 Y-0.1253 Z0.3814
N7830 G0 Z0.95
N7835 X0.2491 Y0.1087
N7840 Z0.4064
N7845 G1 Z0.3814 F193.405
N7850 X0.249 Y0.1084 Z0.3774
N7855 X0.2488 Y0.1075 Z0.3736
N7860 X0.2485 Y0.106 Z0.37
N7865 X0.2481 Y0.104 Z0.3667
N7870 X0.2476 Y0.1015 Z0.3637
N7875 X0.247 Y0.0986 Z0.3611
N7880 X0.2464 Y0.0953 Z0.3591
N7885 X0.2457 Y0.0918 Z0.3576
N7890 X0.2449 Y0.088 Z0.3567
N7895 X0.2441 Y0.0842 Z0.3564
N7900 G3 X0.2369 Y0.006 I0.3573 J-0.0723
N7905 G1 X0.2372 Y0.0008
N7910 X0.2375 Y-0.0067
N7915 X0.2392 Y-0.0442
N7920 X0.2396 Y-0.0517
N7925 X0.2398 Y-0.0592
N7930 X0.2406 Y-0.068
N7935 X0.2418 Y-0.0755
N7940 X0.2437 Y-0.0833
N7945 X0.2466 Y-0.092
N7950 X0.2506 Y-0.1015
N7955 X0.2559 Y-0.1114
N7960 X0.2626 Y-0.122
N7965 X0.2711 Y-0.1333
N7970 X0.2815 Y-0.1451
N7975 X0.2931 Y-0.1563
N7980 X0.3055 Y-0.1666
N7985 X0.3186 Y-0.1761
N7990 X0.3321 Y-0.1848
N7995 X0.3461 Y-0.1928
N8000 X0.3604 Y-0.2001
N8005 X0.3751 Y-0.2068
N8010 X0.3899 Y-0.213
N8015 X0.405 Y-0.2186
N8020 X0.4203 Y-0.2238
N8025 X0.4357 Y-0.2285
N8030 X0.4512 Y-0.2328
N8035 X0.4668 Y-0.2367
N8040 X0.4825 Y-0.2403
N8045 X0.4983 Y-0.2435
N8050 X0.5141 Y-0.2465
N8055 X0.53 Y-0.2492
N8060 X0.5459 Y-0.2517
N8065 X0.5619 Y-0.2539
N8070 X0.5778 Y-0.2559
N8075 X0.5938 Y-0.2578
N8080 X0.6099 Y-0.2595
N8085 X0.6259 Y-0.261
N8090 X0.6419 Y-0.2624
N8095 X0.658 Y-0.2636
N8100 X0.6741 Y-0.2648
N8105 X0.6901 Y-0.2658
N8110 X0.7062 Y-0.2667
N8115 X0.7223 Y-0.2676
N8120 X0.7384 Y-0.2683
N8125 X0.7545 Y-0.269
N8130 X0.7706 Y-0.2696
N8135 X0.7867 Y-0.2702
N8140 X0.8028 Y-0.2707
N8145 X0.8189 Y-0.2712
N8150 X0.835 Y-0.2716
N8155 X0.8511 Y-0.2719
N8160 X0.8672 Y-0.2723
N8165 X0.8833 Y-0.2726
N8170 X0.8994 Y-0.2729
N8175 X0.9155 Y-0.2731
N8180 X0.9316 Y-0.2733
N8185 X0.9477 Y-0.2735
N8190 X0.9638 Y-0.2737
N8195 X0.9799 Y-0.2739
N8200 X0.996 Y-0.274
N8205 X1.0121 Y-0.2741
N8210 X1.0282 Y-0.2742
N8215 X1.0443 Y-0.2743
N8220 X1.0604 Y-0.2744
N8225 X1.0765 Y-0.2745
N8230 X1.1087 Y-0.2747
N8235 X1.1409 Y-0.2748
N8240 X1.1731 Y-0.2749
N8245 X1.2215 Y-0.275
N8250 X1.2537
N8255 X1.2698 Y-0.2757
N8260 X1.2857 Y-0.2782
N8265 X1.3012 Y-0.2825
N8270 X1.3161 Y-0.2887
N8275 X1.3302 Y-0.2964
N8280 X1.3434 Y-0.3056
N8285 X1.3557 Y-0.316
N8290 X1.3671 Y-0.3274
N8295 X1.3776 Y-0.3396
N8300 X1.3872 Y-0.3526
N8305 X1.3959 Y-0.3661
N8310 X1.4039 Y-0.3801
N8315 X1.4111 Y-0.3945
N8320 X1.4177 Y-0.4092
N8325 X1.4236 Y-0.4241
N8330 X1.4289 Y-0.4393
N8335 X1.4338 Y-0.4547
N8340 X1.4381 Y-0.4702
N8345 X1.442 Y-0.4858
N8350 X1.4455 Y-0.5016
N8355 X1.4486 Y-0.5174
N8360 X1.4514 Y-0.5332
N8365 X1.454 Y-0.5491
N8370 X1.4562 Y-0.5651
N8375 X1.4582 Y-0.5811
N8380 X1.46 Y-0.5971
N8385 X1.4617 Y-0.6131
N8390 X1.4631 Y-0.6291
N8395 X1.4644 Y-0.6452
N8400 X1.4655 Y-0.6612
N8405 X1.4665 Y-0.6773
N8410 X1.4675 Y-0.6934
N8415 X1.4683 Y-0.7095
N8420 X1.469 Y-0.7256
N8425 X1.4696 Y-0.7417
N8430 X1.4702 Y-0.7577
N8435 X1.4707 Y-0.7738
N8440 X1.4712 Y-0.7899
N8445 X1.4716 Y-0.806
N8450 X1.472 Y-0.8221
N8455 X1.4723 Y-0.8382
N8460 X1.4726 Y-0.8543
N8465 X1.4728 Y-0.8705
N8470 X1.4731 Y-0.8866
N8475 X1.4733 Y-0.9027
N8480 X1.4734 Y-0.9188
N8485 X1.4736 Y-0.9349
N8490 X1.4737 Y-0.951
N8495 X1.4739 Y-0.9671
N8500 X1.474 Y-0.9832
N8505 X1.4741 Y-0.9993
N8510 X1.4742 Y-1.0154
N8515 Y-1.0315
N8520 X1.4744 Y-1.0637
N8525 X1.4745 Y-1.0959
N8530 Y-1.1281
N8535 X1.4746 Y-1.1764
N8540 X1.4747 Y-1.2248
N8545 X1.4748 Y-1.2892
N8550 Y-1.3697
N8555 Y-1.4985
N8560 Y-1.7723
N8565 Y-3.0446
N8570 Y-5.0255
N8575 Y-7.0065
N8580 Y-8.9874
N8585 Y-10.9683
N8590 Y-12.9492
N8595 Y-14.9301
N8600 Y-15.5099
N8605 X1.4735 Y-15.526
N8610 X1.4703 Y-15.5418
N8615 X1.4652 Y-15.557
N8620 X1.4584 Y-15.5716
N8625 X1.4501 Y-15.5854
N8630 X1.4404 Y-15.5983
N8635 X1.4296 Y-15.6103
N8640 X1.4179 Y-15.6213
N8645 X1.4054 Y-15.6314
N8650 X1.3922 Y-15.6407
N8655 X1.3785 Y-15.6491
N8660 X1.3643 Y-15.6568
N8665 X1.3498 Y-15.6638
N8670 X1.335 Y-15.6701
N8675 X1.3199 Y-15.6758
N8680 X1.3046 Y-15.6809
N8685 X1.2892 Y-15.6855
N8690 X1.2736 Y-15.6897
N8695 X1.258 Y-15.6934
N8700 X1.2422 Y-15.6967
N8705 X1.2264 Y-15.6998
N8710 X1.2105 Y-15.7024
N8715 X1.1946 Y-15.7049
N8720 X1.1786 Y-15.707
N8725 X1.1627 Y-15.709
N8730 X1.1466 Y-15.7107
N8735 X1.1306 Y-15.7122
N8740 X1.1146 Y-15.7136
N8745 X1.0985 Y-15.7148
N8750 X1.0824 Y-15.7159
N8755 X1.0664 Y-15.7169
N8760 X1.0503 Y-15.7178
N8765 X1.0342 Y-15.7186
N8770 X1.0181 Y-15.7192
N8775 X1.002 Y-15.7199
N8780 X0.9859 Y-15.7204
N8785 X0.9698 Y-15.7209
N8790 X0.9537 Y-15.7213
N8795 X0.9376 Y-15.7217
N8800 X0.9215 Y-15.7221
N8805 X0.9054 Y-15.7224
N8810 X0.8893 Y-15.7227
N8815 X0.8732 Y-15.7229
N8820 X0.8571 Y-15.7231
N8825 X0.841 Y-15.7233
N8830 X0.8249 Y-15.7235
N8835 X0.8088 Y-15.7236
N8840 X0.7927 Y-15.7238
N8845 X0.7766 Y-15.7239
N8850 X0.7283 Y-15.7242
N8855 X0.7122 Y-15.7243
N8860 X0.6961 Y-15.7245
N8865 X0.68 Y-15.7247
N8870 X0.6639 Y-15.7251
N8875 X0.6478 Y-15.7255
N8880 X0.6317 Y-15.7261
N8885 X0.6156 Y-15.7269
N8890 X0.5995 Y-15.728
N8895 X0.5835 Y-15.7294
N8900 X0.5675 Y-15.7313
N8905 X0.5516 Y-15.7337
N8910 X0.5358 Y-15.737
N8915 X0.5352 Y-15.7371
N8920 X0.5242 Y-15.7412
N8925 X0.5142 Y-15.7475
N8930 X0.5056 Y-15.7557
N8935 X0.4989 Y-15.7654
N8940 X0.4943 Y-15.7763
N8945 X0.4666 Y-15.8658
N8950 G3 X0.5147 Y-15.8796 I0.0241 J-0.0066
N8955 X0.5149 Y-15.8789 I-0.0239 J0.0072
N8960 G1 X0.5159 Y-15.8751 Z0.3567
N8965 X0.5169 Y-15.8714 Z0.3576
N8970 X0.5179 Y-15.8679 Z0.3591
N8975 X0.5187 Y-15.8647 Z0.3611
N8980 X0.5195 Y-15.8618 Z0.3637
N8985 X0.5202 Y-15.8594 Z0.3667
N8990 X0.5207 Y-15.8574 Z0.37
N8995 X0.5211 Y-15.856 Z0.3736
N9000 X0.5214 Y-15.8551 Z0.3774
N9005 Y-15.8548 Z0.3814
N9010 G0 Z0.95
N9015 X-0.4598 Y-16.0061
N9020 Z0.4064
N9025 G1 Z0.3814 F193.405
N9030 X-0.4597 Y-16.0058 Z0.3774
N9035 X-0.4595 Y-16.0049 Z0.3736
N9040 X-0.4591 Y-16.0035 Z0.37
N9045 X-0.4586 Y-16.0015 Z0.3667
N9050 X-0.458 Y-15.999 Z0.3637
N9055 X-0.4573 Y-15.9961 Z0.3611
N9060 X-0.4566 Y-15.9929 Z0.3591
N9065 X-0.4557 Y-15.9893 Z0.3576
N9070 X-0.4548 Y-15.9856 Z0.3567
N9075 X-0.4539 Y-15.9818 Z0.3564
N9080 G3 X-0.455 Y-15.9033 I-0.1539 J0.0371
N9085 G1 X-0.4829 Y-15.8133
N9090 X-0.4867 Y-15.8029
N9095 X-0.4907 Y-15.7941
N9100 X-0.4961 Y-15.7845
N9105 X-0.503 Y-15.7742
N9110 X-0.5116 Y-15.7634
N9115 X-0.5224 Y-15.7518
N9120 X-0.5343 Y-15.741
N9125 X-0.5469 Y-15.731
N9130 X-0.5602 Y-15.7219
N9135 X-0.574 Y-15.7135
N9140 X-0.5881 Y-15.7058
N9145 X-0.6026 Y-15.6988
N9150 X-0.6173 Y-15.6923
N9155 X-0.6323 Y-15.6864
N9160 X-0.6475 Y-15.681
N9165 X-0.6628 Y-15.676
N9170 X-0.6783 Y-15.6715
N9175 X-0.6938 Y-15.6674
N9180 X-0.7095 Y-15.6636
N9185 X-0.7252 Y-15.6601
N9190 X-0.741 Y-15.6569
N9195 X-0.7568 Y-15.654
N9200 X-0.7727 Y-15.6514
N9205 X-0.7887 Y-15.649
N9210 X-0.8046 Y-15.6468
N9215 X-0.8206 Y-15.6448
N9220 X-0.8366 Y-15.6429
N9225 X-0.8526 Y-15.6413
N9230 X-0.8686 Y-15.6397
N9235 X-0.8847 Y-15.6384
N9240 X-0.9007 Y-15.6371
N9245 X-0.9168 Y-15.6359
N9250 X-0.9329 Y-15.6349
N9255 X-0.949 Y-15.6339
N9260 X-0.965 Y-15.6331
N9265 X-0.9811 Y-15.6323
N9270 X-0.9972 Y-15.6316
N9275 X-1.0133 Y-15.6309
N9280 X-1.0294 Y-15.6303
N9285 X-1.0455 Y-15.6298
N9290 X-1.0616 Y-15.6293
N9295 X-1.0777 Y-15.6289
N9300 X-1.0938 Y-15.6285
N9305 X-1.1099 Y-15.6281
N9310 X-1.126 Y-15.6278
N9315 X-1.1421 Y-15.6275
N9320 X-1.1582 Y-15.6269
N9325 X-1.1742 Y-15.6249
N9330 X-1.1898 Y-15.6211
N9335 X-1.205 Y-15.6156
N9340 X-1.2194 Y-15.6085
N9345 X-1.2331 Y-15.6
N9350 X-1.2459 Y-15.5902
N9355 X-1.2578 Y-15.5793
N9360 X-1.2688 Y-15.5676
N9365 X-1.2789 Y-15.555
N9370 X-1.2882 Y-15.5419
N9375 X-1.2967 Y-15.5282
N9380 X-1.3044 Y-15.5141
N9385 X-1.3114 Y-15.4996
N9390 X-1.3178 Y-15.4848
N9395 X-1.3236 Y-15.4698
N9400 X-1.3288 Y-15.4545
N9405 X-1.3335 Y-15.4391
N9410 X-1.3378 Y-15.4236
N9415 X-1.3416 Y-15.408
N9420 X-1.3451 Y-15.3922
N9425 X-1.3482 Y-15.3764
N9430 X-1.351 Y-15.3606
N9435 X-1.3535 Y-15.3447
N9440 X-1.3558 Y-15.3287
N9445 X-1.3578 Y-15.3127
N9450 X-1.3596 Y-15.2967
N9455 X-1.3612 Y-15.2807
N9460 X-1.3627 Y-15.2647
N9465 X-1.364 Y-15.2486
N9470 X-1.3651 Y-15.2326
N9475 X-1.3662 Y-15.2165
N9480 X-1.3671 Y-15.2004
N9485 X-1.3679 Y-15.1843
N9490 X-1.3687 Y-15.1682
N9495 X-1.3693 Y-15.1521
N9500 X-1.3699 Y-15.1361
N9505 X-1.3705 Y-15.12
N9510 X-1.3709 Y-15.1039
N9515 X-1.3714 Y-15.0878
N9520 X-1.3717 Y-15.0717
N9525 X-1.3721 Y-15.0556
N9530 X-1.3724 Y-15.0395
N9535 X-1.3727 Y-15.0234
N9540 X-1.3729 Y-15.0072
N9545 X-1.3731 Y-14.9911
N9550 X-1.3733 Y-14.975
N9555 X-1.3735 Y-14.9589
N9560 X-1.3736 Y-14.9428
N9565 X-1.3737 Y-14.9267
N9570 X-1.3739 Y-14.9106
N9575 X-1.374 Y-14.8945
N9580 X-1.3741 Y-14.8784
N9585 X-1.3742 Y-14.8623
N9590 Y-14.8462
N9595 X-1.3744 Y-14.814
N9600 X-1.3745 Y-14.7818
N9605 Y-14.7496
N9610 X-1.3746 Y-14.7013
N9615 X-1.3747 Y-14.6529
N9620 Y-14.5885
N9625 X-1.3748 Y-14.508
N9630 Y-14.4758
N9635 Y-14.3308
N9640 Y-13.9765
N9645 Y-12.4949
N9650 Y-10.514
N9655 Y-8.533
N9660 Y-6.5521
N9665 Y-4.5712
N9670 Y-2.5903
N9675 Y-0.6094
N9680 X-1.3745 Y-0.5933
N9685 X-1.3728 Y-0.5772
N9690 X-1.3694 Y-0.5615
N9695 X-1.3641 Y-0.5463
N9700 X-1.3572 Y-0.5317
N9705 X-1.3489 Y-0.518
N9710 X-1.3392 Y-0.5051
N9715 X-1.3285 Y-0.4931
N9720 X-1.3168 Y-0.482
N9725 X-1.3043 Y-0.4718
N9730 X-1.2912 Y-0.4624
N9735 X-1.2776 Y-0.4539
N9740 X-1.2635 Y-0.4461
N9745 X-1.249 Y-0.439
N9750 X-1.2343 Y-0.4325
N9755 X-1.2193 Y-0.4267
N9760 X-1.204 Y-0.4214
N9765 X-1.1887 Y-0.4167
N9770 X-1.1731 Y-0.4124
N9775 X-1.1575 Y-0.4085
N9780 X-1.1418 Y-0.4051
N9785 X-1.126 Y-0.4019
N9790 X-1.1101 Y-0.3991
N9795 X-1.0942 Y-0.3966
N9800 X-1.0783 Y-0.3943
N9805 X-1.0623 Y-0.3923
N9810 X-1.0463 Y-0.3905
N9815 X-1.0303 Y-0.3889
N9820 X-1.0142 Y-0.3874
N9825 X-0.9982 Y-0.3861
N9830 X-0.9821 Y-0.3849
N9835 X-0.966 Y-0.3839
N9840 X-0.95 Y-0.3829
N9845 X-0.9339 Y-0.3821
N9850 X-0.9178 Y-0.3814
N9855 X-0.9017 Y-0.3807
N9860 X-0.8856 Y-0.3801
N9865 X-0.8695 Y-0.3796
N9870 X-0.8534 Y-0.3791
N9875 X-0.8373 Y-0.3787
N9880 X-0.8212 Y-0.3783
N9885 X-0.8051 Y-0.3779
N9890 X-0.789 Y-0.3776
N9895 X-0.7729 Y-0.3774
N9900 X-0.7568 Y-0.3771
N9905 X-0.7407 Y-0.3769
N9910 X-0.7246 Y-0.3767
N9915 X-0.7085 Y-0.3766
N9920 X-0.6924 Y-0.3764
N9925 X-0.6763 Y-0.3763
N9930 X-0.6602 Y-0.3762
N9935 X-0.6119 Y-0.3758
N9940 X-0.5958 Y-0.3757
N9945 X-0.5797 Y-0.3755
N9950 X-0.5636 Y-0.3753
N9955 X-0.5474 Y-0.3751
N9960 X-0.5313 Y-0.3748
N9965 X-0.5152 Y-0.3744
N9970 X-0.4991 Y-0.3738
N9975 X-0.4831 Y-0.3732
N9980 X-0.467 Y-0.3724
N9985 X-0.4509 Y-0.3714
N9990 X-0.4348 Y-0.3702
N9995 X-0.4188 Y-0.3688
N10000 X-0.4028 Y-0.3671
N10005 X-0.3868 Y-0.365
N10010 X-0.3709 Y-0.3627
N10015 X-0.355 Y-0.3599
N10020 X-0.3392 Y-0.3567
N10025 X-0.3236 Y-0.3529
N10030 X-0.3081 Y-0.3485
N10035 X-0.2928 Y-0.3433
N10040 X-0.278 Y-0.3371
N10045 X-0.2735 Y-0.3349
N10050 X-0.2633 Y-0.3285
N10055 X-0.2546 Y-0.3201
N10060 X-0.2478 Y-0.3102
N10065 X-0.2433 Y-0.299
N10070 X-0.2411 Y-0.2871
N10075 X-0.2409 Y-0.2842
N10080 X-0.2397 Y-0.2767
N10085 X-0.238 Y-0.2692
N10090 X-0.2362 Y-0.2617
N10095 X-0.2357 Y-0.2579
N10100 X-0.2359 Y-0.2542
N10105 X-0.2372 Y-0.2467
N10110 X-0.2387 Y-0.2392
N10115 X-0.2397 Y-0.2338
N10120 G3 X-0.2885 Y-0.2444 I-0.0244 J-0.0053
N10125 G1 X-0.2877 Y-0.2483 Z0.3567
N10130 X-0.2869 Y-0.252 Z0.3576
N10135 X-0.2861 Y-0.2555 Z0.3591
N10140 X-0.2854 Y-0.2588 Z0.3611
N10145 X-0.2848 Y-0.2617 Z0.3637
N10150 X-0.2842 Y-0.2642 Z0.3667
N10155 X-0.2838 Y-0.2662 Z0.37
N10160 X-0.2835 Y-0.2677 Z0.3736
N10165 X-0.2833 Y-0.2686 Z0.3774
N10170 X-0.2832 Y-0.2689 Z0.3814
N10175 G0 Z0.95
N10180 X0.2716 Y0.0387
N10185 Z0.4064
N10190 G1 Z0.3814 F193.405
N10195 X0.2715 Y0.0384 Z0.3774
N10200 X0.271 Y0.0376 Z0.3736
N10205 X0.2703 Y0.0363 Z0.37
N10210 X0.2693 Y0.0345 Z0.3667
N10215 X0.2681 Y0.0323 Z0.3637
N10220 X0.2667 Y0.0297 Z0.3611
N10225 X0.265 Y0.0267 Z0.3591
N10230 X0.2633 Y0.0236 Z0.3576
N10235 X0.2614 Y0.0202 Z0.3567
N10240 X0.2595 Y0.0168 Z0.3564
N10245 G3 X0.2398 Y-0.0592 I0.1385 J-0.0765
N10250 G1 X0.2401 Y-0.0667
N10255 X0.2407 Y-0.0892
N10260 X0.2409 Y-0.0967
N10265 X0.241 Y-0.1042
N10270 X0.2412 Y-0.1342
N10275 X0.2418 Y-0.1444
N10280 X0.2429 Y-0.1523
N10285 X0.2448 Y-0.1608
N10290 X0.2477 Y-0.1702
N10295 X0.2518 Y-0.1803
N10300 X0.2571 Y-0.1911
N10305 X0.2641 Y-0.2026
N10310 X0.2728 Y-0.2149
N10315 X0.2832 Y-0.2272
N10320 X0.2945 Y-0.2387
N10325 X0.3066 Y-0.2494
N10330 X0.3193 Y-0.2593
N10335 X0.3325 Y-0.2685
N10340 X0.3461 Y-0.277
N10345 X0.3602 Y-0.2849
N10350 X0.3745 Y-0.2922
N10355 X0.3891 Y-0.299
N10360 X0.404 Y-0.3053
N10365 X0.419 Y-0.311
N10370 X0.4342 Y-0.3164
N10375 X0.4495 Y-0.3213
N10380 X0.465 Y-0.3258
N10385 X0.4806 Y-0.33
N10390 X0.4962 Y-0.3338
N10395 X0.5119 Y-0.3373
N10400 X0.5277 Y-0.3406
N10405 X0.5435 Y-0.3436
N10410 X0.5594 Y-0.3463
N10415 X0.5753 Y-0.3488
N10420 X0.5912 Y-0.3512
N10425 X0.6072 Y-0.3533
N10430 X0.6232 Y-0.3552
N10435 X0.6392 Y-0.357
N10440 X0.6552 Y-0.3586
N10445 X0.6712 Y-0.3601
N10450 X0.6873 Y-0.3615
N10455 X0.7033 Y-0.3627
N10460 X0.7194 Y-0.3639
N10465 X0.7355 Y-0.3649
N10470 X0.7516 Y-0.3659
N10475 X0.7676 Y-0.3667
N10480 X0.7837 Y-0.3675
N10485 X0.7998 Y-0.3682
N10490 X0.8159 Y-0.3689
N10495 X0.832 Y-0.3695
N10500 X0.8481 Y-0.37
N10505 X0.8642 Y-0.3705
N10510 X0.8803 Y-0.371
N10515 X0.8964 Y-0.3714
N10520 X0.9125 Y-0.3717
N10525 X0.9286 Y-0.3721
N10530 X0.9447 Y-0.3724
N10535 X0.9608 Y-0.3727
N10540 X0.9769 Y-0.3729
N10545 X0.993 Y-0.3731
N10550 X1.0091 Y-0.3733
N10555 X1.0252 Y-0.3735
N10560 X1.0413 Y-0.3737
N10565 X1.0574 Y-0.3738
N10570 X1.0735 Y-0.374
N10575 X1.0896 Y-0.3741
N10580 X1.1057 Y-0.3742
N10585 X1.1218 Y-0.3743
N10590 X1.1379 Y-0.3744
N10595 X1.154 Y-0.3746
N10600 X1.1701 Y-0.3761
N10605 X1.1859 Y-0.3793
N10610 X1.2012 Y-0.3843
N10615 X1.2159 Y-0.3909
N10620 X1.2297 Y-0.3991
N10625 X1.2428 Y-0.4085
N10630 X1.2549 Y-0.4191
N10635 X1.2662 Y-0.4306
N10640 X1.2765 Y-0.443
N10645 X1.286 Y-0.456
N10650 X1.2947 Y-0.4695
N10655 X1.3026 Y-0.4836
N10660 X1.3098 Y-0.498
N10665 X1.3164 Y-0.5127
N10670 X1.3223 Y-0.5277
N10675 X1.3277 Y-0.5428
N10680 X1.3325 Y-0.5582
N10685 X1.3369 Y-0.5737
N10690 X1.3408 Y-0.5893
N10695 X1.3443 Y-0.605
N10700 X1.3475 Y-0.6208
N10705 X1.3504 Y-0.6367
N10710 X1.353 Y-0.6526
N10715 X1.3553 Y-0.6685
N10720 X1.3573 Y-0.6845
N10725 X1.3592 Y-0.7005
N10730 X1.3609 Y-0.7165
N10735 X1.3624 Y-0.7325
N10740 X1.3637 Y-0.7486
N10745 X1.3649 Y-0.7646
N10750 X1.366 Y-0.7807
N10755 X1.3669 Y-0.7968
N10760 X1.3678 Y-0.8129
N10765 X1.3685 Y-0.829
N10770 X1.3692 Y-0.845
N10775 X1.3698 Y-0.8611
N10780 X1.3704 Y-0.8772
N10785 X1.3708 Y-0.8933
N10790 X1.3713 Y-0.9094
N10795 X1.3717 Y-0.9255
N10800 X1.372 Y-0.9416
N10805 X1.3723 Y-0.9577
N10810 X1.3726 Y-0.9738
N10815 X1.3728 Y-0.9899
N10820 X1.3731 Y-1.006
N10825 X1.3733 Y-1.0221
N10830 X1.3734 Y-1.0383
N10835 X1.3736 Y-1.0544
N10840 X1.3737 Y-1.0705
N10845 X1.3738 Y-1.0866
N10850 X1.374 Y-1.1027
N10855 X1.3741 Y-1.1188
N10860 Y-1.1349
N10865 X1.3742 Y-1.151
N10870 X1.3743 Y-1.1832
N10875 X1.3745 Y-1.2154
N10880 Y-1.2476
N10885 X1.3746 Y-1.2959
N10890 X1.3747 Y-1.3442
N10895 Y-1.4087
N10900 X1.3748 Y-1.4892
N10905 Y-1.618
N10910 Y-1.8757
N10915 Y-3.2285
N10920 Y-5.2095
N10925 Y-7.1904
N10930 Y-9.1713
N10935 Y-11.1522
N10940 Y-13.1331
N10945 Y-15.114
N10950 Y-15.3878
N10955 X1.3747 Y-15.4039
N10960 X1.3733 Y-15.42
N10965 X1.3701 Y-15.4358
N10970 X1.3652 Y-15.4511
N10975 X1.3586 Y-15.4658
N10980 X1.3504 Y-15.4797
N10985 X1.341 Y-15.4927
N10990 X1.3304 Y-15.5049
N10995 X1.3189 Y-15.5161
N11000 X1.3066 Y-15.5265
N11005 X1.2936 Y-15.536
N11010 X1.28 Y-15.5447
N11015 X1.266 Y-15.5526
N11020 X1.2516 Y-15.5598
N11025 X1.2369 Y-15.5664
N11030 X1.2219 Y-15.5723
N11035 X1.2067 Y-15.5777
N11040 X1.1914 Y-15.5825
N11045 X1.1759 Y-15.5869
N11050 X1.1603 Y-15.5908
N11055 X1.1445 Y-15.5944
N11060 X1.1288 Y-15.5975
N11065 X1.1129 Y-15.6004
N11070 X1.097 Y-15.603
N11075 X1.0811 Y-15.6053
N11080 X1.0651 Y-15.6073
N11085 X1.0491 Y-15.6092
N11090 X1.0331 Y-15.6109
N11095 X1.017 Y-15.6124
N11100 X1.001 Y-15.6137
N11105 X0.9849 Y-15.6149
N11110 X0.9689 Y-15.6159
N11115 X0.9528 Y-15.6169
N11120 X0.9367 Y-15.6178
N11125 X0.9206 Y-15.6185
N11130 X0.9045 Y-15.6192
N11135 X0.8884 Y-15.6198
N11140 X0.8723 Y-15.6203
N11145 X0.8562 Y-15.6208
N11150 X0.8401 Y-15.6213
N11155 X0.824 Y-15.6217
N11160 X0.8079 Y-15.622
N11165 X0.7918 Y-15.6224
N11170 X0.7596 Y-15.6231
N11175 X0.7435 Y-15.6234
N11180 X0.7274 Y-15.6238
N11185 X0.7113 Y-15.6243
N11190 X0.6952 Y-15.6248
N11195 X0.6791 Y-15.6255
N11200 X0.6631 Y-15.6263
N11205 X0.647 Y-15.6273
N11210 X0.6309 Y-15.6286
N11215 X0.6149 Y-15.6301
N11220 X0.5989 Y-15.6321
N11225 X0.583 Y-15.6347
N11230 X0.5673 Y-15.638
N11235 X0.5657 Y-15.6384
N11240 X0.5546 Y-15.6425
N11245 X0.5447 Y-15.6488
N11250 X0.5362 Y-15.657
N11255 X0.5295 Y-15.6667
N11260 X0.5249 Y-15.6775
N11265 X0.4943 Y-15.7763
N11270 G3 X0.5424 Y-15.79 I0.0241 J-0.0066
N11275 X0.5426 Y-15.7894 I-0.0239 J0.0072
N11280 G1 X0.5436 Y-15.7856 Z0.3567
N11285 X0.5446 Y-15.7819 Z0.3576
N11290 X0.5456 Y-15.7784 Z0.3591
N11295 X0.5464 Y-15.7752 Z0.3611
N11300 X0.5472 Y-15.7723 Z0.3637
N11305 X0.5479 Y-15.7699 Z0.3667
N11310 X0.5484 Y-15.7679 Z0.37
N11315 X0.5488 Y-15.7664 Z0.3736
N11320 X0.549 Y-15.7656 Z0.3774
N11325 X0.5491 Y-15.7653 Z0.3814
N11330 G0 Z0.95
N11335 X-0.4876 Y-15.9161
N11340 Z0.4064
N11345 G1 Z0.3814 F193.405
N11350 X-0.4875 Y-15.9158 Z0.3774
N11355 X-0.4873 Y-15.915 Z0.3736
N11360 X-0.487 Y-15.9135 Z0.37
N11365 X-0.4865 Y-15.9115 Z0.3667
N11370 X-0.4859 Y-15.909 Z0.3637
N11375 X-0.4852 Y-15.9061 Z0.3611
N11380 X-0.4844 Y-15.9029 Z0.3591
N11385 X-0.4835 Y-15.8993 Z0.3576
N11390 X-0.4827 Y-15.8956 Z0.3567
N11395 X-0.4817 Y-15.8918 Z0.3564
N11400 G3 X-0.4829 Y-15.8133 I-0.1539 J0.0371
N11405 G1 X-0.513 Y-15.7158
N11410 X-0.5151 Y-15.7103
N11415 X-0.5192 Y-15.7012
N11420 X-0.5247 Y-15.6914
N11425 X-0.5318 Y-15.6808
N11430 X-0.5407 Y-15.6696
N11435 X-0.5517 Y-15.6578
N11440 X-0.5636 Y-15.6469
N11445 X-0.5763 Y-15.6369
N11450 X-0.5895 Y-15.6277
N11455 X-0.6032 Y-15.6192
N11460 X-0.6173 Y-15.6114
N11465 X-0.6317 Y-15.6043
N11470 X-0.6464 Y-15.5977
N11475 X-0.6613 Y-15.5916
N11480 X-0.6764 Y-15.586
N11485 X-0.6917 Y-15.5809
N11490 X-0.7071 Y-15.5762
N11495 X-0.7226 Y-15.5719
N11500 X-0.7382 Y-15.5679
N11505 X-0.7539 Y-15.5643
N11510 X-0.7696 Y-15.5609
N11515 X-0.7854 Y-15.5578
N11520 X-0.8013 Y-15.555
N11525 X-0.8172 Y-15.5524
N11530 X-0.8331 Y-15.55
N11535 X-0.8491 Y-15.5478
N11540 X-0.865 Y-15.5458
N11545 X-0.881 Y-15.544
N11550 X-0.8971 Y-15.5423
N11555 X-0.9131 Y-15.5408
N11560 X-0.9291 Y-15.5394
N11565 X-0.9452 Y-15.5381
N11570 X-0.9613 Y-15.5369
N11575 X-0.9773 Y-15.5358
N11580 X-0.9934 Y-15.5348
N11585 X-1.0095 Y-15.5339
N11590 X-1.0256 Y-15.5331
N11595 X-1.0416 Y-15.5323
N11600 X-1.0577 Y-15.531
N11605 X-1.0736 Y-15.5283
N11610 X-1.0891 Y-15.5239
N11615 X-1.1041 Y-15.518
N11620 X-1.1184 Y-15.5106
N11625 X-1.1319 Y-15.5018
N11630 X-1.1445 Y-15.4919
N11635 X-1.1563 Y-15.4809
N11640 X-1.1673 Y-15.4691
N11645 X-1.1774 Y-15.4566
N11650 X-1.1866 Y-15.4434
N11655 X-1.1951 Y-15.4297
N11660 X-1.2028 Y-15.4156
N11665 X-1.2099 Y-15.4011
N11670 X-1.2163 Y-15.3863
N11675 X-1.2221 Y-15.3713
N11680 X-1.2274 Y-15.3561
N11685 X-1.2322 Y-15.3407
N11690 X-1.2365 Y-15.3252
N11695 X-1.2404 Y-15.3096
N11700 X-1.2439 Y-15.2939
N11705 X-1.2471 Y-15.2781
N11710 X-1.25 Y-15.2622
N11715 X-1.2525 Y-15.2463
N11720 X-1.2548 Y-15.2304
N11725 X-1.2569 Y-15.2144
N11730 X-1.2588 Y-15.1984
N11735 X-1.2605 Y-15.1824
N11740 X-1.262 Y-15.1664
N11745 X-1.2633 Y-15.1503
N11750 X-1.2645 Y-15.1343
N11755 X-1.2656 Y-15.1182
N11760 X-1.2666 Y-15.1021
N11765 X-1.2674 Y-15.086
N11770 X-1.2682 Y-15.0699
N11775 X-1.2689 Y-15.0539
N11780 X-1.2696 Y-15.0378
N11785 X-1.2701 Y-15.0217
N11790 X-1.2706 Y-15.0056
N11795 X-1.2711 Y-14.9895
N11800 X-1.2715 Y-14.9734
N11805 X-1.2718 Y-14.9573
N11810 X-1.2722 Y-14.9412
N11815 X-1.2724 Y-14.9251
N11820 X-1.2727 Y-14.909
N11825 X-1.2729 Y-14.8929
N11830 X-1.2731 Y-14.8768
N11835 X-1.2733 Y-14.8607
N11840 X-1.2735 Y-14.8445
N11845 X-1.2736 Y-14.8284
N11850 X-1.2738 Y-14.8123
N11855 X-1.2739 Y-14.7962
N11860 X-1.274 Y-14.7801
N11865 X-1.2741 Y-14.764
N11870 X-1.2742 Y-14.7479
N11875 Y-14.7318
N11880 X-1.2744 Y-14.6996
N11885 X-1.2745 Y-14.6674
N11890 Y-14.6352
N11895 X-1.2746 Y-14.5869
N11900 X-1.2747 Y-14.5386
N11905 Y-14.4741
N11910 X-1.2748 Y-14.3936
N11915 Y-14.2648
N11920 Y-14.2487
N11925 Y-13.9749
N11930 Y-12.2677
N11935 Y-10.2868
N11940 Y-8.3059
N11945 Y-6.325
N11950 Y-4.3441
N11955 Y-2.3632
N11960 Y-0.7204
N11965 X-1.2747 Y-0.7043
N11970 X-1.2737 Y-0.6883
N11975 X-1.271 Y-0.6724
N11980 X-1.2666 Y-0.6569
N11985 X-1.2606 Y-0.642
N11990 X-1.253 Y-0.6278
N11995 X-1.244 Y-0.6144
N12000 X-1.2339 Y-0.6019
N12005 X-1.2227 Y-0.5903
N12010 X-1.2107 Y-0.5795
N12015 X-1.198 Y-0.5696
N12020 X-1.1847 Y-0.5606
N12025 X-1.1709 Y-0.5523
N12030 X-1.1567 Y-0.5447
N12035 X-1.1421 Y-0.5378
N12040 X-1.1273 Y-0.5316
N12045 X-1.1122 Y-0.5259
N12050 X-1.0969 Y-0.5208
N12055 X-1.0815 Y-0.5162
N12060 X-1.0659 Y-0.512
N12065 X-1.0503 Y-0.5082
N12070 X-1.0345 Y-0.5048
N12075 X-1.0187 Y-0.5018
N12080 X-1.0029 Y-0.499
N12085 X-0.9869 Y-0.4966
N12090 X-0.971 Y-0.4943
N12095 X-0.955 Y-0.4923
N12100 X-0.939 Y-0.4905
N12105 X-0.923 Y-0.4889
N12110 X-0.9069 Y-0.4875
N12115 X-0.8909 Y-0.4862
N12120 X-0.8748 Y-0.485
N12125 X-0.8587 Y-0.484
N12130 X-0.8427 Y-0.4831
N12135 X-0.8266 Y-0.4822
N12140 X-0.8105 Y-0.4815
N12145 X-0.7944 Y-0.4808
N12150 X-0.7783 Y-0.4802
N12155 X-0.7622 Y-0.4797
N12160 X-0.7461 Y-0.4792
N12165 X-0.73 Y-0.4788
N12170 X-0.7139 Y-0.4784
N12175 X-0.6978 Y-0.478
N12180 X-0.6817 Y-0.4777
N12185 X-0.6495 Y-0.477
N12190 X-0.6334 Y-0.4767
N12195 X-0.6173 Y-0.4764
N12200 X-0.6012 Y-0.4761
N12205 X-0.5851 Y-0.4757
N12210 X-0.569 Y-0.4752
N12215 X-0.5529 Y-0.4747
N12220 X-0.5368 Y-0.4741
N12225 X-0.5207 Y-0.4734
N12230 X-0.5046 Y-0.4726
N12235 X-0.4886 Y-0.4717
N12240 X-0.4725 Y-0.4705
N12245 X-0.4564 Y-0.4692
N12250 X-0.4404 Y-0.4678
N12255 X-0.4244 Y-0.466
N12260 X-0.4084 Y-0.4641
N12265 X-0.3925 Y-0.4618
N12270 X-0.3766 Y-0.4592
N12275 X-0.3607 Y-0.4562
N12280 X-0.345 Y-0.4529
N12285 X-0.3294 Y-0.449
N12290 X-0.3139 Y-0.4446
N12295 X-0.2986 Y-0.4395
N12300 X-0.2836 Y-0.4336
N12305 X-0.2748 Y-0.4294
N12310 X-0.2652 Y-0.4238
N12315 X-0.2569 Y-0.4164
N12320 X-0.2501 Y-0.4077
N12325 X-0.2452 Y-0.3978
N12330 X-0.2421 Y-0.3871
N12335 X-0.2412 Y-0.3761
N12340 X-0.2416 Y-0.3292
N12345 X-0.2417 Y-0.3217
N12350 Y-0.3142
N12355 Y-0.3067
N12360 Y-0.2992
N12365 G3 X-0.2917 Y-0.3006 I-0.025 J-0.0007
N12370 G1 X-0.2916 Y-0.3045 Z0.3567
N12375 X-0.2914 Y-0.3084 Z0.3576
N12380 X-0.2913 Y-0.312 Z0.3591
N12385 X-0.2912 Y-0.3153 Z0.3611
N12390 Y-0.3183 Z0.3637
N12395 X-0.2911 Y-0.3208 Z0.3667
N12400 X-0.291 Y-0.3229 Z0.37
N12405 Y-0.3244 Z0.3736
N12410 Y-0.3253 Z0.3774
N12415 X-0.2909 Y-0.3256 Z0.3814
N12420 G0 Z0.95
N12425 X0.2753 Y-0.0371
N12430 Z0.4064
N12435 G1 Z0.3814 F193.405
N12440 X0.2752 Y-0.0373 Z0.3774
N12445 X0.2747 Y-0.0381 Z0.3736
N12450 X0.274 Y-0.0394 Z0.37
N12455 X0.2729 Y-0.0412 Z0.3667
N12460 X0.2716 Y-0.0434 Z0.3637
N12465 X0.2701 Y-0.046 Z0.3611
N12470 X0.2684 Y-0.0489 Z0.3591
N12475 X0.2666 Y-0.052 Z0.3576
N12480 X0.2647 Y-0.0553 Z0.3567
N12485 X0.2627 Y-0.0587 Z0.3564
N12490 G3 X0.2412 Y-0.1342 I0.1367 J-0.0797
N12495 G1 X0.2416 Y-0.1792
N12500 X0.2417 Y-0.1867
N12505 Y-0.1942
N12510 Y-0.2017
N12515 Y-0.2092
N12520 X0.2416 Y-0.2167
N12525 X0.2415 Y-0.2195
N12530 X0.242 Y-0.2269
N12535 X0.2432 Y-0.2354
N12540 X0.2452 Y-0.2445
N12545 X0.2484 Y-0.2545
N12550 X0.2527 Y-0.2654
N12555 X0.2586 Y-0.277
N12560 X0.266 Y-0.2894
N12565 X0.2754 Y-0.3024
N12570 X0.2859 Y-0.3147
N12575 X0.2971 Y-0.3262
N12580 X0.3091 Y-0.337
N12585 X0.3217 Y-0.3471
N12590 X0.3348 Y-0.3564
N12595 X0.3483 Y-0.3652
N12600 X0.3622 Y-0.3734
N12605 X0.3764 Y-0.381
N12610 X0.3908 Y-0.388
N12615 X0.4055 Y-0.3946
N12620 X0.4204 Y-0.4008
N12625 X0.4355 Y-0.4064
N12630 X0.4507 Y-0.4117
N12635 X0.466 Y-0.4166
N12640 X0.4815 Y-0.4212
N12645 X0.497 Y-0.4254
N12650 X0.5126 Y-0.4294
N12655 X0.5283 Y-0.433
N12660 X0.5441 Y-0.4364
N12665 X0.5599 Y-0.4395
N12670 X0.5757 Y-0.4423
N12675 X0.5916 Y-0.445
N12680 X0.6075 Y-0.4475
N12685 X0.6235 Y-0.4497
N12690 X0.6394 Y-0.4518
N12695 X0.6554 Y-0.4538
N12700 X0.6714 Y-0.4556
N12705 X0.6875 Y-0.4572
N12710 X0.7035 Y-0.4587
N12715 X0.7195 Y-0.4601
N12720 X0.7356 Y-0.4614
N12725 X0.7516 Y-0.4626
N12730 X0.7677 Y-0.4637
N12735 X0.7838 Y-0.4647
N12740 X0.7999 Y-0.4656
N12745 X0.816 Y-0.4664
N12750 X0.832 Y-0.4672
N12755 X0.8481 Y-0.4679
N12760 X0.8642 Y-0.4686
N12765 X0.8803 Y-0.4691
N12770 X0.8964 Y-0.4697
N12775 X0.9125 Y-0.4702
N12780 X0.9286 Y-0.4706
N12785 X0.9447 Y-0.4711
N12790 X0.9608 Y-0.4714
N12795 X0.9769 Y-0.4718
N12800 X0.993 Y-0.4721
N12805 X1.0091 Y-0.4724
N12810 X1.0252 Y-0.4726
N12815 X1.0413 Y-0.4729
N12820 X1.0574 Y-0.4738
N12825 X1.0733 Y-0.4761
N12830 X1.0889 Y-0.4802
N12835 X1.104 Y-0.4859
N12840 X1.1184 Y-0.4931
N12845 X1.1319 Y-0.5018
N12850 X1.1447 Y-0.5116
N12855 X1.1565 Y-0.5226
N12860 X1.1675 Y-0.5343
N12865 X1.1776 Y-0.5469
N12870 X1.1869 Y-0.56
N12875 X1.1954 Y-0.5737
N12880 X1.2031 Y-0.5878
N12885 X1.2102 Y-0.6023
N12890 X1.2166 Y-0.6171
N12895 X1.2224 Y-0.6321
N12900 X1.2277 Y-0.6473
N12905 X1.2325 Y-0.6627
N12910 X1.2368 Y-0.6782
N12915 X1.2407 Y-0.6939
N12920 X1.2442 Y-0.7096
N12925 X1.2473 Y-0.7254
N12930 X1.2502 Y-0.7412
N12935 X1.2527 Y-0.7571
N12940 X1.255 Y-0.7731
N12945 X1.2571 Y-0.789
N12950 X1.2589 Y-0.805
N12955 X1.2606 Y-0.821
N12960 X1.2621 Y-0.8371
N12965 X1.2634 Y-0.8531
N12970 X1.2646 Y-0.8692
N12975 X1.2657 Y-0.8853
N12980 X1.2667 Y-0.9013
N12985 X1.2675 Y-0.9174
N12990 X1.2683 Y-0.9335
N12995 X1.269 Y-0.9496
N13000 X1.2696 Y-0.9657
N13005 X1.2702 Y-0.9818
N13010 X1.2707 Y-0.9979
N13015 X1.2711 Y-1.014
N13020 X1.2715 Y-1.0301
N13025 X1.2719 Y-1.0462
N13030 X1.2722 Y-1.0623
N13035 X1.2725 Y-1.0784
N13040 X1.2727 Y-1.0945
N13045 X1.273 Y-1.1106
N13050 X1.2732 Y-1.1267
N13055 X1.2733 Y-1.1428
N13060 X1.2735 Y-1.1589
N13065 X1.2736 Y-1.175
N13070 X1.2738 Y-1.1911
N13075 X1.2739 Y-1.2072
N13080 X1.274 Y-1.2233
N13085 X1.2741 Y-1.2394
N13090 X1.2742 Y-1.2555
N13095 Y-1.2716
N13100 X1.2744 Y-1.3038
N13105 X1.2745 Y-1.3361
N13110 Y-1.3683
N13115 X1.2746 Y-1.4166
N13120 X1.2747 Y-1.4488
N13125 Y-1.5132
N13130 X1.2748 Y-1.5937
N13135 Y-1.7065
N13140 Y-1.9158
N13145 Y-3.4297
N13150 Y-5.4106
N13155 Y-7.3915
N13160 Y-9.3725
N13165 Y-11.3534
N13170 Y-13.3343
N13175 Y-15.283
N13180 X1.2746 Y-15.2991
N13185 X1.2733 Y-15.3152
N13190 X1.2702 Y-15.331
N13195 X1.2655 Y-15.3464
N13200 X1.2591 Y-15.3611
N13205 X1.2512 Y-15.3752
N13210 X1.2419 Y-15.3884
N13215 X1.2316 Y-15.4007
N13220 X1.2202 Y-15.4121
N13225 X1.2081 Y-15.4227
N13230 X1.1952 Y-15.4324
N13235 X1.1818 Y-15.4413
N13240 X1.1679 Y-15.4494
N13245 X1.1536 Y-15.4568
N13250 X1.139 Y-15.4636
N13255 X1.124 Y-15.4697
N13260 X1.1089 Y-15.4752
N13265 X1.0936 Y-15.4802
N13270 X1.0782 Y-15.4847
N13275 X1.0626 Y-15.4888
N13280 X1.0469 Y-15.4925
N13285 X1.0312 Y-15.4958
N13290 X1.0153 Y-15.4988
N13295 X0.9994 Y-15.5015
N13300 X0.9835 Y-15.5039
N13305 X0.9676 Y-15.5061
N13310 X0.9516 Y-15.5081
N13315 X0.9356 Y-15.5098
N13320 X0.9195 Y-15.5114
N13325 X0.9035 Y-15.5128
N13330 X0.8874 Y-15.5141
N13335 X0.8714 Y-15.5152
N13340 X0.8553 Y-15.5163
N13345 X0.8392 Y-15.5173
N13350 X0.8232 Y-15.5182
N13355 X0.8071 Y-15.519
N13360 X0.791 Y-15.5198
N13365 X0.7749 Y-15.5206
N13370 X0.7588 Y-15.5214
N13375 X0.7427 Y-15.5223
N13380 X0.7267 Y-15.5232
N13385 X0.7106 Y-15.5242
N13390 X0.6945 Y-15.5253
N13395 X0.6785 Y-15.5266
N13400 X0.6624 Y-15.528
N13405 X0.6464 Y-15.5298
N13410 X0.6305 Y-15.5319
N13415 X0.6146 Y-15.5346
N13420 X0.5988 Y-15.538
N13425 X0.5963 Y-15.5387
N13430 X0.5854 Y-15.5428
N13435 X0.5754 Y-15.5491
N13440 X0.567 Y-15.5573
N13445 X0.5603 Y-15.5669
N13450 X0.5558 Y-15.5777
N13455 X0.5249 Y-15.6775
N13460 G3 X0.5729 Y-15.6913 I0.0241 J-0.0066
N13465 X0.5731 Y-15.6906 I-0.0239 J0.0072
N13470 G1 X0.5742 Y-15.6868 Z0.3567
N13475 X0.5752 Y-15.6832 Z0.3576
N13480 X0.5761 Y-15.6797 Z0.3591
N13485 X0.577 Y-15.6764 Z0.3611
N13490 X0.5778 Y-15.6736 Z0.3637
N13495 X0.5784 Y-15.6711 Z0.3667
N13500 X0.579 Y-15.6691 Z0.37
N13505 X0.5794 Y-15.6677 Z0.3736
N13510 X0.5796 Y-15.6668 Z0.3774
N13515 X0.5797 Y-15.6665 Z0.3814
N13520 G0 Z0.95
N13525 X-0.5178 Y-15.8187
N13530 Z0.4064
N13535 G1 Z0.3814 F193.405
N13540 X-0.5177 Y-15.8184 Z0.3774
N13545 X-0.5175 Y-15.8175 Z0.3736
N13550 X-0.5171 Y-15.816 Z0.37
N13555 X-0.5166 Y-15.814 Z0.3667
N13560 X-0.516 Y-15.8115 Z0.3637
N13565 X-0.5153 Y-15.8086 Z0.3611
N13570 X-0.5146 Y-15.8054 Z0.3591
N13575 X-0.5137 Y-15.8019 Z0.3576
N13580 X-0.5128 Y-15.7982 Z0.3567
N13585 X-0.5119 Y-15.7944 Z0.3564
N13590 G3 X-0.513 Y-15.7158 I-0.1539 J0.0371
N13595 G1 X-0.5409 Y-15.6258
N13600 X-0.5446 Y-15.6156
N13605 X-0.5488 Y-15.6064
N13610 X-0.5544 Y-15.5964
N13615 X-0.5616 Y-15.5857
N13620 X-0.5707 Y-15.5742
N13625 X-0.5817 Y-15.5625
N13630 X-0.5936 Y-15.5516
N13635 X-0.6062 Y-15.5416
N13640 X-0.6194 Y-15.5323
N13645 X-0.633 Y-15.5238
N13650 X-0.6471 Y-15.5159
N13655 X-0.6614 Y-15.5086
N13660 X-0.6761 Y-15.5019
N13665 X-0.691 Y-15.4957
N13670 X-0.706 Y-15.4901
N13675 X-0.7213 Y-15.4848
N13680 X-0.7366 Y-15.48
N13685 X-0.7521 Y-15.4755
N13690 X-0.7677 Y-15.4714
N13695 X-0.7833 Y-15.4676
N13700 X-0.799 Y-15.4641
N13705 X-0.8148 Y-15.4609
N13710 X-0.8307 Y-15.458
N13715 X-0.8465 Y-15.4552
N13720 X-0.8624 Y-15.4527
N13725 X-0.8784 Y-15.4504
N13730 X-0.8943 Y-15.4483
N13735 X-0.9103 Y-15.4463
N13740 X-0.9263 Y-15.4445
N13745 X-0.9423 Y-15.4428
N13750 X-0.9583 Y-15.4403
N13755 X-0.9739 Y-15.4367
N13760 X-0.9892 Y-15.4316
N13765 X-1.004 Y-15.4251
N13770 X-1.018 Y-15.4172
N13775 X-1.0313 Y-15.4082
N13780 X-1.0438 Y-15.398
N13785 X-1.0554 Y-15.3869
N13790 X-1.0663 Y-15.3749
N13795 X-1.0762 Y-15.3623
N13800 X-1.0854 Y-15.3491
N13805 X-1.0939 Y-15.3353
N13810 X-1.1016 Y-15.3212
N13815 X-1.1086 Y-15.3067
N13820 X-1.1151 Y-15.292
N13825 X-1.1209 Y-15.2769
N13830 X-1.1262 Y-15.2617
N13835 X-1.131 Y-15.2464
N13840 X-1.1354 Y-15.2309
N13845 X-1.1393 Y-15.2152
N13850 X-1.1429 Y-15.1995
N13855 X-1.1461 Y-15.1838
N13860 X-1.149 Y-15.1679
N13865 X-1.1516 Y-15.152
N13870 X-1.154 Y-15.1361
N13875 X-1.1561 Y-15.1201
N13880 X-1.158 Y-15.1041
N13885 X-1.1597 Y-15.0881
N13890 X-1.1613 Y-15.0721
N13895 X-1.1627 Y-15.0561
N13900 X-1.1639 Y-15.04
N13905 X-1.1651 Y-15.0239
N13910 X-1.1661 Y-15.0079
N13915 X-1.167 Y-14.9918
N13920 X-1.1678 Y-14.9757
N13925 X-1.1685 Y-14.9596
N13930 X-1.1692 Y-14.9435
N13935 X-1.1698 Y-14.9274
N13940 X-1.1703 Y-14.9113
N13945 X-1.1708 Y-14.8952
N13950 X-1.1712 Y-14.8791
N13955 X-1.1716 Y-14.863
N13960 X-1.1719 Y-14.8469
N13965 X-1.1722 Y-14.8308
N13970 X-1.1725 Y-14.8147
N13975 X-1.1728 Y-14.7986
N13980 X-1.173 Y-14.7825
N13985 X-1.1732 Y-14.7664
N13990 X-1.1733 Y-14.7503
N13995 X-1.1735 Y-14.7342
N14000 X-1.1736 Y-14.7181
N14005 X-1.1738 Y-14.702
N14010 X-1.1739 Y-14.6859
N14015 X-1.174 Y-14.6698
N14020 X-1.1741 Y-14.6537
N14025 X-1.1742 Y-14.6376
N14030 X-1.1743 Y-14.6054
N14035 X-1.1744 Y-14.5732
N14040 X-1.1745 Y-14.5409
N14045 X-1.1746 Y-14.4926
N14050 X-1.1747 Y-14.4443
N14055 Y-14.3799
N14060 X-1.1748 Y-14.2994
N14065 Y-14.1866
N14070 Y-14.0256
N14075 Y-13.4136
N14080 Y-12.0447
N14085 Y-10.0638
N14090 Y-8.0828
N14095 Y-6.1019
N14100 Y-4.121
N14105 Y-2.1401
N14110 Y-0.8195
N14115 X-1.1746 Y-0.8034
N14120 X-1.1731 Y-0.7873
N14125 X-1.1701 Y-0.7715
N14130 X-1.1654 Y-0.7561
N14135 X-1.1591 Y-0.7413
N14140 X-1.1512 Y-0.7272
N14145 X-1.1421 Y-0.714
N14150 X-1.1318 Y-0.7016
N14155 X-1.1205 Y-0.6901
N14160 X-1.1084 Y-0.6794
N14165 X-1.0957 Y-0.6696
N14170 X-1.0823 Y-0.6606
N14175 X-1.0685 Y-0.6524
N14180 X-1.0542 Y-0.6449
N14185 X-1.0396 Y-0.6381
N14190 X-1.0248 Y-0.6319
N14195 X-1.0097 Y-0.6262
N14200 X-0.9944 Y-0.6211
N14205 X-0.979 Y-0.6165
N14210 X-0.9634 Y-0.6124
N14215 X-0.9477 Y-0.6086
N14220 X-0.932 Y-0.6052
N14225 X-0.9162 Y-0.6021
N14230 X-0.9003 Y-0.5994
N14235 X-0.8844 Y-0.5969
N14240 X-0.8685 Y-0.5947
N14245 X-0.8525 Y-0.5926
N14250 X-0.8365 Y-0.5908
N14255 X-0.8205 Y-0.5892
N14260 X-0.8044 Y-0.5878
N14265 X-0.7884 Y-0.5864
N14270 X-0.7723 Y-0.5853
N14275 X-0.7562 Y-0.5842
N14280 X-0.7402 Y-0.5832
N14285 X-0.7241 Y-0.5823
N14290 X-0.708 Y-0.5815
N14295 X-0.6919 Y-0.5807
N14300 X-0.6758 Y-0.58
N14305 X-0.6597 Y-0.5793
N14310 X-0.6275 Y-0.578
N14315 X-0.6115 Y-0.5773
N14320 X-0.5954 Y-0.5766
N14325 X-0.5793 Y-0.5758
N14330 X-0.5632 Y-0.575
N14335 X-0.5471 Y-0.5741
N14340 X-0.531 Y-0.5731
N14345 X-0.515 Y-0.5721
N14350 X-0.5137 Y-0.572
N14355 X-0.5055 Y-0.5708
N14360 X-0.4975 Y-0.5684
N14365 X-0.49 Y-0.5649
N14370 X-0.4644 Y-0.5508
N14375 X-0.4569 Y-0.5467
N14380 X-0.4567 Y-0.5466
N14385 X-0.4494 Y-0.5431
N14390 X-0.4419 Y-0.5398
N14395 X-0.4404 Y-0.5391
N14400 X-0.4036 Y-0.5241
N14405 X-0.397 Y-0.5215
N14410 X-0.3847 Y-0.5166
N14415 X-0.3595 Y-0.5066
N14420 X-0.3445 Y-0.5007
N14425 X-0.3221 Y-0.4919
N14430 X-0.3146 Y-0.489
N14435 X-0.3082 Y-0.4866
N14440 X-0.3071 Y-0.4863
N14445 X-0.2996 Y-0.484
N14450 X-0.2921 Y-0.481
N14455 X-0.2621 Y-0.4678
N14460 X-0.2587 Y-0.4662
N14465 X-0.2552 Y-0.4641
N14470 X-0.2546 Y-0.4637
N14475 X-0.2509 Y-0.4611
N14480 X-0.249 Y-0.4597
N14485 X-0.2472 Y-0.4579
N14490 X-0.246 Y-0.4566
N14495 X-0.2446 Y-0.4548
N14500 X-0.2433 Y-0.4529
N14505 X-0.2415 Y-0.4491
N14510 X-0.2404 Y-0.4454
N14515 X-0.2399 Y-0.4416
N14520 X-0.24 Y-0.4341
N14525 X-0.2405 Y-0.4191
N14530 X-0.2407 Y-0.4116
N14535 X-0.2409 Y-0.4041
N14540 X-0.241 Y-0.3967
N14545 X-0.2412 Y-0.3761
N14550 G3 X-0.2673 Y-0.3522 I-0.025 J-0.0011
N14555 X-0.2911 Y-0.3783 I0.0011 J-0.025
N14560 G1 X-0.291 Y-0.3822 Z0.3567
N14565 X-0.2908 Y-0.386 Z0.3576
N14570 X-0.2906 Y-0.3896 Z0.3591
N14575 X-0.2905 Y-0.3929 Z0.3611
N14580 X-0.2904 Y-0.3959 Z0.3637
N14585 X-0.2902 Y-0.3985 Z0.3667
N14590 Y-0.4005 Z0.37
N14595 X-0.2901 Y-0.402 Z0.3736
N14600 Y-0.4029 Z0.3774
N14605 X-0.29 Y-0.4032 Z0.3814
N14610 G0 Z0.95
N14615 X0.2837 Y-0.1228
N14620 Z0.4064
N14625 G1 Z0.3814 F193.405
N14630 X0.2835 Y-0.123 Z0.3774
N14635 X0.283 Y-0.1238 Z0.3736
N14640 X0.2821 Y-0.125 Z0.37
N14645 X0.2809 Y-0.1267 Z0.3667
N14650 X0.2795 Y-0.1287 Z0.3637
N14655 X0.2778 Y-0.1312 Z0.3611
N14660 X0.2758 Y-0.1339 Z0.3591
N14665 X0.2738 Y-0.1369 Z0.3576
N14670 X0.2716 Y-0.14 Z0.3567
N14675 X0.2693 Y-0.1432 Z0.3564
N14680 G3 X0.2416 Y-0.2167 I0.1295 J-0.0909
N14685 G1 X0.241 Y-0.2242
N14690 X0.2401 Y-0.2317
N14695 X0.2387 Y-0.2392
N14700 X0.2372 Y-0.2467
N14705 X0.2359 Y-0.2542
N14710 X0.2357 Y-0.2579
N14715 X0.2362 Y-0.2617
N14720 X0.238 Y-0.2692
N14725 X0.2397 Y-0.2767
N14730 X0.2409 Y-0.2842
N14735 X0.2414 Y-0.2917
N14740 X0.2416 Y-0.2992
N14745 Y-0.3033
N14750 X0.242 Y-0.3112
N14755 X0.2431 Y-0.3197
N14760 X0.245 Y-0.329
N14765 X0.248 Y-0.3393
N14770 X0.2523 Y-0.3504
N14775 X0.258 Y-0.3623
N14780 X0.2655 Y-0.375
N14785 X0.2747 Y-0.3883
N14790 X0.2849 Y-0.4007
N14795 X0.2959 Y-0.4124
N14800 X0.3077 Y-0.4235
N14805 X0.32 Y-0.4338
N14810 X0.3329 Y-0.4435
N14815 X0.3462 Y-0.4526
N14820 X0.3599 Y-0.4611
N14825 X0.3739 Y-0.469
N14830 X0.3881 Y-0.4764
N14835 X0.4027 Y-0.4834
N14840 X0.4174 Y-0.4899
N14845 X0.4323 Y-0.496
N14850 X0.4474 Y-0.5017
N14855 X0.4626 Y-0.507
N14860 X0.4779 Y-0.5119
N14865 X0.4934 Y-0.5165
N14870 X0.5089 Y-0.5208
N14875 X0.5245 Y-0.5248
N14880 X0.5401 Y-0.5286
N14885 X0.5559 Y-0.532
N14890 X0.5716 Y-0.5353
N14895 X0.5875 Y-0.5383
N14900 X0.6033 Y-0.5411
N14905 X0.6192 Y-0.5437
N14910 X0.6351 Y-0.5461
N14915 X0.6511 Y-0.5484
N14920 X0.6671 Y-0.5505
N14925 X0.683 Y-0.5524
N14930 X0.699 Y-0.5542
N14935 X0.7151 Y-0.5558
N14940 X0.7311 Y-0.5574
N14945 X0.7471 Y-0.5588
N14950 X0.7632 Y-0.5601
N14955 X0.7792 Y-0.5613
N14960 X0.7953 Y-0.5625
N14965 X0.8114 Y-0.5635
N14970 X0.8275 Y-0.5645
N14975 X0.8435 Y-0.5654
N14980 X0.8596 Y-0.5662
N14985 X0.8757 Y-0.5669
N14990 X0.8918 Y-0.5676
N14995 X0.9079 Y-0.5683
N15000 X0.9401 Y-0.5694
N15005 X0.9561 Y-0.5707
N15010 X0.972 Y-0.5735
N15015 X0.9875 Y-0.5778
N15020 X1.0025 Y-0.5836
N15025 X1.0168 Y-0.591
N15030 X1.0304 Y-0.5998
N15035 X1.0431 Y-0.6097
N15040 X1.0549 Y-0.6206
N15045 X1.0659 Y-0.6324
N15050 X1.076 Y-0.6449
N15055 X1.0853 Y-0.658
N15060 X1.0938 Y-0.6717
N15065 X1.1016 Y-0.6858
N15070 X1.1088 Y-0.7002
N15075 X1.1152 Y-0.715
N15080 X1.1211 Y-0.73
N15085 X1.1264 Y-0.7452
N15090 X1.1313 Y-0.7605
N15095 X1.1356 Y-0.7761
N15100 X1.1396 Y-0.7917
N15105 X1.1431 Y-0.8074
N15110 X1.1464 Y-0.8232
N15115 X1.1493 Y-0.839
N15120 X1.1519 Y-0.8549
N15125 X1.1542 Y-0.8708
N15130 X1.1563 Y-0.8868
N15135 X1.1582 Y-0.9028
N15140 X1.16 Y-0.9188
N15145 X1.1615 Y-0.9348
N15150 X1.1629 Y-0.9509
N15155 X1.1641 Y-0.9669
N15160 X1.1652 Y-0.983
N15165 X1.1662 Y-0.9991
N15170 X1.1671 Y-1.0151
N15175 X1.1679 Y-1.0312
N15180 X1.1687 Y-1.0473
N15185 X1.1693 Y-1.0634
N15190 X1.1699 Y-1.0795
N15195 X1.1704 Y-1.0956
N15200 X1.1709 Y-1.1117
N15205 X1.1713 Y-1.1278
N15210 X1.1717 Y-1.1439
N15215 X1.172 Y-1.16
N15220 X1.1723 Y-1.1761
N15225 X1.1726 Y-1.1922
N15230 X1.1728 Y-1.2083
N15235 X1.173 Y-1.2244
N15240 X1.1732 Y-1.2405
N15245 X1.1734 Y-1.2566
N15250 X1.1735 Y-1.2727
N15255 X1.1737 Y-1.2888
N15260 X1.1738 Y-1.3049
N15265 X1.1739 Y-1.321
N15270 X1.174 Y-1.3371
N15275 X1.1741 Y-1.3532
N15280 X1.1742 Y-1.3694
N15285 X1.1743 Y-1.4016
N15290 X1.1744 Y-1.4338
N15295 X1.1745 Y-1.466
N15300 X1.1746 Y-1.5143
N15305 X1.1747 Y-1.5626
N15310 Y-1.627
N15315 Y-1.6431
N15320 X1.1748 Y-1.7237
N15325 Y-1.8525
N15330 Y-2.0941
N15335 Y-3.6241
N15340 Y-5.605
N15345 Y-7.5859
N15350 Y-9.5668
N15355 Y-11.5477
N15360 Y-13.5286
N15365 Y-15.1714
N15370 X1.1747 Y-15.1875
N15375 X1.1741 Y-15.2036
N15380 X1.172 Y-15.2195
N15385 X1.1683 Y-15.2352
N15390 X1.1629 Y-15.2503
N15395 X1.1559 Y-15.2648
N15400 X1.1474 Y-15.2786
N15405 X1.1378 Y-15.2915
N15410 X1.127 Y-15.3035
N15415 X1.1154 Y-15.3146
N15420 X1.103 Y-15.3249
N15425 X1.09 Y-15.3343
N15430 X1.0764 Y-15.343
N15435 X1.0624 Y-15.3509
N15440 X1.048 Y-15.3581
N15445 X1.0332 Y-15.3647
N15450 X1.0183 Y-15.3706
N15455 X1.0031 Y-15.376
N15460 X0.9878 Y-15.3809
N15465 X0.9723 Y-15.3853
N15470 X0.9567 Y-15.3893
N15475 X0.941 Y-15.3929
N15480 X0.9252 Y-15.3962
N15485 X0.9094 Y-15.3992
N15490 X0.8935 Y-15.4019
N15495 X0.8776 Y-15.4043
N15500 X0.8616 Y-15.4066
N15505 X0.8457 Y-15.4086
N15510 X0.8297 Y-15.4105
N15515 X0.8137 Y-15.4123
N15520 X0.7977 Y-15.414
N15525 X0.7816 Y-15.4156
N15530 X0.7496 Y-15.4189
N15535 X0.7336 Y-15.4205
N15540 X0.7175 Y-15.4222
N15545 X0.7015 Y-15.4241
N15550 X0.6856 Y-15.4261
N15555 X0.6696 Y-15.4284
N15560 X0.6538 Y-15.4312
N15565 X0.638 Y-15.4344
N15570 X0.6284 Y-15.4368
N15575 X0.6173 Y-15.441
N15580 X0.6072 Y-15.4472
N15585 X0.5986 Y-15.4554
N15590 X0.5918 Y-15.4652
N15595 X0.5872 Y-15.4761
N15600 X0.5558 Y-15.5777
N15605 G3 X0.6038 Y-15.5915 I0.0241 J-0.0066
N15610 X0.604 Y-15.5908 I-0.0239 J0.0072
N15615 G1 X0.605 Y-15.5871 Z0.3567
N15620 X0.606 Y-15.5834 Z0.3576
N15625 X0.607 Y-15.5799 Z0.3591
N15630 X0.6079 Y-15.5767 Z0.3611
N15635 X0.6086 Y-15.5738 Z0.3637
N15640 X0.6093 Y-15.5713 Z0.3667
N15645 X0.6098 Y-15.5693 Z0.37
N15650 X0.6102 Y-15.5679 Z0.3736
N15655 X0.6105 Y-15.567 Z0.3774
N15660 X0.6106 Y-15.5667 Z0.3814
N15665 G0 Z0.95
N15670 X-0.5456 Y-15.7287
N15675 Z0.4064
N15680 G1 Z0.3814 F193.405
N15685 X-0.5455 Y-15.7284 Z0.3774
N15690 X-0.5453 Y-15.7275 Z0.3736
N15695 X-0.545 Y-15.726 Z0.37
N15700 X-0.5445 Y-15.724 Z0.3667
N15705 X-0.5439 Y-15.7216 Z0.3637
N15710 X-0.5432 Y-15.7187 Z0.3611
N15715 X-0.5424 Y-15.7154 Z0.3591
N15720 X-0.5415 Y-15.7119 Z0.3576
N15725 X-0.5407 Y-15.7082 Z0.3567
N15730 X-0.5397 Y-15.7044 Z0.3564
N15735 G3 X-0.5409 Y-15.6258 I-0.1539 J0.0371
N15740 G1 X-0.571 Y-15.5284
N15745 X-0.574 Y-15.5201
N15750 X-0.5783 Y-15.5109
N15755 X-0.584 Y-15.5007
N15760 X-0.5913 Y-15.4898
N15765 X-0.6005 Y-15.4782
N15770 X-0.6115 Y-15.4664
N15775 X-0.6234 Y-15.4556
N15780 X-0.636 Y-15.4455
N15785 X-0.6491 Y-15.4362
N15790 X-0.6627 Y-15.4276
N15795 X-0.6767 Y-15.4196
N15800 X-0.6911 Y-15.4123
N15805 X-0.7057 Y-15.4055
N15810 X-0.7205 Y-15.3993
N15815 X-0.7355 Y-15.3935
N15820 X-0.7507 Y-15.3881
N15825 X-0.7661 Y-15.3832
N15830 X-0.7815 Y-15.3787
N15835 X-0.7971 Y-15.3744
N15840 X-0.8127 Y-15.3706
N15845 X-0.8284 Y-15.3669
N15850 X-0.8441 Y-15.3634
N15855 X-0.8597 Y-15.3593
N15860 X-0.875 Y-15.3542
N15865 X-0.8898 Y-15.348
N15870 X-0.9041 Y-15.3407
N15875 X-0.9178 Y-15.3322
N15880 X-0.9308 Y-15.3226
N15885 X-0.943 Y-15.3121
N15890 X-0.9544 Y-15.3007
N15895 X-0.965 Y-15.2886
N15900 X-0.9748 Y-15.2758
N15905 X-0.9839 Y-15.2625
N15910 X-0.9922 Y-15.2488
N15915 X-0.9999 Y-15.2346
N15920 X-1.007 Y-15.2201
N15925 X-1.0134 Y-15.2053
N15930 X-1.0192 Y-15.1903
N15935 X-1.0246 Y-15.1751
N15940 X-1.0294 Y-15.1598
N15945 X-1.0338 Y-15.1443
N15950 X-1.0379 Y-15.1287
N15955 X-1.0415 Y-15.113
N15960 X-1.0448 Y-15.0972
N15965 X-1.0477 Y-15.0814
N15970 X-1.0504 Y-15.0655
N15975 X-1.0529 Y-15.0496
N15980 X-1.0551 Y-15.0337
N15985 X-1.057 Y-15.0177
N15990 X-1.0588 Y-15.0017
N15995 X-1.0604 Y-14.9856
N16000 X-1.0619 Y-14.9696
N16005 X-1.0632 Y-14.9536
N16010 X-1.0644 Y-14.9375
N16015 X-1.0654 Y-14.9214
N16020 X-1.0664 Y-14.9053
N16025 X-1.0673 Y-14.8893
N16030 X-1.068 Y-14.8732
N16035 X-1.0687 Y-14.8571
N16040 X-1.0694 Y-14.841
N16045 X-1.0699 Y-14.8249
N16050 X-1.0704 Y-14.8088
N16055 X-1.0709 Y-14.7927
N16060 X-1.0713 Y-14.7766
N16065 X-1.0716 Y-14.7605
N16070 X-1.072 Y-14.7444
N16075 X-1.0723 Y-14.7283
N16080 X-1.0725 Y-14.7122
N16085 X-1.0728 Y-14.6961
N16090 X-1.073 Y-14.68
N16095 X-1.0732 Y-14.6639
N16100 X-1.0734 Y-14.6478
N16105 X-1.0735 Y-14.6317
N16110 X-1.0736 Y-14.6156
N16115 X-1.0738 Y-14.5995
N16120 X-1.0739 Y-14.5834
N16125 X-1.074 Y-14.5673
N16130 X-1.0741 Y-14.5512
N16135 X-1.0742 Y-14.535
N16140 X-1.0743 Y-14.5028
N16145 X-1.0744 Y-14.4706
N16150 X-1.0745 Y-14.4384
N16155 X-1.0746 Y-14.3901
N16160 X-1.0747 Y-14.3418
N16165 Y-14.2774
N16170 X-1.0748 Y-14.1968
N16175 Y-14.0841
N16180 Y-13.8908
N16185 Y-13.8103
N16190 Y-11.8294
N16195 Y-9.8485
N16200 Y-7.8676
N16205 Y-5.8867
N16210 Y-3.9057
N16215 Y-1.9248
N16220 Y-0.9263
N16225 X-1.0747 Y-0.9102
N16230 X-1.0737 Y-0.8941
N16235 X-1.0712 Y-0.8782
N16240 X-1.0671 Y-0.8626
N16245 X-1.0612 Y-0.8476
N16250 X-1.0539 Y-0.8333
N16255 X-1.0452 Y-0.8197
N16260 X-1.0353 Y-0.807
N16265 X-1.0244 Y-0.7952
N16270 X-1.0126 Y-0.7842
N16275 X-1.0001 Y-0.7741
N16280 X-0.987 Y-0.7648
N16285 X-0.9733 Y-0.7562
N16290 X-0.9592 Y-0.7484
N16295 X-0.9448 Y-0.7413
N16300 X-0.93 Y-0.7349
N16305 X-0.915 Y-0.729
N16310 X-0.8998 Y-0.7237
N16315 X-0.8844 Y-0.7189
N16320 X-0.8689 Y-0.7145
N16325 X-0.8533 Y-0.7105
N16330 X-0.8376 Y-0.707
N16335 X-0.8218 Y-0.7037
N16340 X-0.806 Y-0.7008
N16345 X-0.7901 Y-0.6982
N16350 X-0.7742 Y-0.6958
N16355 X-0.7582 Y-0.6936
N16360 X-0.7423 Y-0.6916
N16365 X-0.7263 Y-0.6898
N16370 X-0.7102 Y-0.6881
N16375 X-0.6942 Y-0.6866
N16380 X-0.6896 Y-0.6862
N16385 X-0.6793 Y-0.6843
N16390 X-0.6695 Y-0.6806
N16395 X-0.6606 Y-0.6753
N16400 X-0.5842 Y-0.6198
N16405 X-0.5763 Y-0.6141
N16410 X-0.5692 Y-0.6091
N16415 X-0.5654 Y-0.6066
N16420 X-0.5617 Y-0.6044
N16425 X-0.5542 Y-0.6002
N16430 X-0.49 Y-0.5649
N16435 G3 X-0.515 Y-0.5216 I-0.0128 J0.0215
N16440 X-0.5156 Y-0.522 I0.0122 J-0.0218
N16445 G1 X-0.519 Y-0.524 Z0.3567
N16450 X-0.5222 Y-0.5259 Z0.3576
N16455 X-0.5253 Y-0.5278 Z0.3591
N16460 X-0.5282 Y-0.5295 Z0.3611
N16465 X-0.5308 Y-0.531 Z0.3637
N16470 X-0.533 Y-0.5323 Z0.3667
N16475 X-0.5347 Y-0.5334 Z0.37
N16480 X-0.536 Y-0.5341 Z0.3736
N16485 X-0.5368 Y-0.5346 Z0.3774
N16490 X-0.5371 Y-0.5348 Z0.3814
N16495 G0 Z0.95
N16500 X0.277 Y-0.2066
N16505 Z0.4064
N16510 G1 Z0.3814 F193.405
N16515 X0.2768 Y-0.2069 Z0.3774
N16520 X0.2763 Y-0.2077 Z0.3736
N16525 X0.2756 Y-0.2089 Z0.37
N16530 X0.2745 Y-0.2107 Z0.3667
N16535 X0.2732 Y-0.2129 Z0.3637
N16540 X0.2717 Y-0.2154 Z0.3611
N16545 X0.2699 Y-0.2183 Z0.3591
N16550 X0.2681 Y-0.2214 Z0.3576
N16555 X0.2661 Y-0.2247 Z0.3567
N16560 X0.2641 Y-0.228 Z0.3564
N16565 G3 X0.2416 Y-0.3033 I0.1357 J-0.0815
N16570 G1 Y-0.3067
N16575 X0.2411 Y-0.3292
N16580 X0.2397 Y-0.3879
N16585 X0.2399 Y-0.3953
N16590 X0.2408 Y-0.4039
N16595 X0.2425 Y-0.4133
N16600 X0.2454 Y-0.4238
N16605 X0.2495 Y-0.4351
N16610 X0.255 Y-0.4472
N16615 X0.2583 Y-0.4532
N16620 X0.2656 Y-0.4635
N16625 X0.2749 Y-0.472
N16630 X0.2858 Y-0.4782
N16635 G3 X0.3177 Y-0.4445 I0.0093 J0.0232
N16640 G1 X0.3098 Y-0.4273
N16645 X0.2925 Y-0.3901
N16650 X0.2873 Y-0.3789
N16655 G3 X0.2397 Y-0.3879 I-0.0227 J-0.0105
N16660 G1 X0.2385 Y-0.4341
N16665 Y-0.4416
N16670 X0.239 Y-0.4442
N16675 X0.2397 Y-0.4468
N16680 X0.2406 Y-0.4491
N16685 X0.2426 Y-0.4529
N16690 X0.2439 Y-0.4548
N16695 X0.2455 Y-0.4566
N16700 X0.2472 Y-0.4583
N16705 X0.2552 Y-0.4641
N16710 X0.2587 Y-0.4662
N16715 X0.2621 Y-0.4678
N16720 X0.2921 Y-0.481
N16725 X0.2996 Y-0.484
N16730 X0.3071 Y-0.4863
N16735 X0.3082 Y-0.4866
N16740 X0.3146 Y-0.489
N16745 X0.3221 Y-0.492
N16750 X0.4403 Y-0.5391
N16755 X0.4419 Y-0.5398
N16760 X0.4494 Y-0.5431
N16765 X0.4567 Y-0.5466
N16770 X0.4569 Y-0.5467
N16775 X0.4644 Y-0.5508
N16780 X0.5385 Y-0.5916
N16785 X0.553 Y-0.5987
N16790 X0.5675 Y-0.6057
N16795 X0.5823 Y-0.612
N16800 X0.5974 Y-0.6177
N16805 X0.6127 Y-0.6228
N16810 X0.6281 Y-0.6275
N16815 X0.6436 Y-0.6317
N16820 X0.6593 Y-0.6355
N16825 X0.675 Y-0.639
N16830 X0.6908 Y-0.6421
N16835 X0.7066 Y-0.645
N16840 X0.7225 Y-0.6476
N16845 X0.7385 Y-0.6499
N16850 X0.7544 Y-0.6521
N16855 X0.7704 Y-0.6541
N16860 X0.7864 Y-0.6559
N16865 X0.8024 Y-0.6575
N16870 X0.8185 Y-0.659
N16875 X0.8345 Y-0.6604
N16880 X0.8505 Y-0.6622
N16885 X0.8664 Y-0.6652
N16890 X0.8819 Y-0.6695
N16895 X0.8969 Y-0.6753
N16900 X0.9113 Y-0.6825
N16905 X0.9249 Y-0.6911
N16910 X0.9378 Y-0.7007
N16915 X0.9499 Y-0.7114
N16920 X0.961 Y-0.723
N16925 X0.9714 Y-0.7353
N16930 X0.981 Y-0.7483
N16935 X0.9898 Y-0.7618
N16940 X0.9978 Y-0.7758
N16945 X1.0052 Y-0.7901
N16950 X1.0119 Y-0.8047
N16955 X1.018 Y-0.8196
N16960 X1.0235 Y-0.8347
N16965 X1.0286 Y-0.85
N16970 X1.0331 Y-0.8655
N16975 X1.0373 Y-0.881
N16980 X1.041 Y-0.8967
N16985 X1.0444 Y-0.9125
N16990 X1.0475 Y-0.9283
N16995 X1.0502 Y-0.9441
N17000 X1.0527 Y-0.96
N17005 X1.0549 Y-0.976
N17010 X1.057 Y-0.992
N17015 X1.0588 Y-1.008
N17020 X1.0604 Y-1.024
N17025 X1.0619 Y-1.04
N17030 X1.0632 Y-1.0561
N17035 X1.0644 Y-1.0721
N17040 X1.0655 Y-1.0882
N17045 X1.0664 Y-1.1043
N17050 X1.0673 Y-1.1204
N17055 X1.0681 Y-1.1365
N17060 X1.0688 Y-1.1525
N17065 X1.0694 Y-1.1686
N17070 X1.07 Y-1.1847
N17075 X1.0705 Y-1.2008
N17080 X1.0709 Y-1.2169
N17085 X1.0713 Y-1.233
N17090 X1.0717 Y-1.2491
N17095 X1.072 Y-1.2652
N17100 X1.0723 Y-1.2813
N17105 X1.0726 Y-1.2974
N17110 X1.0728 Y-1.3135
N17115 X1.073 Y-1.3296
N17120 X1.0732 Y-1.3457
N17125 X1.0734 Y-1.3619
N17130 X1.0735 Y-1.378
N17135 X1.0737 Y-1.3941
N17140 X1.0738 Y-1.4102
N17145 X1.0739 Y-1.4263
N17150 X1.074 Y-1.4424
N17155 X1.0741 Y-1.4585
N17160 X1.0742 Y-1.4746
N17165 X1.0743 Y-1.5068
N17170 X1.0744 Y-1.539
N17175 X1.0745 Y-1.5712
N17180 X1.0746 Y-1.6195
N17185 X1.0747 Y-1.6678
N17190 Y-1.7323
N17195 X1.0748 Y-1.8128
N17200 Y-1.9255
N17205 Y-2.1188
N17210 Y-2.2315
N17215 Y-4.2124
N17220 Y-6.1934
N17225 Y-8.1743
N17230 Y-10.1552
N17235 Y-12.1361
N17240 Y-14.117
N17245 Y-15.0672
N17250 X1.0747 Y-15.0833
N17255 X1.0742 Y-15.0994
N17260 X1.0724 Y-15.1154
N17265 X1.0689 Y-15.1312
N17270 X1.0637 Y-15.1464
N17275 X1.057 Y-15.161
N17280 X1.0488 Y-15.1749
N17285 X1.0394 Y-15.188
N17290 X1.0289 Y-15.2002
N17295 X1.0174 Y-15.2115
N17300 X1.0052 Y-15.222
N17305 X0.9923 Y-15.2316
N17310 X0.9789 Y-15.2405
N17315 X0.9649 Y-15.2486
N17320 X0.9506 Y-15.256
N17325 X0.936 Y-15.2627
N17330 X0.9211 Y-15.2689
N17335 X0.9061 Y-15.2745
N17340 X0.8908 Y-15.2797
N17345 X0.8754 Y-15.2844
N17350 X0.8599 Y-15.2887
N17355 X0.8443 Y-15.2927
N17360 X0.8286 Y-15.2964
N17365 X0.8129 Y-15.2998
N17370 X0.7971 Y-15.303
N17375 X0.7813 Y-15.3061
N17380 X0.7654 Y-15.309
N17385 X0.7338 Y-15.3149
N17390 X0.7179 Y-15.3178
N17395 X0.7021 Y-15.321
N17400 X0.6864 Y-15.3244
N17405 X0.6707 Y-15.3282
N17410 X0.6553 Y-15.3326
N17415 X0.6527 Y-15.3335
N17420 X0.6424 Y-15.3381
N17425 X0.6332 Y-15.3446
N17430 X0.6254 Y-15.3528
N17435 X0.6193 Y-15.3623
N17440 X0.6152 Y-15.3728
N17445 X0.6132 Y-15.3838
N17450 X0.613 Y-15.3859
N17455 X0.6118 Y-15.3934
N17460 X0.6102 Y-15.4009
N17465 X0.6081 Y-15.4084
N17470 X0.5872 Y-15.4761
N17475 G3 X0.6353 Y-15.4899 I0.0241 J-0.0066
N17480 X0.6355 Y-15.4892 I-0.0239 J0.0072
N17485 G1 X0.6365 Y-15.4854 Z0.3567
N17490 X0.6375 Y-15.4818 Z0.3576
N17495 X0.6384 Y-15.4783 Z0.3591
N17500 X0.6393 Y-15.475 Z0.3611
N17505 X0.6401 Y-15.4722 Z0.3637
N17510 X0.6408 Y-15.4697 Z0.3667
N17515 X0.6413 Y-15.4677 Z0.37
N17520 X0.6417 Y-15.4663 Z0.3736
N17525 X0.6419 Y-15.4654 Z0.3774
N17530 X0.642 Y-15.4651 Z0.3814
N17535 G0 Z0.95
N17540 X-0.5758 Y-15.6312
N17545 Z0.4064
N17550 G1 Z0.3814 F193.405
N17555 X-0.5757 Y-15.6309 Z0.3774
N17560 X-0.5755 Y-15.63 Z0.3736
N17565 X-0.5751 Y-15.6286 Z0.37
N17570 X-0.5746 Y-15.6266 Z0.3667
N17575 X-0.574 Y-15.6241 Z0.3637
N17580 X-0.5733 Y-15.6212 Z0.3611
N17585 X-0.5726 Y-15.6179 Z0.3591
N17590 X-0.5717 Y-15.6144 Z0.3576
N17595 X-0.5708 Y-15.6107 Z0.3567
N17600 X-0.5699 Y-15.6069 Z0.3564
N17605 G3 X-0.571 Y-15.5284 I-0.1539 J0.0371
N17610 G1 X-0.6012 Y-15.4309
N17615 X-0.6038 Y-15.4238
N17620 X-0.6081 Y-15.4144
N17625 X-0.6138 Y-15.4042
N17630 X-0.6212 Y-15.3932
N17635 X-0.6305 Y-15.3815
N17640 X-0.6415 Y-15.3697
N17645 X-0.6534 Y-15.3588
N17650 X-0.6659 Y-15.3487
N17655 X-0.6791 Y-15.3394
N17660 X-0.6926 Y-15.3307
N17665 X-0.7066 Y-15.3228
N17670 X-0.7209 Y-15.3154
N17675 X-0.7355 Y-15.3085
N17680 X-0.7501 Y-15.3018
N17685 X-0.7647 Y-15.2949
N17690 X-0.779 Y-15.2875
N17695 X-0.7929 Y-15.2793
N17700 X-0.8063 Y-15.2705
N17705 X-0.8192 Y-15.2608
N17710 X-0.8314 Y-15.2503
N17715 X-0.843 Y-15.2391
N17720 X-0.8538 Y-15.2272
N17725 X-0.864 Y-15.2147
N17730 X-0.8735 Y-15.2017
N17735 X-0.8823 Y-15.1882
N17740 X-0.8905 Y-15.1743
N17745 X-0.898 Y-15.1601
N17750 X-0.9049 Y-15.1455
N17755 X-0.9113 Y-15.1307
N17760 X-0.9171 Y-15.1157
N17765 X-0.9224 Y-15.1005
N17770 X-0.9273 Y-15.0852
N17775 X-0.9318 Y-15.0697
N17780 X-0.9358 Y-15.0541
N17785 X-0.9395 Y-15.0384
N17790 X-0.9429 Y-15.0227
N17795 X-0.946 Y-15.0069
N17800 X-0.9487 Y-14.991
N17805 X-0.9513 Y-14.9751
N17810 X-0.9536 Y-14.9592
N17815 X-0.9556 Y-14.9432
N17820 X-0.9575 Y-14.9272
N17825 X-0.9592 Y-14.9112
N17830 X-0.9607 Y-14.8951
N17835 X-0.9621 Y-14.8791
N17840 X-0.9634 Y-14.863
N17845 X-0.9645 Y-14.847
N17850 X-0.9655 Y-14.8309
N17855 X-0.9665 Y-14.8148
N17860 X-0.9673 Y-14.7987
N17865 X-0.968 Y-14.7827
N17870 X-0.9687 Y-14.7666
N17875 X-0.9693 Y-14.7505
N17880 X-0.9699 Y-14.7344
N17885 X-0.9704 Y-14.7183
N17890 X-0.9708 Y-14.7022
N17895 X-0.9712 Y-14.6861
N17900 X-0.9716 Y-14.67
N17905 X-0.9719 Y-14.6539
N17910 X-0.9722 Y-14.6378
N17915 X-0.9725 Y-14.6217
N17920 X-0.9727 Y-14.6056
N17925 X-0.9729 Y-14.5895
N17930 X-0.9731 Y-14.5734
N17935 X-0.9733 Y-14.5573
N17940 X-0.9735 Y-14.5412
N17945 X-0.9736 Y-14.5251
N17950 X-0.9737 Y-14.5089
N17955 X-0.9738 Y-14.4928
N17960 X-0.9739 Y-14.4767
N17965 X-0.974 Y-14.4606
N17970 X-0.9741 Y-14.4445
N17975 X-0.9743 Y-14.4123
N17980 X-0.9744 Y-14.3801
N17985 X-0.9745 Y-14.3479
N17990 X-0.9746 Y-14.2996
N17995 Y-14.2513
N18000 X-0.9747 Y-14.1869
N18005 X-0.9748 Y-14.1063
N18010 Y-13.9936
N18015 Y-13.8164
N18020 Y-13.6071
N18025 Y-11.6262
N18030 Y-9.6452
N18035 Y-7.6643
N18040 Y-5.6834
N18045 Y-3.7025
N18050 Y-1.9204
N18055 X-0.9754 Y-1.912
N18060 X-0.9772 Y-1.9037
N18065 X-0.9802 Y-1.8959
N18070 X-0.9811 Y-1.8937
N18075 X-0.9831 Y-1.8888
N18080 X-0.9859 Y-1.8813
N18085 X-1.0029 Y-1.8288
N18090 X-1.02 Y-1.7764
N18095 X-1.0223 Y-1.7689
N18100 X-1.0245 Y-1.7614
N18105 X-1.0261 Y-1.7537
N18110 X-1.0275 Y-1.7464
N18115 X-1.0461 Y-1.6489
N18120 X-1.0475 Y-1.6414
N18125 X-1.0486 Y-1.6355
N18130 X-1.0488 Y-1.6339
N18135 X-1.0495 Y-1.6264
N18140 X-1.0501 Y-1.6189
N18145 X-1.0567 Y-1.5139
N18150 X-1.0571 Y-1.5064
N18155 X-1.0572 Y-1.4989
N18160 X-1.057 Y-1.4914
N18165 X-1.0566 Y-1.4839
N18170 X-1.0504 Y-1.3864
N18175 X-1.0499 Y-1.3789
N18180 X-1.0493 Y-1.3714
N18185 X-1.0486 Y-1.3646
N18190 X-1.0485 Y-1.3639
N18195 X-1.0471 Y-1.3564
N18200 X-1.0271 Y-1.2515
N18205 X-1.0261 Y-1.2464
N18210 X-1.0256 Y-1.244
N18215 X-1.0239 Y-1.2365
N18220 X-1.0217 Y-1.229
N18225 X-1.0193 Y-1.2215
N18230 X-1.0111 Y-1.1963
N18235 X-1.0069 Y-1.1807
N18240 X-1.0026 Y-1.1652
N18245 X-0.9988 Y-1.1496
N18250 X-0.9956 Y-1.1338
N18255 X-0.9928 Y-1.1179
N18260 X-0.9904 Y-1.102
N18265 X-0.9883 Y-1.086
N18270 X-0.9865 Y-1.07
N18275 X-0.9849 Y-1.054
N18280 X-0.9836 Y-1.0379
N18285 X-0.9824 Y-1.0219
N18290 X-0.9812 Y-1.0058
N18295 X-0.979 Y-0.9899
N18300 X-0.9754 Y-0.9742
N18305 X-0.9703 Y-0.9589
N18310 X-0.9637 Y-0.9442
N18315 X-0.9558 Y-0.9302
N18320 X-0.9466 Y-0.917
N18325 X-0.9363 Y-0.9046
N18330 X-0.925 Y-0.8931
N18335 X-0.913 Y-0.8824
N18340 X-0.9003 Y-0.8725
N18345 X-0.887 Y-0.8634
N18350 X-0.8732 Y-0.8551
N18355 X-0.859 Y-0.8475
N18360 X-0.8445 Y-0.8405
N18365 X-0.8297 Y-0.8341
N18370 X-0.8282 Y-0.8336
N18375 X-0.8193 Y-0.8292
N18380 X-0.8112 Y-0.8234
N18385 X-0.8042 Y-0.8163
N18390 X-0.7789 Y-0.7857
N18395 X-0.7733 Y-0.7791
N18400 X-0.7714 Y-0.7771
N18405 X-0.7661 Y-0.7716
N18410 X-0.7639 Y-0.7695
N18415 X-0.7565 Y-0.7625
N18420 X-0.6816 Y-0.6921
N18425 G3 X-0.7165 Y-0.6564 I-0.0177 J0.0176
N18430 X-0.717 Y-0.6569 I0.0172 J-0.0181
N18435 G1 X-0.7198 Y-0.6597 Z0.3567
N18440 X-0.7225 Y-0.6624 Z0.3576
N18445 X-0.725 Y-0.6649 Z0.3591
N18450 X-0.7274 Y-0.6673 Z0.3611
N18455 X-0.7295 Y-0.6694 Z0.3637
N18460 X-0.7313 Y-0.6712 Z0.3667
N18465 X-0.7327 Y-0.6727 Z0.37
N18470 X-0.7338 Y-0.6738 Z0.3736
N18475 X-0.7344 Y-0.6744 Z0.3774
N18480 X-0.7346 Y-0.6746 Z0.3814
N18485 G0 Z0.95
N18490 X-1.0742 Y-1.2776
N18495 Z0.4064
N18500 G1 Z0.3814 F193.405
N18505 X-1.074 Y-1.2774 Z0.3774
N18510 X-1.0733 Y-1.2768 Z0.3736
N18515 X-1.0722 Y-1.2758 Z0.37
N18520 X-1.0706 Y-1.2744 Z0.3667
N18525 X-1.0687 Y-1.2728 Z0.3637
N18530 X-1.0665 Y-1.2708 Z0.3611
N18535 X-1.064 Y-1.2686 Z0.3591
N18540 X-1.0612 Y-1.2662 Z0.3576
N18545 X-1.0584 Y-1.2637 Z0.3567
N18550 X-1.0554 Y-1.2611 Z0.3564
N18555 G3 X-1.0111 Y-1.1963 I-0.1044 J0.119
N18560 G1 X-0.9876 Y-1.124
N18565 X-0.9851 Y-1.1165
N18570 X-0.9823 Y-1.109
N18575 X-0.9811 Y-1.1063
N18580 X-0.9789 Y-1.1015
N18585 X-0.9754 Y-1.094
N18590 X-0.9331 Y-1.004
N18595 X-0.9296 Y-0.9965
N18600 X-0.9287 Y-0.9948
N18605 X-0.9256 Y-0.989
N18610 X-0.921 Y-0.9815
N18615 X-0.9163 Y-0.974
N18620 X-0.8687 Y-0.899
N18625 X-0.8639 Y-0.8915
N18630 X-0.8591 Y-0.884
N18635 X-0.8538 Y-0.8767
N18640 X-0.8479 Y-0.869
N18645 X-0.8106 Y-0.8241
N18650 G3 X-0.8498 Y-0.793 I-0.0198 J0.0153
N18655 X-0.8503 Y-0.7936 I0.0194 J-0.0158
N18660 G1 X-0.8526 Y-0.7966 Z0.3567
N18665 X-0.855 Y-0.7997 Z0.3576
N18670 X-0.8572 Y-0.8025 Z0.3591
N18675 X-0.8592 Y-0.8052 Z0.3611
N18680 X-0.861 Y-0.8076 Z0.3637
N18685 X-0.8626 Y-0.8096 Z0.3667
N18690 X-0.8639 Y-0.8112 Z0.37
N18695 X-0.8648 Y-0.8124 Z0.3736
N18700 X-0.8653 Y-0.8131 Z0.3774
N18705 X-0.8655 Y-0.8134 Z0.3814
N18710 G0 Z0.95
N18715 X0.4705 Y-0.5144
N18720 Z0.4064
N18725 G1 Z0.3814 F193.405
N18730 X0.4707 Y-0.5146 Z0.3774
N18735 X0.4711 Y-0.5154 Z0.3736
N18740 X0.4719 Y-0.5167 Z0.37
N18745 X0.4729 Y-0.5185 Z0.3667
N18750 X0.4742 Y-0.5207 Z0.3637
N18755 X0.4757 Y-0.5232 Z0.3611
N18760 X0.4774 Y-0.5261 Z0.3591
N18765 X0.4793 Y-0.5293 Z0.3576
N18770 X0.4812 Y-0.5325 Z0.3567
N18775 X0.4832 Y-0.5359 Z0.3564
N18780 G3 X0.5385 Y-0.5916 I0.1364 J0.0802
N18785 G1 X0.5542 Y-0.6002
N18790 X0.5617 Y-0.6044
N18795 X0.5654 Y-0.6066
N18800 X0.5692 Y-0.6091
N18805 X0.5763 Y-0.6141
N18810 X0.5867 Y-0.6216
N18815 X0.6666 Y-0.6797
N18820 X0.6691 Y-0.6816
N18825 X0.6741 Y-0.6857
N18830 X0.6866 Y-0.6949
N18835 X0.7003 Y-0.7034
N18840 X0.7145 Y-0.7109
N18845 X0.7292 Y-0.7175
N18850 X0.7441 Y-0.7235
N18855 X0.7591 Y-0.7294
N18860 X0.774 Y-0.7357
N18865 X0.7884 Y-0.7428
N18870 X0.8024 Y-0.7508
N18875 X0.8157 Y-0.7598
N18880 X0.8285 Y-0.7697
N18885 X0.8405 Y-0.7804
N18890 X0.8518 Y-0.7919
N18895 X0.8623 Y-0.804
N18900 X0.8722 Y-0.8168
N18905 X0.8813 Y-0.8301
N18910 X0.8897 Y-0.8438
N18915 X0.8974 Y-0.8579
N18920 X0.9045 Y-0.8724
N18925 X0.9111 Y-0.8871
N18930 X0.917 Y-0.9021
N18935 X0.9225 Y-0.9172
N18940 X0.9274 Y-0.9325
N18945 X0.932 Y-0.948
N18950 X0.9361 Y-0.9636
N18955 X0.9398 Y-0.9792
N18960 X0.9432 Y-0.995
N18965 X0.9463 Y-1.0108
N18970 X0.9491 Y-1.0267
N18975 X0.9505 Y-1.0356
N18980 X0.9516 Y-1.041
N18985 X0.9532 Y-1.0462
N18990 X0.9553 Y-1.0513
N18995 X0.9754 Y-1.094
N19000 X0.9789 Y-1.1015
N19005 X0.9811 Y-1.1063
N19010 X0.9823 Y-1.109
N19015 X0.9851 Y-1.1165
N19020 X0.9876 Y-1.124
N19025 X1.0193 Y-1.2215
N19030 X1.0217 Y-1.229
N19035 X1.0239 Y-1.2365
N19040 X1.0256 Y-1.244
N19045 X1.0261 Y-1.2464
N19050 X1.0271 Y-1.2515
N19055 X1.0471 Y-1.3564
N19060 X1.0485 Y-1.3639
N19065 X1.0486 Y-1.3646
N19070 X1.0493 Y-1.3714
N19075 X1.0499 Y-1.3789
N19080 X1.0504 Y-1.3864
N19085 X1.0566 Y-1.4839
N19090 X1.057 Y-1.4914
N19095 X1.0572 Y-1.4989
N19100 X1.0571 Y-1.5064
N19105 X1.0567 Y-1.5139
N19110 X1.0501 Y-1.6189
N19115 X1.0495 Y-1.6264
N19120 X1.0488 Y-1.6339
N19125 X1.0486 Y-1.6355
N19130 X1.0475 Y-1.6414
N19135 X1.0461 Y-1.6489
N19140 X1.0275 Y-1.7464
N19145 X1.026 Y-1.7539
N19150 X1.0245 Y-1.7614
N19155 X1.0223 Y-1.7689
N19160 X1.02 Y-1.7764
N19165 X1.0111 Y-1.8037
N19170 X1.0069 Y-1.8193
N19175 X1.0026 Y-1.8348
N19180 X0.9988 Y-1.8504
N19185 X0.9956 Y-1.8662
N19190 X0.9928 Y-1.8821
N19195 X0.9904 Y-1.898
N19200 X0.9883 Y-1.914
N19205 X0.9865 Y-1.93
N19210 X0.985 Y-1.946
N19215 X0.9836 Y-1.9621
N19220 X0.9825 Y-1.9781
N19225 X0.9815 Y-1.9942
N19230 X0.9806 Y-2.0103
N19235 X0.9798 Y-2.0264
N19240 X0.9792 Y-2.0425
N19245 X0.9786 Y-2.0586
N19250 X0.9781 Y-2.0747
N19255 X0.9777 Y-2.0908
N19260 X0.9773 Y-2.1069
N19265 X0.977 Y-2.123
N19270 X0.9767 Y-2.1391
N19275 X0.9764 Y-2.1552
N19280 X0.9762 Y-2.1713
N19285 X0.976 Y-2.1874
N19290 X0.9759 Y-2.2035
N19295 X0.9757 Y-2.2196
N19300 X0.9756 Y-2.2357
N19305 X0.9755 Y-2.2518
N19310 X0.9754 Y-2.2679
N19315 Y-2.284
N19320 X0.9753 Y-2.3001
N19325 X0.9752 Y-2.3323
N19330 X0.9751 Y-2.3645
N19335 X0.975 Y-2.3967
N19340 Y-2.445
N19345 X0.9749 Y-2.5095
N19350 Y-2.59
N19355 X0.9748 Y-2.7188
N19360 Y-3.0892
N19365 Y-3.7818
N19370 Y-5.7627
N19375 Y-7.7436
N19380 Y-9.7245
N19385 Y-11.7054
N19390 Y-13.6864
N19395 Y-14.9748
N19400 X0.9746 Y-14.9909
N19405 X0.9734 Y-15.0069
N19410 X0.9707 Y-15.0228
N19415 X0.9663 Y-15.0383
N19420 X0.9603 Y-15.0532
N19425 X0.9528 Y-15.0675
N19430 X0.944 Y-15.081
N19435 X0.9341 Y-15.0937
N19440 X0.9232 Y-15.1055
N19445 X0.9114 Y-15.1165
N19450 X0.8989 Y-15.1266
N19455 X0.8858 Y-15.1361
N19460 X0.8723 Y-15.1447
N19465 X0.8583 Y-15.1528
N19470 X0.844 Y-15.1602
N19475 X0.8294 Y-15.1671
N19480 X0.8147 Y-15.1734
N19485 X0.7997 Y-15.1794
N19490 X0.7846 Y-15.185
N19495 X0.7694 Y-15.1904
N19500 X0.7541 Y-15.1955
N19505 X0.7388 Y-15.2005
N19510 X0.7235 Y-15.2055
N19515 X0.7082 Y-15.2106
N19520 X0.693 Y-15.2159
N19525 X0.678 Y-15.2216
N19530 X0.6632 Y-15.228
N19535 X0.6487 Y-15.235
N19540 X0.6346 Y-15.2428
N19545 X0.6253 Y-15.2489
N19550 X0.6162 Y-15.2562
N19555 X0.6087 Y-15.2652
N19560 X0.6031 Y-15.2755
N19565 X0.5997 Y-15.2867
N19570 X0.5987 Y-15.2983
N19575 X0.5999 Y-15.3099
N19580 X0.6035 Y-15.3211
N19585 G3 X0.6489 Y-15.3002 I0.0226 J0.0108
N19590 X0.6486 Y-15.2996 I-0.0228 J-0.0101
N19595 G1 X0.6469 Y-15.296 Z0.3567
N19600 X0.6453 Y-15.2926 Z0.3576
N19605 X0.6437 Y-15.2893 Z0.3591
N19610 X0.6423 Y-15.2863 Z0.3611
N19615 X0.641 Y-15.2836 Z0.3637
N19620 X0.6399 Y-15.2813 Z0.3667
N19625 X0.639 Y-15.2795 Z0.37
N19630 X0.6384 Y-15.2781 Z0.3736
N19635 X0.638 Y-15.2773 Z0.3774
N19640 X0.6379 Y-15.277 Z0.3814
N19645 G0 Z0.95
N19650 X-0.6059 Y-15.5337
N19655 Z0.4064
N19660 G1 Z0.3814 F193.405
N19665 X-0.6058 Y-15.5334 Z0.3774
N19670 X-0.6056 Y-15.5325 Z0.3736
N19675 X-0.6053 Y-15.5311 Z0.37
N19680 X-0.6048 Y-15.5291 Z0.3667
N19685 X-0.6042 Y-15.5266 Z0.3637
N19690 X-0.6035 Y-15.5237 Z0.3611
N19695 X-0.6027 Y-15.5205 Z0.3591
N19700 X-0.6019 Y-15.5169 Z0.3576
N19705 X-0.601 Y-15.5132 Z0.3567
N19710 X-0.6001 Y-15.5094 Z0.3564
N19715 G3 X-0.6012 Y-15.4309 I-0.1539 J0.0371
N19720 G1 X-0.6081 Y-15.4084
N19725 X-0.6102 Y-15.4009
N19730 X-0.6118 Y-15.3934
N19735 X-0.613 Y-15.3859
N19740 X-0.6136 Y-15.3784
N19745 X-0.6138 Y-15.3709
N19750 X-0.614 Y-15.3651
N19755 X-0.6147 Y-15.3582
N19760 X-0.6162 Y-15.3507
N19765 X-0.6184 Y-15.3424
N19770 X-0.6218 Y-15.3331
N19775 X-0.6264 Y-15.3231
N19780 X-0.6324 Y-15.3123
N19785 X-0.6405 Y-15.3002
N19790 X-0.6505 Y-15.2876
N19795 X-0.6613 Y-15.2757
N19800 X-0.6727 Y-15.2642
N19805 X-0.6842 Y-15.253
N19810 X-0.6958 Y-15.2419
N19815 X-0.7073 Y-15.2305
N19820 X-0.7185 Y-15.2189
N19825 X-0.7293 Y-15.207
N19830 X-0.7397 Y-15.1947
N19835 X-0.7496 Y-15.1821
N19840 X-0.7591 Y-15.169
N19845 X-0.768 Y-15.1556
N19850 X-0.7765 Y-15.1419
N19855 X-0.7844 Y-15.1279
N19860 X-0.7917 Y-15.1136
N19865 X-0.7986 Y-15.099
N19870 X-0.805 Y-15.0842
N19875 X-0.811 Y-15.0693
N19880 X-0.8165 Y-15.0541
N19885 X-0.8215 Y-15.0388
N19890 X-0.8262 Y-15.0234
N19895 X-0.8305 Y-15.0079
N19900 X-0.8345 Y-14.9923
N19905 X-0.8381 Y-14.9766
N19910 X-0.8414 Y-14.9608
N19915 X-0.8444 Y-14.945
N19920 X-0.8472 Y-14.9291
N19925 X-0.8498 Y-14.9132
N19930 X-0.8521 Y-14.8973
N19935 X-0.8542 Y-14.8813
N19940 X-0.8561 Y-14.8654
N19945 X-0.8579 Y-14.8493
N19950 X-0.8595 Y-14.8333
N19955 X-0.8609 Y-14.8173
N19960 X-0.8622 Y-14.8012
N19965 X-0.8634 Y-14.7852
N19970 X-0.8645 Y-14.7691
N19975 X-0.8655 Y-14.753
N19980 X-0.8664 Y-14.7369
N19985 X-0.8672 Y-14.7209
N19990 X-0.8679 Y-14.7048
N19995 X-0.8686 Y-14.6887
N20000 X-0.8692 Y-14.6726
N20005 X-0.8698 Y-14.6565
N20010 X-0.8702 Y-14.6404
N20015 X-0.8707 Y-14.6243
N20020 X-0.8711 Y-14.6082
N20025 X-0.8715 Y-14.5921
N20030 X-0.8718 Y-14.576
N20035 X-0.8721 Y-14.5599
N20040 X-0.8724 Y-14.5438
N20045 X-0.8726 Y-14.5277
N20050 X-0.8728 Y-14.5116
N20055 X-0.873 Y-14.4955
N20060 X-0.8732 Y-14.4794
N20065 X-0.8734 Y-14.4633
N20070 X-0.8735 Y-14.4472
N20075 X-0.8736 Y-14.4311
N20080 X-0.8738 Y-14.415
N20085 X-0.8739 Y-14.3988
N20090 X-0.874 Y-14.3827
N20095 X-0.8741 Y-14.3666
N20100 X-0.8742 Y-14.3344
N20105 X-0.8743 Y-14.3022
N20110 X-0.8744 Y-14.27
N20115 X-0.8745 Y-14.2378
N20120 X-0.8746 Y-14.1895
N20125 X-0.8747 Y-14.1412
N20130 Y-14.0768
N20135 X-0.8748 Y-13.9962
N20140 Y-13.8835
N20145 Y-13.6902
N20150 Y-13.4648
N20155 Y-11.4838
N20160 Y-9.5029
N20165 Y-7.522
N20170 Y-5.5411
N20175 Y-3.5602
N20180 Y-2.1083
N20185 X-0.8758 Y-2.0974
N20190 X-0.8789 Y-2.0869
N20195 X-0.8839 Y-2.0771
N20200 X-0.9177 Y-2.0238
N20205 X-0.9224 Y-2.0163
N20210 X-0.9267 Y-2.0088
N20215 X-0.9287 Y-2.0052
N20220 X-0.9306 Y-2.0013
N20225 X-0.9765 Y-1.9038
N20230 X-0.9802 Y-1.8959
N20235 G3 X-1.0251 Y-1.9178 I-0.0223 J-0.0113
N20240 X-1.0248 Y-1.9184 I0.0226 J0.0107
N20245 G1 X-1.023 Y-1.9219 Z0.3567
N20250 X-1.0213 Y-1.9253 Z0.3576
N20255 X-1.0197 Y-1.9286 Z0.3591
N20260 X-1.0181 Y-1.9316 Z0.3611
N20265 X-1.0168 Y-1.9342 Z0.3637
N20270 X-1.0157 Y-1.9365 Z0.3667
N20275 X-1.0147 Y-1.9383 Z0.37
N20280 X-1.014 Y-1.9397 Z0.3736
N20285 X-1.0136 Y-1.9405 Z0.3774
N20290 X-1.0135 Y-1.9407 Z0.3814
N20295 G0 Z0.95
N20300 X-0.6338 Y-15.4724
N20305 Z0.4064
N20310 G1 Z0.3814 F193.405
N20315 Y-15.4721 Z0.3774
N20320 X-0.6335 Y-15.4712 Z0.3736
N20325 X-0.6331 Y-15.4698 Z0.37
N20330 X-0.6325 Y-15.4678 Z0.3667
N20335 X-0.6318 Y-15.4653 Z0.3637
N20340 X-0.631 Y-15.4625 Z0.3611
N20345 X-0.6301 Y-15.4592 Z0.3591
N20350 X-0.6291 Y-15.4558 Z0.3576
N20355 X-0.6281 Y-15.4521 Z0.3567
N20360 X-0.627 Y-15.4483 Z0.3564
N20365 G3 X-0.6138 Y-15.3709 I-0.3507 J0.0996
N20370 G1 X-0.6136 Y-15.3634
N20375 X-0.613 Y-15.3559
N20380 X-0.6118 Y-15.3484
N20385 X-0.6103 Y-15.3409
N20390 X-0.6081 Y-15.3334
N20395 X-0.6067 Y-15.3291
N20400 X-0.6044 Y-15.3211
N20405 X-0.6033 Y-15.3155
N20410 X-0.6025 Y-15.3087
N20415 X-0.6022 Y-15.301
N20420 X-0.6026 Y-15.2921
N20425 X-0.6039 Y-15.2815
N20430 X-0.6066 Y-15.2686
N20435 X-0.6111 Y-15.2531
N20440 X-0.6167 Y-15.2381
N20445 X-0.6232 Y-15.2233
