%
(1001)
(2MM  END MILL)
(T1  D=0.0787 CR=0. - ZMIN=-0.25 - FLAT END MILL)
N10 G90 G94 G17 G91.1
N15 G20
N20 G53 G0 Z0.
(DRILL1 2MM)
N25 M9
N30 T1 M6
N35 S12000 M3
N40 G54
N45 M8
N55 G0 X0. Y0.
N60 G43 Z0.6 H1
N70 G0 Z0.2
N75 G98 G81 X0. Y0. Z-0.25 R0.0425 F1.
N80 G80
N85 G0 Z0.6
(CLEANUP CONTOUR 2MM)
N95 S1800 M3
N100 M8
N105 G0 X-0.0197 Y0.0079
N110 Z0.6
N115 Z0.2
N120 G1 Z0.0394 F20.
N125 Z-0.1496 F13.123
N130 G18 G3 X-0.0276 Z-0.1575 I-0.0079 K0.
N135 G1 X-0.0354 F20.
N140 G17 G3 X-0.0433 Y0. I0. J-0.0079
N145 X0.0433 I0.0433 J0.
N150 X-0.0433 I-0.0433 J0.
N155 X0.0512 I0.0472 J0.
N160 X-0.0512 I-0.0512 J0.
N165 X0.0512 I0.0512 J0.
N170 X0.0433 Y0.0079 I-0.0079 J0.
N175 G1 X0.0354
N180 G18 G3 X0.0276 Z-0.1496 I0. K0.0079
N185 G0 Z0.2
N190 X0.2344 Y0.0746
N195 G1 Z0.0394 F20.
N200 Z-0.1496 F13.123
N205 X0.2341 Y0.0745 Z-0.1516
N210 X0.2334 Y0.0743 Z-0.1535
N215 X0.2322 Y0.074 Z-0.1552
N220 X0.2306 Y0.0735 Z-0.1564
N225 X0.2288 Y0.073 Z-0.1572
N230 X0.2268 Y0.0725 Z-0.1575
N235 X0.2193 Y0.0703 F20.
N240 G17 G3 X0.2138 Y0.0606 I0.0021 J-0.0076
N245 G2 X0.0306 Y-0.2201 I-0.2138 J-0.0606
N250 X-0.2222 Y0. I-0.0306 J0.2201
N255 X-0.0317 Y0.22 I0.2222 J0.
N260 X0. Y0.2222 I0.0317 J-0.22
N265 X0.2138 Y0.0606 I0. J-0.2222
N270 X0.2116 Y0.0538 I-0.0062 J-0.0018
N275 G3 X0.2092 Y0.047 I0.0041 J-0.0053
N280 G2 X0.2144 Y0. I-0.2092 J-0.047
N285 Y-0.0009 I-0.2144 J-0.0005
N290 X0. Y-0.2144 I-0.2144 J0.0009
N295 Y0.2144 I0. J0.2144
N300 X0.2092 Y0.047 I0. J-0.2144
N305 G3 X0.2186 Y0.041 I0.0077 J0.0017
N310 G1 X0.2262 Y0.0428
N315 X0.2282 Y0.0432 Z-0.1572
N320 X0.2301 Y0.0436 Z-0.1564
N325 X0.2317 Y0.044 Z-0.1552
N330 X0.2329 Y0.0443 Z-0.1535
N335 X0.2337 Y0.0444 Z-0.1516
N340 X0.2339 Y0.0445 Z-0.1496
N345 G0 Z0.2
N350 X0.6193 Y0.1113
N355 G1 Z0.0394 F20.
N360 Z-0.1496 F13.123
N365 X0.6195 Z-0.1516
N370 X0.6203 Y0.1115 Z-0.1535
N375 X0.6215 Y0.1117 Z-0.1552
N380 X0.6231 Y0.112 Z-0.1564
N385 X0.625 Y0.1124 Z-0.1572
N390 X0.627 Y0.1128 Z-0.1575
N395 X0.6347 Y0.1143 F20.
N400 G3 X0.641 Y0.1235 I-0.0015 J0.0077
N405 X0. Y0.6528 I-0.641 J-0.1235
N410 X-0.0009 I-0.0005 J-0.6528
N415 X-0.6528 Y0. I0.0009 J-0.6528
N420 X0.062 Y-0.6498 I0.6528 J0.
N425 X0.641 Y0.1235 I-0.062 J0.6498
N430 G2 X0.6437 Y0.13 I0.0063 J0.0012
N435 G3 X0.6464 Y0.1365 I-0.0035 J0.0052
N440 X0. Y0.6606 I-0.6464 J-0.1365
N445 X-0.0009 I-0.0005 J-0.6606
N450 X-0.6606 Y0. I0.0009 J-0.6606
N455 X0.0686 Y-0.6571 I0.6606 J0.
N460 X0.6464 Y0.1365 I-0.0686 J0.6571
N465 X0.637 Y0.1426 I-0.0077 J-0.0016
N470 G1 X0.6293 Y0.141
N475 X0.6273 Y0.1406 Z-0.1572
N480 X0.6255 Y0.1402 Z-0.1564
N485 X0.6239 Y0.1398 Z-0.1552
N490 X0.6227 Y0.1396 Z-0.1535
N495 X0.6219 Y0.1394 Z-0.1516
N500 X0.6216 Z-0.1496
N505 G0 Z0.6
N515 M9
N520 G53 Z0.
N525 M30
%
