%
(1001)
(18 END MILL)
(T2  D=0.125 CR=0. - ZMIN=-0.22 - FLAT END MILL)
N10 G90 G94 G17 G91.1
N15 G20
N20 G53 G0 Z0.
(OD CONTOUR 18)
N25 M9
N30 T2 M6
N35 S800 M3
N40 G54
N45 M8
N55 G0 X0.8999 Y0.0125
N60 G43 Z0.6 H2
N65 G0 Z0.2
N70 G1 Z0.0794 F20.
N75 Z-0.0275 F2.
N80 G18 G3 X0.8874 Z-0.04 I-0.0125 K0.
N85 G1 X0.8749 F20.
N90 G17 G3 X0.8624 Y0. I0. J-0.0125
N95 G2 X0.8614 Y-0.041 I-0.8624 J0. F15.
N100 X0.8415 Y-0.0884 I-0.0749 J0.0036
N105 X0.8511 Y-0.139 I-0.0644 J-0.0385
N110 X0.8341 Y-0.2192 I-0.8511 J0.139
N115 X0.8047 Y-0.2615 I-0.0725 J0.0191
N120 X0.8036 Y-0.3129 I-0.071 J-0.0242
N125 X0.7703 Y-0.3878 I-0.8036 J0.3129
N130 X0.7328 Y-0.4231 I-0.067 J0.0337
N135 X0.721 Y-0.4732 I-0.0745 J-0.0089
N140 X0.6728 Y-0.5395 I-0.721 J0.4732
N145 X0.6288 Y-0.5662 I-0.0585 J0.0469
N150 X0.6069 Y-0.6127 I-0.0747 J0.0067
N155 X0.5459 Y-0.6676 I-0.6069 J0.6127
N160 X0.4973 Y-0.6845 I-0.0475 J0.0581
N165 X0.4662 Y-0.7255 I-0.0717 J0.0221
N170 X0.3952 Y-0.7665 I-0.4662 J0.7255
N175 X0.3442 Y-0.773 I-0.0344 J0.0667
N180 X0.3052 Y-0.8066 I-0.0655 J0.0365
N185 X0.2272 Y-0.8319 I-0.3052 J0.8066
N190 X0.1759 Y-0.8276 I-0.0198 J0.0724
N195 X0.1308 Y-0.8524 I-0.0565 J0.0493
N200 X0.0493 Y-0.861 I-0.1308 J0.8524
N205 X0. Y-0.8461 I-0.0043 J0.0749
N210 X-0.0493 Y-0.861 I-0.045 J0.06
N215 X-0.1308 Y-0.8524 I0.0492 J0.861
N220 X-0.1759 Y-0.8276 I0.0114 J0.0741
N225 X-0.2272 Y-0.8319 I-0.0315 J0.0681
N230 X-0.3052 Y-0.8066 I0.2272 J0.8319
N235 X-0.3442 Y-0.773 I0.0265 J0.0701
N240 X-0.3952 Y-0.7665 I-0.0167 J0.0731
N245 X-0.4662 Y-0.7255 I0.3952 J0.7665
N250 X-0.4973 Y-0.6845 I0.0405 J0.0631
N255 X-0.5459 Y-0.6676 I-0.0011 J0.075
N260 X-0.6069 Y-0.6127 I0.546 J0.6676
N265 X-0.6288 Y-0.5662 I0.0528 J0.0533
N270 X-0.6728 Y-0.5395 I0.0145 J0.0736
N275 X-0.721 Y-0.4732 I0.6728 J0.5395
N280 X-0.7328 Y-0.4231 I0.0627 J0.0412
N285 X-0.7703 Y-0.3878 I0.0295 J0.069
N290 X-0.8036 Y-0.3129 I0.7703 J0.3878
N295 X-0.8047 Y-0.2615 I0.0699 J0.0272
N300 X-0.8341 Y-0.2192 I0.0432 J0.0613
N305 X-0.8511 Y-0.139 I0.8341 J0.2192
N310 X-0.8415 Y-0.0884 I0.074 J0.0121
N315 X-0.8614 Y-0.041 I0.055 J0.051
N320 Y0.041 I0.8614 J0.041
N325 X-0.8415 Y0.0884 I0.0749 J-0.0036
N330 X-0.8511 Y0.139 I0.0644 J0.0385
N335 X-0.8341 Y0.2192 I0.8511 J-0.139
N340 X-0.8047 Y0.2615 I0.0725 J-0.0191
N345 X-0.8036 Y0.3129 I0.071 J0.0242
N350 X-0.7703 Y0.3878 I0.8036 J-0.3129
N355 X-0.7328 Y0.4231 I0.067 J-0.0337
N360 X-0.721 Y0.4732 I0.0745 J0.0089
N365 X-0.6728 Y0.5395 I0.721 J-0.4732
N370 X-0.6288 Y0.5662 I0.0585 J-0.0469
N375 X-0.6069 Y0.6127 I0.0747 J-0.0067
N380 X-0.5459 Y0.6676 I0.6069 J-0.6127
N385 X-0.4973 Y0.6845 I0.0475 J-0.0581
N390 X-0.4662 Y0.7255 I0.0717 J-0.0221
N395 X-0.3952 Y0.7665 I0.4662 J-0.7255
N400 X-0.3442 Y0.773 I0.0344 J-0.0667
N405 X-0.3052 Y0.8066 I0.0655 J-0.0365
N410 X-0.2272 Y0.8319 I0.3052 J-0.8066
N415 X-0.1759 Y0.8276 I0.0198 J-0.0724
N420 X-0.1308 Y0.8524 I0.0565 J-0.0493
N425 X-0.0493 Y0.861 I0.1308 J-0.8524
N430 X0. Y0.8461 I0.0043 J-0.0749
N435 X0.0493 Y0.861 I0.045 J-0.06
N440 X0.1308 Y0.8524 I-0.0492 J-0.861
N445 X0.1759 Y0.8276 I-0.0114 J-0.0741
N450 X0.2272 Y0.8319 I0.0315 J-0.0681
N455 X0.3052 Y0.8066 I-0.2272 J-0.8319
N460 X0.3442 Y0.773 I-0.0265 J-0.0701
N465 X0.3952 Y0.7665 I0.0167 J-0.0731
N470 X0.4662 Y0.7255 I-0.3952 J-0.7665
N475 X0.4973 Y0.6845 I-0.0405 J-0.0631
N480 X0.5459 Y0.6676 I0.0011 J-0.075
N485 X0.6069 Y0.6127 I-0.546 J-0.6676
N490 X0.6288 Y0.5662 I-0.0528 J-0.0533
N495 X0.6728 Y0.5395 I-0.0145 J-0.0736
N500 X0.721 Y0.4732 I-0.6728 J-0.5395
N505 X0.7328 Y0.4231 I-0.0627 J-0.0412
N510 X0.7703 Y0.3878 I-0.0295 J-0.069
N515 X0.8036 Y0.3129 I-0.7703 J-0.3878
N520 X0.8047 Y0.2615 I-0.0699 J-0.0272
N525 X0.8341 Y0.2192 I-0.0432 J-0.0613
N530 X0.8511 Y0.139 I-0.8341 J-0.2192
N535 X0.8415 Y0.0884 I-0.074 J-0.0121
N540 X0.8614 Y0.041 I-0.055 J-0.051
N545 X0.8624 Y0. I-0.8614 J-0.041
N550 G3 X0.8749 Y-0.0125 I0.0125 J0. F20.
N555 G1 X0.8874
N560 G18 G2 X0.8999 Z-0.0275 I0. K0.0125
N565 G0 Z0.2
N570 Y0.0125
N575 G1 Z0.0394 F20.
N580 Z-0.0675 F2.
N585 G3 X0.8874 Z-0.08 I-0.0125 K0.
N590 G1 X0.8749 F20.
N595 G17 G3 X0.8624 Y0. I0. J-0.0125
N600 G2 X0.8614 Y-0.041 I-0.8624 J0. F15.
N605 X0.8415 Y-0.0884 I-0.0749 J0.0036
N610 X0.8511 Y-0.139 I-0.0644 J-0.0385
N615 X0.8341 Y-0.2192 I-0.8511 J0.139
N620 X0.8047 Y-0.2615 I-0.0725 J0.0191
N625 X0.8036 Y-0.3129 I-0.071 J-0.0242
N630 X0.7703 Y-0.3878 I-0.8036 J0.3129
N635 X0.7328 Y-0.4231 I-0.067 J0.0337
N640 X0.721 Y-0.4732 I-0.0745 J-0.0089
N645 X0.6728 Y-0.5395 I-0.721 J0.4732
N650 X0.6288 Y-0.5662 I-0.0585 J0.0469
N655 X0.6069 Y-0.6127 I-0.0747 J0.0067
N660 X0.5459 Y-0.6676 I-0.6069 J0.6127
N665 X0.4973 Y-0.6845 I-0.0475 J0.0581
N670 X0.4662 Y-0.7255 I-0.0717 J0.0221
N675 X0.3952 Y-0.7665 I-0.4662 J0.7255
N680 X0.3442 Y-0.773 I-0.0344 J0.0667
N685 X0.3052 Y-0.8066 I-0.0655 J0.0365
N690 X0.2272 Y-0.8319 I-0.3052 J0.8066
N695 X0.1759 Y-0.8276 I-0.0198 J0.0724
N700 X0.1308 Y-0.8524 I-0.0565 J0.0493
N705 X0.0493 Y-0.861 I-0.1308 J0.8524
N710 X0. Y-0.8461 I-0.0043 J0.0749
N715 X-0.0493 Y-0.861 I-0.045 J0.06
N720 X-0.1308 Y-0.8524 I0.0492 J0.861
N725 X-0.1759 Y-0.8276 I0.0114 J0.0741
N730 X-0.2272 Y-0.8319 I-0.0315 J0.0681
N735 X-0.3052 Y-0.8066 I0.2272 J0.8319
N740 X-0.3442 Y-0.773 I0.0265 J0.0701
N745 X-0.3952 Y-0.7665 I-0.0167 J0.0731
N750 X-0.4662 Y-0.7255 I0.3952 J0.7665
N755 X-0.4973 Y-0.6845 I0.0405 J0.0631
N760 X-0.5459 Y-0.6676 I-0.0011 J0.075
N765 X-0.6069 Y-0.6127 I0.546 J0.6676
N770 X-0.6288 Y-0.5662 I0.0528 J0.0533
N775 X-0.6728 Y-0.5395 I0.0145 J0.0736
N780 X-0.721 Y-0.4732 I0.6728 J0.5395
N785 X-0.7328 Y-0.4231 I0.0627 J0.0412
N790 X-0.7703 Y-0.3878 I0.0295 J0.069
N795 X-0.8036 Y-0.3129 I0.7703 J0.3878
N800 X-0.8047 Y-0.2615 I0.0699 J0.0272
N805 X-0.8341 Y-0.2192 I0.0432 J0.0613
N810 X-0.8511 Y-0.139 I0.8341 J0.2192
N815 X-0.8415 Y-0.0884 I0.074 J0.0121
N820 X-0.8614 Y-0.041 I0.055 J0.051
N825 Y0.041 I0.8614 J0.041
N830 X-0.8415 Y0.0884 I0.0749 J-0.0036
N835 X-0.8511 Y0.139 I0.0644 J0.0385
N840 X-0.8341 Y0.2192 I0.8511 J-0.139
N845 X-0.8047 Y0.2615 I0.0725 J-0.0191
N850 X-0.8036 Y0.3129 I0.071 J0.0242
N855 X-0.7703 Y0.3878 I0.8036 J-0.3129
N860 X-0.7328 Y0.4231 I0.067 J-0.0337
N865 X-0.721 Y0.4732 I0.0745 J0.0089
N870 X-0.6728 Y0.5395 I0.721 J-0.4732
N875 X-0.6288 Y0.5662 I0.0585 J-0.0469
N880 X-0.6069 Y0.6127 I0.0747 J-0.0067
N885 X-0.5459 Y0.6676 I0.6069 J-0.6127
N890 X-0.4973 Y0.6845 I0.0475 J-0.0581
N895 X-0.4662 Y0.7255 I0.0717 J-0.0221
N900 X-0.3952 Y0.7665 I0.4662 J-0.7255
N905 X-0.3442 Y0.773 I0.0344 J-0.0667
N910 X-0.3052 Y0.8066 I0.0655 J-0.0365
N915 X-0.2272 Y0.8319 I0.3052 J-0.8066
N920 X-0.1759 Y0.8276 I0.0198 J-0.0724
N925 X-0.1308 Y0.8524 I0.0565 J-0.0493
N930 X-0.0493 Y0.861 I0.1308 J-0.8524
N935 X0. Y0.8461 I0.0043 J-0.0749
N940 X0.0493 Y0.861 I0.045 J-0.06
N945 X0.1308 Y0.8524 I-0.0492 J-0.861
N950 X0.1759 Y0.8276 I-0.0114 J-0.0741
N955 X0.2272 Y0.8319 I0.0315 J-0.0681
N960 X0.3052 Y0.8066 I-0.2272 J-0.8319
N965 X0.3442 Y0.773 I-0.0265 J-0.0701
N970 X0.3952 Y0.7665 I0.0167 J-0.0731
N975 X0.4662 Y0.7255 I-0.3952 J-0.7665
N980 X0.4973 Y0.6845 I-0.0405 J-0.0631
N985 X0.5459 Y0.6676 I0.0011 J-0.075
N990 X0.6069 Y0.6127 I-0.546 J-0.6676
N995 X0.6288 Y0.5662 I-0.0528 J-0.0533
N1000 X0.6728 Y0.5395 I-0.0145 J-0.0736
N1005 X0.721 Y0.4732 I-0.6728 J-0.5395
N1010 X0.7328 Y0.4231 I-0.0627 J-0.0412
N1015 X0.7703 Y0.3878 I-0.0295 J-0.069
N1020 X0.8036 Y0.3129 I-0.7703 J-0.3878
N1025 X0.8047 Y0.2615 I-0.0699 J-0.0272
N1030 X0.8341 Y0.2192 I-0.0432 J-0.0613
N1035 X0.8511 Y0.139 I-0.8341 J-0.2192
N1040 X0.8415 Y0.0884 I-0.074 J-0.0121
N1045 X0.8614 Y0.041 I-0.055 J-0.051
N1050 X0.8624 Y0. I-0.8614 J-0.041
N1055 G3 X0.8749 Y-0.0125 I0.0125 J0. F20.
N1060 G1 X0.8874
N1065 G18 G2 X0.8999 Z-0.0675 I0. K0.0125
N1070 G0 Z0.2
N1075 Y0.0125
N1080 G1 Z-0.0006 F20.
N1085 Z-0.1075 F2.
N1090 G3 X0.8874 Z-0.12 I-0.0125 K0.
N1095 G1 X0.8749 F20.
N1100 G17 G3 X0.8624 Y0. I0. J-0.0125
N1105 G2 X0.8614 Y-0.041 I-0.8624 J0. F15.
N1110 X0.8415 Y-0.0884 I-0.0749 J0.0036
N1115 X0.8511 Y-0.139 I-0.0644 J-0.0385
N1120 X0.8341 Y-0.2192 I-0.8511 J0.139
N1125 X0.8047 Y-0.2615 I-0.0725 J0.0191
N1130 X0.8036 Y-0.3129 I-0.071 J-0.0242
N1135 X0.7703 Y-0.3878 I-0.8036 J0.3129
N1140 X0.7328 Y-0.4231 I-0.067 J0.0337
N1145 X0.721 Y-0.4732 I-0.0745 J-0.0089
N1150 X0.6728 Y-0.5395 I-0.721 J0.4732
N1155 X0.6288 Y-0.5662 I-0.0585 J0.0469
N1160 X0.6069 Y-0.6127 I-0.0747 J0.0067
N1165 X0.5459 Y-0.6676 I-0.6069 J0.6127
N1170 X0.4973 Y-0.6845 I-0.0475 J0.0581
N1175 X0.4662 Y-0.7255 I-0.0717 J0.0221
N1180 X0.3952 Y-0.7665 I-0.4662 J0.7255
N1185 X0.3442 Y-0.773 I-0.0344 J0.0667
N1190 X0.3052 Y-0.8066 I-0.0655 J0.0365
N1195 X0.2272 Y-0.8319 I-0.3052 J0.8066
N1200 X0.1759 Y-0.8276 I-0.0198 J0.0724
N1205 X0.1308 Y-0.8524 I-0.0565 J0.0493
N1210 X0.0493 Y-0.861 I-0.1308 J0.8524
N1215 X0. Y-0.8461 I-0.0043 J0.0749
N1220 X-0.0493 Y-0.861 I-0.045 J0.06
N1225 X-0.1308 Y-0.8524 I0.0492 J0.861
N1230 X-0.1759 Y-0.8276 I0.0114 J0.0741
N1235 X-0.2272 Y-0.8319 I-0.0315 J0.0681
N1240 X-0.3052 Y-0.8066 I0.2272 J0.8319
N1245 X-0.3442 Y-0.773 I0.0265 J0.0701
N1250 X-0.3952 Y-0.7665 I-0.0167 J0.0731
N1255 X-0.4662 Y-0.7255 I0.3952 J0.7665
N1260 X-0.4973 Y-0.6845 I0.0405 J0.0631
N1265 X-0.5459 Y-0.6676 I-0.0011 J0.075
N1270 X-0.6069 Y-0.6127 I0.546 J0.6676
N1275 X-0.6288 Y-0.5662 I0.0528 J0.0533
N1280 X-0.6728 Y-0.5395 I0.0145 J0.0736
N1285 X-0.721 Y-0.4732 I0.6728 J0.5395
N1290 X-0.7328 Y-0.4231 I0.0627 J0.0412
N1295 X-0.7703 Y-0.3878 I0.0295 J0.069
N1300 X-0.8036 Y-0.3129 I0.7703 J0.3878
N1305 X-0.8047 Y-0.2615 I0.0699 J0.0272
N1310 X-0.8341 Y-0.2192 I0.0432 J0.0613
N1315 X-0.8511 Y-0.139 I0.8341 J0.2192
N1320 X-0.8415 Y-0.0884 I0.074 J0.0121
N1325 X-0.8614 Y-0.041 I0.055 J0.051
N1330 Y0.041 I0.8614 J0.041
N1335 X-0.8415 Y0.0884 I0.0749 J-0.0036
N1340 X-0.8511 Y0.139 I0.0644 J0.0385
N1345 X-0.8341 Y0.2192 I0.8511 J-0.139
N1350 X-0.8047 Y0.2615 I0.0725 J-0.0191
N1355 X-0.8036 Y0.3129 I0.071 J0.0242
N1360 X-0.7703 Y0.3878 I0.8036 J-0.3129
N1365 X-0.7328 Y0.4231 I0.067 J-0.0337
N1370 X-0.721 Y0.4732 I0.0745 J0.0089
N1375 X-0.6728 Y0.5395 I0.721 J-0.4732
N1380 X-0.6288 Y0.5662 I0.0585 J-0.0469
N1385 X-0.6069 Y0.6127 I0.0747 J-0.0067
N1390 X-0.5459 Y0.6676 I0.6069 J-0.6127
N1395 X-0.4973 Y0.6845 I0.0475 J-0.0581
N1400 X-0.4662 Y0.7255 I0.0717 J-0.0221
N1405 X-0.3952 Y0.7665 I0.4662 J-0.7255
N1410 X-0.3442 Y0.773 I0.0344 J-0.0667
N1415 X-0.3052 Y0.8066 I0.0655 J-0.0365
N1420 X-0.2272 Y0.8319 I0.3052 J-0.8066
N1425 X-0.1759 Y0.8276 I0.0198 J-0.0724
N1430 X-0.1308 Y0.8524 I0.0565 J-0.0493
N1435 X-0.0493 Y0.861 I0.1308 J-0.8524
N1440 X0. Y0.8461 I0.0043 J-0.0749
N1445 X0.0493 Y0.861 I0.045 J-0.06
N1450 X0.1308 Y0.8524 I-0.0492 J-0.861
N1455 X0.1759 Y0.8276 I-0.0114 J-0.0741
N1460 X0.2272 Y0.8319 I0.0315 J-0.0681
N1465 X0.3052 Y0.8066 I-0.2272 J-0.8319
N1470 X0.3442 Y0.773 I-0.0265 J-0.0701
N1475 X0.3952 Y0.7665 I0.0167 J-0.0731
N1480 X0.4662 Y0.7255 I-0.3952 J-0.7665
N1485 X0.4973 Y0.6845 I-0.0405 J-0.0631
N1490 X0.5459 Y0.6676 I0.0011 J-0.075
N1495 X0.6069 Y0.6127 I-0.546 J-0.6676
N1500 X0.6288 Y0.5662 I-0.0528 J-0.0533
N1505 X0.6728 Y0.5395 I-0.0145 J-0.0736
N1510 X0.721 Y0.4732 I-0.6728 J-0.5395
N1515 X0.7328 Y0.4231 I-0.0627 J-0.0412
N1520 X0.7703 Y0.3878 I-0.0295 J-0.069
N1525 X0.8036 Y0.3129 I-0.7703 J-0.3878
N1530 X0.8047 Y0.2615 I-0.0699 J-0.0272
N1535 X0.8341 Y0.2192 I-0.0432 J-0.0613
N1540 X0.8511 Y0.139 I-0.8341 J-0.2192
N1545 X0.8415 Y0.0884 I-0.074 J-0.0121
N1550 X0.8614 Y0.041 I-0.055 J-0.051
N1555 X0.8624 Y0. I-0.8614 J-0.041
N1560 G3 X0.8749 Y-0.0125 I0.0125 J0. F20.
N1565 G1 X0.8874
N1570 G18 G2 X0.8999 Z-0.1075 I0. K0.0125
N1575 G0 Z0.2
N1580 Y0.0125
N1585 G1 Z-0.0406 F20.
N1590 Z-0.14 F2.
N1595 X0.8874
N1600 X0.8749 F20.
N1605 G17 G3 X0.8624 Y0. I0. J-0.0125
N1610 G2 X0.8614 Y-0.041 I-0.8624 J0. F15.
N1615 X0.8461 Y-0.083 I-0.0749 J0.0036
N1620 G1 Z-0.16 F2.
N1625 G2 X0.8415 Y-0.0884 I-0.0596 J0.0456 F15.
N1630 X0.8511 Y-0.139 I-0.0644 J-0.0385
N1635 X0.8341 Y-0.2192 I-0.8511 J0.139
N1640 X0.8047 Y-0.2615 I-0.0725 J0.0191
N1645 X0.8036 Y-0.3129 I-0.071 J-0.0242
N1650 X0.7703 Y-0.3878 I-0.8036 J0.3129
N1655 X0.7328 Y-0.4231 I-0.067 J0.0337
N1660 X0.721 Y-0.4732 I-0.0745 J-0.0089
N1665 X0.6728 Y-0.5395 I-0.721 J0.4732
N1670 X0.6288 Y-0.5662 I-0.0585 J0.0469
N1675 X0.6069 Y-0.6127 I-0.0747 J0.0067
N1680 X0.5459 Y-0.6676 I-0.6069 J0.6127
N1685 X0.5009 Y-0.6845 I-0.0475 J0.0581
N1690 G1 Z-0.14
N1695 G2 X0.4973 I-0.0024 J0.075
N1700 X0.4662 Y-0.7255 I-0.0717 J0.0221
N1705 X0.3952 Y-0.7665 I-0.4662 J0.7255
N1710 X0.3506 Y-0.7742 I-0.0344 J0.0667
N1715 G1 Z-0.16 F2.
N1720 G2 X0.3462 Y-0.7734 I0.0103 J0.0743 F15.
N1725 G1 Z-0.14
N1730 G2 X0.3442 Y-0.773 I0.0147 J0.0736
N1735 X0.3052 Y-0.8066 I-0.0655 J0.0365
N1740 X0.2272 Y-0.8319 I-0.3052 J0.8066
N1745 X0.1804 Y-0.8295 I-0.0198 J0.0724
N1750 G1 Z-0.16 F2.
N1755 G2 X0.1759 Y-0.8276 I0.027 J0.07 F15.
N1760 X0.1756 Y-0.828 I-0.0565 J0.0493
N1765 G1 Z-0.14
N1770 G2 X0.1308 Y-0.8524 I-0.0562 J0.0497
N1775 X0.0493 Y-0.861 I-0.1308 J0.8524
N1780 X0.0017 Y-0.8473 I-0.0043 J0.0749
N1785 G1 Z-0.16 F2.
N1790 G2 X0. Y-0.8461 I0.0433 J0.0612 F15.
N1795 X-0.0033 Y-0.8485 I-0.045 J0.06
N1800 G1 Z-0.14
N1805 G2 X-0.0493 Y-0.861 I-0.0417 J0.0624
N1810 X-0.1308 Y-0.8524 I0.0492 J0.861
N1815 X-0.1759 Y-0.8276 I0.0114 J0.0741
N1820 X-0.1771 Y-0.8282 I-0.0315 J0.0681
N1825 G1 Z-0.16 F2.
N1830 G2 X-0.2272 Y-0.8319 I-0.0303 J0.0686 F15.
N1835 X-0.3052 Y-0.8066 I0.2272 J0.8319
N1840 X-0.3442 Y-0.773 I0.0265 J0.0701
N1845 X-0.3952 Y-0.7665 I-0.0167 J0.0731
N1850 X-0.4662 Y-0.7255 I0.3952 J0.7665
N1855 X-0.4973 Y-0.6845 I0.0405 J0.0631
N1860 X-0.5459 Y-0.6676 I-0.0011 J0.075
N1865 X-0.6069 Y-0.6127 I0.546 J0.6676
N1870 X-0.6288 Y-0.5662 I0.0528 J0.0533
N1875 X-0.6728 Y-0.5395 I0.0145 J0.0736
N1880 X-0.721 Y-0.4732 I0.6728 J0.5395
N1885 X-0.7328 Y-0.4231 I0.0627 J0.0412
N1890 X-0.7376 Y-0.4208 I0.0295 J0.069
N1895 G1 Z-0.14
N1900 G2 X-0.7703 Y-0.3878 I0.0344 J0.0667
N1905 X-0.8036 Y-0.3129 I0.7703 J0.3878
N1910 X-0.8047 Y-0.2615 I0.0699 J0.0272
N1915 X-0.8341 Y-0.2192 I0.0432 J0.0613
N1920 X-0.8511 Y-0.139 I0.8341 J0.2192
N1925 X-0.8415 Y-0.0884 I0.074 J0.0121
N1930 X-0.8614 Y-0.041 I0.055 J0.051
N1935 Y0.041 I0.8614 J0.041
N1940 X-0.8481 Y0.0802 I0.0749 J-0.0036
N1945 G1 Z-0.16 F2.
N1950 G2 X-0.8423 Y0.0876 I0.0616 J-0.0428 F15.
N1955 G1 Z-0.14
N1960 G2 X-0.8415 Y0.0884 I0.0557 J-0.0502
N1965 X-0.8511 Y0.139 I0.0644 J0.0385
N1970 X-0.8341 Y0.2192 I0.8511 J-0.139
N1975 X-0.8078 Y0.2592 I0.0725 J-0.0191
N1980 G1 Z-0.16 F2.
N1985 G2 X-0.8047 Y0.2615 I0.0462 J-0.059 F15.
N1990 X-0.8036 Y0.3129 I0.071 J0.0242
N1995 X-0.7703 Y0.3878 I0.8036 J-0.3129
N2000 X-0.7328 Y0.4231 I0.067 J-0.0337
N2005 X-0.721 Y0.4732 I0.0745 J0.0089
N2010 X-0.6728 Y0.5395 I0.721 J-0.4732
N2015 X-0.6288 Y0.5662 I0.0585 J-0.0469
N2020 X-0.6069 Y0.6127 I0.0747 J-0.0067
N2025 X-0.5459 Y0.6676 I0.6069 J-0.6127
N2030 X-0.4973 Y0.6845 I0.0475 J-0.0581
N2035 X-0.4949 Y0.6912 I0.0717 J-0.0221
N2040 G1 Z-0.14
N2045 G2 X-0.4662 Y0.7255 I0.0693 J-0.0288
N2050 X-0.3952 Y0.7665 I0.4662 J-0.7255
N2055 X-0.3442 Y0.773 I0.0344 J-0.0667
N2060 X-0.3052 Y0.8066 I0.0655 J-0.0365
N2065 X-0.2272 Y0.8319 I0.3052 J-0.8066
N2070 X-0.1771 Y0.8282 I0.0198 J-0.0724
N2075 G1 Z-0.16 F2.
N2080 G2 X-0.1759 Y0.8276 I-0.0304 J-0.0686 F15.
N2085 X-0.171 Y0.8327 I0.0565 J-0.0493
N2090 G1 Z-0.14
N2095 G2 X-0.1308 Y0.8524 I0.0516 J-0.0545
N2100 X-0.0493 Y0.861 I0.1308 J-0.8524
N2105 X0. Y0.8461 I0.0043 J-0.0749
N2110 X0.0493 Y0.861 I0.045 J-0.06
N2115 X0.1308 Y0.8524 I-0.0492 J-0.861
N2120 X0.1751 Y0.8286 I-0.0114 J-0.0741
N2125 G1 Z-0.16 F2.
N2130 G2 X0.1759 Y0.8276 I-0.0557 J-0.0503 F15.
N2135 X0.2272 Y0.8319 I0.0315 J-0.0681
N2140 X0.3052 Y0.8066 I-0.2272 J-0.8319
N2145 X0.3442 Y0.773 I-0.0265 J-0.0701
N2150 X0.3952 Y0.7665 I0.0167 J-0.0731
N2155 X0.4662 Y0.7255 I-0.3952 J-0.7665
N2160 X0.4973 Y0.6845 I-0.0405 J-0.0631
N2165 X0.5459 Y0.6676 I0.0011 J-0.075
N2170 X0.6069 Y0.6127 I-0.546 J-0.6676
N2175 X0.6288 Y0.5662 I-0.0528 J-0.0533
N2180 X0.6357 Y0.5645 I-0.0145 J-0.0736
N2185 G1 Z-0.14
N2190 G2 X0.6728 Y0.5395 I-0.0214 J-0.0719
N2195 X0.721 Y0.4732 I-0.6728 J-0.5395
N2200 X0.7328 Y0.4231 I-0.0627 J-0.0412
N2205 X0.7703 Y0.3878 I-0.0295 J-0.069
N2210 X0.8036 Y0.3129 I-0.7703 J-0.3878
N2215 X0.8067 Y0.2683 I-0.0699 J-0.0272
N2220 G1 Z-0.16 F2.
N2225 G2 X0.8047 Y0.2615 I-0.0729 J0.0174 F15.
N2230 X0.8103 Y0.2571 I-0.0432 J-0.0613
N2235 G1 Z-0.14
N2240 G2 X0.8341 Y0.2192 I-0.0488 J-0.057
N2245 X0.8511 Y0.139 I-0.8341 J-0.2192
N2250 X0.7031 Y0.1148 I-0.074 J-0.0121
N2255 X0.8511 Y0.139 I0.074 J0.0121
N2260 X0.8415 Y0.0884 I-0.074 J-0.0121
N2265 X0.8614 Y0.041 I-0.055 J-0.051
N2270 X0.8624 Y0. I-0.8614 J-0.041
N2275 G3 X0.8749 Y-0.0125 I0.0125 J0. F20.
N2280 G1 X0.8999
N2285 G0 Z0.2
N2290 Y0.0125
N2295 G1 Z-0.0806 F20.
N2300 Z-0.14 F2.
N2305 X0.8874
N2310 X0.8749 F20.
N2315 G3 X0.8624 Y0. I0. J-0.0125
N2320 G2 X0.8614 Y-0.041 I-0.8624 J0. F15.
N2325 X0.8461 Y-0.083 I-0.0749 J0.0036
N2330 G1 Z-0.2 F2.
N2335 G2 X0.8415 Y-0.0884 I-0.0596 J0.0456 F15.
N2340 X0.8511 Y-0.139 I-0.0644 J-0.0385
N2345 X0.8341 Y-0.2192 I-0.8511 J0.139
N2350 X0.8047 Y-0.2615 I-0.0725 J0.0191
N2355 X0.8036 Y-0.3129 I-0.071 J-0.0242
N2360 X0.7703 Y-0.3878 I-0.8036 J0.3129
N2365 X0.7328 Y-0.4231 I-0.067 J0.0337
N2370 X0.721 Y-0.4732 I-0.0745 J-0.0089
N2375 X0.6728 Y-0.5395 I-0.721 J0.4732
N2380 X0.6288 Y-0.5662 I-0.0585 J0.0469
N2385 X0.6069 Y-0.6127 I-0.0747 J0.0067
N2390 X0.5459 Y-0.6676 I-0.6069 J0.6127
N2395 X0.5009 Y-0.6845 I-0.0475 J0.0581
N2400 G1 Z-0.14
N2405 G2 X0.4973 I-0.0024 J0.075
N2410 X0.4662 Y-0.7255 I-0.0717 J0.0221
N2415 X0.3952 Y-0.7665 I-0.4662 J0.7255
N2420 X0.3506 Y-0.7742 I-0.0344 J0.0667
N2425 G1 Z-0.2 F2.
N2430 G2 X0.3462 Y-0.7734 I0.0103 J0.0743 F15.
N2435 G1 Z-0.14
N2440 G2 X0.3442 Y-0.773 I0.0147 J0.0736
N2445 X0.3052 Y-0.8066 I-0.0655 J0.0365
N2450 X0.2272 Y-0.8319 I-0.3052 J0.8066
N2455 X0.1804 Y-0.8295 I-0.0198 J0.0724
N2460 G1 Z-0.2 F2.
N2465 G2 X0.1759 Y-0.8276 I0.027 J0.07 F15.
N2470 X0.1756 Y-0.828 I-0.0565 J0.0493
N2475 G1 Z-0.14
N2480 G2 X0.1308 Y-0.8524 I-0.0562 J0.0497
N2485 X0.0493 Y-0.861 I-0.1308 J0.8524
N2490 X0.0017 Y-0.8473 I-0.0043 J0.0749
N2495 G1 Z-0.2 F2.
N2500 G2 X0. Y-0.8461 I0.0433 J0.0612 F15.
N2505 X-0.0033 Y-0.8485 I-0.045 J0.06
N2510 G1 Z-0.14
N2515 G2 X-0.0493 Y-0.861 I-0.0417 J0.0624
N2520 X-0.1308 Y-0.8524 I0.0492 J0.861
N2525 X-0.1759 Y-0.8276 I0.0114 J0.0741
N2530 X-0.1771 Y-0.8282 I-0.0315 J0.0681
N2535 G1 Z-0.2 F2.
N2540 G2 X-0.2272 Y-0.8319 I-0.0303 J0.0686 F15.
N2545 X-0.3052 Y-0.8066 I0.2272 J0.8319
N2550 X-0.3442 Y-0.773 I0.0265 J0.0701
N2555 X-0.3952 Y-0.7665 I-0.0167 J0.0731
N2560 X-0.4662 Y-0.7255 I0.3952 J0.7665
N2565 X-0.4973 Y-0.6845 I0.0405 J0.0631
N2570 X-0.5459 Y-0.6676 I-0.0011 J0.075
N2575 X-0.6069 Y-0.6127 I0.546 J0.6676
N2580 X-0.6288 Y-0.5662 I0.0528 J0.0533
N2585 X-0.6728 Y-0.5395 I0.0145 J0.0736
N2590 X-0.721 Y-0.4732 I0.6728 J0.5395
N2595 X-0.7328 Y-0.4231 I0.0627 J0.0412
N2600 X-0.7376 Y-0.4208 I0.0295 J0.069
N2605 G1 Z-0.14
N2610 G2 X-0.7703 Y-0.3878 I0.0344 J0.0667
N2615 X-0.8036 Y-0.3129 I0.7703 J0.3878
N2620 X-0.8047 Y-0.2615 I0.0699 J0.0272
N2625 X-0.8341 Y-0.2192 I0.0432 J0.0613
N2630 X-0.8511 Y-0.139 I0.8341 J0.2192
N2635 X-0.8415 Y-0.0884 I0.074 J0.0121
N2640 X-0.8614 Y-0.041 I0.055 J0.051
N2645 Y0.041 I0.8614 J0.041
N2650 X-0.8481 Y0.0802 I0.0749 J-0.0036
N2655 G1 Z-0.2 F2.
N2660 G2 X-0.8423 Y0.0876 I0.0616 J-0.0428 F15.
N2665 G1 Z-0.14
N2670 G2 X-0.8415 Y0.0884 I0.0557 J-0.0502
N2675 X-0.8511 Y0.139 I0.0644 J0.0385
N2680 X-0.8341 Y0.2192 I0.8511 J-0.139
N2685 X-0.8078 Y0.2592 I0.0725 J-0.0191
N2690 G1 Z-0.2 F2.
N2695 G2 X-0.8047 Y0.2615 I0.0462 J-0.059 F15.
N2700 X-0.8036 Y0.3129 I0.071 J0.0242
N2705 X-0.7703 Y0.3878 I0.8036 J-0.3129
N2710 X-0.7328 Y0.4231 I0.067 J-0.0337
N2715 X-0.721 Y0.4732 I0.0745 J0.0089
N2720 X-0.6728 Y0.5395 I0.721 J-0.4732
N2725 X-0.6288 Y0.5662 I0.0585 J-0.0469
N2730 X-0.6069 Y0.6127 I0.0747 J-0.0067
N2735 X-0.5459 Y0.6676 I0.6069 J-0.6127
N2740 X-0.4973 Y0.6845 I0.0475 J-0.0581
N2745 X-0.4949 Y0.6912 I0.0717 J-0.0221
N2750 G1 Z-0.14
N2755 G2 X-0.4662 Y0.7255 I0.0693 J-0.0288
N2760 X-0.3952 Y0.7665 I0.4662 J-0.7255
N2765 X-0.3442 Y0.773 I0.0344 J-0.0667
N2770 X-0.3052 Y0.8066 I0.0655 J-0.0365
N2775 X-0.2272 Y0.8319 I0.3052 J-0.8066
N2780 X-0.1771 Y0.8282 I0.0198 J-0.0724
N2785 G1 Z-0.2 F2.
N2790 G2 X-0.1759 Y0.8276 I-0.0304 J-0.0686 F15.
N2795 X-0.171 Y0.8327 I0.0565 J-0.0493
N2800 G1 Z-0.14
N2805 G2 X-0.1308 Y0.8524 I0.0516 J-0.0545
N2810 X-0.0493 Y0.861 I0.1308 J-0.8524
N2815 X0. Y0.8461 I0.0043 J-0.0749
N2820 X0.0493 Y0.861 I0.045 J-0.06
N2825 X0.1308 Y0.8524 I-0.0492 J-0.861
N2830 X0.1751 Y0.8286 I-0.0114 J-0.0741
N2835 G1 Z-0.2 F2.
N2840 G2 X0.1759 Y0.8276 I-0.0557 J-0.0503 F15.
N2845 X0.2272 Y0.8319 I0.0315 J-0.0681
N2850 X0.3052 Y0.8066 I-0.2272 J-0.8319
N2855 X0.3442 Y0.773 I-0.0265 J-0.0701
N2860 X0.3952 Y0.7665 I0.0167 J-0.0731
N2865 X0.4662 Y0.7255 I-0.3952 J-0.7665
N2870 X0.4973 Y0.6845 I-0.0405 J-0.0631
N2875 X0.5459 Y0.6676 I0.0011 J-0.075
N2880 X0.6069 Y0.6127 I-0.546 J-0.6676
N2885 X0.6288 Y0.5662 I-0.0528 J-0.0533
N2890 X0.6357 Y0.5645 I-0.0145 J-0.0736
N2895 G1 Z-0.14
N2900 G2 X0.6728 Y0.5395 I-0.0214 J-0.0719
N2905 X0.721 Y0.4732 I-0.6728 J-0.5395
N2910 X0.7328 Y0.4231 I-0.0627 J-0.0412
N2915 X0.7703 Y0.3878 I-0.0295 J-0.069
N2920 X0.8036 Y0.3129 I-0.7703 J-0.3878
N2925 X0.8067 Y0.2683 I-0.0699 J-0.0272
N2930 G1 Z-0.2 F2.
N2935 G2 X0.8047 Y0.2615 I-0.0729 J0.0174 F15.
N2940 X0.8103 Y0.2571 I-0.0432 J-0.0613
N2945 G1 Z-0.14
N2950 G2 X0.8341 Y0.2192 I-0.0488 J-0.057
N2955 X0.8511 Y0.139 I-0.8341 J-0.2192
N2960 X0.7031 Y0.1148 I-0.074 J-0.0121
N2965 X0.8511 Y0.139 I0.074 J0.0121
N2970 X0.8415 Y0.0884 I-0.074 J-0.0121
N2975 X0.8614 Y0.041 I-0.055 J-0.051
N2980 X0.8624 Y0. I-0.8614 J-0.041
N2985 G3 X0.8749 Y-0.0125 I0.0125 J0. F20.
N2990 G1 X0.8999
N2995 G0 Z0.2
N3000 Y0.0125
N3005 G1 Z-0.1206 F20.
N3010 Z-0.14 F2.
N3015 X0.8874
N3020 X0.8749 F20.
N3025 G3 X0.8624 Y0. I0. J-0.0125
N3030 G2 X0.8614 Y-0.041 I-0.8624 J0. F30.
N3035 X0.8461 Y-0.083 I-0.0749 J0.0036
N3040 G1 Z-0.22 F2.
N3045 G2 X0.8415 Y-0.0884 I-0.0596 J0.0456 F30.
N3050 X0.8511 Y-0.139 I-0.0644 J-0.0385
N3055 X0.8341 Y-0.2192 I-0.8511 J0.139
N3060 X0.8047 Y-0.2615 I-0.0725 J0.0191
N3065 X0.8036 Y-0.3129 I-0.071 J-0.0242
N3070 X0.7703 Y-0.3878 I-0.8036 J0.3129
N3075 X0.7328 Y-0.4231 I-0.067 J0.0337
N3080 X0.721 Y-0.4732 I-0.0745 J-0.0089
N3085 X0.6728 Y-0.5395 I-0.721 J0.4732
N3090 X0.6288 Y-0.5662 I-0.0585 J0.0469
N3095 X0.6069 Y-0.6127 I-0.0747 J0.0067
N3100 X0.5459 Y-0.6676 I-0.6069 J0.6127
N3105 X0.5009 Y-0.6845 I-0.0475 J0.0581
N3110 G1 Z-0.14
N3115 G2 X0.4973 I-0.0024 J0.075
N3120 X0.4662 Y-0.7255 I-0.0717 J0.0221
N3125 X0.3952 Y-0.7665 I-0.4662 J0.7255
N3130 X0.3506 Y-0.7742 I-0.0344 J0.0667
N3135 G1 Z-0.22 F2.
N3140 G2 X0.3462 Y-0.7734 I0.0103 J0.0743 F30.
N3145 G1 Z-0.14
N3150 G2 X0.3442 Y-0.773 I0.0147 J0.0736
N3155 X0.3052 Y-0.8066 I-0.0655 J0.0365
N3160 X0.2272 Y-0.8319 I-0.3052 J0.8066
N3165 X0.1804 Y-0.8295 I-0.0198 J0.0724
N3170 G1 Z-0.22 F2.
N3175 G2 X0.1759 Y-0.8276 I0.027 J0.07 F30.
N3180 X0.1756 Y-0.828 I-0.0565 J0.0493
N3185 G1 Z-0.14
N3190 G2 X0.1308 Y-0.8524 I-0.0562 J0.0497
N3195 X0.0493 Y-0.861 I-0.1308 J0.8524
N3200 X0.0017 Y-0.8473 I-0.0043 J0.0749
N3205 G1 Z-0.22 F2.
N3210 G2 X0. Y-0.8461 I0.0433 J0.0612 F30.
N3215 X-0.0033 Y-0.8485 I-0.045 J0.06
N3220 G1 Z-0.14
N3225 G2 X-0.0493 Y-0.861 I-0.0417 J0.0624
N3230 X-0.1308 Y-0.8524 I0.0492 J0.861
N3235 X-0.1759 Y-0.8276 I0.0114 J0.0741
N3240 X-0.1771 Y-0.8282 I-0.0315 J0.0681
N3245 G1 Z-0.22 F2.
N3250 G2 X-0.2272 Y-0.8319 I-0.0303 J0.0686 F30.
N3255 X-0.3052 Y-0.8066 I0.2272 J0.8319
N3260 X-0.3442 Y-0.773 I0.0265 J0.0701
N3265 X-0.3952 Y-0.7665 I-0.0167 J0.0731
N3270 X-0.4662 Y-0.7255 I0.3952 J0.7665
N3275 X-0.4973 Y-0.6845 I0.0405 J0.0631
N3280 X-0.5459 Y-0.6676 I-0.0011 J0.075
N3285 X-0.6069 Y-0.6127 I0.546 J0.6676
N3290 X-0.6288 Y-0.5662 I0.0528 J0.0533
N3295 X-0.6728 Y-0.5395 I0.0145 J0.0736
N3300 X-0.721 Y-0.4732 I0.6728 J0.5395
N3305 X-0.7328 Y-0.4231 I0.0627 J0.0412
N3310 X-0.7376 Y-0.4208 I0.0295 J0.069
N3315 G1 Z-0.14
N3320 G2 X-0.7703 Y-0.3878 I0.0344 J0.0667
N3325 X-0.8036 Y-0.3129 I0.7703 J0.3878
N3330 X-0.8047 Y-0.2615 I0.0699 J0.0272
N3335 X-0.8341 Y-0.2192 I0.0432 J0.0613
N3340 X-0.8511 Y-0.139 I0.8341 J0.2192
N3345 X-0.8415 Y-0.0884 I0.074 J0.0121
N3350 X-0.8614 Y-0.041 I0.055 J0.051
N3355 Y0.041 I0.8614 J0.041
N3360 X-0.8481 Y0.0802 I0.0749 J-0.0036
N3365 G1 Z-0.22 F2.
N3370 G2 X-0.8423 Y0.0876 I0.0616 J-0.0428 F30.
N3375 G1 Z-0.14
N3380 G2 X-0.8415 Y0.0884 I0.0557 J-0.0502
N3385 X-0.8511 Y0.139 I0.0644 J0.0385
N3390 X-0.8341 Y0.2192 I0.8511 J-0.139
N3395 X-0.8078 Y0.2592 I0.0725 J-0.0191
N3400 G1 Z-0.22 F2.
N3405 G2 X-0.8047 Y0.2615 I0.0462 J-0.059 F30.
N3410 X-0.8036 Y0.3129 I0.071 J0.0242
N3415 X-0.7703 Y0.3878 I0.8036 J-0.3129
N3420 X-0.7328 Y0.4231 I0.067 J-0.0337
N3425 X-0.721 Y0.4732 I0.0745 J0.0089
N3430 X-0.6728 Y0.5395 I0.721 J-0.4732
N3435 X-0.6288 Y0.5662 I0.0585 J-0.0469
N3440 X-0.6069 Y0.6127 I0.0747 J-0.0067
N3445 X-0.5459 Y0.6676 I0.6069 J-0.6127
N3450 X-0.4973 Y0.6845 I0.0475 J-0.0581
N3455 X-0.4949 Y0.6912 I0.0717 J-0.0221
N3460 G1 Z-0.14
N3465 G2 X-0.4662 Y0.7255 I0.0693 J-0.0288
N3470 X-0.3952 Y0.7665 I0.4662 J-0.7255
N3475 X-0.3442 Y0.773 I0.0344 J-0.0667
N3480 X-0.3052 Y0.8066 I0.0655 J-0.0365
N3485 X-0.2272 Y0.8319 I0.3052 J-0.8066
N3490 X-0.1771 Y0.8282 I0.0198 J-0.0724
N3495 G1 Z-0.22 F2.
N3500 G2 X-0.1759 Y0.8276 I-0.0304 J-0.0686 F30.
N3505 X-0.171 Y0.8327 I0.0565 J-0.0493
N3510 G1 Z-0.14
N3515 G2 X-0.1308 Y0.8524 I0.0516 J-0.0545
N3520 X-0.0493 Y0.861 I0.1308 J-0.8524
N3525 X0. Y0.8461 I0.0043 J-0.0749
N3530 X0.0493 Y0.861 I0.045 J-0.06
N3535 X0.1308 Y0.8524 I-0.0492 J-0.861
N3540 X0.1751 Y0.8286 I-0.0114 J-0.0741
N3545 G1 Z-0.22 F2.
N3550 G2 X0.1759 Y0.8276 I-0.0557 J-0.0503 F30.
N3555 X0.2272 Y0.8319 I0.0315 J-0.0681
N3560 X0.3052 Y0.8066 I-0.2272 J-0.8319
N3565 X0.3442 Y0.773 I-0.0265 J-0.0701
N3570 X0.3952 Y0.7665 I0.0167 J-0.0731
N3575 X0.4662 Y0.7255 I-0.3952 J-0.7665
N3580 X0.4973 Y0.6845 I-0.0405 J-0.0631
N3585 X0.5459 Y0.6676 I0.0011 J-0.075
N3590 X0.6069 Y0.6127 I-0.546 J-0.6676
N3595 X0.6288 Y0.5662 I-0.0528 J-0.0533
N3600 X0.6357 Y0.5645 I-0.0145 J-0.0736
N3605 G1 Z-0.14
N3610 G2 X0.6728 Y0.5395 I-0.0214 J-0.0719
N3615 X0.721 Y0.4732 I-0.6728 J-0.5395
N3620 X0.7328 Y0.4231 I-0.0627 J-0.0412
N3625 X0.7703 Y0.3878 I-0.0295 J-0.069
N3630 X0.8036 Y0.3129 I-0.7703 J-0.3878
N3635 X0.8067 Y0.2683 I-0.0699 J-0.0272
N3640 G1 Z-0.22 F2.
N3645 G2 X0.8047 Y0.2615 I-0.0729 J0.0174 F30.
N3650 X0.8103 Y0.2571 I-0.0432 J-0.0613
N3655 G1 Z-0.14
N3660 G2 X0.8341 Y0.2192 I-0.0488 J-0.057
N3665 X0.8511 Y0.139 I-0.8341 J-0.2192
N3670 X0.7031 Y0.1148 I-0.074 J-0.0121
N3675 X0.8511 Y0.139 I0.074 J0.0121
N3680 X0.8415 Y0.0884 I-0.074 J-0.0121
N3685 X0.8614 Y0.041 I-0.055 J-0.051
N3690 X0.8624 Y0. I-0.8614 J-0.041
N3695 X0.8561 Y-0.0094 I-0.0102 J0.
N3700 G3 X0.8497 Y-0.0187 I0.0039 J-0.0096
N3705 G2 X0.8489 Y-0.0404 I-0.8497 J0.0187 F15.
N3710 X0.8292 Y-0.0831 I-0.0624 J0.003
N3715 G1 Z-0.22 F2.
N3720 G2 X0.825 Y-0.0867 I-0.0427 J0.0457 F15.
N3725 X0.8388 Y-0.137 I-0.0479 J-0.0402
N3730 X0.822 Y-0.216 I-0.8388 J0.137
N3735 X0.7889 Y-0.2563 I-0.0604 J0.0159
N3740 X0.792 Y-0.3084 I-0.0552 J-0.0294
N3745 X0.7591 Y-0.3822 I-0.792 J0.3084
N3750 X0.7184 Y-0.4148 I-0.0558 J0.0281
N3755 X0.7106 Y-0.4663 I-0.0601 J-0.0173
N3760 X0.6631 Y-0.5317 I-0.7106 J0.4663
N3765 X0.6164 Y-0.555 I-0.0488 J0.0391
N3770 X0.5981 Y-0.6038 I-0.0623 J-0.0044
N3775 X0.538 Y-0.6579 I-0.5981 J0.6038
N3780 X0.4935 Y-0.6718 I-0.0396 J0.0484
N3785 G1 Z-0.14
N3790 G2 X0.4876 Y-0.6711 I0.005 J0.0623
N3795 X0.4595 Y-0.715 I-0.0619 J0.0087
N3800 X0.3895 Y-0.7554 I-0.4595 J0.715
N3805 X0.342 Y-0.7594 I-0.0286 J0.0556
N3810 G1 Z-0.22 F2.
N3815 G2 X0.3415 Y-0.7593 I0.0188 J0.0596 F15.
N3820 G1 Z-0.14
N3825 G2 X0.3374 Y-0.7578 I0.0193 J0.0594
N3830 X0.3008 Y-0.7949 I-0.0587 J0.0213
N3835 X0.2239 Y-0.8199 I-0.3008 J0.7949
N3840 X0.175 Y-0.813 I-0.0165 J0.0603
N3845 G1 Z-0.22 F2.
N3850 G2 X0.1739 Y-0.8124 I0.0325 J0.0534 F15.
N3855 G1 Z-0.14
N3860 G2 X0.1725 Y-0.8114 I0.0335 J0.0528
N3865 X0.1289 Y-0.8401 I-0.053 J0.0331
N3870 X0.0485 Y-0.8485 I-0.1289 J0.8401
N3875 X0. Y-0.8295 I-0.0036 J0.0624
N3880 G1 X-0.0002 Y-0.8297
N3885 Z-0.22 F2.
N3890 G2 X-0.0014 Y-0.8309 I-0.0448 J0.0436 F15.
N3895 G1 Z-0.14
N3900 G2 X-0.0485 Y-0.8485 I-0.0436 J0.0448
N3905 X-0.1289 Y-0.8401 I0.0485 J0.8485
N3910 X-0.1725 Y-0.8114 I0.0095 J0.0618
N3915 X-0.1755 Y-0.8133 I-0.035 J0.0518
N3920 G1 Z-0.22 F2.
N3925 G2 X-0.2239 Y-0.8199 I-0.0319 J0.0537 F15.
N3930 X-0.3008 Y-0.7949 I0.2239 J0.8199
N3935 X-0.3374 Y-0.7578 I0.0221 J0.0585
N3940 X-0.3895 Y-0.7554 I-0.0234 J0.0579
N3945 X-0.4595 Y-0.715 I0.3895 J0.7554
N3950 X-0.4876 Y-0.6711 I0.0338 J0.0526
N3955 X-0.538 Y-0.6579 I-0.0109 J0.0615
N3960 X-0.5981 Y-0.6038 I0.538 J0.6579
N3965 X-0.6164 Y-0.555 I0.044 J0.0444
N3970 X-0.6631 Y-0.5317 I0.0021 J0.0625
N3975 X-0.7106 Y-0.4663 I0.663 J0.5317
N3980 X-0.7184 Y-0.4148 I0.0523 J0.0343
N3985 X-0.7218 Y-0.4138 I0.0151 J0.0607
N3990 G1 Z-0.14
N3995 G2 X-0.7591 Y-0.3822 I0.0185 J0.0597
N4000 X-0.792 Y-0.3084 I0.7591 J0.3822
N4005 X-0.7889 Y-0.2563 I0.0582 J0.0227
N4010 X-0.822 Y-0.216 I0.0274 J0.0562
N4015 X-0.8388 Y-0.137 I0.822 J0.216
N4020 X-0.825 Y-0.0867 I0.0617 J0.0101
N4025 X-0.8489 Y-0.0404 I0.0385 J0.0493
N4030 Y0.0404 I0.8489 J0.0404
N4035 X-0.832 Y0.0803 I0.0624 J-0.003
N4040 G1 Z-0.22 F2.
N4045 G2 X-0.8276 Y0.0845 I0.0455 J-0.0429 F15.
N4050 G1 Z-0.14
N4055 G2 X-0.825 Y0.0867 I0.0411 J-0.0471
N4060 X-0.8388 Y0.137 I0.0479 J0.0402
N4065 X-0.822 Y0.216 I0.8388 J-0.137
N4070 X-0.7905 Y0.2555 I0.0604 J-0.0159
N4075 G1 Z-0.22 F2.
N4080 G2 X-0.7889 Y0.2563 I0.0289 J-0.0554 F15.
N4085 X-0.792 Y0.3084 I0.0552 J0.0294
N4090 X-0.7591 Y0.3822 I0.792 J-0.3084
N4095 X-0.7184 Y0.4148 I0.0558 J-0.0281
N4100 X-0.7106 Y0.4663 I0.0601 J0.0173
N4105 X-0.6631 Y0.5317 I0.7106 J-0.4663
N4110 X-0.6164 Y0.555 I0.0488 J-0.0391
N4115 X-0.5981 Y0.6038 I0.0623 J0.0044
N4120 X-0.538 Y0.6579 I0.5981 J-0.6038
N4125 X-0.4876 Y0.6711 I0.0396 J-0.0484
N4130 X-0.4866 Y0.6765 I0.0619 J-0.0087
N4135 G1 Z-0.14
N4140 G2 X-0.4595 Y0.715 I0.0609 J-0.0141
N4145 X-0.3895 Y0.7554 I0.4595 J-0.715
N4150 X-0.3374 Y0.7578 I0.0286 J-0.0556
N4155 X-0.3008 Y0.7949 I0.0587 J-0.0213
N4160 X-0.2239 Y0.8199 I0.3008 J-0.7949
N4165 X-0.1725 Y0.8114 I0.0165 J-0.0603
N4170 X-0.1719 Y0.8123 I0.053 J-0.0331
N4175 G1 Z-0.22 F2.
N4180 G2 X-0.1693 Y0.8159 I0.0525 J-0.034 F15.
N4185 G1 Z-0.14
N4190 G2 X-0.1289 Y0.8401 I0.0499 J-0.0376
N4195 X-0.0485 Y0.8485 I0.1289 J-0.8401
N4200 X0. Y0.8295 I0.0036 J-0.0624
N4205 X0.0485 Y0.8485 I0.045 J-0.0434
N4210 X0.1289 Y0.8401 I-0.0485 J-0.8485
N4215 X0.1725 Y0.8114 I-0.0095 J-0.0618
N4220 X0.1734 Y0.812 I0.035 J-0.0518
N4225 G1 Z-0.22 F2.
N4230 G2 X0.2239 Y0.8199 I0.0341 J-0.0524 F15.
N4235 X0.3008 Y0.7949 I-0.2239 J-0.8199
N4240 X0.3374 Y0.7578 I-0.0221 J-0.0585
N4245 X0.3895 Y0.7554 I0.0234 J-0.0579
N4250 X0.4595 Y0.715 I-0.3895 J-0.7554
N4255 X0.4876 Y0.6711 I-0.0338 J-0.0526
N4260 X0.538 Y0.6579 I0.0109 J-0.0615
N4265 X0.5981 Y0.6038 I-0.538 J-0.6579
N4270 X0.6164 Y0.555 I-0.044 J-0.0444
N4275 X0.622 Y0.5546 I-0.0021 J-0.0625
N4280 G1 Z-0.14
N4285 G2 X0.6631 Y0.5317 I-0.0077 J-0.062
N4290 X0.7106 Y0.4663 I-0.663 J-0.5317
N4295 X0.7184 Y0.4148 I-0.0523 J-0.0343
N4300 X0.7591 Y0.3822 I-0.0151 J-0.0607
N4305 X0.792 Y0.3084 I-0.7591 J-0.3822
N4310 X0.7913 Y0.2613 I-0.0582 J-0.0227
N4315 G1 Z-0.22 F2.
N4320 G2 X0.7889 Y0.2563 I-0.0575 J0.0244 F15.
N4325 X0.7938 Y0.2537 I-0.0274 J-0.0562
N4330 G1 Z-0.14
N4335 G2 X0.822 Y0.216 I-0.0322 J-0.0536
N4340 X0.8388 Y0.137 I-0.822 J-0.216
N4345 X0.7154 Y0.1168 I-0.0617 J-0.0101
N4350 X0.8388 Y0.137 I0.0617 J0.0101
N4355 X0.825 Y0.0867 I-0.0617 J-0.0101
N4360 X0.8489 Y0.0404 I-0.0385 J-0.0493
N4365 Y-0.0404 I-0.8489 J-0.0404
N4370 X0.8292 Y-0.0831 I-0.0624 J0.003
N4375 G1 Z-0.22 F2.
N4380 G2 X0.825 Y-0.0867 I-0.0427 J0.0457 F15.
N4385 X0.8388 Y-0.137 I-0.0479 J-0.0402
N4390 X0.822 Y-0.216 I-0.8388 J0.137
N4395 X0.7889 Y-0.2563 I-0.0604 J0.0159
N4400 X0.792 Y-0.3084 I-0.0552 J-0.0294
N4405 X0.7591 Y-0.3822 I-0.792 J0.3084
N4410 X0.7184 Y-0.4148 I-0.0558 J0.0281
N4415 X0.7106 Y-0.4663 I-0.0601 J-0.0173
N4420 X0.6631 Y-0.5317 I-0.7106 J0.4663
N4425 X0.6164 Y-0.555 I-0.0488 J0.0391
N4430 X0.5981 Y-0.6038 I-0.0623 J-0.0044
N4435 X0.538 Y-0.6579 I-0.5981 J0.6038
N4440 X0.4935 Y-0.6718 I-0.0396 J0.0484
N4445 G1 Z-0.14
N4450 G2 X0.4876 Y-0.6711 I0.005 J0.0623
N4455 X0.4595 Y-0.715 I-0.0619 J0.0087
N4460 X0.3895 Y-0.7554 I-0.4595 J0.715
N4465 X0.342 Y-0.7594 I-0.0286 J0.0556
N4470 G1 Z-0.22 F2.
N4475 G2 X0.3415 Y-0.7593 I0.0188 J0.0596 F15.
N4480 G1 Z-0.14
N4485 G2 X0.3374 Y-0.7578 I0.0193 J0.0594
N4490 X0.3008 Y-0.7949 I-0.0587 J0.0213
N4495 X0.2239 Y-0.8199 I-0.3008 J0.7949
N4500 X0.175 Y-0.813 I-0.0165 J0.0603
N4505 G1 Z-0.22 F2.
N4510 G2 X0.1739 Y-0.8124 I0.0325 J0.0534 F15.
N4515 G1 Z-0.14
N4520 G2 X0.1725 Y-0.8114 I0.0335 J0.0528
N4525 X0.1289 Y-0.8401 I-0.053 J0.0331
N4530 X0.0485 Y-0.8485 I-0.1289 J0.8401
N4535 X0. Y-0.8295 I-0.0036 J0.0624
N4540 G1 X-0.0002 Y-0.8297
N4545 Z-0.22 F2.
N4550 G2 X-0.0014 Y-0.8309 I-0.0448 J0.0436 F15.
N4555 G1 Z-0.14
N4560 G2 X-0.0485 Y-0.8485 I-0.0436 J0.0448
N4565 X-0.1289 Y-0.8401 I0.0485 J0.8485
N4570 X-0.1725 Y-0.8114 I0.0095 J0.0618
N4575 X-0.1755 Y-0.8133 I-0.035 J0.0518
N4580 G1 Z-0.22 F2.
N4585 G2 X-0.2239 Y-0.8199 I-0.0319 J0.0537 F15.
N4590 X-0.3008 Y-0.7949 I0.2239 J0.8199
N4595 X-0.3374 Y-0.7578 I0.0221 J0.0585
N4600 X-0.3895 Y-0.7554 I-0.0234 J0.0579
N4605 X-0.4595 Y-0.715 I0.3895 J0.7554
N4610 X-0.4876 Y-0.6711 I0.0338 J0.0526
N4615 X-0.538 Y-0.6579 I-0.0109 J0.0615
N4620 X-0.5981 Y-0.6038 I0.538 J0.6579
N4625 X-0.6164 Y-0.555 I0.044 J0.0444
N4630 X-0.6631 Y-0.5317 I0.0021 J0.0625
N4635 X-0.7106 Y-0.4663 I0.663 J0.5317
N4640 X-0.7184 Y-0.4148 I0.0523 J0.0343
N4645 X-0.7218 Y-0.4138 I0.0151 J0.0607
N4650 G1 Z-0.14
N4655 G2 X-0.7591 Y-0.3822 I0.0185 J0.0597
N4660 X-0.792 Y-0.3084 I0.7591 J0.3822
N4665 X-0.7889 Y-0.2563 I0.0582 J0.0227
N4670 X-0.822 Y-0.216 I0.0274 J0.0562
N4675 X-0.8388 Y-0.137 I0.822 J0.216
N4680 X-0.825 Y-0.0867 I0.0617 J0.0101
N4685 X-0.8489 Y-0.0404 I0.0385 J0.0493
N4690 Y0.0404 I0.8489 J0.0404
N4695 X-0.832 Y0.0803 I0.0624 J-0.003
N4700 G1 Z-0.22 F2.
N4705 G2 X-0.8276 Y0.0845 I0.0455 J-0.0429 F15.
N4710 G1 Z-0.14
N4715 G2 X-0.825 Y0.0867 I0.0411 J-0.0471
N4720 X-0.8388 Y0.137 I0.0479 J0.0402
N4725 X-0.822 Y0.216 I0.8388 J-0.137
N4730 X-0.7905 Y0.2555 I0.0604 J-0.0159
N4735 G1 Z-0.22 F2.
N4740 G2 X-0.7889 Y0.2563 I0.0289 J-0.0554 F15.
N4745 X-0.792 Y0.3084 I0.0552 J0.0294
N4750 X-0.7591 Y0.3822 I0.792 J-0.3084
N4755 X-0.7184 Y0.4148 I0.0558 J-0.0281
N4760 X-0.7106 Y0.4663 I0.0601 J0.0173
N4765 X-0.6631 Y0.5317 I0.7106 J-0.4663
N4770 X-0.6164 Y0.555 I0.0488 J-0.0391
N4775 X-0.5981 Y0.6038 I0.0623 J0.0044
N4780 X-0.538 Y0.6579 I0.5981 J-0.6038
N4785 X-0.4876 Y0.6711 I0.0396 J-0.0484
N4790 X-0.4866 Y0.6765 I0.0619 J-0.0087
N4795 G1 Z-0.14
N4800 G2 X-0.4595 Y0.715 I0.0609 J-0.0141
N4805 X-0.3895 Y0.7554 I0.4595 J-0.715
N4810 X-0.3374 Y0.7578 I0.0286 J-0.0556
N4815 X-0.3008 Y0.7949 I0.0587 J-0.0213
N4820 X-0.2239 Y0.8199 I0.3008 J-0.7949
N4825 X-0.1725 Y0.8114 I0.0165 J-0.0603
N4830 X-0.1719 Y0.8123 I0.053 J-0.0331
N4835 G1 Z-0.22 F2.
N4840 G2 X-0.1693 Y0.8159 I0.0525 J-0.034 F15.
N4845 G1 Z-0.14
N4850 G2 X-0.1289 Y0.8401 I0.0499 J-0.0376
N4855 X-0.0485 Y0.8485 I0.1289 J-0.8401
N4860 X0. Y0.8295 I0.0036 J-0.0624
N4865 X0.0485 Y0.8485 I0.045 J-0.0434
N4870 X0.1289 Y0.8401 I-0.0485 J-0.8485
N4875 X0.1725 Y0.8114 I-0.0095 J-0.0618
N4880 X0.1734 Y0.812 I0.035 J-0.0518
N4885 G1 Z-0.22 F2.
N4890 G2 X0.2239 Y0.8199 I0.0341 J-0.0524 F15.
N4895 X0.3008 Y0.7949 I-0.2239 J-0.8199
N4900 X0.3374 Y0.7578 I-0.0221 J-0.0585
N4905 X0.3895 Y0.7554 I0.0234 J-0.0579
N4910 X0.4595 Y0.715 I-0.3895 J-0.7554
N4915 X0.4876 Y0.6711 I-0.0338 J-0.0526
N4920 X0.538 Y0.6579 I0.0109 J-0.0615
N4925 X0.5981 Y0.6038 I-0.538 J-0.6579
N4930 X0.6164 Y0.555 I-0.044 J-0.0444
N4935 X0.622 Y0.5546 I-0.0021 J-0.0625
N4940 G1 Z-0.14
N4945 G2 X0.6631 Y0.5317 I-0.0077 J-0.062
N4950 X0.7106 Y0.4663 I-0.663 J-0.5317
N4955 X0.7184 Y0.4148 I-0.0523 J-0.0343
N4960 X0.7591 Y0.3822 I-0.0151 J-0.0607
N4965 X0.792 Y0.3084 I-0.7591 J-0.3822
N4970 X0.7913 Y0.2613 I-0.0582 J-0.0227
N4975 G1 Z-0.22 F2.
N4980 G2 X0.7889 Y0.2563 I-0.0575 J0.0244 F15.
N4985 X0.7938 Y0.2537 I-0.0274 J-0.0562
N4990 G1 Z-0.14
N4995 G2 X0.822 Y0.216 I-0.0322 J-0.0536
N5000 X0.8388 Y0.137 I-0.822 J-0.216
N5005 X0.7154 Y0.1168 I-0.0617 J-0.0101
N5010 X0.8388 Y0.137 I0.0617 J0.0101
N5015 X0.825 Y0.0867 I-0.0617 J-0.0101
N5020 X0.8489 Y0.0404 I-0.0385 J-0.0493
N5025 X0.8497 Y-0.0187 I-0.8489 J-0.0404
N5030 G3 X0.8619 Y-0.0315 I0.0125 J-0.0003 F20.
N5035 G1 X0.8869 Y-0.0321
N5040 G0 Z0.6
N5050 M9
N5055 G53 Z0.
N5060 M30
%
