%
(1001)
(18 END MILL)
(T2  D=0.125 CR=0. - ZMIN=-0.22 - FLAT END MILL)
N10 G90 G94 G17 G91.1
N15 G20
N20 G53 G0 Z0.
(BORE2 18)
N25 M9
N30 T2 M6
N35 S800 M3
N40 G54
N45 M8
N55 G0 X-0.0003 Y-0.006
N60 G43 Z0.6 H2
N65 G0 Z0.0675
N70 G1 Z0. F10.
N75 X0.006
N80 G3 X0.012 Y0. I0. J0.006
N85 X-0.012 Z-0.0197 I-0.012 J0. F20.
N90 X0.012 Z-0.0394 I0.012 J0.
N95 X-0.012 Z-0.0591 I-0.012 J0.
N100 X0.012 Z-0.0787 I0.012 J0.
N105 X-0.012 Z-0.0984 I-0.012 J0.
N110 X0.012 Z-0.1181 I0.012 J0.
N115 X-0.012 Z-0.1378 I-0.012 J0.
N120 X0.012 I0.012 J0.
N125 X-0.012 I-0.012 J0.
N130 X-0.006 Y-0.006 I0.006 J0. F10.
N135 G1 X0.0003
N140 G0 Z0.2
N145 X0.0007 Y-0.0125
N150 Z-0.0578
N155 G1 Z-0.1253 F10.
N160 G18 G2 X0.0132 Z-0.1378 I0.0125 K0.
N165 G1 X0.0195
N170 G17 G3 X0.032 Y0. I0. J0.0125
N175 X-0.032 I-0.032 J0. F20.
N180 X0.032 I0.032 J0.
N185 X0.0195 Y0.0125 I-0.0125 J0. F10.
N190 G1 X0.0132
N195 G18 G3 X0.0007 Z-0.1253 I0. K0.0125
N200 G0 Z0.2
N205 Y-0.0125
N210 Z-0.0578
N215 G1 Z-0.1253 F10.
N220 G2 X0.0132 Z-0.1378 I0.0125 K0.
N225 G1 X0.0195
N230 G17 G3 X0.032 Y0. I0. J0.0125
N235 X-0.032 I-0.032 J0. F20.
N240 X0.032 I0.032 J0.
N245 X0.0195 Y0.0125 I-0.0125 J0. F10.
N250 G1 X0.0132
N255 G18 G3 X0.0007 Z-0.1253 I0. K0.0125
N260 G0 Z0.6
N265 G17
(2D CONTOUR2)
N270 M8
N275 G0 X-0.0055 Y-0.0125
N280 Z0.6
N285 Z0.2
N290 G1 Z0.0394 F10.
N295 Z-0.1253 F2.
N300 G18 G2 X0.007 Z-0.1378 I0.0125 K0.
N305 G1 X0.0195 F10.
N310 G17 G3 X0.032 Y0. I0. J0.0125
N315 X-0.032 I-0.032 J0. F20.
N320 X0.032 I0.032 J0.
N325 X0.0195 Y0.0125 I-0.0125 J0. F10.
N330 G1 X0.007
N335 G18 G3 X-0.0055 Z-0.1253 I0. K0.0125
N340 G0 Z0.6
N345 G17
(2D ADAPTIVE1 18)
N350 M8
N355 G0 X-0.0829 Y0.4554
N360 Z0.25
N365 Z0.1004
N370 G1 Z0.1 F10.
N375 G3 X0.029 Y0.4158 Z0.0935 I0.056 J-0.0198 F20.
N380 X-0.0829 Y0.4554 Z0.087 I-0.056 J0.0198
N385 X0.029 Y0.4158 Z0.0805 I0.056 J-0.0198
N390 X-0.0829 Y0.4554 Z0.0739 I-0.056 J0.0198
N395 X0.029 Y0.4158 Z0.0674 I0.056 J-0.0198
N400 X-0.0829 Y0.4554 Z0.0609 I-0.056 J0.0198
N405 X0.029 Y0.4158 Z0.0544 I0.056 J-0.0198
N410 X-0.0829 Y0.4554 Z0.0479 I-0.056 J0.0198
N415 X0.029 Y0.4158 Z0.0414 I0.056 J-0.0198
N420 X-0.0829 Y0.4554 Z0.0349 I-0.056 J0.0198
N425 X0.029 Y0.4158 Z0.0283 I0.056 J-0.0198
N430 X-0.0829 Y0.4554 Z0.0218 I-0.056 J0.0198
N435 X0.029 Y0.4158 Z0.0153 I0.056 J-0.0198
N440 X-0.0829 Y0.4554 Z0.0088 I-0.056 J0.0198
N445 X0.029 Y0.4158 Z0.0023 I0.056 J-0.0198
N450 X-0.0829 Y0.4554 Z-0.0042 I-0.056 J0.0198
N455 X0.029 Y0.4158 Z-0.0107 I0.056 J-0.0198
N460 X-0.0829 Y0.4554 Z-0.0172 I-0.056 J0.0198
N465 X0.029 Y0.4158 Z-0.0238 I0.056 J-0.0198
N470 X-0.0829 Y0.4554 Z-0.0303 I-0.056 J0.0198
N475 X0.029 Y0.4158 Z-0.0368 I0.056 J-0.0198
N480 X-0.0829 Y0.4554 Z-0.0433 I-0.056 J0.0198
N485 X0.029 Y0.4158 Z-0.0498 I0.056 J-0.0198
N490 X-0.0829 Y0.4554 Z-0.0563 I-0.056 J0.0198
N495 X0.029 Y0.4158 Z-0.0628 I0.056 J-0.0198
N500 X-0.0829 Y0.4554 Z-0.0694 I-0.056 J0.0198
N505 X0.029 Y0.4158 Z-0.0759 I0.056 J-0.0198
N510 X-0.0829 Y0.4554 Z-0.0824 I-0.056 J0.0198
N515 X0.029 Y0.4158 Z-0.0889 I0.056 J-0.0198
N520 X0.0324 Y0.4356 Z-0.0896 I-0.056 J0.0198
N525 X-0.0863 I-0.0594 J0.
N530 X0.0324 I0.0594 J0.
N535 G1 X0.0331 Y0.4611 F30.
N540 X0.0342 Y0.464
N545 X0.0356 Y0.4699
N550 X0.0357 Y0.4759
N555 X0.0347 Y0.4818
N560 X0.033 Y0.4876
N565 X0.0305 Y0.493
N570 X0.0274 Y0.4982
N575 X0.0237 Y0.5029
N580 X0.0196 Y0.5073
N585 X0.0151 Y0.5113
N590 X0.0103 Y0.5148
N595 X0.0052 Y0.5179
N600 X-0.0002 Y0.5206
N605 X-0.0059 Y0.5228
N610 X-0.0118 Y0.5246
N615 X-0.0181 Y0.526
N620 X-0.0245 Y0.5269
N625 X-0.0311 Y0.5272
N630 X-0.0378 Y0.5271
N635 X-0.0446 Y0.5264
N640 X-0.0514 Y0.5251
N645 X-0.0582 Y0.5233
N650 X-0.0648 Y0.5209
N655 X-0.0713 Y0.5179
N660 X-0.0776 Y0.5144
N665 X-0.0836 Y0.5104
N670 X-0.0894 Y0.5059
N675 X-0.0948 Y0.5009
N680 X-0.0997 Y0.4955
N685 X-0.1043 Y0.4896
N690 X-0.1084 Y0.4834
N695 X-0.112 Y0.4769
N700 X-0.115 Y0.4701
N705 X-0.1175 Y0.463
N710 X-0.1195 Y0.4557
N715 X-0.1208 Y0.4483
N720 X-0.1216 Y0.4408
N725 X-0.1217 Y0.4333
N730 X-0.1213 Y0.4257
N735 X-0.1202 Y0.4182
N740 X-0.1186 Y0.4108
N745 X-0.1163 Y0.4036
N750 X-0.1135 Y0.3965
N755 X-0.1101 Y0.3897
N760 X-0.1062 Y0.3832
N765 X-0.1017 Y0.377
N770 X-0.0968 Y0.3712
N775 X-0.0914 Y0.3658
N780 X-0.0856 Y0.3609
N785 X-0.0795 Y0.3564
N790 X-0.0729 Y0.3524
N795 X-0.0661 Y0.349
N800 X-0.0591 Y0.3461
N805 X-0.0518 Y0.3438
N810 X-0.0444 Y0.3421
N815 X-0.0368 Y0.341
N820 X-0.0292 Y0.3406
N825 X-0.0216 Y0.3407
N830 X-0.014 Y0.3414
N835 X-0.0064 Y0.3428
N840 X0.0009 Y0.3447
N845 X0.0081 Y0.3472
N850 X0.0151 Y0.3503
N855 X0.0218 Y0.354
N860 X0.0282 Y0.3581
N865 X0.0343 Y0.3628
N870 X0.0399 Y0.368
N875 X0.0451 Y0.3735
N880 X0.0499 Y0.3795
N885 X0.0541 Y0.3859
N890 X0.0583 Y0.3934
N895 X0.0646 Y0.4072
N900 X0.0698 Y0.4214
N905 X0.0729 Y0.4326
N910 X0.0748 Y0.4426
N915 X0.0758 Y0.4521
N920 X0.0761 Y0.4611
N925 X0.0757 Y0.4696
N930 X0.0746 Y0.4778
N935 X0.0728 Y0.4858
N940 X0.0705 Y0.4937
N945 X0.0675 Y0.5013
N950 X0.0639 Y0.5087
N955 X0.0597 Y0.5158
N960 X0.0549 Y0.5226
N965 X0.0495 Y0.529
N970 X0.0436 Y0.5351
N975 X0.0371 Y0.5407
N980 X0.0301 Y0.5458
N985 X0.0226 Y0.5505
N990 X0.0146 Y0.5546
N995 X0.0062 Y0.5581
N1000 X-0.0025 Y0.5609
N1005 X-0.0116 Y0.5631
N1010 X-0.021 Y0.5645
N1015 X-0.0305 Y0.5652
N1020 X-0.0402 Y0.5651
N1025 X-0.05 Y0.5643
N1030 X-0.0597 Y0.5626
N1035 X-0.0694 Y0.5602
N1040 X-0.0789 Y0.5569
N1045 X-0.0882 Y0.5529
N1050 X-0.0972 Y0.5481
N1055 X-0.1058 Y0.5425
N1060 X-0.114 Y0.5363
N1065 X-0.1217 Y0.5294
N1070 X-0.1289 Y0.5218
N1075 X-0.1355 Y0.5137
N1080 X-0.1414 Y0.505
N1085 X-0.1466 Y0.4958
N1090 X-0.1511 Y0.4863
N1095 X-0.1548 Y0.4763
N1100 X-0.1577 Y0.4661
N1105 X-0.1598 Y0.4557
N1110 X-0.1611 Y0.4451
N1115 X-0.1614 Y0.4344
N1120 X-0.161 Y0.4237
N1125 X-0.1596 Y0.413
N1130 X-0.1575 Y0.4025
N1135 X-0.1544 Y0.3922
N1140 X-0.1506 Y0.3821
N1145 X-0.1459 Y0.3724
N1150 X-0.1405 Y0.3631
N1155 X-0.1344 Y0.3542
N1160 X-0.1275 Y0.3458
N1165 X-0.12 Y0.3381
N1170 X-0.1119 Y0.3309
N1175 X-0.1033 Y0.3244
N1180 X-0.0941 Y0.3187
N1185 X-0.0846 Y0.3136
N1190 X-0.0746 Y0.3094
N1195 X-0.0643 Y0.306
N1200 X-0.0538 Y0.3034
N1205 X-0.0431 Y0.3017
N1210 X-0.0323 Y0.3008
N1215 X-0.0215
N1220 X-0.0107 Y0.3017
N1225 X0. Y0.3034
N1230 X0.0105 Y0.306
N1235 X0.0208 Y0.3094
N1240 X0.0307 Y0.3136
N1245 X0.0404 Y0.3186
N1250 X0.0495 Y0.3244
N1255 X0.0582 Y0.3309
N1260 X0.0665 Y0.3382
N1265 X0.0751 Y0.3472
N1270 X0.0836 Y0.3575
N1275 X0.0914 Y0.3687
N1280 X0.0985 Y0.3809
N1285 X0.1045 Y0.3935
N1290 X0.1094 Y0.4062
N1295 X0.1131 Y0.4189
N1300 X0.1157 Y0.4314
N1305 X0.1173 Y0.4439
N1310 X0.1178 Y0.4562
N1315 X0.1174 Y0.4684
N1320 X0.116 Y0.4803
N1325 X0.1136 Y0.4921
N1330 X0.1104 Y0.5035
N1335 X0.1063 Y0.5146
N1340 X0.1013 Y0.5252
N1345 X0.0954 Y0.5355
N1350 X0.0888 Y0.5453
N1355 X0.0813 Y0.5546
N1360 X0.0731 Y0.5632
N1365 X0.0641 Y0.5713
N1370 X0.0544 Y0.5786
N1375 X0.0442 Y0.5853
N1380 X0.0333 Y0.5911
N1385 X0.0219 Y0.596
N1390 X0.01 Y0.6001
N1395 X-0.0023 Y0.6032
N1400 X-0.0149 Y0.6054
N1405 X-0.0277 Y0.6065
N1410 X-0.0407 Y0.6066
N1415 X-0.0537 Y0.6057
N1420 X-0.0667 Y0.6037
N1425 X-0.0796 Y0.6007
N1430 X-0.0923 Y0.5966
N1435 X-0.1046 Y0.5914
N1440 X-0.1166 Y0.5853
N1445 X-0.1282 Y0.5782
N1450 X-0.1391 Y0.5701
N1455 X-0.1495 Y0.5611
N1460 X-0.1591 Y0.5513
N1465 X-0.1679 Y0.5407
N1470 X-0.1759 Y0.5294
N1475 X-0.183 Y0.5175
N1480 X-0.1891 Y0.505
N1485 X-0.1942 Y0.492
N1490 X-0.1982 Y0.4786
N1495 X-0.2012 Y0.4649
N1500 X-0.2031 Y0.451
N1505 X-0.2038 Y0.4369
N1510 X-0.2034 Y0.4228
N1515 X-0.2019 Y0.4088
N1520 X-0.1993 Y0.3949
N1525 X-0.1955 Y0.3812
N1530 X-0.1907 Y0.3679
N1535 X-0.1848 Y0.3551
N1540 X-0.1779 Y0.3427
N1545 X-0.17 Y0.3309
N1550 X-0.1611 Y0.3198
N1555 X-0.1515 Y0.3094
N1560 X-0.141 Y0.2998
N1565 X-0.1297 Y0.2911
N1570 X-0.1178 Y0.2833
N1575 X-0.1053 Y0.2765
N1580 X-0.0923 Y0.2707
N1585 X-0.0789 Y0.266
N1590 X-0.0651 Y0.2624
N1595 X-0.0511 Y0.2598
N1600 X-0.037 Y0.2585
N1605 X-0.0227 Y0.2582
N1610 X-0.0085 Y0.2591
N1615 X0.0056 Y0.2612
N1620 X0.0195 Y0.2643
N1625 X0.0331 Y0.2686
N1630 X0.0463 Y0.274
N1635 X0.059 Y0.2804
N1640 X0.0716 Y0.288
N1645 X0.0839 Y0.2969
N1650 X0.0958 Y0.3071
N1655 X0.1072 Y0.3185
N1660 X0.1178 Y0.331
N1665 X0.1275 Y0.3445
N1670 X0.1361 Y0.3587
N1675 X0.1435 Y0.3735
N1680 X0.1497 Y0.3888
N1685 X0.1545 Y0.4044
N1690 X0.1581 Y0.4201
N1695 X0.1603 Y0.436
N1700 X0.1613 Y0.4518
N1705 X0.161 Y0.4675
N1710 X0.1594 Y0.4831
N1715 X0.1566 Y0.4984
N1720 X0.1527 Y0.5134
N1725 X0.1475 Y0.5279
N1730 X0.1412 Y0.542
N1735 X0.1338 Y0.5555
N1740 X0.1253 Y0.5684
N1745 X0.1158 Y0.5806
N1750 X0.1053 Y0.5921
N1755 X0.0938 Y0.6027
N1760 X0.0815 Y0.6124
N1765 X0.0684 Y0.6211
N1770 X0.0545 Y0.6288
N1775 X0.0455 Y0.6329
N1780 X0.0417 Y0.6344
N1785 X0.0376 Y0.6352
N1790 X0.0335 Y0.6355
N1795 X-0.0376
N1800 X-0.0434 Y0.6352
N1805 X-0.0589 Y0.6338
N1810 X-0.1013 Y0.6275
N1815 X-0.1146 Y0.6248
N1820 X-0.1244 Y0.6219
N1825 X-0.1351 Y0.6179
N1830 X-0.1463 Y0.6126
N1835 X-0.1573 Y0.6063
N1840 X-0.1685 Y0.5986
N1845 X-0.1797 Y0.5896
N1850 X-0.1906 Y0.5792
N1855 X-0.2009 Y0.5676
N1860 X-0.2106 Y0.5548
N1865 X-0.2194 Y0.541
N1870 X-0.2271 Y0.5264
N1875 X-0.2338 Y0.511
N1880 X-0.2392 Y0.4949
N1885 X-0.2434 Y0.4783
N1890 X-0.2463 Y0.4612
N1895 X-0.2478 Y0.4439
N1900 Y0.4265
N1905 X-0.2465 Y0.409
N1910 X-0.2438 Y0.3917
N1915 X-0.2397 Y0.3745
N1920 X-0.2342 Y0.3577
N1925 X-0.2274 Y0.3414
N1930 X-0.2193 Y0.3257
N1935 X-0.2099 Y0.3106
N1940 X-0.1993 Y0.2964
N1945 X-0.1877 Y0.283
N1950 X-0.1749 Y0.2706
N1955 X-0.1613 Y0.2593
N1960 X-0.1467 Y0.2491
N1965 X-0.1314 Y0.2401
N1970 X-0.1154 Y0.2323
N1975 X-0.0988 Y0.2259
N1980 X-0.0916 Y0.2237
N1985 X-0.0861 Y0.2226
N1990 X-0.0805
N1995 X-0.075 Y0.2236
N2000 X-0.055 Y0.2295
N2005 X-0.037 Y0.2344
N2010 X-0.0318 Y0.2352
N2015 X-0.026 Y0.2356
N2020 X-0.0203 Y0.2357
N2025 X0.0203
N2030 X0.026 Y0.2356
N2035 X0.032
N2040 X0.0413 Y0.2364
N2045 X0.051 Y0.2381
N2050 X0.0619 Y0.2409
N2055 X0.073 Y0.2447
N2060 X0.0849 Y0.2498
N2065 X0.0975 Y0.2566
N2070 X0.1105 Y0.2649
N2075 X0.1229 Y0.2744
N2080 X0.1355 Y0.2856
N2085 X0.1476 Y0.2985
N2090 X0.1592 Y0.3128
N2095 X0.1698 Y0.3284
N2100 X0.1793 Y0.345
N2105 X0.1874 Y0.3625
N2110 X0.1942 Y0.3807
N2115 X0.1995 Y0.3993
N2120 X0.2033 Y0.4183
N2125 X0.2055 Y0.4376
N2130 X0.2062 Y0.4568
N2135 X0.2053 Y0.4761
N2140 X0.2029 Y0.4951
N2145 X0.199 Y0.5138
N2150 X0.1936 Y0.5322
N2155 X0.1868 Y0.55
N2160 X0.1786 Y0.5672
N2165 X0.169 Y0.5837
N2170 X0.1581 Y0.5994
N2175 X0.1459 Y0.6142
N2180 X0.1454 Y0.6147
N2185 X0.1405 Y0.6188
N2190 X0.1349 Y0.6217
N2195 X0.1288 Y0.6233
N2200 X0.0589 Y0.6338
N2205 X0.0434 Y0.6352
N2210 X0.0376 Y0.6355
N2215 X0.0335
N2220 X0.0286 Y0.6352 F10.
N2225 X-0.0964 Y0.6277 F30.
N2230 X-0.1013 Y0.6275 F10.
N2235 X-0.136 Y0.6222 F30.
N2240 X-0.1418 Y0.6208
N2245 X-0.1577 Y0.6165
N2250 X-0.1939 Y0.6053
N2255 X-0.2027 Y0.6021
N2260 X-0.209 Y0.5992
N2265 X-0.2161 Y0.5952
N2270 X-0.2231 Y0.5905
N2275 X-0.231 Y0.5842
N2280 X-0.2387 Y0.5771
N2285 X-0.2468 Y0.5682
N2290 X-0.2551 Y0.5576
N2295 X-0.2626 Y0.546
N2300 X-0.2699 Y0.5325
N2305 X-0.2767 Y0.5173
N2310 X-0.2826 Y0.5006
N2315 X-0.2872 Y0.4829
N2320 X-0.2905 Y0.4645
N2325 X-0.2924 Y0.4452
N2330 X-0.2927 Y0.4252
N2335 X-0.2914 Y0.4049
N2340 X-0.2885 Y0.3845
N2345 X-0.2838 Y0.3641
N2350 X-0.2775 Y0.3441
N2355 X-0.2696 Y0.3245
N2360 X-0.26 Y0.3055
N2365 X-0.249 Y0.2873
N2370 X-0.2365 Y0.2701
N2375 X-0.2226 Y0.2538
N2380 X-0.2075 Y0.2387
N2385 X-0.1912 Y0.2249
N2390 X-0.1738 Y0.2124
N2395 X-0.1557 Y0.2015
N2400 X-0.1518 Y0.1996
N2405 X-0.1447 Y0.1971
N2410 X-0.1372 Y0.1965
N2415 X-0.1298 Y0.1979
N2420 X-0.123 Y0.2011
N2425 X-0.1129 Y0.2077
N2430 X-0.1071 Y0.2113
N2435 X-0.1013 Y0.2146
N2440 X-0.0955 Y0.2172
N2445 X-0.0897 Y0.2193
N2450 X-0.075 Y0.2236
N2455 G3 X-0.0708 Y0.2261 I-0.0039 J0.0119 F10.
N2460 X-0.067 Y0.2392 I-0.0082 J0.0095 F30.
N2465 G1 X-0.1787 Y0.5969
N2470 G3 X-0.189 Y0.6056 I-0.0119 J-0.0037
N2475 X-0.1939 Y0.6053 I-0.0016 J-0.0124 F10.
N2480 G1 X-0.214 Y0.5991 F30.
N2485 X-0.2171 Y0.5981
N2490 X-0.2344 Y0.5923
N2495 X-0.2402 Y0.5897
N2500 X-0.2688 Y0.5759
N2505 X-0.2741 Y0.5731
N2510 X-0.28 Y0.5689
N2515 X-0.2858 Y0.5641
N2520 X-0.2923 Y0.5577
N2525 X-0.2985 Y0.5507
N2530 X-0.3053 Y0.5415
N2535 X-0.3115 Y0.5315
N2540 X-0.3178 Y0.5193
N2545 X-0.3237 Y0.5052
N2550 X-0.3286 Y0.4902
N2555 X-0.3328 Y0.4728
N2560 X-0.3358 Y0.4535
N2565 X-0.3374 Y0.4327
N2570 X-0.3373 Y0.4113
N2575 X-0.3354 Y0.3894
N2580 X-0.3316 Y0.3667
N2585 X-0.3258 Y0.3438
N2590 X-0.3181 Y0.3209
N2595 X-0.3084 Y0.2985
N2600 X-0.2969 Y0.2767
N2605 X-0.2835 Y0.2557
N2610 X-0.2685 Y0.2359
N2615 X-0.2518 Y0.2172
N2620 X-0.2337 Y0.1999
N2625 X-0.216 Y0.1856
N2630 X-0.2037 Y0.1771
N2635 X-0.1945 Y0.1718
N2640 X-0.1911 Y0.1702
N2645 X-0.1827 Y0.1678
N2650 X-0.1738 Y0.1681
N2655 X-0.1655 Y0.1711
N2660 X-0.1586 Y0.1765
N2665 X-0.1534 Y0.1811
N2670 X-0.1519 Y0.1823
N2675 X-0.1476 Y0.1853
N2680 X-0.123 Y0.2011
N2685 G3 X-0.1196 Y0.2046 I-0.0071 J0.0103 F10.
N2690 X-0.1185 Y0.2158 I-0.0105 J0.0068 F30.
N2695 G1 X-0.2521 Y0.5689
N2700 G3 X-0.2641 Y0.577 I-0.0117 J-0.0044
N2705 X-0.2688 Y0.5759 I0.0003 J-0.0125 F10.
N2710 G1 X-0.3097 Y0.5563 F30.
N2715 X-0.3155 Y0.5534
N2720 X-0.3213 Y0.5501
N2725 X-0.3336 Y0.5409
N2730 X-0.3386 Y0.5366
N2735 X-0.3438 Y0.5312
N2740 X-0.3494 Y0.5245
N2745 X-0.3547 Y0.5169
N2750 X-0.3603 Y0.5073
N2755 X-0.3654 Y0.4967
N2760 X-0.3704 Y0.4838
N2765 X-0.3749 Y0.469
N2770 X-0.3783 Y0.4529
N2775 X-0.3807 Y0.4342
N2780 X-0.3817 Y0.4132
N2785 X-0.381 Y0.3912
N2790 X-0.3784 Y0.3683
N2795 X-0.3737 Y0.3439
N2800 X-0.3668 Y0.3194
N2805 X-0.358 Y0.2954
N2810 X-0.3475 Y0.2722
N2815 X-0.3353 Y0.2499
N2820 X-0.3215 Y0.2284
N2825 X-0.3063 Y0.208
N2830 X-0.2896 Y0.1888
N2835 X-0.2718 Y0.171
N2840 X-0.2561 Y0.1578
N2845 X-0.2449 Y0.1497
N2850 X-0.2351 Y0.1438
N2855 X-0.2272 Y0.1399
N2860 X-0.2186 Y0.1365
N2865 X-0.2171 Y0.136
N2870 X-0.2086 Y0.1347
N2875 X-0.2001 Y0.1359
N2880 X-0.1923 Y0.1395
N2885 X-0.186 Y0.1452
N2890 X-0.184 Y0.1476
N2895 X-0.1639 Y0.1708
N2900 X-0.1586 Y0.1765
N2905 G3 X-0.1562 Y0.1808 I-0.0095 J0.0082 F10.
N2910 X-0.1565 Y0.1895 I-0.0119 J0.0039 F30.
N2915 G1 X-0.304 Y0.5438
N2920 G3 X-0.3166 Y0.5515 I-0.0115 J-0.0048
N2925 X-0.3213 Y0.5501 I0.001 J-0.0125 F10.
N2930 G1 X-0.327 Y0.5462 F30.
N2935 X-0.3769 Y0.5123
N2940 X-0.3833 Y0.5074
N2945 X-0.3877 Y0.5034
N2950 X-0.3922 Y0.4987
N2955 X-0.3968 Y0.493
N2960 X-0.4017 Y0.4859
N2965 X-0.4062 Y0.4781
N2970 X-0.4109 Y0.468
N2975 X-0.415 Y0.4572
N2980 X-0.4189 Y0.4434
N2985 X-0.4218 Y0.429
N2990 X-0.4239 Y0.4117
N2995 X-0.4247 Y0.3915
N3000 X-0.4238 Y0.371
N3005 X-0.4209 Y0.3476
N3010 X-0.4158 Y0.3226
N3015 X-0.4087 Y0.2981
N3020 X-0.3998 Y0.2742
N3025 X-0.3894 Y0.251
N3030 X-0.3774 Y0.2285
N3035 X-0.364 Y0.2068
N3040 X-0.3492 Y0.1861
N3045 X-0.333 Y0.1664
N3050 X-0.3156 Y0.1478
N3055 X-0.2999 Y0.1335
N3060 X-0.2853 Y0.1222
N3065 X-0.2736 Y0.1145
N3070 X-0.263 Y0.1087
N3075 X-0.2545 Y0.1048
N3080 X-0.2463 Y0.102
N3085 X-0.2383 Y0.0998
N3090 X-0.2376 Y0.0997
N3095 X-0.2301 Y0.0993
N3100 X-0.2227 Y0.1009
N3105 X-0.2159 Y0.1043
N3110 X-0.2103 Y0.1094
N3115 X-0.2061 Y0.1157
N3120 X-0.201 Y0.1264
N3125 X-0.2004 Y0.1274
N3130 X-0.1997 Y0.1283
N3135 X-0.1869 Y0.1441
N3140 X-0.186 Y0.1452
N3145 G3 X-0.1838 Y0.1496 I-0.0099 J0.0076 F10.
N3150 X-0.1847 Y0.1585 I-0.0121 J0.0033 F30.
N3155 G1 X-0.359 Y0.5073
N3160 G3 X-0.3723 Y0.514 I-0.0112 J-0.0056
N3165 X-0.3769 Y0.5123 I0.0021 J-0.0123 F10.
N3170 G1 X-0.3907 Y0.5028 F30.
N3175 X-0.3936 Y0.5007
N3180 X-0.4023 Y0.4934
N3185 X-0.4072 Y0.4891
N3190 X-0.4312 Y0.4669
N3195 X-0.4369 Y0.461
N3200 X-0.441 Y0.4561
N3205 X-0.4449 Y0.4505
N3210 X-0.4492 Y0.4433
N3215 X-0.453 Y0.4354
N3220 X-0.4568 Y0.4256
N3225 X-0.4601 Y0.4147
N3230 X-0.4629 Y0.4014
N3235 X-0.4648 Y0.3868
N3240 X-0.4657 Y0.3688
N3245 X-0.4651 Y0.3501
N3250 X-0.4627 Y0.3282
N3255 X-0.4579 Y0.3037
N3260 X-0.4511 Y0.2791
N3265 X-0.4425 Y0.2551
N3270 X-0.4323 Y0.2318
N3275 X-0.4207 Y0.2091
N3280 X-0.4077 Y0.1872
N3285 X-0.3934 Y0.1661
N3290 X-0.3778 Y0.146
N3295 X-0.361 Y0.1268
N3300 X-0.343 Y0.109
N3305 X-0.3271 Y0.0956
N3310 X-0.312 Y0.0848
N3315 X-0.2983 Y0.0766
N3320 X-0.2876 Y0.0713
N3325 X-0.2774 Y0.0673
N3330 X-0.2692 Y0.0647
N3335 X-0.2607 Y0.0628
N3340 X-0.2535 Y0.0618
N3345 X-0.2513 Y0.0617
N3350 X-0.2426 Y0.0625
N3355 X-0.2345 Y0.0659
N3360 X-0.2278 Y0.0715
N3365 X-0.2231 Y0.0789
N3370 X-0.2155 Y0.0955
N3375 X-0.2102 Y0.1071
N3380 X-0.2068 Y0.1144
N3385 X-0.2061 Y0.1157
N3390 G3 X-0.2051 Y0.1205 I-0.0114 J0.005 F10.
N3395 X-0.2069 Y0.1273 I-0.0125 J0.0003 F30.
N3400 G1 X-0.4124 Y0.4639
N3405 G3 X-0.427 Y0.4693 I-0.0107 J-0.0065
N3410 X-0.4312 Y0.4669 I0.0039 J-0.0119 F10.
N3415 G1 X-0.4509 Y0.4486 F30.
N3420 X-0.466 Y0.4343
N3425 X-0.469 Y0.4312
N3430 X-0.4828 Y0.4139
N3435 X-0.4863 Y0.409
N3440 X-0.4899 Y0.4029
N3445 X-0.4935 Y0.3955
N3450 X-0.4966 Y0.3873
N3455 X-0.4997 Y0.3769
N3460 X-0.502 Y0.366
N3465 X-0.5038 Y0.3519
N3470 X-0.5045 Y0.3371
N3475 X-0.5039 Y0.3188
N3480 X-0.5016 Y0.2986
N3485 X-0.4972 Y0.276
N3490 X-0.4903 Y0.2514
N3495 X-0.4815 Y0.2275
N3500 X-0.4712 Y0.2042
N3505 X-0.4594 Y0.1816
N3510 X-0.4464 Y0.1597
N3515 X-0.4321 Y0.1386
N3520 X-0.4166 Y0.1184
N3525 X-0.4 Y0.099
N3530 X-0.3821 Y0.0809
N3535 X-0.3641 Y0.0652
N3540 X-0.347 Y0.0526
N3545 X-0.3314 Y0.0429
N3550 X-0.3172 Y0.0355
N3555 X-0.3042 Y0.0301
N3560 X-0.2937 Y0.0267
N3565 X-0.2837 Y0.0243
N3570 X-0.2758 Y0.0231
N3575 X-0.2673 Y0.0224
N3580 X-0.2599 Y0.0225
N3585 X-0.2577 Y0.0227
N3590 X-0.25 Y0.0244
N3595 X-0.2432 Y0.028
N3600 X-0.2375 Y0.0334
N3605 X-0.2334 Y0.0401
N3610 X-0.2313 Y0.0476
N3615 X-0.2302 Y0.055
N3620 X-0.2286 Y0.0639
N3625 X-0.2278 Y0.0666
N3630 X-0.226 Y0.0724
N3635 X-0.2231 Y0.0789
N3640 G3 X-0.2221 Y0.0837 I-0.0116 J0.0047 F10.
N3645 X-0.2246 Y0.091 I-0.0125 J-0.0001 F30.
N3650 G1 X-0.4633 Y0.4132
N3655 G3 X-0.479 Y0.4169 I-0.01 J-0.0074
N3660 X-0.4828 Y0.4139 I0.0057 J-0.0111 F10.
N3665 G1 X-0.5151 Y0.3733 F30.
N3670 X-0.5218 Y0.3644
N3675 X-0.5254 Y0.3588
N3680 X-0.5284 Y0.3534
N3685 X-0.5315 Y0.3466
N3690 X-0.5342 Y0.3389
N3695 X-0.5367 Y0.33
N3700 X-0.5387 Y0.3189
N3705 X-0.5399 Y0.3073
N3710 X-0.5402 Y0.2923
N3715 X-0.5393 Y0.2767
N3720 X-0.5367 Y0.2577
N3725 X-0.5318 Y0.2358
N3730 X-0.5243 Y0.2114
N3735 X-0.5149 Y0.1877
N3740 X-0.5038 Y0.1647
N3745 X-0.4914 Y0.1425
N3750 X-0.4777 Y0.121
N3755 X-0.4629 Y0.1003
N3760 X-0.4469 Y0.0804
N3765 X-0.4298 Y0.0616
N3770 X-0.4115 Y0.0438
N3775 X-0.392 Y0.0274
N3780 X-0.373 Y0.0139
N3785 X-0.3559 Y0.0037
N3790 X-0.3397 Y-0.0042
N3795 X-0.3247 Y-0.0102
N3800 X-0.3109 Y-0.0144
N3805 X-0.2996 Y-0.0169
N3810 X-0.2888 Y-0.0184
N3815 X-0.2803 Y-0.0188
N3820 X-0.2717 Y-0.0186
N3825 X-0.2643 Y-0.0178
N3830 X-0.2602 Y-0.0171
N3835 X-0.2514 Y-0.0139
N3840 X-0.2441 Y-0.0082
N3845 X-0.239 Y-0.0004
N3850 X-0.2365 Y0.0086
N3855 X-0.2359 Y0.0145
N3860 X-0.2352 Y0.0203
N3865 X-0.2313 Y0.0476
N3870 G3 X-0.2317 Y0.0524 I-0.0124 J0.0013 F10.
N3875 X-0.2343 Y0.0571 I-0.012 J-0.0035 F30.
N3880 G1 X-0.5025 Y0.3648
N3885 G3 X-0.518 Y0.3675 I-0.0094 J-0.0082
N3890 X-0.5218 Y0.3644 I0.0061 J-0.0109 F10.
N3895 G1 X-0.5296 Y0.3537 F30.
N3900 X-0.5317 Y0.3502
N3905 X-0.5584 Y0.3039
N3910 X-0.5626 Y0.2957
N3915 X-0.565 Y0.2899
N3920 X-0.5674 Y0.2827
N3925 X-0.5693 Y0.2743
N3930 X-0.5708 Y0.265
N3935 X-0.5716 Y0.2531
N3940 X-0.5715 Y0.2408
N3945 X-0.5701 Y0.2252
N3950 X-0.5673 Y0.2087
N3955 X-0.5622 Y0.1888
N3960 X-0.5544 Y0.1658
N3965 X-0.5442 Y0.1424
N3970 X-0.5324 Y0.1198
N3975 X-0.5192 Y0.098
N3980 X-0.5048 Y0.077
N3985 X-0.4893 Y0.0568
N3990 X-0.4726 Y0.0376
N3995 X-0.4547 Y0.0193
N4000 X-0.4358 Y0.0023
N4005 X-0.4158 Y-0.0135
N4010 X-0.3952 Y-0.0273
N4015 X-0.3757 Y-0.0383
N4020 X-0.3578 Y-0.0465
N4025 X-0.3407 Y-0.0528
N4030 X-0.325 Y-0.0571
N4035 X-0.3107 Y-0.0599
N4040 X-0.2987 Y-0.0612
N4045 X-0.2875 Y-0.0615
N4050 X-0.2783 Y-0.061
N4055 X-0.2706 Y-0.06
N4060 X-0.2624 Y-0.0582
N4065 X-0.2556 Y-0.0562
N4070 X-0.253 Y-0.0552
N4075 X-0.2461 Y-0.0514
N4080 X-0.2406 Y-0.0459
N4085 X-0.2366 Y-0.0392
N4090 X-0.2346 Y-0.0317
N4095 X-0.2347 Y-0.0239
N4100 X-0.2352 Y-0.0203
N4105 X-0.2359 Y-0.0145
N4110 X-0.2374 Y0.
N4115 X-0.2365 Y0.0086
N4120 G3 X-0.2372 Y0.0134 I-0.0125 J0.0009 F10.
N4125 X-0.2403 Y0.0185 I-0.0118 J-0.004 F30.
N4130 G1 X-0.5391 Y0.3063
N4135 G3 X-0.5551 Y0.3074 I-0.0087 J-0.009
N4140 X-0.5584 Y0.3039 I0.0073 J-0.0102 F10.
N4145 G1 X-0.5684 Y0.2865 F30.
N4150 X-0.5717 Y0.2807
N4155 X-0.5748 Y0.2749
N4160 X-0.5771 Y0.2692
N4165 X-0.593 Y0.2286
N4170 X-0.5949 Y0.223
N4175 X-0.5965 Y0.2158
N4180 X-0.5977 Y0.207
N4185 X-0.5983 Y0.1974
N4190 X-0.5981 Y0.1861
N4195 X-0.5967 Y0.1728
N4200 X-0.594 Y0.1578
N4205 X-0.5893 Y0.1405
N4210 X-0.582 Y0.12
N4215 X-0.5716 Y0.0967
N4220 X-0.5593 Y0.0744
N4225 X-0.5455 Y0.053
N4230 X-0.5304 Y0.0324
N4235 X-0.5142 Y0.0128
N4240 X-0.4969 Y-0.0059
N4245 X-0.4784 Y-0.0235
N4250 X-0.459 Y-0.04
N4255 X-0.4386 Y-0.0552
N4260 X-0.4171 Y-0.0689
N4265 X-0.3954 Y-0.0806
N4270 X-0.3744 Y-0.0898
N4275 X-0.3555 Y-0.0963
N4280 X-0.3376 Y-0.1009
N4285 X-0.3211 Y-0.1038
N4290 X-0.3062 Y-0.1051
N4295 X-0.2925 Y-0.1053
N4300 X-0.2813 Y-0.1045
N4305 X-0.2708 Y-0.1029
N4310 X-0.2627 Y-0.101
N4315 X-0.2545 Y-0.0984
N4320 X-0.2477 Y-0.0956
N4325 X-0.2443 Y-0.0939
N4330 X-0.2368 Y-0.0884
N4335 X-0.2314 Y-0.0808
N4340 X-0.2287 Y-0.0719
N4345 X-0.2289 Y-0.0626
N4350 X-0.2302 Y-0.055
N4355 X-0.2347 Y-0.0239
N4360 G3 X-0.2365 Y-0.0193 I-0.0123 J-0.0022 F10.
N4365 X-0.2395 Y-0.016 I-0.0105 J-0.0067 F30.
N4370 G1 X-0.5741 Y0.2337
N4375 G3 X-0.5902 Y0.2326 I-0.0075 J-0.01
N4380 X-0.593 Y0.2286 I0.0087 J-0.009 F10.
N4385 G1 X-0.6066 Y0.1939 F30.
N4390 X-0.6089 Y0.1881
N4395 X-0.6116 Y0.1765
N4400 X-0.6165 Y0.1552
N4405 X-0.6178 Y0.1475
N4410 X-0.6186 Y0.1396
N4415 X-0.6187 Y0.13
N4420 X-0.618 Y0.1202
N4425 X-0.6162 Y0.1078
N4430 X-0.6131 Y0.0944
N4435 X-0.6079 Y0.078
N4440 X-0.6007 Y0.0603
N4445 X-0.5903 Y0.0397
N4450 X-0.577 Y0.018
N4455 X-0.5621 Y-0.0027
N4460 X-0.5459 Y-0.0224
N4465 X-0.5286 Y-0.041
N4470 X-0.5102 Y-0.0587
N4475 X-0.4909 Y-0.0753
N4480 X-0.4706 Y-0.0907
N4485 X-0.4493 Y-0.1048
N4490 X-0.4272 Y-0.1173
N4495 X-0.4042 Y-0.1283
N4500 X-0.382 Y-0.1368
N4505 X-0.361 Y-0.143
N4510 X-0.3408 Y-0.1471
N4515 X-0.3221 Y-0.1495
N4520 X-0.3053 Y-0.1503
N4525 X-0.2902 Y-0.1497
N4530 X-0.2763 Y-0.1481
N4535 X-0.2655 Y-0.146
N4540 X-0.2551 Y-0.143
N4545 X-0.2472 Y-0.1401
N4550 X-0.24 Y-0.1367
N4555 X-0.2331 Y-0.1327
N4560 X-0.2275 Y-0.1289
N4565 X-0.2252 Y-0.1271
N4570 X-0.2199 Y-0.1215
N4575 X-0.2163 Y-0.1148
N4580 X-0.2145 Y-0.1073
N4585 X-0.2148 Y-0.0996
N4590 X-0.217 Y-0.0923
N4595 X-0.2234 Y-0.0781
N4600 X-0.226 Y-0.0724
N4605 X-0.2278 Y-0.0666
N4610 X-0.2286 Y-0.0639
N4615 X-0.2289 Y-0.0626
N4620 G3 X-0.2308 Y-0.0581 I-0.0122 J-0.0027 F10.
N4625 X-0.2347 Y-0.0546 I-0.0103 J-0.0072 F30.
N4630 G1 X-0.598 Y0.1628
N4635 G3 X-0.6143 Y0.1596 I-0.0064 J-0.0107
N4640 X-0.6165 Y0.1552 I0.0099 J-0.0076 F10.
N4645 G1 X-0.6288 Y0.1013 F30.
N4650 X-0.6297 Y0.0955
N4655 X-0.6315 Y0.0781
N4660 X-0.6318 Y0.0646
N4665 X-0.6313 Y0.0562
N4670 X-0.6299 Y0.0459
N4675 X-0.6276 Y0.0354
N4680 X-0.6236 Y0.0222
N4685 X-0.6181 Y0.0083
N4690 X-0.6098 Y-0.0086
N4695 X-0.5984 Y-0.0277
N4700 X-0.5836 Y-0.0485
N4705 X-0.5673 Y-0.068
N4710 X-0.5496 Y-0.0864
N4715 X-0.5308 Y-0.1036
N4720 X-0.5111 Y-0.1197
N4725 X-0.4904 Y-0.1346
N4730 X-0.4689 Y-0.1482
N4735 X-0.4465 Y-0.1605
N4740 X-0.4234 Y-0.1713
N4745 X-0.3996 Y-0.1803
N4750 X-0.3757 Y-0.1874
N4755 X-0.3527 Y-0.1922
N4760 X-0.3309 Y-0.195
N4765 X-0.311 Y-0.1959
N4770 X-0.2934 Y-0.1953
N4775 X-0.2773 Y-0.1935
N4780 X-0.2627 Y-0.1906
N4785 X-0.2497 Y-0.1869
N4790 X-0.2391 Y-0.183
N4795 X-0.2294 Y-0.1785
N4800 X-0.2221 Y-0.1743
N4805 X-0.2151 Y-0.1696
N4810 X-0.2093 Y-0.1649
N4815 X-0.2063 Y-0.1621
N4820 X-0.2014 Y-0.1561
N4825 X-0.1983 Y-0.149
N4830 X-0.1972 Y-0.1413
N4835 X-0.1981 Y-0.1337
N4840 X-0.2009 Y-0.1265
N4845 X-0.2075 Y-0.1129
N4850 X-0.2113 Y-0.1048
N4855 X-0.217 Y-0.0923
N4860 G3 X-0.22 Y-0.0884 I-0.0112 J-0.0056 F10.
N4865 X-0.2231 Y-0.0864 I-0.0082 J-0.0094 F30.
N4870 G1 X-0.614 Y0.0879
N4875 G3 X-0.6299 Y0.0828 I-0.0051 J-0.0114
N4880 X-0.6315 Y0.0781 I0.0108 J-0.0063 F10.
N4885 G1 X-0.6371 Y0.0029 F30.
N4890 X-0.6363 Y-0.0138
N4895 X-0.6352 Y-0.0222
N4900 X-0.6333 Y-0.031
N4905 X-0.6302 Y-0.0412
N4910 X-0.6256 Y-0.0531
N4915 X-0.6193 Y-0.0661
N4920 X-0.6106 Y-0.0809
N4925 X-0.5986 Y-0.098
N4930 X-0.5831 Y-0.1166
N4935 X-0.5653 Y-0.1349
N4940 X-0.5462 Y-0.1517
N4945 X-0.5261 Y-0.1673
N4950 X-0.505 Y-0.1816
N4955 X-0.4831 Y-0.1947
N4960 X-0.4605 Y-0.2064
N4965 X-0.4372 Y-0.2167
N4970 X-0.4132 Y-0.2255
N4975 X-0.3888 Y-0.2326
N4980 X-0.3639 Y-0.2379
N4985 X-0.3397 Y-0.2411
N4990 X-0.3169 Y-0.2422
N4995 X-0.2955 Y-0.2416
N5000 X-0.2761 Y-0.2394
N5005 X-0.259 Y-0.2361
N5010 X-0.2435 Y-0.2318
N5015 X-0.2295 Y-0.2266
N5020 X-0.2178 Y-0.2213
N5025 X-0.208 Y-0.2158
N5030 X-0.2003 Y-0.2106
N5035 X-0.1936 Y-0.2052
N5040 X-0.1878 Y-0.1998
N5045 X-0.1831 Y-0.1946
N5050 X-0.1786 Y-0.1887
N5055 X-0.1776 Y-0.1872
N5060 X-0.1743 Y-0.1805
N5065 X-0.1729 Y-0.1731
N5070 X-0.1734 Y-0.1656
N5075 X-0.1759 Y-0.1585
N5080 X-0.18 Y-0.1522
N5085 X-0.184 Y-0.1476
N5090 X-0.1888 Y-0.1418
N5095 X-0.1997 Y-0.1283
N5100 X-0.2004 Y-0.1274
N5105 X-0.2009 Y-0.1265
N5110 G3 X-0.2043 Y-0.1229 I-0.0107 J-0.0065 F10.
N5115 X-0.2077 Y-0.1211 I-0.0073 J-0.0101 F30.
N5120 G1 X-0.6208 Y0.0134
N5125 G3 X-0.6356 Y0.0075 I-0.0039 J-0.0119
N5130 X-0.6371 Y0.0029 I0.011 J-0.006 F10.
N5135 G1 Y-0.0029 F30.
N5140 X-0.6315 Y-0.0781
N5145 X-0.6303 Y-0.0897
N5150 X-0.629 Y-0.0985
N5155 X-0.6273 Y-0.1057
N5160 X-0.6245 Y-0.1144
N5165 X-0.6206 Y-0.1239
N5170 X-0.6152 Y-0.1344
N5175 X-0.6078 Y-0.1465
N5180 X-0.5981 Y-0.1597
N5185 X-0.5856 Y-0.1742
N5190 X-0.5692 Y-0.1904
N5195 X-0.5497 Y-0.2068
N5200 X-0.529 Y-0.2216
N5205 X-0.5073 Y-0.2351
N5210 X-0.4849 Y-0.2472
N5215 X-0.4618 Y-0.2579
N5220 X-0.438 Y-0.2671
N5225 X-0.4137 Y-0.2749
N5230 X-0.389 Y-0.281
N5235 X-0.3639 Y-0.2855
N5240 X-0.3386 Y-0.2882
N5245 X-0.3132 Y-0.2889
N5250 X-0.2894 Y-0.2877
N5255 X-0.2676 Y-0.2848
N5260 X-0.2481 Y-0.2806
N5265 X-0.2304 Y-0.2753
N5270 X-0.2146 Y-0.2692
N5275 X-0.201 Y-0.2625
N5280 X-0.1892 Y-0.2556
N5285 X-0.1786 Y-0.2482
N5290 X-0.1706 Y-0.2415
N5295 X-0.1636 Y-0.2347
N5300 X-0.1584 Y-0.2286
N5305 X-0.1535 Y-0.222
N5310 X-0.1498 Y-0.2161
N5315 X-0.1489 Y-0.2144
N5320 X-0.1463 Y-0.2072
N5325 X-0.1457 Y-0.1995
N5330 X-0.1472 Y-0.1919
N5335 X-0.1505 Y-0.185
N5340 X-0.1556 Y-0.1792
N5345 X-0.1586 Y-0.1765
N5350 X-0.1639 Y-0.1708
N5355 X-0.18 Y-0.1522
N5360 G3 X-0.184 Y-0.1494 I-0.0092 J-0.0085 F10.
N5365 X-0.1871 Y-0.1484 I-0.0052 J-0.0114 F30.
N5370 G1 X-0.6158 Y-0.0766
N5375 G3 X-0.6297 Y-0.0849 I-0.0021 J-0.0123
N5380 X-0.6303 Y-0.0897 I0.0118 J-0.004 F10.
N5385 G1 X-0.6297 Y-0.0955 F30.
N5390 X-0.6288 Y-0.1013
N5395 X-0.6116 Y-0.1765
N5400 X-0.6092 Y-0.1848
N5405 X-0.6064 Y-0.1923
N5410 X-0.6027 Y-0.2003
N5415 X-0.5977 Y-0.209
N5420 X-0.5907 Y-0.2192
N5425 X-0.5823 Y-0.2297
N5430 X-0.5707 Y-0.2418
N5435 X-0.5559 Y-0.2551
N5440 X-0.5381 Y-0.2686
N5445 X-0.5167 Y-0.2823
N5450 X-0.4942 Y-0.2944
N5455 X-0.471 Y-0.3049
N5460 X-0.4471 Y-0.3139
N5465 X-0.4228 Y-0.3214
N5470 X-0.3981 Y-0.3274
N5475 X-0.373 Y-0.332
N5480 X-0.3477 Y-0.3349
N5485 X-0.3222 Y-0.3361
N5490 X-0.2967 Y-0.3354
N5495 X-0.2716 Y-0.3329
N5500 X-0.2486 Y-0.3286
N5505 X-0.2274 Y-0.323
N5510 X-0.208 Y-0.316
N5515 X-0.1903 Y-0.3081
N5520 X-0.1752 Y-0.2998
N5525 X-0.1623 Y-0.2913
N5530 X-0.1509 Y-0.2823
N5535 X-0.1416 Y-0.2738
N5540 X-0.1343 Y-0.2659
N5545 X-0.1286 Y-0.2586
N5550 X-0.124 Y-0.2518
N5555 X-0.1201 Y-0.2448
N5560 X-0.1173 Y-0.2386
N5565 X-0.1148 Y-0.2317
N5570 X-0.1146 Y-0.2308
N5575 X-0.1136 Y-0.2216
N5580 X-0.1155 Y-0.2127
N5585 X-0.1201 Y-0.2047
N5590 X-0.127 Y-0.1986
N5595 X-0.1476 Y-0.1853
N5600 X-0.1519 Y-0.1823
N5605 X-0.1534 Y-0.1811
N5610 X-0.1556 Y-0.1792
N5615 G3 X-0.1599 Y-0.1769 I-0.0079 J-0.0097 F10.
N5620 X-0.1631 Y-0.1764 I-0.0036 J-0.012 F30.
N5625 G1 X-0.5989 Y-0.1617
N5630 G3 X-0.6116 Y-0.1717 I-0.0004 J-0.0125
N5635 Y-0.1765 I0.0122 J-0.0025 F10.
N5640 G1 X-0.6089 Y-0.1881 F30.
N5645 X-0.6044 Y-0.1997
N5650 X-0.5794 Y-0.2634
N5655 X-0.576 Y-0.2708
N5660 X-0.572 Y-0.2781
N5665 X-0.5673 Y-0.2852
N5670 X-0.5608 Y-0.2934
N5675 X-0.5526 Y-0.3024
N5680 X-0.5422 Y-0.3119
N5685 X-0.5292 Y-0.3222
N5690 X-0.5123 Y-0.3333
N5695 X-0.492 Y-0.3445
N5700 X-0.4688 Y-0.355
N5705 X-0.4448 Y-0.3636
N5710 X-0.4203 Y-0.3707
N5715 X-0.3954 Y-0.3761
N5720 X-0.3702 Y-0.3801
N5725 X-0.3449 Y-0.3825
N5730 X-0.3194 Y-0.3833
N5735 X-0.2939 Y-0.3825
N5740 X-0.2686 Y-0.3799
N5745 X-0.2435 Y-0.3756
N5750 X-0.2192 Y-0.3693
N5755 X-0.1968 Y-0.3616
N5760 X-0.1764 Y-0.3527
N5765 X-0.1579 Y-0.3428
N5770 X-0.142 Y-0.3326
N5775 X-0.1287 Y-0.3224
N5780 X-0.1172 Y-0.312
N5785 X-0.1074 Y-0.3017
N5790 X-0.0992 Y-0.2915
N5795 X-0.0934 Y-0.2829
N5800 X-0.0883 Y-0.274
N5805 X-0.0847 Y-0.2663
N5810 X-0.0822 Y-0.2594
N5815 X-0.08 Y-0.2517
N5820 X-0.0795 Y-0.2492
N5825 X-0.079 Y-0.2413
N5830 X-0.0807 Y-0.2336
N5835 X-0.0843 Y-0.2267
N5840 X-0.0897 Y-0.2209
N5845 X-0.0964 Y-0.2168
N5850 X-0.1013 Y-0.2146
N5855 X-0.1071 Y-0.2113
N5860 X-0.1129 Y-0.2077
N5865 X-0.127 Y-0.1986
N5870 G3 X-0.1316 Y-0.197 I-0.0064 J-0.0107 F10.
N5875 X-0.1348 Y-0.1969 I-0.0018 J-0.0124 F30.
N5880 G1 X-0.569 Y-0.2468
N5885 G3 X-0.5801 Y-0.2585 I0.0014 J-0.0124
N5890 X-0.5794 Y-0.2634 I0.0125 J-0.0007 F10.
N5895 G1 X-0.5759 Y-0.2721 F30.
N5900 X-0.5748 Y-0.2749
N5905 X-0.5701 Y-0.2835
N5910 X-0.5684 Y-0.2865
N5915 X-0.5354 Y-0.3437
N5920 X-0.53 Y-0.352
N5925 X-0.5249 Y-0.3587
N5930 X-0.5191 Y-0.3651
N5935 X-0.5114 Y-0.3724
N5940 X-0.5017 Y-0.3802
N5945 X-0.4899 Y-0.3882
N5950 X-0.4752 Y-0.3965
N5955 X-0.4566 Y-0.4052
N5960 X-0.4344 Y-0.4134
N5965 X-0.4098 Y-0.4203
N5970 X-0.3848 Y-0.4253
N5975 X-0.3596 Y-0.4286
N5980 X-0.3341 Y-0.4303
N5985 X-0.3087 Y-0.4305
N5990 X-0.2832 Y-0.4291
N5995 X-0.2579 Y-0.4261
N6000 X-0.2329 Y-0.4215
N6005 X-0.2082 Y-0.4151
N6010 X-0.184 Y-0.407
N6015 X-0.161 Y-0.3972
N6020 X-0.1402 Y-0.3863
N6025 X-0.1215 Y-0.3745
N6030 X-0.1049 Y-0.3621
N6035 X-0.0908 Y-0.3496
N6040 X-0.0791 Y-0.3375
N6045 X-0.0691 Y-0.3253
N6050 X-0.0609 Y-0.3135
N6055 X-0.0548 Y-0.303
N6060 X-0.0501 Y-0.2931
N6065 X-0.0469 Y-0.2847
N6070 X-0.0445 Y-0.2767
N6075 X-0.0429 Y-0.269
N6080 X-0.0421 Y-0.2622
N6085 X-0.0418 Y-0.2549
N6090 Y-0.2542
N6095 X-0.0435 Y-0.2453
N6100 X-0.0479 Y-0.2373
N6105 X-0.0545 Y-0.2311
N6110 X-0.0627 Y-0.2273
N6115 X-0.0897 Y-0.2193
N6120 X-0.0958 Y-0.2171
N6125 X-0.0964 Y-0.2168
N6130 G3 X-0.1012 Y-0.2159 I-0.0046 J-0.0116 F10.
N6135 X-0.1041 Y-0.2163 I0.0002 J-0.0125 F30.
N6140 G1 X-0.5275 Y-0.3257
N6145 G3 X-0.5368 Y-0.339 I0.0031 J-0.0121
N6150 X-0.5354 Y-0.3437 I0.0124 J0.0012 F10.
N6155 G1 X-0.5317 Y-0.3502 F30.
N6160 X-0.5296 Y-0.3537
N6165 X-0.5151 Y-0.3733
N6170 X-0.4782 Y-0.4197
N6175 X-0.4726 Y-0.426
N6180 X-0.4666 Y-0.4318
N6185 X-0.4597 Y-0.4375
N6190 X-0.4509 Y-0.4436
N6195 X-0.44 Y-0.4499
N6200 X-0.427 Y-0.4561
N6205 X-0.411 Y-0.4623
N6210 X-0.391 Y-0.4681
N6215 X-0.3677 Y-0.473
N6220 X-0.3424 Y-0.4761
N6225 X-0.317 Y-0.4774
N6230 X-0.2915 Y-0.4769
N6235 X-0.2661 Y-0.4748
N6240 X-0.2409 Y-0.4712
N6245 X-0.2159 Y-0.466
N6250 X-0.1913 Y-0.4593
N6255 X-0.1672 Y-0.451
N6260 X-0.1438 Y-0.4411
N6265 X-0.1211 Y-0.4294
N6270 X-0.0999 Y-0.4164
N6275 X-0.081 Y-0.4025
N6280 X-0.0642 Y-0.388
N6285 X-0.0496 Y-0.3731
N6290 X-0.0376 Y-0.3588
N6295 X-0.028 Y-0.3453
N6300 X-0.0201 Y-0.332
N6305 X-0.0139 Y-0.3193
N6310 X-0.0091 Y-0.3072
N6315 X-0.0061 Y-0.2974
N6320 X-0.0039 Y-0.2875
N6325 X-0.0028 Y-0.2791
N6330 X-0.0024 Y-0.2718
N6335 X-0.0026 Y-0.2638
N6340 X-0.0029 Y-0.2613
N6345 X-0.0048 Y-0.2535
N6350 X-0.0088 Y-0.2466
N6355 X-0.0146 Y-0.2409
N6360 X-0.0217 Y-0.2371
N6365 X-0.0295 Y-0.2354
N6370 X-0.0318 Y-0.2352
N6375 X-0.037 Y-0.2344
N6380 X-0.055 Y-0.2295
N6385 X-0.0627 Y-0.2273
N6390 G3 X-0.0676 Y-0.227 I-0.0031 J-0.0121 F10.
N6395 X-0.0707 Y-0.2279 I0.0018 J-0.0124 F30.
N6400 G1 X-0.4731 Y-0.4007
N6405 G3 X-0.4803 Y-0.4152 I0.0049 J-0.0115
N6410 X-0.4782 Y-0.4197 I0.0121 J0.003 F10.
N6415 G1 X-0.469 Y-0.4312 F30.
N6420 X-0.466 Y-0.4343
N6425 X-0.4509 Y-0.4486
N6430 X-0.4105 Y-0.4861
N6435 X-0.4046 Y-0.491
N6440 X-0.3978 Y-0.4959
N6445 X-0.3899 Y-0.5006
N6450 X-0.3804 Y-0.5053
N6455 X-0.3684 Y-0.51
N6460 X-0.3546 Y-0.5142
N6465 X-0.3377 Y-0.5179
N6470 X-0.317 Y-0.5207
N6475 X-0.2931 Y-0.522
N6480 X-0.2676 Y-0.5214
N6485 X-0.2423 Y-0.5188
N6490 X-0.2172 Y-0.5146
N6495 X-0.1924 Y-0.5088
N6500 X-0.168 Y-0.5015
N6505 X-0.144 Y-0.4926
N6510 X-0.1207 Y-0.4823
N6515 X-0.0982 Y-0.4706
N6520 X-0.0764 Y-0.4572
N6525 X-0.0558 Y-0.4423
N6530 X-0.0368 Y-0.4263
N6535 X-0.0202 Y-0.4098
N6540 X-0.0059 Y-0.3931
N6545 X0.0063 Y-0.3764
N6550 X0.0161 Y-0.3604
N6555 X0.0236 Y-0.3454
N6560 X0.0295 Y-0.3309
N6565 X0.0339 Y-0.3172
N6570 X0.0366 Y-0.3054
N6575 X0.0382 Y-0.2946
N6580 X0.0388 Y-0.2856
N6585 X0.0386 Y-0.2774
N6590 X0.0379 Y-0.2694
N6595 X0.0367 Y-0.2628
N6600 X0.0349 Y-0.2558
N6605 X0.0347 Y-0.2553
N6610 X0.0305 Y-0.2474
N6615 X0.0241 Y-0.2411
N6620 X0.016 Y-0.2371
N6625 X0.0072 Y-0.2357
N6630 X-0.0203
N6635 X-0.026 Y-0.2356
N6640 X-0.0295 Y-0.2354
N6645 G3 X-0.0343 Y-0.2361 I-0.0006 J-0.0125 F10.
N6650 X-0.0367 Y-0.2372 I0.0043 J-0.0118 F30.
N6655 G1 X-0.4083 Y-0.4666
N6660 G3 X-0.4132 Y-0.482 I0.0066 J-0.0106
N6665 X-0.4105 Y-0.4861 I0.0115 J0.0048 F10.
N6670 G1 X-0.4072 Y-0.4891 F30.
N6675 X-0.4023 Y-0.4934
N6680 X-0.3936 Y-0.5007
N6685 X-0.3907 Y-0.5028
N6690 X-0.3344 Y-0.5412
N6695 X-0.3275 Y-0.5454
N6700 X-0.32 Y-0.5492
N6705 X-0.3115 Y-0.5527
N6710 X-0.3013 Y-0.5559
N6715 X-0.2887 Y-0.5588
N6720 X-0.2744 Y-0.5609
N6725 X-0.257 Y-0.5621
N6730 X-0.236 Y-0.5618
N6735 X-0.2121 Y-0.5595
N6740 X-0.187 Y-0.5551
N6745 X-0.1623 Y-0.5488
N6750 X-0.1381 Y-0.5409
N6755 X-0.1144 Y-0.5314
N6760 X-0.0914 Y-0.5206
N6765 X-0.0691 Y-0.5083
N6770 X-0.0475 Y-0.4946
N6775 X-0.027 Y-0.4796
N6780 X-0.0075 Y-0.4632
N6785 X0.0107 Y-0.4454
N6790 X0.0271 Y-0.4267
N6795 X0.0411 Y-0.4079
N6800 X0.0528 Y-0.3892
N6805 X0.0623 Y-0.3707
N6810 X0.0695 Y-0.3536
N6815 X0.0747 Y-0.3379
N6820 X0.0783 Y-0.3229
N6825 X0.0805 Y-0.3089
N6830 X0.0815 Y-0.296
N6835 X0.0814 Y-0.2858
N6840 X0.0806 Y-0.2757
N6845 X0.0792 Y-0.2675
N6850 X0.0774 Y-0.2603
N6855 X0.0749 Y-0.2528
N6860 X0.0739 Y-0.2504
N6865 X0.0695 Y-0.2433
N6870 X0.0634 Y-0.2377
N6875 X0.0559 Y-0.2341
N6880 X0.0477 Y-0.2328
N6885 X0.0394 Y-0.2338
N6890 X0.037 Y-0.2344
N6895 X0.0318 Y-0.2352
N6900 X0.026 Y-0.2356
N6905 X0.0203 Y-0.2357
N6910 X0.0072
N6915 G3 X0.0024 Y-0.2368 I0.0004 J-0.0125 F10.
N6920 X-0.0005 Y-0.2387 I0.0052 J-0.0114 F30.
N6925 G1 X-0.3351 Y-0.5216
N6930 G3 X-0.3377 Y-0.5376 I0.0081 J-0.0095
N6935 X-0.3344 Y-0.5412 I0.0107 J0.0065 F10.
N6940 G1 X-0.3259 Y-0.547 F30.
N6945 X-0.3213 Y-0.5501
N6950 X-0.3155 Y-0.5534
N6955 X-0.3097 Y-0.5563
N6960 X-0.2518 Y-0.5841
N6965 X-0.243 Y-0.5878
N6970 X-0.235 Y-0.5905
N6975 X-0.226 Y-0.5927
N6980 X-0.2155 Y-0.5943
N6985 X-0.2025 Y-0.5953
N6990 X-0.188
N6995 X-0.1706 Y-0.5938
N7000 X-0.1498 Y-0.5904
N7005 X-0.1264 Y-0.5846
N7010 X-0.1023 Y-0.5765
N7015 X-0.0788 Y-0.5666
N7020 X-0.056 Y-0.5551
N7025 X-0.034 Y-0.5423
N7030 X-0.0129 Y-0.5281
N7035 X0.0074 Y-0.5126
N7040 X0.0266 Y-0.4959
N7045 X0.0447 Y-0.478
N7050 X0.0616 Y-0.4589
N7055 X0.0769 Y-0.4385
N7060 X0.0903 Y-0.4177
N7065 X0.1012 Y-0.3971
N7070 X0.11 Y-0.3769
N7075 X0.1166 Y-0.3574
N7080 X0.1212 Y-0.3393
N7085 X0.124 Y-0.3228
N7090 X0.1254 Y-0.3073
N7095 X0.1255 Y-0.2929
N7100 X0.1246 Y-0.2809
N7105 X0.1229 Y-0.2702
N7110 X0.1208 Y-0.2613
N7115 X0.1183 Y-0.2537
N7120 X0.1152 Y-0.2461
N7125 X0.112 Y-0.24
N7130 X0.1082 Y-0.2339
N7135 X0.1019 Y-0.2276
N7140 X0.0941 Y-0.2235
N7145 X0.0853 Y-0.222
N7150 X0.0765 Y-0.2232
N7155 X0.055 Y-0.2295
N7160 X0.0394 Y-0.2338
N7165 G3 X0.0351 Y-0.2361 I0.0037 J-0.0119 F10.
N7170 X0.0337 Y-0.2374 I0.008 J-0.0096 F30.
N7175 G1 X-0.2553 Y-0.5648
N7180 G3 X-0.2556 Y-0.5811 I0.0094 J-0.0083
N7185 X-0.2518 Y-0.5841 I0.0096 J0.008 F10.
N7190 G1 X-0.2402 Y-0.5897 F30.
N7195 X-0.2344 Y-0.5923
N7200 X-0.2171 Y-0.5981
N7205 X-0.2113 Y-0.5999
N7210 X-0.1592 Y-0.616
N7215 X-0.1534 Y-0.6175
N7220 X-0.145 Y-0.6189
N7225 X-0.1357 Y-0.6197
N7230 X-0.1249 Y-0.6198
N7235 X-0.1119 Y-0.6188
N7240 X-0.0975 Y-0.6166
N7245 X-0.0803 Y-0.6125
N7250 X-0.0601 Y-0.6059
N7255 X-0.0377 Y-0.5966
N7260 X-0.015 Y-0.5849
N7265 X0.0067 Y-0.5716
N7270 X0.0275 Y-0.5568
N7275 X0.0473 Y-0.5408
N7280 X0.0661 Y-0.5236
N7285 X0.0838 Y-0.5053
N7290 X0.1003 Y-0.4859
N7295 X0.1156 Y-0.4655
N7300 X0.1293 Y-0.444
N7305 X0.1414 Y-0.4216
N7310 X0.1515 Y-0.399
N7315 X0.1592 Y-0.3769
N7320 X0.1649 Y-0.3556
N7325 X0.1685 Y-0.3352
N7330 X0.1703 Y-0.3169
N7335 X0.1705 Y-0.3003
N7340 X0.1696 Y-0.2851
N7345 X0.1675 Y-0.271
N7350 X0.1647 Y-0.2585
N7355 X0.1616 Y-0.2489
N7360 X0.1579 Y-0.2396
N7365 X0.1542 Y-0.2322
N7370 X0.1503 Y-0.2259
N7375 X0.1457 Y-0.2195
N7380 X0.144 Y-0.2175
N7385 X0.1379 Y-0.2121
N7390 X0.1306 Y-0.2086
N7395 X0.1226 Y-0.2073
N7400 X0.1146 Y-0.2082
N7405 X0.1071 Y-0.2113
N7410 X0.1013 Y-0.2146
N7415 X0.0955 Y-0.2172
N7420 X0.0897 Y-0.2193
N7425 X0.0765 Y-0.2232
N7430 G3 X0.0723 Y-0.2256 I0.0039 J-0.0119 F10.
N7435 X0.0699 Y-0.2283 I0.0082 J-0.0095 F30.
N7440 G1 X-0.1656 Y-0.5975
N7445 G3 X-0.1634 Y-0.6135 I0.0105 J-0.0067
N7450 X-0.1592 Y-0.616 I0.0083 J0.0093 F10.
N7455 G1 X-0.1577 Y-0.6165 F30.
N7460 X-0.1418 Y-0.6208
N7465 X-0.1359 Y-0.6222
N7470 X-0.0666 Y-0.6327
N7475 X-0.0601 Y-0.6333
N7480 X-0.0518 Y-0.6335
N7485 X-0.0423 Y-0.6329
N7490 X-0.0317 Y-0.6314
N7495 X-0.0189 Y-0.6285
N7500 X-0.0051 Y-0.6242
N7505 X0.0113 Y-0.6176
N7510 X0.0304 Y-0.6081
N7515 X0.0509 Y-0.5957
N7520 X0.0716 Y-0.5808
N7525 X0.0911 Y-0.5645
N7530 X0.1095 Y-0.5468
N7535 X0.1267 Y-0.5281
N7540 X0.1428 Y-0.5083
N7545 X0.1576 Y-0.4876
N7550 X0.1711 Y-0.466
N7555 X0.1832 Y-0.4435
N7560 X0.1936 Y-0.4203
N7565 X0.2023 Y-0.3963
N7570 X0.2089 Y-0.3725
N7575 X0.2134 Y-0.3496
N7580 X0.2158 Y-0.3278
N7585 X0.2164 Y-0.3072
N7590 X0.2154 Y-0.2885
N7595 X0.2133 Y-0.2719
N7600 X0.21 Y-0.2568
N7605 X0.2059 Y-0.2431
N7610 X0.2015 Y-0.2318
N7615 X0.1968 Y-0.222
N7620 X0.1921 Y-0.2142
N7625 X0.1875 Y-0.2075
N7630 X0.1823 Y-0.2013
N7635 X0.1775 Y-0.1964
N7640 X0.174 Y-0.1934
N7645 X0.1678 Y-0.1892
N7650 X0.1607 Y-0.1868
N7655 X0.1532 Y-0.1862
N7660 X0.1459 Y-0.1876
N7665 X0.1391 Y-0.1908
N7670 X0.1129 Y-0.2077
N7675 X0.1071 Y-0.2113
N7680 G3 X0.1036 Y-0.2147 I0.007 J-0.0104 F10.
N7685 X0.1027 Y-0.2165 I0.0104 J-0.0069 F30.
N7690 G1 X-0.0757 Y-0.6153
N7695 G3 X-0.0711 Y-0.6309 I0.0114 J-0.0051
N7700 X-0.0666 Y-0.6327 I0.0068 J0.0105 F10.
N7705 G1 X-0.0589 Y-0.6338 F30.
N7710 X-0.0434 Y-0.6352
N7715 X-0.0376 Y-0.6355
N7720 X0.026
N7725 X0.0347 Y-0.6351
N7730 X0.043 Y-0.634
N7735 X0.0522 Y-0.632
N7740 X0.0625 Y-0.629
N7745 X0.0747 Y-0.6242
N7750 X0.0878 Y-0.6179
N7755 X0.103 Y-0.6089
N7760 X0.1204 Y-0.5967
N7765 X0.139 Y-0.5812
N7770 X0.1573 Y-0.5634
N7775 X0.1741 Y-0.5443
N7780 X0.1897 Y-0.5241
N7785 X0.2039 Y-0.503
N7790 X0.2169 Y-0.4811
N7795 X0.2284 Y-0.4584
N7800 X0.2386 Y-0.435
N7805 X0.2471 Y-0.411
N7810 X0.254 Y-0.3864
N7815 X0.259 Y-0.3614
N7820 X0.2619 Y-0.3368
N7825 X0.2629 Y-0.3135
N7830 X0.262 Y-0.2915
N7835 X0.2595 Y-0.2709
N7840 X0.2558 Y-0.2529
N7845 X0.2512 Y-0.237
N7850 X0.2457 Y-0.2226
N7855 X0.2397 Y-0.2098
N7860 X0.2335 Y-0.1992
N7865 X0.2273 Y-0.19
N7870 X0.2215 Y-0.183
N7875 X0.2156 Y-0.1768
N7880 X0.2098 Y-0.1716
N7885 X0.2042 Y-0.1674
N7890 X0.201 Y-0.1654
N7895 X0.1936 Y-0.162
N7900 X0.1855 Y-0.1609
N7905 X0.1775 Y-0.1621
N7910 X0.1701 Y-0.1654
N7915 X0.1639 Y-0.1708
N7920 X0.1586 Y-0.1765
N7925 X0.1534 Y-0.1811
N7930 X0.1519 Y-0.1823
N7935 X0.1476 Y-0.1853
N7940 X0.1391 Y-0.1908
N7945 G3 X0.1357 Y-0.1943 I0.0071 J-0.0103 F10.
N7950 X0.1342 Y-0.1977 I0.0105 J-0.0068 F30.
N7955 G1 X0.0145 Y-0.6196
N7960 G3 X0.0213 Y-0.6344 I0.012 J-0.0034
N7965 X0.026 Y-0.6355 I0.0052 J0.0114 F10.
N7970 G1 X0.0376 F30.
N7975 X0.0434 Y-0.6352
N7980 X0.0589 Y-0.6338
N7985 X0.1187 Y-0.6248
N7990 X0.1286 Y-0.6228
N7995 X0.1367 Y-0.6205
N8000 X0.1456 Y-0.6172
N8005 X0.1552 Y-0.6126
N8010 X0.1667 Y-0.606
N8015 X0.1786 Y-0.5978
N8020 X0.1924 Y-0.5867
N8025 X0.2078 Y-0.5719
N8030 X0.2239 Y-0.5539
N8035 X0.2393 Y-0.5336
N8040 X0.2531 Y-0.5122
N8045 X0.2655 Y-0.4899
N8050 X0.2764 Y-0.4669
N8055 X0.286 Y-0.4433
N8060 X0.294 Y-0.4191
N8065 X0.3005 Y-0.3945
N8070 X0.3054 Y-0.3694
N8075 X0.3085 Y-0.3442
N8080 X0.3097 Y-0.3187
N8085 X0.309 Y-0.294
N8090 X0.3065 Y-0.2708
N8095 X0.3023 Y-0.2493
N8100 X0.2968 Y-0.2295
N8105 X0.2905 Y-0.2121
N8110 X0.2835 Y-0.197
N8115 X0.2759 Y-0.1835
N8120 X0.268 Y-0.1716
N8125 X0.2604 Y-0.1621
N8130 X0.253 Y-0.1542
N8135 X0.2462 Y-0.148
N8140 X0.2398 Y-0.143
N8145 X0.2329 Y-0.1386
N8150 X0.2269 Y-0.1353
N8155 X0.2231 Y-0.1336
N8160 X0.2158 Y-0.1315
N8165 X0.2082 Y-0.1313
N8170 X0.2008 Y-0.1331
N8175 X0.1942 Y-0.1367
N8180 X0.1887 Y-0.142
N8185 X0.184 Y-0.1476
N8190 X0.1639 Y-0.1708
N8195 G3 X0.1617 Y-0.1751 I0.0097 J-0.0079 F10.
N8200 X0.1613 Y-0.177 I0.012 J-0.0036 F30.
N8205 G1 X0.1048 Y-0.6108
N8210 G3 X0.1138 Y-0.6244 I0.0124 J-0.0016
N8215 X0.1187 Y-0.6248 I0.0034 J0.012 F10.
N8220 G1 X0.136 Y-0.6222 F30.
N8225 X0.1418 Y-0.6208
N8230 X0.1577 Y-0.6165
N8235 X0.2113 Y-0.5999
N8240 X0.2196 Y-0.5969
N8245 X0.2272 Y-0.5934
N8250 X0.2355 Y-0.5887
N8255 X0.2444 Y-0.5828
N8260 X0.2548 Y-0.5746
N8265 X0.2654 Y-0.5647
N8270 X0.2774 Y-0.5515
N8275 X0.2905 Y-0.5346
N8280 X0.3037 Y-0.5144
N8285 X0.3159 Y-0.492
N8290 X0.3264 Y-0.4688
N8295 X0.3353 Y-0.4449
N8300 X0.3427 Y-0.4205
N8305 X0.3486 Y-0.3958
N8310 X0.353 Y-0.3707
N8315 X0.3557 Y-0.3453
N8320 X0.3568 Y-0.3199
N8325 X0.3562 Y-0.2944
N8330 X0.3536 Y-0.269
N8335 X0.3492 Y-0.2447
N8340 X0.3432 Y-0.2222
N8345 X0.3359 Y-0.2015
N8350 X0.3275 Y-0.1826
N8355 X0.3186 Y-0.1664
N8360 X0.3095 Y-0.1525
N8365 X0.3001 Y-0.1404
N8370 X0.2905 Y-0.1299
N8375 X0.2815 Y-0.1216
N8380 X0.2729 Y-0.1148
N8385 X0.2654 Y-0.1097
N8390 X0.2579 Y-0.1056
N8395 X0.2508 Y-0.1024
N8400 X0.2443 Y-0.1
N8405 X0.2407 Y-0.099
N8410 X0.2327 Y-0.098
N8415 X0.2247 Y-0.0992
N8420 X0.2174 Y-0.1025
N8425 X0.2112 Y-0.1078
N8430 X0.2067 Y-0.1145
N8435 X0.201 Y-0.1264
N8440 X0.2004 Y-0.1274
N8445 X0.1997 Y-0.1283
N8450 X0.1887 Y-0.142
N8455 G3 X0.1865 Y-0.1464 I0.01 J-0.0075 F10.
N8460 X0.1861 Y-0.1498 I0.0121 J-0.0031 F30.
N8465 G1 X0.1955 Y-0.5881
N8470 G3 X0.2064 Y-0.6003 I0.0125 J0.0003
N8475 X0.2113 Y-0.5999 I0.0016 J0.0124 F10.
N8480 G1 X0.2171 Y-0.5981 F30.
N8485 X0.2344 Y-0.5923
N8490 X0.2402 Y-0.5897
N8495 X0.2981 Y-0.5618
N8500 X0.3058 Y-0.5577
N8505 X0.3128 Y-0.5531
N8510 X0.3204 Y-0.5472
N8515 X0.3283 Y-0.54
N8520 X0.3373 Y-0.5303
N8525 X0.3463 Y-0.5189
N8530 X0.3562 Y-0.5041
N8535 X0.3667 Y-0.4854
N8540 X0.3767 Y-0.4634
N8545 X0.3855 Y-0.4395
N8550 X0.3924 Y-0.415
N8555 X0.3976 Y-0.39
N8560 X0.4013 Y-0.3648
N8565 X0.4035 Y-0.3394
N8570 X0.4041 Y-0.314
N8575 X0.403 Y-0.2885
N8580 X0.4003 Y-0.2632
N8585 X0.3959 Y-0.2381
N8590 X0.3896 Y-0.2134
N8595 X0.3816 Y-0.19
N8600 X0.3723 Y-0.1686
N8605 X0.362 Y-0.1492
N8610 X0.3509 Y-0.1319
N8615 X0.3397 Y-0.1171
N8620 X0.3286 Y-0.1048
N8625 X0.3175 Y-0.0942
N8630 X0.3064 Y-0.0852
N8635 X0.2964 Y-0.0784
N8640 X0.2869 Y-0.073
N8645 X0.2786 Y-0.0691
N8650 X0.271 Y-0.0662
N8655 X0.2632 Y-0.064
N8660 X0.2565 Y-0.0626
N8665 X0.2529 Y-0.0622
N8670 X0.2437 Y-0.0626
N8675 X0.2351 Y-0.0658
N8680 X0.2279 Y-0.0715
N8685 X0.2229 Y-0.0792
N8690 X0.2155 Y-0.0955
N8695 X0.2102 Y-0.1071
N8700 X0.2067 Y-0.1145
N8705 G3 X0.2057 Y-0.1192 I0.0114 J-0.005 F10.
N8710 X0.2059 Y-0.1216 I0.0125 J-0.0003 F30.
N8715 G1 X0.2808 Y-0.5525
N8720 G3 X0.2933 Y-0.5629 I0.0123 J0.0021
N8725 X0.2981 Y-0.5618 I-0.0003 J0.0125 F10.
N8730 G1 X0.3097 Y-0.5563 F30.
N8735 X0.3155 Y-0.5534
N8740 X0.3213 Y-0.5501
N8745 X0.327 Y-0.5462
N8750 X0.3769 Y-0.5123
N8755 X0.3852 Y-0.5059
N8760 X0.3915 Y-0.5003
N8765 X0.3981 Y-0.4934
N8770 X0.4048 Y-0.4851
N8775 X0.4123 Y-0.4741
N8780 X0.4196 Y-0.4615
N8785 X0.4272 Y-0.4454
N8790 X0.4347 Y-0.4254
N8795 X0.4414 Y-0.4021
N8800 X0.4464 Y-0.3771
N8805 X0.4496 Y-0.3518
N8810 X0.4511 Y-0.3264
N8815 X0.451 Y-0.3009
N8820 X0.4494 Y-0.2755
N8825 X0.4461 Y-0.2502
N8830 X0.4413 Y-0.2252
N8835 X0.4349 Y-0.2005
N8840 X0.4267 Y-0.1764
N8845 X0.4168 Y-0.1529
N8850 X0.4054 Y-0.131
N8855 X0.3931 Y-0.1112
N8860 X0.38 Y-0.0936
N8865 X0.3664 Y-0.0781
N8870 X0.3532 Y-0.0652
N8875 X0.3404 Y-0.0547
N8880 X0.3278 Y-0.0459
N8885 X0.3156 Y-0.0387
N8890 X0.3047 Y-0.0335
N8895 X0.2948 Y-0.0297
N8900 X0.2857 Y-0.0269
N8905 X0.2782 Y-0.0253
N8910 X0.2699 Y-0.0243
N8915 X0.2627 Y-0.0239
N8920 X0.259 Y-0.024
N8925 X0.251 Y-0.0254
N8930 X0.2437 Y-0.029
N8935 X0.2377 Y-0.0344
N8940 X0.2334 Y-0.0413
N8945 X0.2311 Y-0.049
N8950 X0.2302 Y-0.055
N8955 X0.2286 Y-0.0639
N8960 X0.2278 Y-0.0666
N8965 X0.226 Y-0.0724
N8970 X0.2229 Y-0.0792
N8975 G3 X0.222 Y-0.084 I0.0116 J-0.0047 F10.
N8980 X0.2226 Y-0.0878 I0.0125 J0.0001 F30.
N8985 G1 X0.3583 Y-0.5056
N8990 G3 X0.3723 Y-0.514 I0.0119 J0.0039
N8995 X0.3769 Y-0.5123 I-0.0021 J0.0123 F10.
N9000 G1 X0.3907 Y-0.5028 F30.
N9005 X0.3936 Y-0.5007
N9010 X0.4023 Y-0.4934
N9015 X0.4072 Y-0.4891
N9020 X0.4486 Y-0.4507
N9025 X0.4561 Y-0.4431
N9030 X0.4614 Y-0.4366
N9035 X0.467 Y-0.4287
N9040 X0.4724 Y-0.4195
N9045 X0.4782 Y-0.4075
N9050 X0.4835 Y-0.394
N9055 X0.4886 Y-0.3769
N9060 X0.4931 Y-0.3559
N9065 X0.4962 Y-0.3319
N9070 X0.4975 Y-0.3064
N9075 X0.4968 Y-0.281
N9080 X0.4945 Y-0.2556
N9085 X0.4907 Y-0.2304
N9090 X0.4852 Y-0.2055
N9095 X0.4783 Y-0.181
N9100 X0.4698 Y-0.157
N9105 X0.4597 Y-0.1336
N9110 X0.4481 Y-0.1109
N9115 X0.4348 Y-0.0892
N9120 X0.4203 Y-0.0692
N9125 X0.4051 Y-0.0515
N9130 X0.3896 Y-0.0361
N9135 X0.3739 Y-0.0228
N9140 X0.359 Y-0.0121
N9145 X0.3448 Y-0.0036
N9150 X0.3311 Y0.0032
N9155 X0.3179 Y0.0085
N9160 X0.3063 Y0.0121
N9165 X0.2956 Y0.0145
N9170 X0.2865 Y0.0158
N9175 X0.2784 Y0.0163
N9180 X0.2702 Y0.0161
N9185 X0.2634 Y0.0154
N9190 X0.26 Y0.0148
N9195 X0.2529 Y0.0125
N9200 X0.2466 Y0.0085
N9205 X0.2415 Y0.003
N9210 X0.238 Y-0.0036
N9215 X0.2363 Y-0.0109
N9220 X0.2359 Y-0.0145
N9225 X0.2352 Y-0.0203
N9230 X0.2311 Y-0.049
N9235 G3 X0.2315 Y-0.0539 I0.0124 J-0.0013 F10.
N9240 X0.2324 Y-0.056 I0.012 J0.0035 F30.
N9245 G1 X0.4293 Y-0.4469
N9250 G3 X0.4444 Y-0.4532 I0.0112 J0.0056
N9255 X0.4486 Y-0.4507 I-0.0039 J0.0119 F10.
N9260 G1 X0.4544 Y-0.4453 F30.
N9265 X0.466 Y-0.4343
N9270 X0.469 Y-0.4312
N9275 X0.5105 Y-0.3791
N9280 X0.5168 Y-0.3704
N9285 X0.5212 Y-0.3632
N9290 X0.5255 Y-0.3546
N9295 X0.5294 Y-0.3447
N9300 X0.5334 Y-0.3319
N9305 X0.5366 Y-0.3177
N9310 X0.5391 Y-0.3
N9315 X0.5404 Y-0.2786
N9320 X0.5399 Y-0.2543
N9325 X0.5374 Y-0.229
N9330 X0.533 Y-0.2039
N9335 X0.5269 Y-0.1791
N9340 X0.5193 Y-0.1548
N9345 X0.5103 Y-0.131
N9350 X0.4997 Y-0.1078
N9355 X0.4878 Y-0.0853
N9360 X0.4743 Y-0.0636
N9365 X0.4594 Y-0.043
N9370 X0.443 Y-0.0235
N9375 X0.4258 Y-0.0059
N9380 X0.4082 Y0.0093
N9385 X0.3905 Y0.0222
N9390 X0.373 Y0.033
N9395 X0.3566 Y0.0414
N9400 X0.3413 Y0.0477
N9405 X0.3267 Y0.0524
N9410 X0.3129 Y0.0557
N9415 X0.301 Y0.0575
N9420 X0.2901 Y0.0582
N9425 X0.2812 Y0.0581
N9430 X0.2727 Y0.0574
N9435 X0.2651 Y0.0561
N9440 X0.2584 Y0.0543
N9445 X0.2545 Y0.053
N9450 X0.2473 Y0.0494
N9455 X0.2414 Y0.0439
N9460 X0.2372 Y0.037
N9465 X0.235 Y0.0293
N9470 X0.2351 Y0.0213
N9475 X0.2359 Y0.0145
N9480 X0.2374 Y0.
N9485 X0.2363 Y-0.0109
N9490 G3 X0.2369 Y-0.0157 I0.0125 J-0.0009 F10.
N9495 X0.2385 Y-0.0189 I0.0118 J0.004 F30.
N9500 G1 X0.4908 Y-0.3782
N9505 G3 X0.5067 Y-0.3821 I0.0102 J0.0072
N9510 X0.5105 Y-0.3791 I-0.0057 J0.0111 F10.
N9515 G1 X0.5151 Y-0.3733 F30.
N9520 X0.5296 Y-0.3537
N9525 X0.5317 Y-0.3502
N9530 X0.5618 Y-0.2981
N9535 X0.5661 Y-0.2896
N9540 X0.5693 Y-0.2818
N9545 X0.5723 Y-0.2727
N9550 X0.5748 Y-0.2622
N9555 X0.5768 Y-0.249
N9560 X0.5778 Y-0.2345
N9565 X0.5777 Y-0.2166
N9570 X0.5758 Y-0.1951
N9575 X0.5717 Y-0.1712
N9580 X0.5654 Y-0.1465
N9585 X0.5573 Y-0.1224
N9590 X0.5476 Y-0.0988
N9595 X0.5365 Y-0.0759
N9600 X0.524 Y-0.0537
N9605 X0.5101 Y-0.0323
N9610 X0.4949 Y-0.0118
N9615 X0.4784 Y0.0076
N9620 X0.4606 Y0.0258
N9625 X0.4415 Y0.0427
N9630 X0.4218 Y0.0575
N9635 X0.4021 Y0.0699
N9640 X0.3827 Y0.08
N9645 X0.3638 Y0.0881
N9650 X0.3464 Y0.0939
N9655 X0.3304 Y0.0979
N9660 X0.3152 Y0.1003
N9665 X0.3012 Y0.1015
N9670 X0.289
N9675 X0.2781 Y0.1006
N9680 X0.269 Y0.0992
N9685 X0.261 Y0.0972
N9690 X0.2533 Y0.0947
N9695 X0.2471 Y0.092
N9700 X0.2446 Y0.0907
N9705 X0.2372 Y0.0852
N9710 X0.2319 Y0.0777
N9715 X0.2292 Y0.0689
N9720 X0.2294 Y0.0597
N9725 X0.2302 Y0.055
N9730 X0.2351 Y0.0213
N9735 G3 X0.2369 Y0.0167 I0.0123 J0.0022 F10.
N9740 X0.2384 Y0.0148 I0.0105 J0.0067 F30.
N9745 G1 X0.5422 Y-0.3002
N9750 G3 X0.5584 Y-0.3017 I0.009 J0.0087
N9755 X0.5618 Y-0.2981 I-0.0073 J0.0102 F10.
N9760 G1 X0.5684 Y-0.2865 F30.
N9765 X0.5717 Y-0.2807
N9770 X0.5748 Y-0.2749
N9775 X0.5771 Y-0.2692
N9780 X0.5998 Y-0.2113
N9785 X0.6028 Y-0.2023
N9790 X0.6049 Y-0.1941
N9795 X0.6064 Y-0.1846
N9800 X0.6073 Y-0.1739
N9805 X0.6074 Y-0.1605
N9810 X0.6062 Y-0.146
N9815 X0.6034 Y-0.1282
N9820 X0.5983 Y-0.1073
N9825 X0.5907 Y-0.0842
N9830 X0.5808 Y-0.0608
N9835 X0.5692 Y-0.0381
N9840 X0.5561 Y-0.0162
N9845 X0.5417 Y0.0048
N9850 X0.526 Y0.0249
N9855 X0.5091 Y0.044
N9860 X0.4911 Y0.0619
N9865 X0.4718 Y0.0787
N9870 X0.4515 Y0.094
N9875 X0.4301 Y0.1078
N9880 X0.4084 Y0.1195
N9885 X0.3871 Y0.1289
N9890 X0.3665 Y0.136
N9895 X0.3466 Y0.1412
N9900 X0.3285 Y0.1443
N9905 X0.312 Y0.1459
N9910 X0.2966 Y0.146
N9915 X0.2824 Y0.1451
N9920 X0.2708 Y0.1433
N9925 X0.2605 Y0.1409
N9930 X0.2516 Y0.1381
N9935 X0.2445 Y0.1352
N9940 X0.2372 Y0.1314
N9945 X0.231 Y0.1277
N9950 X0.2257 Y0.1238
N9955 X0.2207 Y0.1182
N9960 X0.2173 Y0.1116
N9965 X0.2157 Y0.1043
N9970 X0.216 Y0.0968
N9975 X0.2182 Y0.0896
N9980 X0.2254 Y0.0735
N9985 X0.226 Y0.0724
N9990 X0.2278 Y0.0666
N9995 X0.2286 Y0.0639
N10000 X0.2294 Y0.0597
N10005 G3 X0.2313 Y0.0553 I0.0122 J0.0026 F10.
N10010 X0.234 Y0.0525 I0.0103 J0.0071 F30.
N10015 G1 X0.5807 Y-0.2162
N10020 G3 X0.597 Y-0.2153 I0.0077 J0.0099
N10025 X0.5998 Y-0.2113 I-0.0087 J0.009 F10.
N10030 G1 X0.6066 Y-0.1939 F30.
N10035 X0.6089 Y-0.1881
N10040 X0.6116 Y-0.1765
N10045 X0.6248 Y-0.1187
N10050 X0.6262 Y-0.1106
N10055 X0.627 Y-0.1022
N10060 X0.6271 Y-0.0925
N10065 X0.6264 Y-0.0818
N10070 X0.6245 Y-0.0685
N10075 X0.6212 Y-0.0543
N10080 X0.6157 Y-0.0371
N10085 X0.6076 Y-0.0172
N10090 X0.5966 Y0.0046
N10095 X0.5833 Y0.0263
N10100 X0.5684 Y0.047
N10105 X0.5522 Y0.0667
N10110 X0.5349 Y0.0853
N10115 X0.5164 Y0.1028
N10120 X0.4968 Y0.1192
N10125 X0.4763 Y0.1343
N10130 X0.4548 Y0.148
N10135 X0.4324 Y0.1601
N10140 X0.4092 Y0.1706
N10145 X0.386 Y0.1789
N10150 X0.3635 Y0.185
N10155 X0.342 Y0.189
N10160 X0.3215 Y0.1911
N10165 X0.3034 Y0.1915
N10170 X0.2869 Y0.1906
N10175 X0.2719 Y0.1885
N10180 X0.2581 Y0.1854
N10185 X0.2459 Y0.1817
N10190 X0.2365 Y0.1779
N10195 X0.2277 Y0.1736
N10200 X0.2209 Y0.1695
N10205 X0.2142 Y0.1647
N10210 X0.2088 Y0.1602
N10215 X0.2073 Y0.1587
N10220 X0.2019 Y0.1514
N10225 X0.1991 Y0.1429
N10230 X0.1989 Y0.1339
N10235 X0.2015 Y0.1253
N10240 X0.2075 Y0.1129
N10245 X0.2113 Y0.1048
N10250 X0.2182 Y0.0896
N10255 G3 X0.2212 Y0.0858 I0.0112 J0.0056 F10.
N10260 X0.2234 Y0.0842 I0.0082 J0.0094 F30.
N10265 G1 X0.6067 Y-0.1264
N10270 G3 X0.6227 Y-0.123 I0.006 J0.011
N10275 X0.6248 Y-0.1187 I-0.0099 J0.0076 F10.
N10280 G1 X0.6288 Y-0.1013 F30.
N10285 X0.6297 Y-0.0955
N10290 X0.6315 Y-0.0781
N10295 X0.6354 Y-0.026
N10300 X0.6356 Y-0.0162
N10305 X0.6357 Y-0.0102
N10310 X0.6354 Y-0.0042
N10315 X0.6348 Y0.0018
N10320 X0.6339 Y0.0077
N10325 X0.6326 Y0.0136
N10330 X0.6311 Y0.0194
N10335 X0.6294 Y0.0251
N10340 X0.6275 Y0.0308
N10345 X0.6253 Y0.0364
N10350 X0.623 Y0.0419
N10355 X0.6205 Y0.0474
N10360 X0.6178 Y0.0528
N10365 X0.615 Y0.0581
N10370 X0.6121 Y0.0633
N10375 X0.609 Y0.0685
N10380 X0.6059 Y0.0736
N10385 X0.6026 Y0.0786
N10390 X0.5992 Y0.0835
N10395 X0.5957 Y0.0884
N10400 X0.5921 Y0.0932
N10405 X0.5884 Y0.098
N10410 X0.5847 Y0.1026
N10415 X0.5808 Y0.1072
N10420 X0.5769 Y0.1118
N10425 X0.5729 Y0.1163
N10430 X0.5688 Y0.1207
N10435 X0.5647 Y0.125
N10440 X0.5604 Y0.1293
N10445 X0.5562 Y0.1335
N10450 X0.5518 Y0.1376
N10455 X0.5474 Y0.1417
N10460 X0.543 Y0.1457
N10465 X0.5384 Y0.1496
N10470 X0.5338 Y0.1535
N10475 X0.5292 Y0.1573
N10480 X0.5245 Y0.161
N10485 X0.5198 Y0.1647
N10490 X0.5149 Y0.1683
N10495 X0.5101 Y0.1718
N10500 X0.5052 Y0.1753
N10505 X0.5002 Y0.1787
N10510 X0.4952 Y0.182
N10515 X0.4902 Y0.1852
N10520 X0.485 Y0.1883
N10525 X0.4799 Y0.1914
N10530 X0.4747 Y0.1944
N10535 X0.4695 Y0.1973
N10540 X0.4642 Y0.2002
N10545 X0.4588 Y0.2029
N10550 X0.4535 Y0.2056
N10555 X0.4481 Y0.2082
N10560 X0.4426 Y0.2107
N10565 X0.4371 Y0.2131
N10570 X0.4316 Y0.2154
N10575 X0.426 Y0.2176
N10580 X0.4204 Y0.2198
N10585 X0.4147 Y0.2218
N10590 X0.4091 Y0.2237
N10595 X0.4034 Y0.2256
N10600 X0.3976 Y0.2273
N10605 X0.3919 Y0.229
N10610 X0.3861 Y0.2305
N10615 X0.3802 Y0.232
N10620 X0.3744 Y0.2333
N10625 X0.3685 Y0.2345
N10630 X0.3626 Y0.2356
N10635 X0.3567 Y0.2367
N10640 X0.3508 Y0.2375
N10645 X0.3448 Y0.2383
N10650 X0.3388 Y0.239
N10655 X0.3329 Y0.2395
N10660 X0.3269 Y0.2399
N10665 X0.3209 Y0.2401
N10670 X0.3149 Y0.2403
N10675 X0.3089
N10680 X0.3029 Y0.2402
N10685 X0.2969 Y0.2399
N10690 X0.2909 Y0.2395
N10695 X0.2849 Y0.2389
N10700 X0.279 Y0.2382
N10705 X0.273 Y0.2374
N10710 X0.2671 Y0.2363
N10715 X0.2612 Y0.2352
N10720 X0.2554 Y0.2338
N10725 X0.2496 Y0.2323
N10730 X0.2438 Y0.2306
N10735 X0.2381 Y0.2287
N10740 X0.2325 Y0.2267
N10745 X0.2269 Y0.2244
N10750 X0.2214 Y0.222
N10755 X0.2161 Y0.2194
N10760 X0.2108 Y0.2165
N10765 X0.2057 Y0.2134
N10770 X0.2007 Y0.2101
N10775 X0.1958 Y0.2065
N10780 X0.1912 Y0.2026
N10785 X0.1869 Y0.1985
N10790 X0.1828 Y0.1941
N10795 X0.179 Y0.1895
N10800 X0.1781 Y0.1883
N10805 X0.1745 Y0.1815
N10810 X0.1729 Y0.1739
N10815 X0.1732 Y0.1662
N10820 X0.1756 Y0.1588
N10825 X0.1799 Y0.1524
N10830 X0.184 Y0.1476
N10835 X0.1888 Y0.1418
N10840 X0.1997 Y0.1283
N10845 X0.2004 Y0.1274
N10850 X0.201 Y0.1264
N10855 X0.2015 Y0.1253
N10860 G3 X0.2046 Y0.1215 I0.0111 J0.0058 F10.
N10865 X0.2082 Y0.1194 I0.008 J0.0096 F30.
N10870 G1 X0.6185 Y-0.0364
N10875 G3 X0.6339 Y-0.0307 I0.0044 J0.0117
N10880 X0.6354 Y-0.026 I-0.011 J0.006 F10.
N10885 G1 X0.6371 Y-0.0029 F30.
N10890 Y0.0029
N10895 X0.6319 Y0.0724
N10900 X0.6306 Y0.083
N10905 X0.6289 Y0.091
N10910 X0.6262 Y0.1
N10915 X0.6223 Y0.1103
N10920 X0.6168 Y0.1219
N10925 X0.6091 Y0.135
N10930 X0.599 Y0.1496
N10935 X0.5857 Y0.1658
N10940 X0.5688 Y0.1832
N10945 X0.5497 Y0.2001
N10950 X0.5294 Y0.2155
N10955 X0.5082 Y0.2295
N10960 X0.486 Y0.2421
N10965 X0.4632 Y0.2534
N10970 X0.4396 Y0.2632
N10975 X0.4155 Y0.2714
N10980 X0.3909 Y0.278
N10985 X0.3659 Y0.2829
N10990 X0.3406 Y0.286
N10995 X0.3155 Y0.2871
N11000 X0.292 Y0.2863
N11005 X0.2825 Y0.2851
N11010 X0.2762 Y0.2842
N11015 X0.2698 Y0.2847
N11020 X0.2637 Y0.2865
N11025 X0.2582 Y0.2896
N11030 X0.2534 Y0.2939
N11035 X0.2497 Y0.299
N11040 X0.2472 Y0.3049
N11045 X0.2425 Y0.3299
N11050 X0.2452 Y0.3553
N11055 X0.2486 Y0.3805
N11060 X0.2515 Y0.4058
N11065 X0.2533 Y0.4313
N11070 X0.2535 Y0.4567
N11075 X0.2518 Y0.4821
N11080 X0.2482 Y0.5063
N11085 X0.2428 Y0.5296
N11090 X0.2357 Y0.5519
N11095 X0.2269 Y0.5734
N11100 X0.2194 Y0.5881
N11105 X0.215 Y0.5945
N11110 X0.2091 Y0.5995
N11115 X0.202 Y0.6028
N11120 X0.1577 Y0.6165
N11125 X0.1418 Y0.6208
N11130 X0.1359 Y0.6222
N11135 X0.1288 Y0.6233
N11140 G3 X0.1239 Y0.6229 I-0.0014 J-0.0124 F10.
N11145 X0.1153 Y0.6142 I0.0034 J-0.012 F30.
N11150 G1 X0.0154 Y0.2514
N11155 G3 X0.0214 Y0.2371 I0.0121 J-0.0033
N11160 X0.026 Y0.2356 I0.0061 J0.0109 F10.
N11165 G1 X0.0318 Y0.2352 F30.
N11170 X0.037 Y0.2344
N11175 X0.055 Y0.2295
N11180 X0.0897 Y0.2193
N11185 X0.0958 Y0.2171
N11190 X0.1013 Y0.2146
N11195 X0.1071 Y0.2113
N11200 X0.1129 Y0.2077
N11205 X0.1476 Y0.1853
N11210 X0.1519 Y0.1823
N11215 X0.1534 Y0.1811
N11220 X0.1586 Y0.1765
N11225 X0.1639 Y0.1708
N11230 X0.1799 Y0.1524
N11235 G3 X0.1838 Y0.1495 I0.0092 J0.0085 F10.
N11240 X0.1865 Y0.1486 I0.0052 J0.0114 F30.
N11245 G1 X0.6169 Y0.0596
N11250 G3 X0.6311 Y0.0675 I0.0025 J0.0122
N11255 X0.6319 Y0.0724 I-0.0117 J0.0043 F10.
N11260 G1 X0.6315 Y0.0781 F30.
N11265 X0.6297 Y0.0955
N11270 X0.6288 Y0.1013
N11275 X0.6129 Y0.1708
N11280 X0.6113 Y0.1765
N11285 X0.6082 Y0.1846
N11290 X0.604 Y0.1933
N11295 X0.5985 Y0.2029
N11300 X0.5908 Y0.2139
N11305 X0.5812 Y0.2256
N11310 X0.5687 Y0.2386
N11315 X0.5524 Y0.2529
N11320 X0.5324 Y0.2678
N11325 X0.5109 Y0.2814
N11330 X0.4884 Y0.2934
N11335 X0.4651 Y0.3038
N11340 X0.4413 Y0.3128
N11345 X0.4169 Y0.3202
N11350 X0.3921 Y0.3261
N11355 X0.367 Y0.3305
N11360 X0.3607 Y0.3312
N11365 X0.3546 Y0.3332
N11370 X0.3437 Y0.3398
N11375 X0.3271 Y0.3591
N11380 X0.3173 Y0.3826
N11385 X0.3117 Y0.4075
N11390 X0.308 Y0.4327
N11395 X0.305 Y0.458
N11400 X0.3015 Y0.4832
N11405 X0.2971 Y0.5083
N11410 X0.2913 Y0.5331
N11415 X0.2839 Y0.5575
N11420 X0.2828 Y0.5604
N11425 X0.2793 Y0.5669
N11430 X0.2743 Y0.5723
N11435 X0.2682 Y0.5762
N11440 X0.2402 Y0.5897
N11445 X0.2344 Y0.5923
N11450 X0.2171 Y0.5981
N11455 X0.2113 Y0.5999
N11460 X0.202 Y0.6028
N11465 G3 X0.1972 Y0.6031 I-0.0033 J-0.0121 F10.
N11470 G1 X0.1944 Y0.6027 Z-0.0893
N11475 X0.1918 Y0.6024 Z-0.0884
N11480 X0.1894 Y0.6021 Z-0.0869
N11485 X0.1875 Y0.6019 Z-0.0849
N11490 X0.186 Y0.6017 Z-0.0825
N11495 X0.1851 Y0.6015 Z-0.0799
N11500 X0.1848 Z-0.0771
N11505 G0 Z0.1004
N11510 X0.6019 Y0.1797
N11515 Z-0.0646
N11520 G1 Z-0.0771 F10.
N11525 X0.602 Y0.1794 Z-0.0799
N11530 X0.6025 Y0.1786 Z-0.0825
N11535 X0.6033 Y0.1774 Z-0.0849
N11540 X0.6043 Y0.1757 Z-0.0869
N11545 X0.6055 Y0.1736 Z-0.0884
N11550 X0.6069 Y0.1714 Z-0.0893
N11555 X0.6083 Y0.169 Z-0.0896
N11560 G3 X0.6129 Y0.1708 I0.0021 J0.0013
N11565 G1 X0.6102 Y0.1823 F30.
N11570 X0.6089 Y0.1881
N11575 X0.6044 Y0.1997
N11580 X0.5817 Y0.2574
N11585 X0.5783 Y0.2649
N11590 X0.5744 Y0.272
N11595 X0.5689 Y0.2803
N11600 X0.5625 Y0.2885
N11605 X0.5534 Y0.2983
N11610 X0.5429 Y0.308
N11615 X0.5288 Y0.3191
N11620 X0.5115 Y0.3305
N11625 X0.4909 Y0.3419
N11630 X0.4676 Y0.3524
N11635 X0.4437 Y0.3611
N11640 X0.4192 Y0.3682
N11645 X0.3979 Y0.3821
N11650 X0.3823 Y0.4023
N11655 X0.3714 Y0.4253
N11660 X0.3634 Y0.4495
N11665 X0.3569 Y0.4741
N11670 X0.3509 Y0.4989
N11675 X0.3447 Y0.5236
N11680 X0.3438 Y0.5266
N11685 X0.3412 Y0.5329
N11690 X0.3373 Y0.5383
N11695 X0.3322 Y0.5427
N11700 X0.3259 Y0.547
N11705 X0.3213 Y0.5501
N11710 X0.3155 Y0.5534
N11715 X0.3097 Y0.5563
N11720 X0.2682 Y0.5762
N11725 G3 X0.2634 Y0.5773 I-0.005 J-0.0114 F10.
N11730 G1 X0.2606 Y0.5774 Z-0.0893
N11735 X0.258 Z-0.0884
N11740 X0.2556 Y0.5775 Z-0.0869
N11745 X0.2536 Z-0.0849
N11750 X0.2522 Z-0.0825
N11755 X0.2512 Y0.5776 Z-0.0799
N11760 X0.2509 Z-0.0771
N11765 G0 Z0.1004
N11770 X0.5695 Y0.2646
N11775 Z-0.0646
N11780 G1 Z-0.0771 F10.
N11785 X0.5697 Y0.2643 Z-0.0799
N11790 X0.5703 Y0.2636 Z-0.0825
N11795 X0.5712 Y0.2625 Z-0.0849
N11800 X0.5725 Y0.2609 Z-0.0869
N11805 X0.574 Y0.2591 Z-0.0884
N11810 X0.5757 Y0.2571 Z-0.0893
N11815 X0.5775 Y0.2549 Z-0.0896
N11820 G3 X0.5817 Y0.2574 I0.0019 J0.0016
N11825 G1 X0.5759 Y0.2721 F30.
N11830 X0.5748 Y0.2749
N11835 X0.5701 Y0.2835
N11840 X0.5684 Y0.2865
N11845 X0.5354 Y0.3437
N11850 X0.5322 Y0.3487
N11855 X0.5267 Y0.3556
N11860 X0.5203 Y0.3625
N11865 X0.512 Y0.3701
N11870 X0.5016 Y0.3782
N11875 X0.4803 Y0.3922
N11880 X0.4588 Y0.406
N11885 X0.4414 Y0.4246
N11890 X0.4278 Y0.4461
N11895 X0.417 Y0.4692
N11900 X0.4133 Y0.4792
N11905 X0.4112 Y0.4835
N11910 X0.4085 Y0.4875
N11915 X0.4051 Y0.491
N11920 G3 X0.4008 Y0.4932 I-0.0079 J-0.0097 F10.
N11925 X0.3879 Y0.4729 I-0.0036 J-0.012 F30.
N11930 G1 X0.515 Y0.3295
N11935 G3 X0.5368 Y0.339 I0.0094 J0.0083
N11940 X0.5354 Y0.3437 I-0.0124 J-0.0012 F10.
N11945 G1 X0.5317 Y0.3502 F30.
N11950 X0.5296 Y0.3537
N11955 X0.5151 Y0.3733
N11960 X0.469 Y0.4312
N11965 X0.466 Y0.4343
N11970 X0.4509 Y0.4486
N11975 X0.4072 Y0.4891
N11980 X0.4023 Y0.4934
N11985 X0.3936 Y0.5007
N11990 X0.3907 Y0.5028
N11995 X0.3322 Y0.5427
N12000 X0.3308 Y0.5433 Z-0.0894 F10.
N12005 X0.3295 Y0.5437 Z-0.0887
N12010 X0.3285 Y0.5441 Z-0.0876
N12015 X0.3279 Y0.5444 Z-0.0862
N12020 X0.3276 Y0.5445 Z-0.0847
N12025 G0 Z0.1004
N12030 X-0.0689 Y0.3936
N12035 Z0.0229
N12040 G1 Z0.0104 F10.
N12045 G3 X0.015 Y0.4776 Z0.0039 I0.042 J0.042 F20.
N12050 X-0.0689 Y0.3936 Z-0.0026 I-0.042 J-0.042
N12055 X0.015 Y0.4776 Z-0.0091 I0.042 J0.042
N12060 X-0.0689 Y0.3936 Z-0.0157 I-0.042 J-0.042
N12065 X0.015 Y0.4776 Z-0.0222 I0.042 J0.042
N12070 X-0.0689 Y0.3936 Z-0.0287 I-0.042 J-0.042
N12075 X0.015 Y0.4776 Z-0.0352 I0.042 J0.042
N12080 X-0.0689 Y0.3936 Z-0.0417 I-0.042 J-0.042
N12085 X0.015 Y0.4776 Z-0.0482 I0.042 J0.042
N12090 X-0.0689 Y0.3936 Z-0.0547 I-0.042 J-0.042
N12095 X0.015 Y0.4776 Z-0.0613 I0.042 J0.042
N12100 X-0.0689 Y0.3936 Z-0.0678 I-0.042 J-0.042
N12105 X0.015 Y0.4776 Z-0.0743 I0.042 J0.042
N12110 X-0.0689 Y0.3936 Z-0.0808 I-0.042 J-0.042
N12115 X0.015 Y0.4776 Z-0.0873 I0.042 J0.042
N12120 X-0.0689 Y0.3936 Z-0.0938 I-0.042 J-0.042
N12125 X0.015 Y0.4776 Z-0.1003 I0.042 J0.042
N12130 X-0.0689 Y0.3936 Z-0.1069 I-0.042 J-0.042
N12135 X0.015 Y0.4776 Z-0.1134 I0.042 J0.042
N12140 X-0.0689 Y0.3936 Z-0.1199 I-0.042 J-0.042
N12145 X0.015 Y0.4776 Z-0.1264 I0.042 J0.042
N12150 X-0.0689 Y0.3936 Z-0.1329 I-0.042 J-0.042
N12155 X0.0324 Y0.4356 Z-0.1378 I0.042 J0.042
N12160 X-0.0863 I-0.0594 J0.
N12165 X0.0324 I0.0594 J0.
N12170 G1 X0.0331 Y0.4611 F30.
N12175 X0.0342 Y0.464
N12180 X0.0356 Y0.4699
N12185 X0.0357 Y0.4759
N12190 X0.0347 Y0.4818
N12195 X0.033 Y0.4876
N12200 X0.0305 Y0.493
N12205 X0.0274 Y0.4982
N12210 X0.0237 Y0.5029
N12215 X0.0196 Y0.5073
N12220 X0.0151 Y0.5113
N12225 X0.0103 Y0.5148
N12230 X0.0052 Y0.5179
N12235 X-0.0002 Y0.5206
N12240 X-0.0059 Y0.5228
N12245 X-0.0118 Y0.5246
N12250 X-0.0181 Y0.526
N12255 X-0.0245 Y0.5269
N12260 X-0.0311 Y0.5272
N12265 X-0.0378 Y0.5271
N12270 X-0.0446 Y0.5264
N12275 X-0.0514 Y0.5251
N12280 X-0.0582 Y0.5233
N12285 X-0.0648 Y0.5209
N12290 X-0.0713 Y0.5179
N12295 X-0.0776 Y0.5144
N12300 X-0.0836 Y0.5104
N12305 X-0.0894 Y0.5059
N12310 X-0.0948 Y0.5009
N12315 X-0.0997 Y0.4955
N12320 X-0.1043 Y0.4896
N12325 X-0.1084 Y0.4834
N12330 X-0.112 Y0.4769
N12335 X-0.115 Y0.4701
N12340 X-0.1175 Y0.463
N12345 X-0.1195 Y0.4557
N12350 X-0.1208 Y0.4483
N12355 X-0.1216 Y0.4408
N12360 X-0.1217 Y0.4333
N12365 X-0.1213 Y0.4257
N12370 X-0.1202 Y0.4182
N12375 X-0.1186 Y0.4108
N12380 X-0.1163 Y0.4036
N12385 X-0.1135 Y0.3965
N12390 X-0.1101 Y0.3897
N12395 X-0.1062 Y0.3832
N12400 X-0.1017 Y0.377
N12405 X-0.0968 Y0.3712
N12410 X-0.0914 Y0.3658
N12415 X-0.0856 Y0.3609
N12420 X-0.0795 Y0.3564
N12425 X-0.0729 Y0.3524
N12430 X-0.0661 Y0.349
N12435 X-0.0591 Y0.3461
N12440 X-0.0518 Y0.3438
N12445 X-0.0444 Y0.3421
N12450 X-0.0368 Y0.341
N12455 X-0.0292 Y0.3406
N12460 X-0.0216 Y0.3407
N12465 X-0.014 Y0.3414
N12470 X-0.0064 Y0.3428
N12475 X0.0009 Y0.3447
N12480 X0.0081 Y0.3472
N12485 X0.0151 Y0.3503
N12490 X0.0218 Y0.354
N12495 X0.0282 Y0.3581
N12500 X0.0343 Y0.3628
N12505 X0.0399 Y0.368
N12510 X0.0451 Y0.3735
N12515 X0.0499 Y0.3795
N12520 X0.0541 Y0.3859
N12525 X0.0583 Y0.3934
N12530 X0.0646 Y0.4072
N12535 X0.0698 Y0.4214
N12540 X0.0729 Y0.4326
N12545 X0.0748 Y0.4426
N12550 X0.0758 Y0.4521
N12555 X0.0761 Y0.4611
N12560 X0.0757 Y0.4696
N12565 X0.0746 Y0.4778
N12570 X0.0728 Y0.4858
N12575 X0.0705 Y0.4937
N12580 X0.0675 Y0.5013
N12585 X0.0639 Y0.5087
N12590 X0.0597 Y0.5158
N12595 X0.0549 Y0.5226
N12600 X0.0495 Y0.529
N12605 X0.0436 Y0.5351
N12610 X0.0371 Y0.5407
N12615 X0.0301 Y0.5458
N12620 X0.0226 Y0.5505
N12625 X0.0146 Y0.5546
N12630 X0.0062 Y0.5581
N12635 X-0.0025 Y0.5609
N12640 X-0.0116 Y0.5631
N12645 X-0.021 Y0.5645
N12650 X-0.0305 Y0.5652
N12655 X-0.0402 Y0.5651
N12660 X-0.05 Y0.5643
N12665 X-0.0597 Y0.5626
N12670 X-0.0694 Y0.5602
N12675 X-0.0789 Y0.5569
N12680 X-0.0882 Y0.5529
N12685 X-0.0972 Y0.5481
N12690 X-0.1058 Y0.5425
N12695 X-0.114 Y0.5363
N12700 X-0.1217 Y0.5294
N12705 X-0.1289 Y0.5218
N12710 X-0.1355 Y0.5137
N12715 X-0.1414 Y0.505
N12720 X-0.1466 Y0.4958
N12725 X-0.1511 Y0.4863
N12730 X-0.1548 Y0.4763
N12735 X-0.1577 Y0.4661
N12740 X-0.1598 Y0.4557
N12745 X-0.1611 Y0.4451
N12750 X-0.1614 Y0.4344
N12755 X-0.161 Y0.4237
N12760 X-0.1596 Y0.413
N12765 X-0.1575 Y0.4025
N12770 X-0.1544 Y0.3922
N12775 X-0.1506 Y0.3821
N12780 X-0.1459 Y0.3724
N12785 X-0.1405 Y0.3631
N12790 X-0.1344 Y0.3542
N12795 X-0.1275 Y0.3458
N12800 X-0.12 Y0.3381
N12805 X-0.1119 Y0.3309
N12810 X-0.1033 Y0.3244
N12815 X-0.0941 Y0.3187
N12820 X-0.0846 Y0.3136
N12825 X-0.0746 Y0.3094
N12830 X-0.0643 Y0.306
N12835 X-0.0538 Y0.3034
N12840 X-0.0431 Y0.3017
N12845 X-0.0323 Y0.3008
N12850 X-0.0215
N12855 X-0.0107 Y0.3017
N12860 X0. Y0.3034
N12865 X0.0105 Y0.306
N12870 X0.0208 Y0.3094
N12875 X0.0307 Y0.3136
N12880 X0.0404 Y0.3186
N12885 X0.0495 Y0.3244
N12890 X0.0582 Y0.3309
N12895 X0.0665 Y0.3382
N12900 X0.0751 Y0.3472
N12905 X0.0836 Y0.3575
N12910 X0.0914 Y0.3687
N12915 X0.0985 Y0.3809
N12920 X0.1045 Y0.3935
N12925 X0.1094 Y0.4062
N12930 X0.1131 Y0.4189
N12935 X0.1157 Y0.4314
N12940 X0.1173 Y0.4439
N12945 X0.1178 Y0.4562
N12950 X0.1174 Y0.4684
N12955 X0.116 Y0.4803
N12960 X0.1136 Y0.4921
N12965 X0.1104 Y0.5035
N12970 X0.1063 Y0.5146
N12975 X0.1013 Y0.5252
N12980 X0.0954 Y0.5355
N12985 X0.0888 Y0.5453
N12990 X0.0813 Y0.5546
N12995 X0.0731 Y0.5632
N13000 X0.0641 Y0.5713
N13005 X0.0544 Y0.5786
N13010 X0.0442 Y0.5853
N13015 X0.0333 Y0.5911
N13020 X0.0219 Y0.596
N13025 X0.01 Y0.6001
N13030 X-0.0023 Y0.6032
N13035 X-0.0149 Y0.6054
N13040 X-0.0277 Y0.6065
N13045 X-0.0407 Y0.6066
N13050 X-0.0537 Y0.6057
N13055 X-0.0667 Y0.6037
N13060 X-0.0796 Y0.6007
N13065 X-0.0923 Y0.5966
N13070 X-0.1046 Y0.5914
N13075 X-0.1166 Y0.5853
N13080 X-0.1282 Y0.5782
N13085 X-0.1391 Y0.5701
N13090 X-0.1495 Y0.5611
N13095 X-0.1591 Y0.5513
N13100 X-0.1679 Y0.5407
N13105 X-0.1759 Y0.5294
N13110 X-0.183 Y0.5175
N13115 X-0.1891 Y0.505
N13120 X-0.1942 Y0.492
N13125 X-0.1982 Y0.4786
N13130 X-0.2012 Y0.4649
N13135 X-0.2031 Y0.451
N13140 X-0.2038 Y0.4369
N13145 X-0.2034 Y0.4228
N13150 X-0.2019 Y0.4088
N13155 X-0.1993 Y0.3949
N13160 X-0.1955 Y0.3812
N13165 X-0.1907 Y0.3679
N13170 X-0.1848 Y0.3551
N13175 X-0.1779 Y0.3427
N13180 X-0.17 Y0.3309
N13185 X-0.1611 Y0.3198
N13190 X-0.1515 Y0.3094
N13195 X-0.141 Y0.2998
N13200 X-0.1297 Y0.2911
N13205 X-0.1178 Y0.2833
N13210 X-0.1053 Y0.2765
N13215 X-0.0923 Y0.2707
N13220 X-0.0789 Y0.266
N13225 X-0.0651 Y0.2624
N13230 X-0.0511 Y0.2598
N13235 X-0.037 Y0.2585
N13240 X-0.0227 Y0.2582
N13245 X-0.0085 Y0.2591
N13250 X0.0056 Y0.2612
N13255 X0.0195 Y0.2643
N13260 X0.0331 Y0.2686
N13265 X0.0463 Y0.274
N13270 X0.059 Y0.2804
N13275 X0.0716 Y0.288
N13280 X0.0839 Y0.2969
N13285 X0.0958 Y0.3071
N13290 X0.1072 Y0.3185
N13295 X0.1178 Y0.331
N13300 X0.1275 Y0.3445
N13305 X0.1361 Y0.3587
N13310 X0.1435 Y0.3735
N13315 X0.1497 Y0.3888
N13320 X0.1545 Y0.4044
N13325 X0.1581 Y0.4201
N13330 X0.1603 Y0.436
N13335 X0.1613 Y0.4518
N13340 X0.161 Y0.4675
N13345 X0.1594 Y0.4831
N13350 X0.1566 Y0.4984
N13355 X0.1527 Y0.5134
N13360 X0.1475 Y0.5279
N13365 X0.1412 Y0.542
N13370 X0.1338 Y0.5555
N13375 X0.1253 Y0.5684
N13380 X0.1158 Y0.5806
N13385 X0.1053 Y0.5921
N13390 X0.0938 Y0.6027
N13395 X0.0815 Y0.6124
N13400 X0.0684 Y0.6211
N13405 X0.0545 Y0.6288
N13410 X0.0455 Y0.6329
N13415 X0.0417 Y0.6344
N13420 X0.0376 Y0.6352
N13425 X0.0335 Y0.6355
N13430 X-0.0376
N13435 X-0.0434 Y0.6352
N13440 X-0.0589 Y0.6338
N13445 X-0.1013 Y0.6275
N13450 X-0.1146 Y0.6248
N13455 X-0.1244 Y0.6219
N13460 X-0.1351 Y0.6179
N13465 X-0.1463 Y0.6126
N13470 X-0.1573 Y0.6063
N13475 X-0.1685 Y0.5986
N13480 X-0.1797 Y0.5896
N13485 X-0.1906 Y0.5792
N13490 X-0.2009 Y0.5676
N13495 X-0.2106 Y0.5548
N13500 X-0.2194 Y0.541
N13505 X-0.2271 Y0.5264
N13510 X-0.2338 Y0.511
N13515 X-0.2392 Y0.4949
N13520 X-0.2434 Y0.4783
N13525 X-0.2463 Y0.4612
N13530 X-0.2478 Y0.4439
N13535 Y0.4265
N13540 X-0.2465 Y0.409
N13545 X-0.2438 Y0.3917
N13550 X-0.2397 Y0.3745
N13555 X-0.2342 Y0.3577
N13560 X-0.2274 Y0.3414
N13565 X-0.2193 Y0.3257
N13570 X-0.2099 Y0.3106
N13575 X-0.1993 Y0.2964
N13580 X-0.1877 Y0.283
N13585 X-0.1749 Y0.2706
N13590 X-0.1613 Y0.2593
N13595 X-0.1467 Y0.2491
N13600 X-0.1314 Y0.2401
N13605 X-0.1154 Y0.2323
N13610 X-0.0988 Y0.2259
N13615 X-0.0916 Y0.2237
N13620 X-0.0861 Y0.2226
N13625 X-0.0805
N13630 X-0.075 Y0.2236
N13635 X-0.055 Y0.2295
N13640 X-0.037 Y0.2344
N13645 X-0.0318 Y0.2352
N13650 X-0.026 Y0.2356
N13655 X-0.0203 Y0.2357
N13660 X0.0203
N13665 X0.026 Y0.2356
N13670 X0.032
N13675 X0.0413 Y0.2364
N13680 X0.051 Y0.2381
N13685 X0.0619 Y0.2409
N13690 X0.073 Y0.2447
N13695 X0.0849 Y0.2498
N13700 X0.0975 Y0.2566
N13705 X0.1105 Y0.2649
N13710 X0.1229 Y0.2744
N13715 X0.1355 Y0.2856
N13720 X0.1476 Y0.2985
N13725 X0.1592 Y0.3128
N13730 X0.1698 Y0.3284
N13735 X0.1793 Y0.345
N13740 X0.1874 Y0.3625
N13745 X0.1942 Y0.3807
N13750 X0.1995 Y0.3993
N13755 X0.2033 Y0.4183
N13760 X0.2055 Y0.4376
N13765 X0.2062 Y0.4568
N13770 X0.2053 Y0.4761
N13775 X0.2029 Y0.4951
N13780 X0.199 Y0.5138
N13785 X0.1936 Y0.5322
N13790 X0.1868 Y0.55
N13795 X0.1786 Y0.5672
N13800 X0.169 Y0.5837
N13805 X0.1581 Y0.5994
N13810 X0.1459 Y0.6142
N13815 X0.1454 Y0.6147
N13820 X0.1405 Y0.6188
N13825 X0.1349 Y0.6217
N13830 X0.1288 Y0.6233
N13835 X0.0589 Y0.6338
N13840 X0.0434 Y0.6352
N13845 X0.0376 Y0.6355
N13850 X0.0335
N13855 X0.0286 Y0.6352 F10.
N13860 X-0.0964 Y0.6277 F30.
N13865 X-0.1013 Y0.6275 F10.
N13870 X-0.136 Y0.6222 F30.
N13875 X-0.1418 Y0.6208
N13880 X-0.1577 Y0.6165
N13885 X-0.1939 Y0.6053
N13890 X-0.2027 Y0.6021
N13895 X-0.209 Y0.5992
N13900 X-0.2161 Y0.5952
N13905 X-0.2231 Y0.5905
N13910 X-0.231 Y0.5842
N13915 X-0.2387 Y0.5771
N13920 X-0.2468 Y0.5682
N13925 X-0.2551 Y0.5576
N13930 X-0.2626 Y0.546
N13935 X-0.2699 Y0.5325
N13940 X-0.2767 Y0.5173
N13945 X-0.2826 Y0.5006
N13950 X-0.2872 Y0.4829
N13955 X-0.2905 Y0.4645
N13960 X-0.2924 Y0.4452
N13965 X-0.2927 Y0.4252
N13970 X-0.2914 Y0.4049
N13975 X-0.2885 Y0.3845
N13980 X-0.2838 Y0.3641
N13985 X-0.2775 Y0.3441
N13990 X-0.2696 Y0.3245
N13995 X-0.26 Y0.3055
N14000 X-0.249 Y0.2873
N14005 X-0.2365 Y0.2701
N14010 X-0.2226 Y0.2538
N14015 X-0.2075 Y0.2387
N14020 X-0.1912 Y0.2249
N14025 X-0.1738 Y0.2124
N14030 X-0.1557 Y0.2015
N14035 X-0.1518 Y0.1996
N14040 X-0.1447 Y0.1971
N14045 X-0.1372 Y0.1965
N14050 X-0.1298 Y0.1979
N14055 X-0.123 Y0.2011
N14060 X-0.1129 Y0.2077
N14065 X-0.1071 Y0.2113
N14070 X-0.1013 Y0.2146
N14075 X-0.0955 Y0.2172
N14080 X-0.0897 Y0.2193
N14085 X-0.075 Y0.2236
N14090 G3 X-0.0708 Y0.2261 I-0.0039 J0.0119 F10.
N14095 X-0.067 Y0.2392 I-0.0082 J0.0095 F30.
N14100 G1 X-0.1787 Y0.5969
N14105 G3 X-0.189 Y0.6056 I-0.0119 J-0.0037
N14110 X-0.1939 Y0.6053 I-0.0016 J-0.0124 F10.
N14115 G1 X-0.214 Y0.5991 F30.
N14120 X-0.2171 Y0.5981
N14125 X-0.2344 Y0.5923
N14130 X-0.2402 Y0.5897
N14135 X-0.2688 Y0.5759
N14140 X-0.2741 Y0.5731
N14145 X-0.28 Y0.5689
N14150 X-0.2858 Y0.5641
N14155 X-0.2923 Y0.5577
N14160 X-0.2985 Y0.5507
N14165 X-0.3053 Y0.5415
N14170 X-0.3115 Y0.5315
N14175 X-0.3178 Y0.5193
N14180 X-0.3237 Y0.5052
N14185 X-0.3286 Y0.4902
N14190 X-0.3328 Y0.4728
N14195 X-0.3358 Y0.4535
N14200 X-0.3374 Y0.4327
N14205 X-0.3373 Y0.4113
N14210 X-0.3354 Y0.3894
N14215 X-0.3316 Y0.3667
N14220 X-0.3258 Y0.3438
N14225 X-0.3181 Y0.3209
N14230 X-0.3084 Y0.2985
N14235 X-0.2969 Y0.2767
N14240 X-0.2835 Y0.2557
N14245 X-0.2685 Y0.2359
N14250 X-0.2518 Y0.2172
N14255 X-0.2337 Y0.1999
N14260 X-0.216 Y0.1856
N14265 X-0.2037 Y0.1771
N14270 X-0.1945 Y0.1718
N14275 X-0.1911 Y0.1702
N14280 X-0.1827 Y0.1678
N14285 X-0.1738 Y0.1681
N14290 X-0.1655 Y0.1711
N14295 X-0.1586 Y0.1765
N14300 X-0.1534 Y0.1811
N14305 X-0.1519 Y0.1823
N14310 X-0.1476 Y0.1853
N14315 X-0.123 Y0.2011
N14320 G3 X-0.1196 Y0.2046 I-0.0071 J0.0103 F10.
N14325 X-0.1185 Y0.2158 I-0.0105 J0.0068 F30.
N14330 G1 X-0.2521 Y0.5689
N14335 G3 X-0.2641 Y0.577 I-0.0117 J-0.0044
N14340 X-0.2688 Y0.5759 I0.0003 J-0.0125 F10.
N14345 G1 X-0.3097 Y0.5563 F30.
N14350 X-0.3155 Y0.5534
N14355 X-0.3213 Y0.5501
N14360 X-0.3336 Y0.5409
N14365 X-0.3386 Y0.5366
N14370 X-0.3438 Y0.5312
N14375 X-0.3494 Y0.5245
N14380 X-0.3547 Y0.5169
N14385 X-0.3603 Y0.5073
N14390 X-0.3654 Y0.4967
N14395 X-0.3704 Y0.4838
N14400 X-0.3749 Y0.469
N14405 X-0.3783 Y0.4529
N14410 X-0.3807 Y0.4342
N14415 X-0.3817 Y0.4132
N14420 X-0.381 Y0.3912
N14425 X-0.3784 Y0.3683
N14430 X-0.3737 Y0.3439
N14435 X-0.3668 Y0.3194
N14440 X-0.358 Y0.2954
N14445 X-0.3475 Y0.2722
N14450 X-0.3353 Y0.2499
N14455 X-0.3215 Y0.2284
N14460 X-0.3063 Y0.208
N14465 X-0.2896 Y0.1888
N14470 X-0.2718 Y0.171
N14475 X-0.2561 Y0.1578
N14480 X-0.2449 Y0.1497
N14485 X-0.2351 Y0.1438
N14490 X-0.2272 Y0.1399
N14495 X-0.2186 Y0.1365
N14500 X-0.2171 Y0.136
N14505 X-0.2086 Y0.1347
N14510 X-0.2001 Y0.1359
N14515 X-0.1923 Y0.1395
N14520 X-0.186 Y0.1452
N14525 X-0.184 Y0.1476
N14530 X-0.1639 Y0.1708
N14535 X-0.1586 Y0.1765
N14540 G3 X-0.1562 Y0.1808 I-0.0095 J0.0082 F10.
N14545 X-0.1565 Y0.1895 I-0.0119 J0.0039 F30.
N14550 G1 X-0.304 Y0.5438
N14555 G3 X-0.3166 Y0.5515 I-0.0115 J-0.0048
N14560 X-0.3213 Y0.5501 I0.001 J-0.0125 F10.
N14565 G1 X-0.327 Y0.5462 F30.
N14570 X-0.3769 Y0.5123
N14575 X-0.3833 Y0.5074
N14580 X-0.3877 Y0.5034
N14585 X-0.3922 Y0.4987
N14590 X-0.3968 Y0.493
N14595 X-0.4017 Y0.4859
N14600 X-0.4062 Y0.4781
N14605 X-0.4109 Y0.468
N14610 X-0.415 Y0.4572
N14615 X-0.4189 Y0.4434
N14620 X-0.4218 Y0.429
N14625 X-0.4239 Y0.4117
N14630 X-0.4247 Y0.3915
N14635 X-0.4238 Y0.371
N14640 X-0.4209 Y0.3476
N14645 X-0.4158 Y0.3226
N14650 X-0.4087 Y0.2981
N14655 X-0.3998 Y0.2742
N14660 X-0.3894 Y0.251
N14665 X-0.3774 Y0.2285
N14670 X-0.364 Y0.2068
N14675 X-0.3492 Y0.1861
N14680 X-0.333 Y0.1664
N14685 X-0.3156 Y0.1478
N14690 X-0.2999 Y0.1335
N14695 X-0.2853 Y0.1222
N14700 X-0.2736 Y0.1145
N14705 X-0.263 Y0.1087
N14710 X-0.2545 Y0.1048
N14715 X-0.2463 Y0.102
N14720 X-0.2383 Y0.0998
N14725 X-0.2376 Y0.0997
N14730 X-0.2301 Y0.0993
N14735 X-0.2227 Y0.1009
N14740 X-0.2159 Y0.1043
N14745 X-0.2103 Y0.1094
N14750 X-0.2061 Y0.1157
N14755 X-0.201 Y0.1264
N14760 X-0.2004 Y0.1274
N14765 X-0.1997 Y0.1283
N14770 X-0.1869 Y0.1441
N14775 X-0.186 Y0.1452
N14780 G3 X-0.1838 Y0.1496 I-0.0099 J0.0076 F10.
N14785 X-0.1847 Y0.1585 I-0.0121 J0.0033 F30.
N14790 G1 X-0.359 Y0.5073
N14795 G3 X-0.3723 Y0.514 I-0.0112 J-0.0056
N14800 X-0.3769 Y0.5123 I0.0021 J-0.0123 F10.
N14805 G1 X-0.3907 Y0.5028 F30.
N14810 X-0.3936 Y0.5007
N14815 X-0.4023 Y0.4934
N14820 X-0.4072 Y0.4891
N14825 X-0.4312 Y0.4669
N14830 X-0.4369 Y0.461
N14835 X-0.441 Y0.4561
N14840 X-0.4449 Y0.4505
N14845 X-0.4492 Y0.4433
N14850 X-0.453 Y0.4354
N14855 X-0.4568 Y0.4256
N14860 X-0.4601 Y0.4147
N14865 X-0.4629 Y0.4014
N14870 X-0.4648 Y0.3868
N14875 X-0.4657 Y0.3688
N14880 X-0.4651 Y0.3501
N14885 X-0.4627 Y0.3282
N14890 X-0.4579 Y0.3037
N14895 X-0.4511 Y0.2791
N14900 X-0.4425 Y0.2551
N14905 X-0.4323 Y0.2318
N14910 X-0.4207 Y0.2091
N14915 X-0.4077 Y0.1872
N14920 X-0.3934 Y0.1661
N14925 X-0.3778 Y0.146
N14930 X-0.361 Y0.1268
N14935 X-0.343 Y0.109
N14940 X-0.3271 Y0.0956
N14945 X-0.312 Y0.0848
N14950 X-0.2983 Y0.0766
N14955 X-0.2876 Y0.0713
N14960 X-0.2774 Y0.0673
N14965 X-0.2692 Y0.0647
N14970 X-0.2607 Y0.0628
N14975 X-0.2535 Y0.0618
N14980 X-0.2513 Y0.0617
N14985 X-0.2426 Y0.0625
N14990 X-0.2345 Y0.0659
N14995 X-0.2278 Y0.0715
N15000 X-0.2231 Y0.0789
N15005 X-0.2155 Y0.0955
N15010 X-0.2102 Y0.1071
N15015 X-0.2068 Y0.1144
N15020 X-0.2061 Y0.1157
N15025 G3 X-0.2051 Y0.1205 I-0.0114 J0.005 F10.
N15030 X-0.2069 Y0.1273 I-0.0125 J0.0003 F30.
N15035 G1 X-0.4124 Y0.4639
N15040 G3 X-0.427 Y0.4693 I-0.0107 J-0.0065
N15045 X-0.4312 Y0.4669 I0.0039 J-0.0119 F10.
N15050 G1 X-0.4509 Y0.4486 F30.
N15055 X-0.466 Y0.4343
N15060 X-0.469 Y0.4312
N15065 X-0.4828 Y0.4139
N15070 X-0.4863 Y0.409
N15075 X-0.4899 Y0.4029
N15080 X-0.4935 Y0.3955
N15085 X-0.4966 Y0.3873
N15090 X-0.4997 Y0.3769
N15095 X-0.502 Y0.366
N15100 X-0.5038 Y0.3519
N15105 X-0.5045 Y0.3371
N15110 X-0.5039 Y0.3188
N15115 X-0.5016 Y0.2986
N15120 X-0.4972 Y0.276
N15125 X-0.4903 Y0.2514
N15130 X-0.4815 Y0.2275
N15135 X-0.4712 Y0.2042
N15140 X-0.4594 Y0.1816
N15145 X-0.4464 Y0.1597
N15150 X-0.4321 Y0.1386
N15155 X-0.4166 Y0.1184
N15160 X-0.4 Y0.099
N15165 X-0.3821 Y0.0809
N15170 X-0.3641 Y0.0652
N15175 X-0.347 Y0.0526
N15180 X-0.3314 Y0.0429
N15185 X-0.3172 Y0.0355
N15190 X-0.3042 Y0.0301
N15195 X-0.2937 Y0.0267
N15200 X-0.2837 Y0.0243
N15205 X-0.2758 Y0.0231
N15210 X-0.2673 Y0.0224
N15215 X-0.2599 Y0.0225
N15220 X-0.2577 Y0.0227
N15225 X-0.25 Y0.0244
N15230 X-0.2432 Y0.028
N15235 X-0.2375 Y0.0334
N15240 X-0.2334 Y0.0401
N15245 X-0.2313 Y0.0476
N15250 X-0.2302 Y0.055
N15255 X-0.2286 Y0.0639
N15260 X-0.2278 Y0.0666
N15265 X-0.226 Y0.0724
N15270 X-0.2231 Y0.0789
N15275 G3 X-0.2221 Y0.0837 I-0.0116 J0.0047 F10.
N15280 X-0.2246 Y0.091 I-0.0125 J-0.0001 F30.
N15285 G1 X-0.4633 Y0.4132
N15290 G3 X-0.479 Y0.4169 I-0.01 J-0.0074
N15295 X-0.4828 Y0.4139 I0.0057 J-0.0111 F10.
N15300 G1 X-0.5151 Y0.3733 F30.
N15305 X-0.5218 Y0.3644
N15310 X-0.5254 Y0.3588
N15315 X-0.5284 Y0.3534
N15320 X-0.5315 Y0.3466
N15325 X-0.5342 Y0.3389
N15330 X-0.5367 Y0.33
N15335 X-0.5387 Y0.3189
N15340 X-0.5399 Y0.3073
N15345 X-0.5402 Y0.2923
N15350 X-0.5393 Y0.2767
N15355 X-0.5367 Y0.2577
N15360 X-0.5318 Y0.2358
N15365 X-0.5243 Y0.2114
N15370 X-0.5149 Y0.1877
N15375 X-0.5038 Y0.1647
N15380 X-0.4914 Y0.1425
N15385 X-0.4777 Y0.121
N15390 X-0.4629 Y0.1003
N15395 X-0.4469 Y0.0804
N15400 X-0.4298 Y0.0616
N15405 X-0.4115 Y0.0438
N15410 X-0.392 Y0.0274
N15415 X-0.373 Y0.0139
N15420 X-0.3559 Y0.0037
N15425 X-0.3397 Y-0.0042
N15430 X-0.3247 Y-0.0102
N15435 X-0.3109 Y-0.0144
N15440 X-0.2996 Y-0.0169
N15445 X-0.2888 Y-0.0184
N15450 X-0.2803 Y-0.0188
N15455 X-0.2717 Y-0.0186
N15460 X-0.2643 Y-0.0178
N15465 X-0.2602 Y-0.0171
N15470 X-0.2514 Y-0.0139
N15475 X-0.2441 Y-0.0082
N15480 X-0.239 Y-0.0004
N15485 X-0.2365 Y0.0086
N15490 X-0.2359 Y0.0145
N15495 X-0.2352 Y0.0203
N15500 X-0.2313 Y0.0476
N15505 G3 X-0.2317 Y0.0524 I-0.0124 J0.0013 F10.
N15510 X-0.2343 Y0.0571 I-0.012 J-0.0035 F30.
N15515 G1 X-0.5025 Y0.3648
N15520 G3 X-0.518 Y0.3675 I-0.0094 J-0.0082
N15525 X-0.5218 Y0.3644 I0.0061 J-0.0109 F10.
N15530 G1 X-0.5296 Y0.3537 F30.
N15535 X-0.5317 Y0.3502
N15540 X-0.5584 Y0.3039
N15545 X-0.5626 Y0.2957
N15550 X-0.565 Y0.2899
N15555 X-0.5674 Y0.2827
N15560 X-0.5693 Y0.2743
N15565 X-0.5708 Y0.265
N15570 X-0.5716 Y0.2531
N15575 X-0.5715 Y0.2408
N15580 X-0.5701 Y0.2252
N15585 X-0.5673 Y0.2087
N15590 X-0.5622 Y0.1888
N15595 X-0.5544 Y0.1658
N15600 X-0.5442 Y0.1424
N15605 X-0.5324 Y0.1198
N15610 X-0.5192 Y0.098
N15615 X-0.5048 Y0.077
N15620 X-0.4893 Y0.0568
N15625 X-0.4726 Y0.0376
N15630 X-0.4547 Y0.0193
N15635 X-0.4358 Y0.0023
N15640 X-0.4158 Y-0.0135
N15645 X-0.3952 Y-0.0273
N15650 X-0.3757 Y-0.0383
N15655 X-0.3578 Y-0.0465
N15660 X-0.3407 Y-0.0528
N15665 X-0.325 Y-0.0571
N15670 X-0.3107 Y-0.0599
N15675 X-0.2987 Y-0.0612
N15680 X-0.2875 Y-0.0615
N15685 X-0.2783 Y-0.061
N15690 X-0.2706 Y-0.06
N15695 X-0.2624 Y-0.0582
N15700 X-0.2556 Y-0.0562
N15705 X-0.253 Y-0.0552
N15710 X-0.2461 Y-0.0514
N15715 X-0.2406 Y-0.0459
N15720 X-0.2366 Y-0.0392
N15725 X-0.2346 Y-0.0317
N15730 X-0.2347 Y-0.0239
N15735 X-0.2352 Y-0.0203
N15740 X-0.2359 Y-0.0145
N15745 X-0.2374 Y0.
N15750 X-0.2365 Y0.0086
N15755 G3 X-0.2372 Y0.0134 I-0.0125 J0.0009 F10.
N15760 X-0.2403 Y0.0185 I-0.0118 J-0.004 F30.
N15765 G1 X-0.5391 Y0.3063
N15770 G3 X-0.5551 Y0.3074 I-0.0087 J-0.009
N15775 X-0.5584 Y0.3039 I0.0073 J-0.0102 F10.
N15780 G1 X-0.5684 Y0.2865 F30.
N15785 X-0.5717 Y0.2807
N15790 X-0.5748 Y0.2749
N15795 X-0.5771 Y0.2692
N15800 X-0.593 Y0.2286
N15805 X-0.5949 Y0.223
N15810 X-0.5965 Y0.2158
N15815 X-0.5977 Y0.207
N15820 X-0.5983 Y0.1974
N15825 X-0.5981 Y0.1861
N15830 X-0.5967 Y0.1728
N15835 X-0.594 Y0.1578
N15840 X-0.5893 Y0.1405
N15845 X-0.582 Y0.12
N15850 X-0.5716 Y0.0967
N15855 X-0.5593 Y0.0744
N15860 X-0.5455 Y0.053
N15865 X-0.5304 Y0.0324
N15870 X-0.5142 Y0.0128
N15875 X-0.4969 Y-0.0059
N15880 X-0.4784 Y-0.0235
N15885 X-0.459 Y-0.04
N15890 X-0.4386 Y-0.0552
N15895 X-0.4171 Y-0.0689
N15900 X-0.3954 Y-0.0806
N15905 X-0.3744 Y-0.0898
N15910 X-0.3555 Y-0.0963
N15915 X-0.3376 Y-0.1009
N15920 X-0.3211 Y-0.1038
N15925 X-0.3062 Y-0.1051
N15930 X-0.2925 Y-0.1053
N15935 X-0.2813 Y-0.1045
N15940 X-0.2708 Y-0.1029
N15945 X-0.2627 Y-0.101
N15950 X-0.2545 Y-0.0984
N15955 X-0.2477 Y-0.0956
N15960 X-0.2443 Y-0.0939
N15965 X-0.2368 Y-0.0884
N15970 X-0.2314 Y-0.0808
N15975 X-0.2287 Y-0.0719
N15980 X-0.2289 Y-0.0626
N15985 X-0.2302 Y-0.055
N15990 X-0.2347 Y-0.0239
N15995 G3 X-0.2365 Y-0.0193 I-0.0123 J-0.0022 F10.
N16000 X-0.2395 Y-0.016 I-0.0105 J-0.0067 F30.
N16005 G1 X-0.5741 Y0.2337
N16010 G3 X-0.5902 Y0.2326 I-0.0075 J-0.01
N16015 X-0.593 Y0.2286 I0.0087 J-0.009 F10.
N16020 G1 X-0.6066 Y0.1939 F30.
N16025 X-0.6089 Y0.1881
N16030 X-0.6116 Y0.1765
N16035 X-0.6165 Y0.1552
N16040 X-0.6178 Y0.1475
N16045 X-0.6186 Y0.1396
N16050 X-0.6187 Y0.13
N16055 X-0.618 Y0.1202
N16060 X-0.6162 Y0.1078
N16065 X-0.6131 Y0.0944
N16070 X-0.6079 Y0.078
N16075 X-0.6007 Y0.0603
N16080 X-0.5903 Y0.0397
N16085 X-0.577 Y0.018
N16090 X-0.5621 Y-0.0027
N16095 X-0.5459 Y-0.0224
N16100 X-0.5286 Y-0.041
N16105 X-0.5102 Y-0.0587
N16110 X-0.4909 Y-0.0753
N16115 X-0.4706 Y-0.0907
N16120 X-0.4493 Y-0.1048
N16125 X-0.4272 Y-0.1173
N16130 X-0.4042 Y-0.1283
N16135 X-0.382 Y-0.1368
N16140 X-0.361 Y-0.143
N16145 X-0.3408 Y-0.1471
N16150 X-0.3221 Y-0.1495
N16155 X-0.3053 Y-0.1503
N16160 X-0.2902 Y-0.1497
N16165 X-0.2763 Y-0.1481
N16170 X-0.2655 Y-0.146
N16175 X-0.2551 Y-0.143
N16180 X-0.2472 Y-0.1401
N16185 X-0.24 Y-0.1367
N16190 X-0.2331 Y-0.1327
N16195 X-0.2275 Y-0.1289
N16200 X-0.2252 Y-0.1271
N16205 X-0.2199 Y-0.1215
N16210 X-0.2163 Y-0.1148
N16215 X-0.2145 Y-0.1073
N16220 X-0.2148 Y-0.0996
N16225 X-0.217 Y-0.0923
N16230 X-0.2234 Y-0.0781
N16235 X-0.226 Y-0.0724
N16240 X-0.2278 Y-0.0666
N16245 X-0.2286 Y-0.0639
N16250 X-0.2289 Y-0.0626
N16255 G3 X-0.2308 Y-0.0581 I-0.0122 J-0.0027 F10.
N16260 X-0.2347 Y-0.0546 I-0.0103 J-0.0072 F30.
N16265 G1 X-0.598 Y0.1628
N16270 G3 X-0.6143 Y0.1596 I-0.0064 J-0.0107
N16275 X-0.6165 Y0.1552 I0.0099 J-0.0076 F10.
N16280 G1 X-0.6288 Y0.1013 F30.
N16285 X-0.6297 Y0.0955
N16290 X-0.6315 Y0.0781
N16295 X-0.6318 Y0.0646
N16300 X-0.6313 Y0.0562
N16305 X-0.6299 Y0.0459
N16310 X-0.6276 Y0.0354
N16315 X-0.6236 Y0.0222
N16320 X-0.6181 Y0.0083
N16325 X-0.6098 Y-0.0086
N16330 X-0.5984 Y-0.0277
N16335 X-0.5836 Y-0.0485
N16340 X-0.5673 Y-0.068
N16345 X-0.5496 Y-0.0864
N16350 X-0.5308 Y-0.1036
N16355 X-0.5111 Y-0.1197
N16360 X-0.4904 Y-0.1346
N16365 X-0.4689 Y-0.1482
N16370 X-0.4465 Y-0.1605
N16375 X-0.4234 Y-0.1713
N16380 X-0.3996 Y-0.1803
N16385 X-0.3757 Y-0.1874
N16390 X-0.3527 Y-0.1922
N16395 X-0.3309 Y-0.195
N16400 X-0.311 Y-0.1959
N16405 X-0.2934 Y-0.1953
N16410 X-0.2773 Y-0.1935
N16415 X-0.2627 Y-0.1906
N16420 X-0.2497 Y-0.1869
N16425 X-0.2391 Y-0.183
N16430 X-0.2294 Y-0.1785
N16435 X-0.2221 Y-0.1743
N16440 X-0.2151 Y-0.1696
N16445 X-0.2093 Y-0.1649
N16450 X-0.2063 Y-0.1621
N16455 X-0.2014 Y-0.1561
N16460 X-0.1983 Y-0.149
N16465 X-0.1972 Y-0.1413
N16470 X-0.1981 Y-0.1337
N16475 X-0.2009 Y-0.1265
N16480 X-0.2075 Y-0.1129
N16485 X-0.2113 Y-0.1048
N16490 X-0.217 Y-0.0923
N16495 G3 X-0.22 Y-0.0884 I-0.0112 J-0.0056 F10.
N16500 X-0.2231 Y-0.0864 I-0.0082 J-0.0094 F30.
N16505 G1 X-0.614 Y0.0879
N16510 G3 X-0.6299 Y0.0828 I-0.0051 J-0.0114
N16515 X-0.6315 Y0.0781 I0.0108 J-0.0063 F10.
N16520 G1 X-0.6371 Y0.0029 F30.
N16525 X-0.6363 Y-0.0138
N16530 X-0.6352 Y-0.0222
N16535 X-0.6333 Y-0.031
N16540 X-0.6302 Y-0.0412
N16545 X-0.6256 Y-0.0531
N16550 X-0.6193 Y-0.0661
N16555 X-0.6106 Y-0.0809
N16560 X-0.5986 Y-0.098
N16565 X-0.5831 Y-0.1166
N16570 X-0.5653 Y-0.1349
N16575 X-0.5462 Y-0.1517
N16580 X-0.5261 Y-0.1673
N16585 X-0.505 Y-0.1816
N16590 X-0.4831 Y-0.1947
N16595 X-0.4605 Y-0.2064
N16600 X-0.4372 Y-0.2167
N16605 X-0.4132 Y-0.2255
N16610 X-0.3888 Y-0.2326
N16615 X-0.3639 Y-0.2379
N16620 X-0.3397 Y-0.2411
N16625 X-0.3169 Y-0.2422
N16630 X-0.2955 Y-0.2416
N16635 X-0.2761 Y-0.2394
N16640 X-0.259 Y-0.2361
N16645 X-0.2435 Y-0.2318
N16650 X-0.2295 Y-0.2266
N16655 X-0.2178 Y-0.2213
N16660 X-0.208 Y-0.2158
N16665 X-0.2003 Y-0.2106
N16670 X-0.1936 Y-0.2052
N16675 X-0.1878 Y-0.1998
N16680 X-0.1831 Y-0.1946
N16685 X-0.1786 Y-0.1887
N16690 X-0.1776 Y-0.1872
N16695 X-0.1743 Y-0.1805
N16700 X-0.1729 Y-0.1731
N16705 X-0.1734 Y-0.1656
N16710 X-0.1759 Y-0.1585
N16715 X-0.18 Y-0.1522
N16720 X-0.184 Y-0.1476
N16725 X-0.1888 Y-0.1418
N16730 X-0.1997 Y-0.1283
N16735 X-0.2004 Y-0.1274
N16740 X-0.2009 Y-0.1265
N16745 G3 X-0.2043 Y-0.1229 I-0.0107 J-0.0065 F10.
N16750 X-0.2077 Y-0.1211 I-0.0073 J-0.0101 F30.
N16755 G1 X-0.6208 Y0.0134
N16760 G3 X-0.6356 Y0.0075 I-0.0039 J-0.0119
N16765 X-0.6371 Y0.0029 I0.011 J-0.006 F10.
N16770 G1 Y-0.0029 F30.
N16775 X-0.6315 Y-0.0781
N16780 X-0.6303 Y-0.0897
N16785 X-0.629 Y-0.0985
N16790 X-0.6273 Y-0.1057
N16795 X-0.6245 Y-0.1144
N16800 X-0.6206 Y-0.1239
N16805 X-0.6152 Y-0.1344
N16810 X-0.6078 Y-0.1465
N16815 X-0.5981 Y-0.1597
N16820 X-0.5856 Y-0.1742
N16825 X-0.5692 Y-0.1904
N16830 X-0.5497 Y-0.2068
N16835 X-0.529 Y-0.2216
N16840 X-0.5073 Y-0.2351
N16845 X-0.4849 Y-0.2472
N16850 X-0.4618 Y-0.2579
N16855 X-0.438 Y-0.2671
N16860 X-0.4137 Y-0.2749
N16865 X-0.389 Y-0.281
N16870 X-0.3639 Y-0.2855
N16875 X-0.3386 Y-0.2882
N16880 X-0.3132 Y-0.2889
N16885 X-0.2894 Y-0.2877
N16890 X-0.2676 Y-0.2848
N16895 X-0.2481 Y-0.2806
N16900 X-0.2304 Y-0.2753
N16905 X-0.2146 Y-0.2692
N16910 X-0.201 Y-0.2625
N16915 X-0.1892 Y-0.2556
N16920 X-0.1786 Y-0.2482
N16925 X-0.1706 Y-0.2415
N16930 X-0.1636 Y-0.2347
N16935 X-0.1584 Y-0.2286
N16940 X-0.1535 Y-0.222
N16945 X-0.1498 Y-0.2161
N16950 X-0.1489 Y-0.2144
N16955 X-0.1463 Y-0.2072
N16960 X-0.1457 Y-0.1995
N16965 X-0.1472 Y-0.1919
N16970 X-0.1505 Y-0.185
N16975 X-0.1556 Y-0.1792
N16980 X-0.1586 Y-0.1765
N16985 X-0.1639 Y-0.1708
N16990 X-0.18 Y-0.1522
N16995 G3 X-0.184 Y-0.1494 I-0.0092 J-0.0085 F10.
N17000 X-0.1871 Y-0.1484 I-0.0052 J-0.0114 F30.
N17005 G1 X-0.6158 Y-0.0766
N17010 G3 X-0.6297 Y-0.0849 I-0.0021 J-0.0123
N17015 X-0.6303 Y-0.0897 I0.0118 J-0.004 F10.
N17020 G1 X-0.6297 Y-0.0955 F30.
N17025 X-0.6288 Y-0.1013
N17030 X-0.6116 Y-0.1765
N17035 X-0.6092 Y-0.1848
N17040 X-0.6064 Y-0.1923
N17045 X-0.6027 Y-0.2003
N17050 X-0.5977 Y-0.209
N17055 X-0.5907 Y-0.2192
N17060 X-0.5823 Y-0.2297
N17065 X-0.5707 Y-0.2418
N17070 X-0.5559 Y-0.2551
N17075 X-0.5381 Y-0.2686
N17080 X-0.5167 Y-0.2823
N17085 X-0.4942 Y-0.2944
N17090 X-0.471 Y-0.3049
N17095 X-0.4471 Y-0.3139
N17100 X-0.4228 Y-0.3214
N17105 X-0.3981 Y-0.3274
N17110 X-0.373 Y-0.332
N17115 X-0.3477 Y-0.3349
N17120 X-0.3222 Y-0.3361
N17125 X-0.2967 Y-0.3354
N17130 X-0.2716 Y-0.3329
N17135 X-0.2486 Y-0.3286
N17140 X-0.2274 Y-0.323
N17145 X-0.208 Y-0.316
N17150 X-0.1903 Y-0.3081
N17155 X-0.1752 Y-0.2998
N17160 X-0.1623 Y-0.2913
N17165 X-0.1509 Y-0.2823
N17170 X-0.1416 Y-0.2738
N17175 X-0.1343 Y-0.2659
N17180 X-0.1286 Y-0.2586
N17185 X-0.124 Y-0.2518
N17190 X-0.1201 Y-0.2448
N17195 X-0.1173 Y-0.2386
N17200 X-0.1148 Y-0.2317
N17205 X-0.1146 Y-0.2308
N17210 X-0.1136 Y-0.2216
N17215 X-0.1155 Y-0.2127
N17220 X-0.1201 Y-0.2047
N17225 X-0.127 Y-0.1986
N17230 X-0.1476 Y-0.1853
N17235 X-0.1519 Y-0.1823
N17240 X-0.1534 Y-0.1811
N17245 X-0.1556 Y-0.1792
N17250 G3 X-0.1599 Y-0.1769 I-0.0079 J-0.0097 F10.
N17255 X-0.1631 Y-0.1764 I-0.0036 J-0.012 F30.
N17260 G1 X-0.5989 Y-0.1617
N17265 G3 X-0.6116 Y-0.1717 I-0.0004 J-0.0125
N17270 Y-0.1765 I0.0122 J-0.0025 F10.
N17275 G1 X-0.6089 Y-0.1881 F30.
N17280 X-0.6044 Y-0.1997
N17285 X-0.5794 Y-0.2634
N17290 X-0.576 Y-0.2708
N17295 X-0.572 Y-0.2781
N17300 X-0.5673 Y-0.2852
N17305 X-0.5608 Y-0.2934
N17310 X-0.5526 Y-0.3024
N17315 X-0.5422 Y-0.3119
N17320 X-0.5292 Y-0.3222
N17325 X-0.5123 Y-0.3333
N17330 X-0.492 Y-0.3445
N17335 X-0.4688 Y-0.355
N17340 X-0.4448 Y-0.3636
N17345 X-0.4203 Y-0.3707
N17350 X-0.3954 Y-0.3761
N17355 X-0.3702 Y-0.3801
N17360 X-0.3449 Y-0.3825
N17365 X-0.3194 Y-0.3833
N17370 X-0.2939 Y-0.3825
N17375 X-0.2686 Y-0.3799
N17380 X-0.2435 Y-0.3756
N17385 X-0.2192 Y-0.3693
N17390 X-0.1968 Y-0.3616
N17395 X-0.1764 Y-0.3527
N17400 X-0.1579 Y-0.3428
N17405 X-0.142 Y-0.3326
N17410 X-0.1287 Y-0.3224
N17415 X-0.1172 Y-0.312
N17420 X-0.1074 Y-0.3017
N17425 X-0.0992 Y-0.2915
N17430 X-0.0934 Y-0.2829
N17435 X-0.0883 Y-0.274
N17440 X-0.0847 Y-0.2663
N17445 X-0.0822 Y-0.2594
N17450 X-0.08 Y-0.2517
N17455 X-0.0795 Y-0.2492
N17460 X-0.079 Y-0.2413
N17465 X-0.0807 Y-0.2336
N17470 X-0.0843 Y-0.2267
N17475 X-0.0897 Y-0.2209
N17480 X-0.0964 Y-0.2168
N17485 X-0.1013 Y-0.2146
N17490 X-0.1071 Y-0.2113
N17495 X-0.1129 Y-0.2077
N17500 X-0.127 Y-0.1986
N17505 G3 X-0.1316 Y-0.197 I-0.0064 J-0.0107 F10.
N17510 X-0.1348 Y-0.1969 I-0.0018 J-0.0124 F30.
N17515 G1 X-0.569 Y-0.2468
N17520 G3 X-0.5801 Y-0.2585 I0.0014 J-0.0124
N17525 X-0.5794 Y-0.2634 I0.0125 J-0.0007 F10.
N17530 G1 X-0.5759 Y-0.2721 F30.
N17535 X-0.5748 Y-0.2749
N17540 X-0.5701 Y-0.2835
N17545 X-0.5684 Y-0.2865
N17550 X-0.5354 Y-0.3437
N17555 X-0.53 Y-0.352
N17560 X-0.5249 Y-0.3587
N17565 X-0.5191 Y-0.3651
N17570 X-0.5114 Y-0.3724
N17575 X-0.5017 Y-0.3802
N17580 X-0.4899 Y-0.3882
N17585 X-0.4752 Y-0.3965
N17590 X-0.4566 Y-0.4052
N17595 X-0.4344 Y-0.4134
N17600 X-0.4098 Y-0.4203
N17605 X-0.3848 Y-0.4253
N17610 X-0.3596 Y-0.4286
N17615 X-0.3341 Y-0.4303
N17620 X-0.3087 Y-0.4305
N17625 X-0.2832 Y-0.4291
N17630 X-0.2579 Y-0.4261
N17635 X-0.2329 Y-0.4215
N17640 X-0.2082 Y-0.4151
N17645 X-0.184 Y-0.407
N17650 X-0.161 Y-0.3972
N17655 X-0.1402 Y-0.3863
N17660 X-0.1215 Y-0.3745
N17665 X-0.1049 Y-0.3621
N17670 X-0.0908 Y-0.3496
N17675 X-0.0791 Y-0.3375
N17680 X-0.0691 Y-0.3253
N17685 X-0.0609 Y-0.3135
N17690 X-0.0548 Y-0.303
N17695 X-0.0501 Y-0.2931
N17700 X-0.0469 Y-0.2847
N17705 X-0.0445 Y-0.2767
N17710 X-0.0429 Y-0.269
N17715 X-0.0421 Y-0.2622
N17720 X-0.0418 Y-0.2549
N17725 Y-0.2542
N17730 X-0.0435 Y-0.2453
N17735 X-0.0479 Y-0.2373
N17740 X-0.0545 Y-0.2311
N17745 X-0.0627 Y-0.2273
N17750 X-0.0897 Y-0.2193
N17755 X-0.0958 Y-0.2171
N17760 X-0.0964 Y-0.2168
N17765 G3 X-0.1012 Y-0.2159 I-0.0046 J-0.0116 F10.
N17770 X-0.1041 Y-0.2163 I0.0002 J-0.0125 F30.
N17775 G1 X-0.5275 Y-0.3257
N17780 G3 X-0.5368 Y-0.339 I0.0031 J-0.0121
N17785 X-0.5354 Y-0.3437 I0.0124 J0.0012 F10.
N17790 G1 X-0.5317 Y-0.3502 F30.
N17795 X-0.5296 Y-0.3537
N17800 X-0.5151 Y-0.3733
N17805 X-0.4782 Y-0.4197
N17810 X-0.4726 Y-0.426
N17815 X-0.4666 Y-0.4318
N17820 X-0.4597 Y-0.4375
N17825 X-0.4509 Y-0.4436
N17830 X-0.44 Y-0.4499
N17835 X-0.427 Y-0.4561
N17840 X-0.411 Y-0.4623
N17845 X-0.391 Y-0.4681
N17850 X-0.3677 Y-0.473
N17855 X-0.3424 Y-0.4761
N17860 X-0.317 Y-0.4774
N17865 X-0.2915 Y-0.4769
N17870 X-0.2661 Y-0.4748
N17875 X-0.2409 Y-0.4712
N17880 X-0.2159 Y-0.466
N17885 X-0.1913 Y-0.4593
N17890 X-0.1672 Y-0.451
N17895 X-0.1438 Y-0.4411
N17900 X-0.1211 Y-0.4294
N17905 X-0.0999 Y-0.4164
N17910 X-0.081 Y-0.4025
N17915 X-0.0642 Y-0.388
N17920 X-0.0496 Y-0.3731
N17925 X-0.0376 Y-0.3588
N17930 X-0.028 Y-0.3453
N17935 X-0.0201 Y-0.332
N17940 X-0.0139 Y-0.3193
N17945 X-0.0091 Y-0.3072
N17950 X-0.0061 Y-0.2974
N17955 X-0.0039 Y-0.2875
N17960 X-0.0028 Y-0.2791
N17965 X-0.0024 Y-0.2718
N17970 X-0.0026 Y-0.2638
N17975 X-0.0029 Y-0.2613
N17980 X-0.0048 Y-0.2535
N17985 X-0.0088 Y-0.2466
N17990 X-0.0146 Y-0.2409
N17995 X-0.0217 Y-0.2371
N18000 X-0.0295 Y-0.2354
N18005 X-0.0318 Y-0.2352
N18010 X-0.037 Y-0.2344
N18015 X-0.055 Y-0.2295
N18020 X-0.0627 Y-0.2273
N18025 G3 X-0.0676 Y-0.227 I-0.0031 J-0.0121 F10.
N18030 X-0.0707 Y-0.2279 I0.0018 J-0.0124 F30.
N18035 G1 X-0.4731 Y-0.4007
N18040 G3 X-0.4803 Y-0.4152 I0.0049 J-0.0115
N18045 X-0.4782 Y-0.4197 I0.0121 J0.003 F10.
N18050 G1 X-0.469 Y-0.4312 F30.
N18055 X-0.466 Y-0.4343
N18060 X-0.4509 Y-0.4486
N18065 X-0.4105 Y-0.4861
N18070 X-0.4046 Y-0.491
N18075 X-0.3978 Y-0.4959
N18080 X-0.3899 Y-0.5006
N18085 X-0.3804 Y-0.5053
N18090 X-0.3684 Y-0.51
N18095 X-0.3546 Y-0.5142
N18100 X-0.3377 Y-0.5179
N18105 X-0.317 Y-0.5207
N18110 X-0.2931 Y-0.522
N18115 X-0.2676 Y-0.5214
N18120 X-0.2423 Y-0.5188
N18125 X-0.2172 Y-0.5146
N18130 X-0.1924 Y-0.5088
N18135 X-0.168 Y-0.5015
N18140 X-0.144 Y-0.4926
N18145 X-0.1207 Y-0.4823
N18150 X-0.0982 Y-0.4706
N18155 X-0.0764 Y-0.4572
N18160 X-0.0558 Y-0.4423
N18165 X-0.0368 Y-0.4263
N18170 X-0.0202 Y-0.4098
N18175 X-0.0059 Y-0.3931
N18180 X0.0063 Y-0.3764
N18185 X0.0161 Y-0.3604
N18190 X0.0236 Y-0.3454
N18195 X0.0295 Y-0.3309
N18200 X0.0339 Y-0.3172
N18205 X0.0366 Y-0.3054
N18210 X0.0382 Y-0.2946
N18215 X0.0388 Y-0.2856
N18220 X0.0386 Y-0.2774
N18225 X0.0379 Y-0.2694
N18230 X0.0367 Y-0.2628
N18235 X0.0349 Y-0.2558
N18240 X0.0347 Y-0.2553
N18245 X0.0305 Y-0.2474
N18250 X0.0241 Y-0.2411
N18255 X0.016 Y-0.2371
N18260 X0.0072 Y-0.2357
N18265 X-0.0203
N18270 X-0.026 Y-0.2356
N18275 X-0.0295 Y-0.2354
N18280 G3 X-0.0343 Y-0.2361 I-0.0006 J-0.0125 F10.
N18285 X-0.0367 Y-0.2372 I0.0043 J-0.0118 F30.
N18290 G1 X-0.4083 Y-0.4666
N18295 G3 X-0.4132 Y-0.482 I0.0066 J-0.0106
N18300 X-0.4105 Y-0.4861 I0.0115 J0.0048 F10.
N18305 G1 X-0.4072 Y-0.4891 F30.
N18310 X-0.4023 Y-0.4934
N18315 X-0.3936 Y-0.5007
N18320 X-0.3907 Y-0.5028
N18325 X-0.3344 Y-0.5412
N18330 X-0.3275 Y-0.5454
N18335 X-0.32 Y-0.5492
N18340 X-0.3115 Y-0.5527
N18345 X-0.3013 Y-0.5559
N18350 X-0.2887 Y-0.5588
N18355 X-0.2744 Y-0.5609
N18360 X-0.257 Y-0.5621
N18365 X-0.236 Y-0.5618
N18370 X-0.2121 Y-0.5595
N18375 X-0.187 Y-0.5551
N18380 X-0.1623 Y-0.5488
N18385 X-0.1381 Y-0.5409
N18390 X-0.1144 Y-0.5314
N18395 X-0.0914 Y-0.5206
N18400 X-0.0691 Y-0.5083
N18405 X-0.0475 Y-0.4946
N18410 X-0.027 Y-0.4796
N18415 X-0.0075 Y-0.4632
N18420 X0.0107 Y-0.4454
N18425 X0.0271 Y-0.4267
N18430 X0.0411 Y-0.4079
N18435 X0.0528 Y-0.3892
N18440 X0.0623 Y-0.3707
N18445 X0.0695 Y-0.3536
N18450 X0.0747 Y-0.3379
N18455 X0.0783 Y-0.3229
N18460 X0.0805 Y-0.3089
N18465 X0.0815 Y-0.296
N18470 X0.0814 Y-0.2858
N18475 X0.0806 Y-0.2757
N18480 X0.0792 Y-0.2675
N18485 X0.0774 Y-0.2603
N18490 X0.0749 Y-0.2528
N18495 X0.0739 Y-0.2504
N18500 X0.0695 Y-0.2433
N18505 X0.0634 Y-0.2377
N18510 X0.0559 Y-0.2341
N18515 X0.0477 Y-0.2328
N18520 X0.0394 Y-0.2338
N18525 X0.037 Y-0.2344
N18530 X0.0318 Y-0.2352
N18535 X0.026 Y-0.2356
N18540 X0.0203 Y-0.2357
N18545 X0.0072
N18550 G3 X0.0024 Y-0.2368 I0.0004 J-0.0125 F10.
N18555 X-0.0005 Y-0.2387 I0.0052 J-0.0114 F30.
N18560 G1 X-0.3351 Y-0.5216
N18565 G3 X-0.3377 Y-0.5376 I0.0081 J-0.0095
N18570 X-0.3344 Y-0.5412 I0.0107 J0.0065 F10.
N18575 G1 X-0.3259 Y-0.547 F30.
N18580 X-0.3213 Y-0.5501
N18585 X-0.3155 Y-0.5534
N18590 X-0.3097 Y-0.5563
N18595 X-0.2518 Y-0.5841
N18600 X-0.243 Y-0.5878
N18605 X-0.235 Y-0.5905
N18610 X-0.226 Y-0.5927
N18615 X-0.2155 Y-0.5943
N18620 X-0.2025 Y-0.5953
N18625 X-0.188
N18630 X-0.1706 Y-0.5938
N18635 X-0.1498 Y-0.5904
N18640 X-0.1264 Y-0.5846
N18645 X-0.1023 Y-0.5765
N18650 X-0.0788 Y-0.5666
N18655 X-0.056 Y-0.5551
N18660 X-0.034 Y-0.5423
N18665 X-0.0129 Y-0.5281
N18670 X0.0074 Y-0.5126
N18675 X0.0266 Y-0.4959
N18680 X0.0447 Y-0.478
N18685 X0.0616 Y-0.4589
N18690 X0.0769 Y-0.4385
N18695 X0.0903 Y-0.4177
N18700 X0.1012 Y-0.3971
N18705 X0.11 Y-0.3769
N18710 X0.1166 Y-0.3574
N18715 X0.1212 Y-0.3393
N18720 X0.124 Y-0.3228
N18725 X0.1254 Y-0.3073
N18730 X0.1255 Y-0.2929
N18735 X0.1246 Y-0.2809
N18740 X0.1229 Y-0.2702
N18745 X0.1208 Y-0.2613
N18750 X0.1183 Y-0.2537
N18755 X0.1152 Y-0.2461
N18760 X0.112 Y-0.24
N18765 X0.1082 Y-0.2339
N18770 X0.1019 Y-0.2276
N18775 X0.0941 Y-0.2235
N18780 X0.0853 Y-0.222
N18785 X0.0765 Y-0.2232
N18790 X0.055 Y-0.2295
N18795 X0.0394 Y-0.2338
N18800 G3 X0.0351 Y-0.2361 I0.0037 J-0.0119 F10.
N18805 X0.0337 Y-0.2374 I0.008 J-0.0096 F30.
N18810 G1 X-0.2553 Y-0.5648
N18815 G3 X-0.2556 Y-0.5811 I0.0094 J-0.0083
N18820 X-0.2518 Y-0.5841 I0.0096 J0.008 F10.
N18825 G1 X-0.2402 Y-0.5897 F30.
N18830 X-0.2344 Y-0.5923
N18835 X-0.2171 Y-0.5981
N18840 X-0.2113 Y-0.5999
N18845 X-0.1592 Y-0.616
N18850 X-0.1534 Y-0.6175
N18855 X-0.145 Y-0.6189
N18860 X-0.1357 Y-0.6197
N18865 X-0.1249 Y-0.6198
N18870 X-0.1119 Y-0.6188
N18875 X-0.0975 Y-0.6166
N18880 X-0.0803 Y-0.6125
N18885 X-0.0601 Y-0.6059
N18890 X-0.0377 Y-0.5966
N18895 X-0.015 Y-0.5849
N18900 X0.0067 Y-0.5716
N18905 X0.0275 Y-0.5568
N18910 X0.0473 Y-0.5408
N18915 X0.0661 Y-0.5236
N18920 X0.0838 Y-0.5053
N18925 X0.1003 Y-0.4859
N18930 X0.1156 Y-0.4655
N18935 X0.1293 Y-0.444
N18940 X0.1414 Y-0.4216
N18945 X0.1515 Y-0.399
N18950 X0.1592 Y-0.3769
N18955 X0.1649 Y-0.3556
N18960 X0.1685 Y-0.3352
N18965 X0.1703 Y-0.3169
N18970 X0.1705 Y-0.3003
N18975 X0.1696 Y-0.2851
N18980 X0.1675 Y-0.271
N18985 X0.1647 Y-0.2585
N18990 X0.1616 Y-0.2489
N18995 X0.1579 Y-0.2396
N19000 X0.1542 Y-0.2322
N19005 X0.1503 Y-0.2259
N19010 X0.1457 Y-0.2195
N19015 X0.144 Y-0.2175
N19020 X0.1379 Y-0.2121
N19025 X0.1306 Y-0.2086
N19030 X0.1226 Y-0.2073
N19035 X0.1146 Y-0.2082
N19040 X0.1071 Y-0.2113
N19045 X0.1013 Y-0.2146
N19050 X0.0955 Y-0.2172
N19055 X0.0897 Y-0.2193
N19060 X0.0765 Y-0.2232
N19065 G3 X0.0723 Y-0.2256 I0.0039 J-0.0119 F10.
N19070 X0.0699 Y-0.2283 I0.0082 J-0.0095 F30.
N19075 G1 X-0.1656 Y-0.5975
N19080 G3 X-0.1634 Y-0.6135 I0.0105 J-0.0067
N19085 X-0.1592 Y-0.616 I0.0083 J0.0093 F10.
N19090 G1 X-0.1577 Y-0.6165 F30.
N19095 X-0.1418 Y-0.6208
N19100 X-0.1359 Y-0.6222
N19105 X-0.0666 Y-0.6327
N19110 X-0.0601 Y-0.6333
N19115 X-0.0518 Y-0.6335
N19120 X-0.0423 Y-0.6329
N19125 X-0.0317 Y-0.6314
N19130 X-0.0189 Y-0.6285
N19135 X-0.0051 Y-0.6242
N19140 X0.0113 Y-0.6176
N19145 X0.0304 Y-0.6081
N19150 X0.0509 Y-0.5957
N19155 X0.0716 Y-0.5808
N19160 X0.0911 Y-0.5645
N19165 X0.1095 Y-0.5468
N19170 X0.1267 Y-0.5281
N19175 X0.1428 Y-0.5083
N19180 X0.1576 Y-0.4876
N19185 X0.1711 Y-0.466
N19190 X0.1832 Y-0.4435
N19195 X0.1936 Y-0.4203
N19200 X0.2023 Y-0.3963
N19205 X0.2089 Y-0.3725
N19210 X0.2134 Y-0.3496
N19215 X0.2158 Y-0.3278
N19220 X0.2164 Y-0.3072
N19225 X0.2154 Y-0.2885
N19230 X0.2133 Y-0.2719
N19235 X0.21 Y-0.2568
N19240 X0.2059 Y-0.2431
N19245 X0.2015 Y-0.2318
N19250 X0.1968 Y-0.222
N19255 X0.1921 Y-0.2142
N19260 X0.1875 Y-0.2075
N19265 X0.1823 Y-0.2013
N19270 X0.1775 Y-0.1964
N19275 X0.174 Y-0.1934
N19280 X0.1678 Y-0.1892
N19285 X0.1607 Y-0.1868
N19290 X0.1532 Y-0.1862
N19295 X0.1459 Y-0.1876
N19300 X0.1391 Y-0.1908
N19305 X0.1129 Y-0.2077
N19310 X0.1071 Y-0.2113
N19315 G3 X0.1036 Y-0.2147 I0.007 J-0.0104 F10.
N19320 X0.1027 Y-0.2165 I0.0104 J-0.0069 F30.
N19325 G1 X-0.0757 Y-0.6153
N19330 G3 X-0.0711 Y-0.6309 I0.0114 J-0.0051
N19335 X-0.0666 Y-0.6327 I0.0068 J0.0105 F10.
N19340 G1 X-0.0589 Y-0.6338 F30.
N19345 X-0.0434 Y-0.6352
N19350 X-0.0376 Y-0.6355
N19355 X0.026
N19360 X0.0347 Y-0.6351
N19365 X0.043 Y-0.634
N19370 X0.0522 Y-0.632
N19375 X0.0625 Y-0.629
N19380 X0.0747 Y-0.6242
N19385 X0.0878 Y-0.6179
N19390 X0.103 Y-0.6089
N19395 X0.1204 Y-0.5967
N19400 X0.139 Y-0.5812
N19405 X0.1573 Y-0.5634
N19410 X0.1741 Y-0.5443
N19415 X0.1897 Y-0.5241
N19420 X0.2039 Y-0.503
N19425 X0.2169 Y-0.4811
N19430 X0.2284 Y-0.4584
N19435 X0.2386 Y-0.435
N19440 X0.2471 Y-0.411
N19445 X0.254 Y-0.3864
N19450 X0.259 Y-0.3614
N19455 X0.2619 Y-0.3368
N19460 X0.2629 Y-0.3135
N19465 X0.262 Y-0.2915
N19470 X0.2595 Y-0.2709
N19475 X0.2558 Y-0.2529
N19480 X0.2512 Y-0.237
N19485 X0.2457 Y-0.2226
N19490 X0.2397 Y-0.2098
N19495 X0.2335 Y-0.1992
N19500 X0.2273 Y-0.19
N19505 X0.2215 Y-0.183
N19510 X0.2156 Y-0.1768
N19515 X0.2098 Y-0.1716
N19520 X0.2042 Y-0.1674
N19525 X0.201 Y-0.1654
N19530 X0.1936 Y-0.162
N19535 X0.1855 Y-0.1609
N19540 X0.1775 Y-0.1621
N19545 X0.1701 Y-0.1654
N19550 X0.1639 Y-0.1708
N19555 X0.1586 Y-0.1765
N19560 X0.1534 Y-0.1811
N19565 X0.1519 Y-0.1823
N19570 X0.1476 Y-0.1853
N19575 X0.1391 Y-0.1908
N19580 G3 X0.1357 Y-0.1943 I0.0071 J-0.0103 F10.
N19585 X0.1342 Y-0.1977 I0.0105 J-0.0068 F30.
N19590 G1 X0.0145 Y-0.6196
N19595 G3 X0.0213 Y-0.6344 I0.012 J-0.0034
N19600 X0.026 Y-0.6355 I0.0052 J0.0114 F10.
N19605 G1 X0.0376 F30.
N19610 X0.0434 Y-0.6352
N19615 X0.0589 Y-0.6338
N19620 X0.1187 Y-0.6248
N19625 X0.1286 Y-0.6228
N19630 X0.1367 Y-0.6205
N19635 X0.1456 Y-0.6172
N19640 X0.1552 Y-0.6126
N19645 X0.1667 Y-0.606
N19650 X0.1786 Y-0.5978
N19655 X0.1924 Y-0.5867
N19660 X0.2078 Y-0.5719
N19665 X0.2239 Y-0.5539
N19670 X0.2393 Y-0.5336
N19675 X0.2531 Y-0.5122
N19680 X0.2655 Y-0.4899
N19685 X0.2764 Y-0.4669
N19690 X0.286 Y-0.4433
N19695 X0.294 Y-0.4191
N19700 X0.3005 Y-0.3945
N19705 X0.3054 Y-0.3694
N19710 X0.3085 Y-0.3442
N19715 X0.3097 Y-0.3187
N19720 X0.309 Y-0.294
N19725 X0.3065 Y-0.2708
N19730 X0.3023 Y-0.2493
N19735 X0.2968 Y-0.2295
N19740 X0.2905 Y-0.2121
N19745 X0.2835 Y-0.197
N19750 X0.2759 Y-0.1835
N19755 X0.268 Y-0.1716
N19760 X0.2604 Y-0.1621
N19765 X0.253 Y-0.1542
N19770 X0.2462 Y-0.148
N19775 X0.2398 Y-0.143
N19780 X0.2329 Y-0.1386
N19785 X0.2269 Y-0.1353
N19790 X0.2231 Y-0.1336
N19795 X0.2158 Y-0.1315
N19800 X0.2082 Y-0.1313
N19805 X0.2008 Y-0.1331
N19810 X0.1942 Y-0.1367
N19815 X0.1887 Y-0.142
N19820 X0.184 Y-0.1476
N19825 X0.1639 Y-0.1708
N19830 G3 X0.1617 Y-0.1751 I0.0097 J-0.0079 F10.
N19835 X0.1613 Y-0.177 I0.012 J-0.0036 F30.
N19840 G1 X0.1048 Y-0.6108
N19845 G3 X0.1138 Y-0.6244 I0.0124 J-0.0016
N19850 X0.1187 Y-0.6248 I0.0034 J0.012 F10.
