%
(1001)
(18 END MILL)
(T2  D=0.125 CR=0. - ZMIN=-0.1378 - FLAT END MILL)
N10 G90 G94 G17 G91.1
N15 G20
N20 G53 G0 Z0.
(BORE2 18)
N25 M9
N30 T2 M6
N35 S800 M3
N40 G54
N45 M8
N55 G0 X-0.0003 Y-0.006
N60 G43 Z0.6 H2
N65 G0 Z0.0675
N70 G1 Z0. F10.
N75 X0.006
N80 G3 X0.012 Y0. I0. J0.006
N85 X-0.012 Z-0.0197 I-0.012 J0. F20.
N90 X0.012 Z-0.0394 I0.012 J0.
N95 X-0.012 Z-0.0591 I-0.012 J0.
N100 X0.012 Z-0.0787 I0.012 J0.
N105 X-0.012 Z-0.0984 I-0.012 J0.
N110 X0.012 Z-0.1181 I0.012 J0.
N115 X-0.012 Z-0.1378 I-0.012 J0.
N120 X0.012 I0.012 J0.
N125 X-0.012 I-0.012 J0.
N130 X-0.006 Y-0.006 I0.006 J0. F10.
N135 G1 X0.0003
N140 G0 Z0.2
N145 X0.0007 Y-0.0125
N150 Z-0.0578
N155 G1 Z-0.1253 F10.
N160 G18 G2 X0.0132 Z-0.1378 I0.0125 K0.
N165 G1 X0.0195
N170 G17 G3 X0.032 Y0. I0. J0.0125
N175 X-0.032 I-0.032 J0. F20.
N180 X0.032 I0.032 J0.
N185 X0.0195 Y0.0125 I-0.0125 J0. F10.
N190 G1 X0.0132
N195 G18 G3 X0.0007 Z-0.1253 I0. K0.0125
N200 G0 Z0.2
N205 Y-0.0125
N210 Z-0.0578
N215 G1 Z-0.1253 F10.
N220 G2 X0.0132 Z-0.1378 I0.0125 K0.
N225 G1 X0.0195
N230 G17 G3 X0.032 Y0. I0. J0.0125
N235 X-0.032 I-0.032 J0. F20.
N240 X0.032 I0.032 J0.
N245 X0.0195 Y0.0125 I-0.0125 J0. F10.
N250 G1 X0.0132
N255 G18 G3 X0.0007 Z-0.1253 I0. K0.0125
N260 G0 Z0.6
N265 G17
(2D CONTOUR2)
N270 M8
N275 G0 X-0.0055 Y-0.0125
N280 Z0.6
N285 Z0.2
N290 G1 Z0.0394 F10.
N295 Z-0.1253 F2.
N300 G18 G2 X0.007 Z-0.1378 I0.0125 K0.
N305 G1 X0.0195 F10.
N310 G17 G3 X0.032 Y0. I0. J0.0125
N315 X-0.032 I-0.032 J0. F20.
N320 X0.032 I0.032 J0.
N325 X0.0195 Y0.0125 I-0.0125 J0. F10.
N330 G1 X0.007
N335 G18 G3 X-0.0055 Z-0.1253 I0. K0.0125
N340 G0 Z0.6
N345 G17
N350 M9
N355 G53 G0 Z0.
N360 M30
%
