%
(1001)
(18 END MILL)
(T2  D=0.125 CR=0. - ZMIN=-0.22 - FLAT END MILL)
N10 G90 G94 G17 G91.1
N15 G20
N20 G53 G0 Z0.
(2D ADAPTIVE1 18)
N25 M9
N30 T2 M6
N35 S800 M3
N40 G54
N45 M8
N55 G0 X-0.0821 Y0.4553
N60 G43 Z0.25 H2
N65 G0 Z0.1004
N70 G1 Z0.1 F30.
N75 G3 X0.0299 Y0.4157 Z0.0935 I0.056 J-0.0198
N80 X-0.0821 Y0.4553 Z0.087 I-0.056 J0.0198
N85 X0.0299 Y0.4157 Z0.0805 I0.056 J-0.0198
N90 X-0.0821 Y0.4553 Z0.0739 I-0.056 J0.0198
N95 X0.0299 Y0.4157 Z0.0674 I0.056 J-0.0198
N100 X-0.0821 Y0.4553 Z0.0609 I-0.056 J0.0198
N105 X0.0299 Y0.4157 Z0.0544 I0.056 J-0.0198
N110 X-0.0821 Y0.4553 Z0.0479 I-0.056 J0.0198
N115 X0.0299 Y0.4157 Z0.0414 I0.056 J-0.0198
N120 X-0.0821 Y0.4553 Z0.0349 I-0.056 J0.0198
N125 X0.0299 Y0.4157 Z0.0283 I0.056 J-0.0198
N130 X-0.0821 Y0.4553 Z0.0218 I-0.056 J0.0198
N135 X0.0299 Y0.4157 Z0.0153 I0.056 J-0.0198
N140 X-0.0821 Y0.4553 Z0.0088 I-0.056 J0.0198
N145 X0.0299 Y0.4157 Z0.0023 I0.056 J-0.0198
N150 X-0.0821 Y0.4553 Z-0.0042 I-0.056 J0.0198
N155 X0.0299 Y0.4157 Z-0.0107 I0.056 J-0.0198
N160 X-0.0821 Y0.4553 Z-0.0172 I-0.056 J0.0198
N165 X0.0299 Y0.4157 Z-0.0238 I0.056 J-0.0198
N170 X-0.0821 Y0.4553 Z-0.0303 I-0.056 J0.0198
N175 X0.0299 Y0.4157 Z-0.0368 I0.056 J-0.0198
N180 X-0.0821 Y0.4553 Z-0.0433 I-0.056 J0.0198
N185 X0.0299 Y0.4157 Z-0.0498 I0.056 J-0.0198
N190 X-0.0821 Y0.4553 Z-0.0563 I-0.056 J0.0198
N195 X0.0299 Y0.4157 Z-0.0628 I0.056 J-0.0198
N200 X-0.0821 Y0.4553 Z-0.0694 I-0.056 J0.0198
N205 X0.0299 Y0.4157 Z-0.0759 I0.056 J-0.0198
N210 X-0.0821 Y0.4553 Z-0.0824 I-0.056 J0.0198
N215 X0.0299 Y0.4157 Z-0.0889 I0.056 J-0.0198
N220 X0.0333 Y0.4355 Z-0.0896 I-0.056 J0.0198
N225 X-0.0855 I-0.0594 J0.
N230 X0.0333 I0.0594 J0.
N235 G1 X0.034 Y0.4648
N240 X0.0349 Y0.4684
N245 X0.0354 Y0.4744
N250 X0.0349 Y0.4804
N255 X0.0334 Y0.4862
N260 X0.0311 Y0.4917
N265 X0.0282 Y0.497
N270 X0.0247 Y0.5018
N275 X0.0207 Y0.5063
N280 X0.0163 Y0.5104
N285 X0.0115 Y0.514
N290 X0.0064 Y0.5172
N295 X0.0011 Y0.5199
N300 X-0.0045 Y0.5222
N305 X-0.0103 Y0.5241
N310 X-0.0165 Y0.5256
N315 X-0.0228 Y0.5265
N320 X-0.0293 Y0.527
N325 X-0.036 Y0.5269
N330 X-0.0428 Y0.5263
N335 X-0.0495 Y0.5251
N340 X-0.0563 Y0.5234
N345 X-0.0629 Y0.5211
N350 X-0.0694 Y0.5183
N355 X-0.0757 Y0.5149
N360 X-0.0818 Y0.511
N365 X-0.0876 Y0.5066
N370 X-0.093 Y0.5017
N375 X-0.0981 Y0.4963
N380 X-0.1027 Y0.4906
N385 X-0.1069 Y0.4844
N390 X-0.1105 Y0.478
N395 X-0.1137 Y0.4712
N400 X-0.1163 Y0.4642
N405 X-0.1183 Y0.4569
N410 X-0.1198 Y0.4496
N415 X-0.1207 Y0.4421
N420 X-0.1209 Y0.4345
N425 X-0.1206 Y0.427
N430 X-0.1196 Y0.4195
N435 X-0.1181 Y0.412
N440 X-0.1159 Y0.4048
N445 X-0.1132 Y0.3977
N450 X-0.1099 Y0.3908
N455 X-0.1061 Y0.3843
N460 X-0.1017 Y0.378
N465 X-0.0969 Y0.3721
N470 X-0.0916 Y0.3667
N475 X-0.0859 Y0.3616
N480 X-0.0797 Y0.3571
N485 X-0.0733 Y0.353
N490 X-0.0665 Y0.3495
N495 X-0.0595 Y0.3465
N500 X-0.0523 Y0.3441
N505 X-0.0449 Y0.3423
N510 X-0.0373 Y0.3411
N515 X-0.0297 Y0.3405
N520 X-0.0221
N525 X-0.0145 Y0.3412
N530 X-0.0069 Y0.3424
N535 X0.0005 Y0.3442
N540 X0.0077 Y0.3467
N545 X0.0147 Y0.3497
N550 X0.0215 Y0.3532
N555 X0.0279 Y0.3573
N560 X0.034 Y0.3619
N565 X0.0398 Y0.3669
N570 X0.045 Y0.3724
N575 X0.0499 Y0.3784
N580 X0.0542 Y0.3846
N585 X0.0584 Y0.3918
N590 X0.0628 Y0.4011
N595 X0.0688 Y0.4168
N600 X0.0724 Y0.4294
N605 X0.0746 Y0.44
N610 X0.0758 Y0.4499
N615 X0.0762 Y0.4592
N620 X0.0759 Y0.4679
N625 X0.0749 Y0.4763
N630 X0.0733 Y0.4843
N635 X0.071 Y0.4922
N640 X0.0681 Y0.4999
N645 X0.0646 Y0.5074
N650 X0.0606 Y0.5145
N655 X0.0559 Y0.5213
N660 X0.0507 Y0.5278
N665 X0.0449 Y0.5339
N670 X0.0385 Y0.5395
N675 X0.0316 Y0.5448
N680 X0.0243 Y0.5495
N685 X0.0164 Y0.5536
N690 X0.0081 Y0.5572
N695 X-0.0005 Y0.5602
N700 X-0.0095 Y0.5624
N705 X-0.0188 Y0.564
N710 X-0.0283 Y0.5648
N715 X-0.0379 Y0.5649
N720 X-0.0476 Y0.5642
N725 X-0.0573 Y0.5627
N730 X-0.067 Y0.5604
N735 X-0.0765 Y0.5573
N740 X-0.0858 Y0.5534
N745 X-0.0948 Y0.5487
N750 X-0.1035 Y0.5433
N755 X-0.1118 Y0.5372
N760 X-0.1196 Y0.5304
N765 X-0.1268 Y0.523
N770 X-0.1335 Y0.515
N775 X-0.1395 Y0.5064
N780 X-0.1449 Y0.4973
N785 X-0.1495 Y0.4879
N790 X-0.1534 Y0.478
N795 X-0.1564 Y0.4678
N800 X-0.1586 Y0.4574
N805 X-0.16 Y0.4468
N810 X-0.1606 Y0.4362
N815 X-0.1603 Y0.4255
N820 X-0.1591 Y0.4148
N825 X-0.157 Y0.4043
N830 X-0.1542 Y0.3939
N835 X-0.1505 Y0.3838
N840 X-0.146 Y0.374
N845 X-0.1407 Y0.3646
N850 X-0.1347 Y0.3557
N855 X-0.128 Y0.3472
N860 X-0.1206 Y0.3393
N865 X-0.1126 Y0.3321
N870 X-0.104 Y0.3255
N875 X-0.095 Y0.3196
N880 X-0.0854 Y0.3144
N885 X-0.0756 Y0.31
N890 X-0.0653 Y0.3065
N895 X-0.0549 Y0.3037
N900 X-0.0442 Y0.3018
N905 X-0.0334 Y0.3008
N910 X-0.0226 Y0.3007
N915 X-0.0118 Y0.3014
N920 X-0.0011 Y0.3029
N925 X0.0095 Y0.3054
N930 X0.0198 Y0.3086
N935 X0.0298 Y0.3127
N940 X0.0395 Y0.3176
N945 X0.0488 Y0.3233
N950 X0.0575 Y0.3296
N955 X0.0658 Y0.3368
N960 X0.0739 Y0.3449
N965 X0.0824 Y0.3549
N970 X0.0902 Y0.3658
N975 X0.0973 Y0.3777
N980 X0.1036 Y0.3903
N985 X0.1087 Y0.4031
N990 X0.1127 Y0.4159
N995 X0.1155 Y0.4287
N1000 X0.1173 Y0.4412
N1005 X0.118 Y0.4537
N1010 X0.1177 Y0.4659
N1015 X0.1165 Y0.478
N1020 X0.1143 Y0.4898
N1025 X0.1112 Y0.5013
N1030 X0.1073 Y0.5124
N1035 X0.1024 Y0.5232
N1040 X0.0967 Y0.5336
N1045 X0.0902 Y0.5434
N1050 X0.0829 Y0.5528
N1055 X0.0748 Y0.5615
N1060 X0.066 Y0.5697
N1065 X0.0565 Y0.5771
N1070 X0.0463 Y0.5839
N1075 X0.0356 Y0.5898
N1080 X0.0243 Y0.5949
N1085 X0.0125 Y0.5991
N1090 X0.0004 Y0.6024
N1095 X-0.0121 Y0.6047
N1100 X-0.0249 Y0.6061
N1105 X-0.0378 Y0.6064
N1110 X-0.0508 Y0.6056
N1115 X-0.0638 Y0.6038
N1120 X-0.0767 Y0.601
N1125 X-0.0893 Y0.597
N1130 X-0.1017 Y0.5921
N1135 X-0.1138 Y0.5862
N1140 X-0.1254 Y0.5792
N1145 X-0.1364 Y0.5713
N1150 X-0.1469 Y0.5625
N1155 X-0.1566 Y0.5529
N1160 X-0.1656 Y0.5425
N1165 X-0.1737 Y0.5313
N1170 X-0.1809 Y0.5195
N1175 X-0.1872 Y0.5071
N1180 X-0.1925 Y0.4942
N1185 X-0.1967 Y0.4809
N1190 X-0.1999 Y0.4672
N1195 X-0.202 Y0.4533
N1200 X-0.2029 Y0.4393
N1205 X-0.2027 Y0.4252
N1210 X-0.2014 Y0.4112
N1215 X-0.199 Y0.3972
N1220 X-0.1954 Y0.3836
N1225 X-0.1908 Y0.3702
N1230 X-0.185 Y0.3572
N1235 X-0.1783 Y0.3448
N1240 X-0.1706 Y0.3329
N1245 X-0.1619 Y0.3216
N1250 X-0.1524 Y0.3111
N1255 X-0.142 Y0.3014
N1260 X-0.1309 Y0.2925
N1265 X-0.1191 Y0.2845
N1270 X-0.1068 Y0.2776
N1275 X-0.0938 Y0.2716
N1280 X-0.0805 Y0.2667
N1285 X-0.0668 Y0.2629
N1290 X-0.0528 Y0.2601
N1295 X-0.0387 Y0.2586
N1300 X-0.0244 Y0.2581
N1305 X-0.0102 Y0.2588
N1310 X0.0039 Y0.2607
N1315 X0.0179 Y0.2636
N1320 X0.0315 Y0.2677
N1325 X0.0448 Y0.2729
N1330 X0.0576 Y0.2791
N1335 X0.0701 Y0.2864
N1340 X0.0823 Y0.295
N1345 X0.0941 Y0.3048
N1350 X0.1055 Y0.3159
N1355 X0.1162 Y0.3281
N1360 X0.1261 Y0.3414
N1365 X0.1348 Y0.3555
N1370 X0.1425 Y0.3703
N1375 X0.1489 Y0.3855
N1380 X0.154 Y0.401
N1385 X0.1578 Y0.4168
N1390 X0.1602 Y0.4327
N1395 X0.1614 Y0.4486
N1400 Y0.4644
N1405 X0.16 Y0.4801
N1410 X0.1575 Y0.4954
N1415 X0.1537 Y0.5105
N1420 X0.1487 Y0.5251
N1425 X0.1426 Y0.5393
N1430 X0.1354 Y0.5529
N1435 X0.1271 Y0.566
N1440 X0.1178 Y0.5783
N1445 X0.1075 Y0.5899
N1450 X0.0962 Y0.6006
N1455 X0.0912 Y0.6047
N1460 X0.0869 Y0.6076
N1465 X0.0822 Y0.6096
N1470 X0.0772 Y0.6109
N1475 X0.0599 Y0.6135
N1480 X0.0532 Y0.6142
N1485 X0.0333 Y0.6155
N1490 X-0.0333
N1495 X-0.0532 Y0.6142
N1500 X-0.0599 Y0.6135
N1505 X-0.1197 Y0.6044
N1510 X-0.1264 Y0.6033
N1515 X-0.1397 Y0.6004
N1520 X-0.1455 Y0.5988
N1525 X-0.1529 Y0.5961
N1530 X-0.1604 Y0.5927
N1535 X-0.1687 Y0.5881
N1540 X-0.177 Y0.5826
N1545 X-0.1855 Y0.5759
N1550 X-0.1944 Y0.5676
N1555 X-0.2029 Y0.5583
N1560 X-0.211 Y0.5479
N1565 X-0.2188 Y0.5361
N1570 X-0.2259 Y0.5231
N1575 X-0.2322 Y0.5089
N1580 X-0.2376 Y0.4939
N1585 X-0.2418 Y0.4781
N1590 X-0.2447 Y0.4618
N1595 X-0.2464 Y0.445
N1600 X-0.2467 Y0.428
N1605 X-0.2457 Y0.4109
N1610 X-0.2432 Y0.3938
N1615 X-0.2394 Y0.3768
N1620 X-0.2342 Y0.3601
N1625 X-0.2276 Y0.3438
N1630 X-0.2197 Y0.3281
N1635 X-0.2106 Y0.3129
N1640 X-0.2003 Y0.2986
N1645 X-0.1888 Y0.2851
N1650 X-0.1763 Y0.2725
N1655 X-0.1628 Y0.261
N1660 X-0.1484 Y0.2506
N1665 X-0.1332 Y0.2414
N1670 X-0.1251 Y0.2374
N1675 X-0.1175 Y0.2348
N1680 X-0.1095 Y0.2344
N1685 X-0.1017 Y0.2362
N1690 X-0.0998 Y0.2369
N1695 X-0.0931 Y0.2392
N1700 X-0.0532 Y0.2509
N1705 X-0.0463 Y0.2528
N1710 X-0.0399 Y0.2542
N1715 X-0.0333 Y0.2552
N1720 X-0.0266 Y0.2555
N1725 X-0.0133 Y0.2557
N1730 X0.
N1735 X0.0133
N1740 X0.0266 Y0.2555
N1745 X0.0333 Y0.2552
N1750 X0.0399 Y0.2542
N1755 X0.0418 Y0.2538
N1760 X0.0477 Y0.2527
N1765 X0.0537 Y0.2524
N1770 X0.0601 Y0.2526
N1775 X0.0668 Y0.2533
N1780 X0.0746 Y0.2549
N1785 X0.0826 Y0.2571
N1790 X0.0918 Y0.2605
N1795 X0.1011 Y0.2648
N1800 X0.1112 Y0.2705
N1805 X0.1221 Y0.2778
N1810 X0.1325 Y0.2861
N1815 X0.1433 Y0.2963
N1820 X0.1541 Y0.3082
N1825 X0.1645 Y0.3217
N1830 X0.1741 Y0.3365
N1835 X0.1826 Y0.3523
N1840 X0.19 Y0.3691
N1845 X0.1962 Y0.3868
N1850 X0.201 Y0.4052
N1855 X0.2043 Y0.424
N1860 X0.2061 Y0.4431
N1865 X0.2063 Y0.4623
N1870 X0.205 Y0.4814
N1875 X0.2022 Y0.5003
N1880 X0.1979 Y0.5189
N1885 X0.1921 Y0.5371
N1890 X0.1849 Y0.5547
N1895 X0.1763 Y0.5717
N1900 X0.1684 Y0.5846
N1905 X0.1641 Y0.5901
N1910 X0.1585 Y0.5944
N1915 X0.1521 Y0.5972
N1920 X0.1476 Y0.5986
N1925 X0.1463 Y0.599
N1930 X0.1264 Y0.6033
N1935 X0.1197 Y0.6044
N1940 X0.0772 Y0.6109
N1945 G3 X0.0751 I-0.0014 J-0.0124
N1950 G1 X0.0723 Y0.6108
N1955 X-0.1348 Y0.6007
N1960 X-0.1381 Y0.6006
N1965 G3 X-0.1397 Y0.6004 I0.0006 J-0.0125
N1970 G1 X-0.1463 Y0.599
N1975 X-0.1476 Y0.5986
N1980 X-0.2062 Y0.5806
N1985 X-0.2141 Y0.5777
N1990 X-0.2196 Y0.5752
N1995 X-0.2254 Y0.5719
N2000 X-0.2313 Y0.5679
N2005 X-0.2379 Y0.5627
N2010 X-0.2443 Y0.5567
N2015 X-0.2511 Y0.5492
N2020 X-0.2578 Y0.5405
N2025 X-0.2643 Y0.5305
N2030 X-0.2708 Y0.5186
N2035 X-0.2766 Y0.5055
N2040 X-0.2815 Y0.4912
N2045 X-0.2857 Y0.4753
N2050 X-0.2887 Y0.458
N2055 X-0.2905 Y0.4397
N2060 X-0.2908 Y0.4206
N2065 X-0.2895 Y0.4012
N2070 X-0.2866 Y0.3816
N2075 X-0.2821 Y0.3619
N2080 X-0.2759 Y0.3424
N2085 X-0.268 Y0.3232
N2090 X-0.2586 Y0.3045
N2095 X-0.2476 Y0.2865
N2100 X-0.2351 Y0.2693
N2105 X-0.2213 Y0.2532
N2110 X-0.2062 Y0.2382
N2115 X-0.1906 Y0.2251
N2120 X-0.1785 Y0.2163
N2125 X-0.1722 Y0.2126
N2130 X-0.1648 Y0.2094
N2135 X-0.1568 Y0.2084
N2140 X-0.1488 Y0.2097
N2145 X-0.1414 Y0.2131
N2150 X-0.1197 Y0.227
N2155 X-0.1131 Y0.231
N2160 X-0.1064 Y0.2344
N2165 X-0.1017 Y0.2362
N2170 G3 X-0.0946 Y0.2513 I-0.0049 J0.0115
N2175 G1 X-0.191 Y0.5721
N2180 G3 X-0.2062 Y0.5806 I-0.012 J-0.0036
N2185 G1 X-0.2195 Y0.5765
N2190 X-0.2261 Y0.5737
N2195 X-0.2328 Y0.5708
N2200 X-0.2395 Y0.5679
N2205 X-0.2723 Y0.5521
N2210 X-0.2776 Y0.5492
N2215 X-0.2826 Y0.5459
N2220 X-0.2879 Y0.5417
N2225 X-0.2931 Y0.5369
N2230 X-0.2989 Y0.5306
N2235 X-0.3043 Y0.5237
N2240 X-0.3101 Y0.5149
N2245 X-0.3154 Y0.5053
N2250 X-0.3207 Y0.4935
N2255 X-0.3253 Y0.4805
N2260 X-0.3292 Y0.4658
N2265 X-0.3323 Y0.449
N2270 X-0.3342 Y0.4306
N2275 X-0.3346 Y0.4116
N2280 X-0.3334 Y0.3913
N2285 X-0.3303 Y0.37
N2290 X-0.3254 Y0.3481
N2295 X-0.3186 Y0.326
N2300 X-0.3097 Y0.3039
N2305 X-0.299 Y0.2824
N2310 X-0.2864 Y0.2615
N2315 X-0.2721 Y0.2415
N2320 X-0.2563 Y0.2228
N2325 X-0.2406 Y0.207
N2330 X-0.2287 Y0.1969
N2335 X-0.2193 Y0.1901
N2340 X-0.2107 Y0.1848
N2345 X-0.208 Y0.1835
N2350 X-0.1992 Y0.1807
N2355 X-0.1899 Y0.1808
N2360 X-0.1812 Y0.1838
N2365 X-0.1738 Y0.1894
N2370 X-0.1704 Y0.1929
N2375 X-0.1663 Y0.1963
N2380 X-0.1622 Y0.1995
N2385 X-0.1596 Y0.2014
N2390 X-0.1414 Y0.2131
N2395 G3 X-0.1369 Y0.2277 I-0.0071 J0.0103
N2400 G1 X-0.2556 Y0.545
N2405 G3 X-0.2723 Y0.5521 I-0.0117 J-0.0044
N2410 G1 X-0.2999 Y0.5388
N2415 X-0.306 Y0.5357
N2420 X-0.3126 Y0.5317
N2425 X-0.3193 Y0.5273
N2430 X-0.3317 Y0.5188
N2435 X-0.3365 Y0.5152
N2440 X-0.3411 Y0.5108
N2445 X-0.346 Y0.5054
N2450 X-0.351 Y0.4988
N2455 X-0.3558 Y0.4913
N2460 X-0.3608 Y0.482
N2465 X-0.3653 Y0.4717
N2470 X-0.3694 Y0.4596
N2475 X-0.3731 Y0.4453
N2480 X-0.3756 Y0.4303
N2485 X-0.3772 Y0.4126
N2490 X-0.3774 Y0.3927
N2495 X-0.3759 Y0.3722
N2500 X-0.3725 Y0.3503
N2505 X-0.367 Y0.3269
N2510 X-0.3592 Y0.3027
N2515 X-0.3491 Y0.2784
N2520 X-0.3368 Y0.2543
N2525 X-0.3223 Y0.231
N2530 X-0.3064 Y0.2093
N2535 X-0.2904 Y0.1909
N2540 X-0.2764 Y0.1771
N2545 X-0.2657 Y0.1682
N2550 X-0.2554 Y0.1609
N2555 X-0.2476 Y0.1563
N2560 X-0.2395 Y0.1524
N2565 X-0.2318 Y0.1493
N2570 X-0.2232 Y0.1481
N2575 X-0.2147 Y0.1494
N2580 X-0.2069 Y0.1531
N2585 X-0.2006 Y0.1589
N2590 X-0.1995 Y0.1602
N2595 X-0.1796 Y0.1832
N2600 X-0.1751 Y0.188
N2605 X-0.1738 Y0.1894
N2610 G3 X-0.1718 Y0.2029 I-0.0093 J0.0083
N2615 G1 X-0.3137 Y0.5134
N2620 G3 X-0.3317 Y0.5188 I-0.0114 J-0.0052
N2625 G1 X-0.3761 Y0.4885
N2630 X-0.3811 Y0.4848
N2635 X-0.3856 Y0.4808
N2640 X-0.3899 Y0.4762
N2645 X-0.3941 Y0.4709
N2650 X-0.3986 Y0.4642
N2655 X-0.4028 Y0.4568
N2660 X-0.407 Y0.4476
N2665 X-0.4108 Y0.4373
N2670 X-0.4143 Y0.4248
N2675 X-0.4169 Y0.4115
N2680 X-0.4187 Y0.3952
N2685 X-0.4192 Y0.3776
N2690 X-0.4182 Y0.3582
N2695 X-0.4153 Y0.336
N2700 X-0.4101 Y0.3118
N2705 X-0.4027 Y0.2868
N2710 X-0.3929 Y0.2618
N2715 X-0.3803 Y0.2359
N2720 X-0.3655 Y0.2106
N2725 X-0.3489 Y0.1869
N2730 X-0.3333 Y0.1682
N2735 X-0.3184 Y0.1529
N2740 X-0.3048 Y0.141
N2745 X-0.2923 Y0.1317
N2750 X-0.2827 Y0.1257
N2755 X-0.2732 Y0.1208
N2760 X-0.2656 Y0.1176
N2765 X-0.2574 Y0.1149
N2770 X-0.2547 Y0.1143
N2775 X-0.2469 Y0.1135
N2780 X-0.2391 Y0.1148
N2785 X-0.232 Y0.1182
N2790 X-0.2261 Y0.1233
N2795 X-0.2217 Y0.1299
N2800 X-0.2201 Y0.133
N2805 X-0.2195 Y0.1342
N2810 X-0.2158 Y0.1397
N2815 X-0.2054 Y0.153
N2820 X-0.2006 Y0.1589
N2825 G3 X-0.1995 Y0.1721 I-0.01 J0.0075
N2830 G1 X-0.3583 Y0.4837
N2835 G3 X-0.3761 Y0.4885 I-0.0111 J-0.0057
N2840 G1 X-0.3791 Y0.4865
N2845 X-0.3804 Y0.4856
N2850 X-0.396 Y0.4723
N2855 X-0.4291 Y0.4416
N2860 X-0.4333 Y0.4373
N2865 X-0.437 Y0.4326
N2870 X-0.441 Y0.4266
N2875 X-0.4446 Y0.4201
N2880 X-0.4482 Y0.4122
N2885 X-0.4516 Y0.4029
N2890 X-0.4545 Y0.3923
N2895 X-0.4569 Y0.3796
N2900 X-0.4584 Y0.3654
N2905 X-0.4588 Y0.349
N2910 X-0.4578 Y0.3294
N2915 X-0.4551 Y0.3095
N2920 X-0.4501 Y0.2866
N2925 X-0.4423 Y0.2612
N2930 X-0.4318 Y0.2344
N2935 X-0.4189 Y0.208
N2940 X-0.404 Y0.1828
N2945 X-0.3879 Y0.1599
N2950 X-0.3713 Y0.14
N2955 X-0.3548 Y0.123
N2960 X-0.3397 Y0.1099
N2965 X-0.326 Y0.0997
N2970 X-0.3131 Y0.0917
N2975 X-0.3025 Y0.0863
N2980 X-0.2933 Y0.0824
N2985 X-0.285 Y0.0797
N2990 X-0.2768 Y0.0777
N2995 X-0.2698 Y0.0766
N3000 X-0.2672 Y0.0764
N3005 X-0.2584 Y0.0771
N3010 X-0.2502 Y0.0804
N3015 X-0.2433 Y0.086
N3020 X-0.2385 Y0.0934
N3025 X-0.2234 Y0.1264
N3030 X-0.2217 Y0.1299
N3035 G3 X-0.2225 Y0.1416 I-0.0114 J0.0051
N3040 G1 X-0.4103 Y0.4388
N3045 G3 X-0.4291 Y0.4416 I-0.0106 J-0.0067
N3050 G1 X-0.439 Y0.4323
N3055 X-0.4529 Y0.419
N3060 X-0.459 Y0.4117
N3065 X-0.4744 Y0.3924
N3070 X-0.4786 Y0.3865
N3075 X-0.482 Y0.3809
N3080 X-0.4854 Y0.3741
N3085 X-0.4883 Y0.3667
N3090 X-0.4913 Y0.3574
N3095 X-0.4935 Y0.3475
N3100 X-0.4953 Y0.3351
N3105 X-0.4961 Y0.3216
N3110 X-0.4957 Y0.3049
N3115 X-0.494 Y0.2876
N3120 X-0.4901 Y0.2662
N3125 X-0.4839 Y0.2428
N3130 X-0.4752 Y0.2185
N3135 X-0.4634 Y0.1921
N3140 X-0.4493 Y0.1663
N3145 X-0.4332 Y0.1418
N3150 X-0.4156 Y0.119
N3155 X-0.3977 Y0.0993
N3160 X-0.3809 Y0.0835
N3165 X-0.3648 Y0.0707
N3170 X-0.3495 Y0.0605
N3175 X-0.3357 Y0.0527
N3180 X-0.3227 Y0.0468
N3185 X-0.3123 Y0.043
N3190 X-0.302 Y0.0401
N3195 X-0.2939 Y0.0385
N3200 X-0.2856 Y0.0376
N3205 X-0.2779 Y0.0374
N3210 X-0.2763 Y0.0375
N3215 X-0.2687 Y0.0389
N3220 X-0.2618 Y0.0422
N3225 X-0.256 Y0.0473
N3230 X-0.2517 Y0.0536
N3235 X-0.2492 Y0.0609
N3240 X-0.2467 Y0.0732
N3245 X-0.2461 Y0.0753
N3250 X-0.2444 Y0.0798
N3255 X-0.2416 Y0.0865
N3260 X-0.2385 Y0.0934
N3265 G3 X-0.24 Y0.1057 I-0.0115 J0.0048
N3270 G1 X-0.4549 Y0.3918
N3275 G3 X-0.4744 Y0.3924 I-0.01 J-0.0075
N3280 G1 X-0.5062 Y0.3525
N3285 X-0.5107 Y0.3459
N3290 X-0.5169 Y0.3356
N3295 X-0.52 Y0.3296
N3300 X-0.5227 Y0.3235
N3305 X-0.5253 Y0.3158
N3310 X-0.5276 Y0.3068
N3315 X-0.5292 Y0.2969
N3320 X-0.5303 Y0.2844
N3325 X-0.5304 Y0.2714
N3330 X-0.5292 Y0.255
N3335 X-0.5265 Y0.2379
N3340 X-0.5216 Y0.2174
N3345 X-0.514 Y0.194
N3350 X-0.504 Y0.1701
N3355 X-0.491 Y0.1449
N3360 X-0.4755 Y0.1199
N3365 X-0.4582 Y0.0963
N3370 X-0.4394 Y0.0745
N3375 X-0.4206 Y0.0559
N3380 X-0.4026 Y0.0408
N3385 X-0.3849 Y0.0282
N3390 X-0.3681 Y0.0182
N3395 X-0.3527 Y0.0106
N3400 X-0.3385 Y0.0049
N3405 X-0.3253 Y0.0009
N3410 X-0.3145 Y-0.0015
N3415 X-0.3049 Y-0.0028
N3420 X-0.2966 Y-0.0033
N3425 X-0.2884 Y-0.0031
N3430 X-0.2815 Y-0.0024
N3435 X-0.2786 Y-0.0018
N3440 X-0.2701 Y0.0012
N3445 X-0.2629 Y0.0067
N3450 X-0.2577 Y0.0141
N3455 X-0.2551 Y0.0227
N3460 X-0.2507 Y0.0532
N3465 X-0.2492 Y0.0609
N3470 G3 X-0.2523 Y0.0714 I-0.0123 J0.002
N3475 G1 X-0.4972 Y0.3373
N3480 G3 X-0.5169 Y0.3356 I-0.0092 J-0.0085
N3485 G1 X-0.5226 Y0.3259
N3490 X-0.5495 Y0.2794
N3495 X-0.5522 Y0.274
N3500 X-0.5545 Y0.2684
N3505 X-0.5568 Y0.2614
N3510 X-0.5586 Y0.2535
N3515 X-0.5599 Y0.2445
N3520 X-0.5607 Y0.2332
N3525 X-0.5606 Y0.2216
N3530 X-0.5592 Y0.2067
N3535 X-0.5565 Y0.1916
N3540 X-0.5516 Y0.1726
N3545 X-0.5446 Y0.1526
N3550 X-0.5349 Y0.1304
N3555 X-0.5218 Y0.1061
N3560 X-0.5058 Y0.0815
N3565 X-0.488 Y0.0582
N3570 X-0.4687 Y0.0367
N3575 X-0.4486 Y0.0178
N3580 X-0.4283 Y0.0014
N3585 X-0.4084 Y-0.0121
N3590 X-0.3896 Y-0.0228
N3595 X-0.3723 Y-0.0309
N3600 X-0.3559 Y-0.037
N3605 X-0.3409 Y-0.0412
N3610 X-0.3272 Y-0.0439
N3615 X-0.316 Y-0.0452
N3620 X-0.3051 Y-0.0456
N3625 X-0.2964 Y-0.0452
N3630 X-0.2887 Y-0.0442
N3635 X-0.2807 Y-0.0426
N3640 X-0.2774 Y-0.0416
N3645 X-0.2701 Y-0.0383
N3650 X-0.264 Y-0.0331
N3655 X-0.2595 Y-0.0264
N3660 X-0.257 Y-0.0187
N3665 X-0.2567 Y-0.0107
N3670 X-0.2571 Y-0.0067
N3675 X-0.2575 Y0.
N3680 X-0.2571 Y0.0067
N3685 X-0.2564 Y0.0133
N3690 X-0.2551 Y0.0227
N3695 G3 X-0.2591 Y0.0333 I-0.0124 J0.0013
N3700 G1 X-0.5304 Y0.282
N3705 G3 X-0.5495 Y0.2794 I-0.0084 J-0.0092
N3710 G1 X-0.5533 Y0.2727
N3715 X-0.5587 Y0.261
N3720 X-0.5594 Y0.2594
N3725 X-0.5787 Y0.2104
N3730 X-0.5815 Y0.202
N3735 X-0.5831 Y0.1954
N3740 X-0.5844 Y0.1876
N3745 X-0.5851 Y0.1793
N3750 Y0.1689
N3755 X-0.5843 Y0.1577
N3760 X-0.5822 Y0.1446
N3765 X-0.5785 Y0.1295
N3770 X-0.5728 Y0.1123
N3775 X-0.5649 Y0.0936
N3780 X-0.5537 Y0.0719
N3785 X-0.5393 Y0.049
N3790 X-0.5228 Y0.0268
N3795 X-0.5037 Y0.0051
N3800 X-0.4827 Y-0.0153
N3805 X-0.4609 Y-0.0333
N3810 X-0.4396 Y-0.0482
N3815 X-0.4185 Y-0.0605
N3820 X-0.398 Y-0.0703
N3825 X-0.3783 Y-0.0779
N3830 X-0.3605 Y-0.0832
N3835 X-0.3443 Y-0.0866
N3840 X-0.3293 Y-0.0885
N3845 X-0.3158 Y-0.0892
N3850 X-0.3046 Y-0.0888
N3855 X-0.2949 Y-0.0877
N3860 X-0.2868 Y-0.0861
N3865 X-0.2787 Y-0.0838
N3870 X-0.2722 Y-0.0814
N3875 X-0.2679 Y-0.0794
N3880 X-0.2602 Y-0.0742
N3885 X-0.2546 Y-0.0669
N3890 X-0.2515 Y-0.0581
N3895 X-0.2513 Y-0.0488
N3900 X-0.2564 Y-0.0133
N3905 X-0.2567 Y-0.0107
N3910 G3 X-0.2617 Y-0.0023 I-0.0124 J-0.0017
N3915 G1 X-0.5598 Y0.2155
N3920 G3 X-0.5787 Y0.2104 I-0.0074 J-0.0101
N3925 G1 X-0.5855 Y0.1929
N3930 X-0.5876 Y0.1862
N3935 X-0.592 Y0.1718
N3940 X-0.5934 Y0.1663
N3945 X-0.601 Y0.133
N3950 X-0.6024 Y0.125
N3955 X-0.6031 Y0.1182
N3960 X-0.6032 Y0.1097
N3965 X-0.6025 Y0.1
N3970 X-0.601 Y0.0896
N3975 X-0.598 Y0.0765
N3980 X-0.5938 Y0.0633
N3985 X-0.587 Y0.0467
N3990 X-0.5787 Y0.0303
N3995 X-0.5669 Y0.0111
N4000 X-0.5517 Y-0.0099
N4005 X-0.5337 Y-0.0308
N4010 X-0.5137 Y-0.0506
N4015 X-0.4918 Y-0.0691
N4020 X-0.4688 Y-0.0855
N4025 X-0.4457 Y-0.0994
N4030 X-0.423 Y-0.1106
N4035 X-0.401 Y-0.1194
N4040 X-0.3798 Y-0.1259
N4045 X-0.3599 Y-0.1304
N4050 X-0.3423 Y-0.1328
N4055 X-0.3264 Y-0.1337
N4060 X-0.3115 Y-0.1334
N4065 X-0.2986 Y-0.1321
N4070 X-0.2879 Y-0.1301
N4075 X-0.2781 Y-0.1274
N4080 X-0.2706 Y-0.1248
N4085 X-0.263 Y-0.1213
N4090 X-0.2564 Y-0.1177
N4095 X-0.2547 Y-0.1166
N4100 X-0.2487 Y-0.1113
N4105 X-0.2444 Y-0.1045
N4110 X-0.242 Y-0.0969
N4115 X-0.2418 Y-0.0888
N4120 X-0.2439 Y-0.0811
N4125 X-0.2444 Y-0.0798
N4130 X-0.2461 Y-0.0753
N4135 X-0.2467 Y-0.0732
N4140 X-0.2507 Y-0.0532
N4145 X-0.2513 Y-0.0488
N4150 G3 X-0.2576 Y-0.0401 I-0.0123 J-0.0022
N4155 G1 X-0.5829 Y0.1407
N4160 G3 X-0.601 Y0.133 I-0.0061 J-0.0109
N4165 G1 X-0.6071 Y0.1064
N4170 X-0.6084 Y0.0998
N4175 X-0.6112 Y0.0798
N4180 X-0.6119 Y0.0712
N4185 X-0.6133 Y0.0532
N4190 X-0.6135 Y0.0441
N4195 X-0.6131 Y0.0362
N4200 X-0.6119 Y0.0279
N4205 X-0.6097 Y0.0176
N4210 X-0.6063 Y0.0066
N4215 X-0.6013 Y-0.006
N4220 X-0.5943 Y-0.0201
N4225 X-0.5849 Y-0.036
N4230 X-0.5733 Y-0.0523
N4235 X-0.5578 Y-0.0707
N4240 X-0.5392 Y-0.0897
N4245 X-0.5183 Y-0.1077
N4250 X-0.4955 Y-0.1243
N4255 X-0.4713 Y-0.1392
N4260 X-0.4467 Y-0.1517
N4265 X-0.4223 Y-0.1618
N4270 X-0.3988 Y-0.1693
N4275 X-0.3763 Y-0.1746
N4280 X-0.3549 Y-0.1778
N4285 X-0.3351 Y-0.1792
N4290 X-0.3178 Y-0.179
N4295 X-0.3021 Y-0.1775
N4300 X-0.2876 Y-0.175
N4305 X-0.2757 Y-0.1719
N4310 X-0.2654 Y-0.1684
N4315 X-0.2571 Y-0.1647
N4320 X-0.2499 Y-0.1609
N4325 X-0.2431 Y-0.1565
N4330 X-0.2377 Y-0.1524
N4335 X-0.235 Y-0.1499
N4340 X-0.2293 Y-0.1428
N4345 X-0.226 Y-0.1342
N4350 X-0.2256 Y-0.125
N4355 X-0.2281 Y-0.1161
N4360 X-0.2416 Y-0.0865
N4365 X-0.2439 Y-0.0811
N4370 G3 X-0.2506 Y-0.0747 I-0.0114 J-0.0052
N4375 G1 X-0.5962 Y0.0635
N4380 G3 X-0.6133 Y0.0532 I-0.0046 J-0.0116
N4385 G1 X-0.6163 Y0.0133
N4390 X-0.6164 Y0.0067
N4395 Y-0.0067
N4400 X-0.6163 Y-0.0133
N4405 X-0.6148 Y-0.0333
N4410 X-0.614 Y-0.0392
N4415 X-0.6122 Y-0.0476
N4420 X-0.6096 Y-0.0564
N4425 X-0.6057 Y-0.0664
N4430 X-0.6 Y-0.0781
N4435 X-0.593 Y-0.09
N4440 X-0.583 Y-0.1043
N4445 X-0.5709 Y-0.1188
N4450 X-0.5558 Y-0.1343
N4455 X-0.5369 Y-0.1508
N4460 X-0.5151 Y-0.1669
N4465 X-0.4913 Y-0.1817
N4470 X-0.4662 Y-0.1947
N4475 X-0.4404 Y-0.2054
N4480 X-0.4147 Y-0.2138
N4485 X-0.3896 Y-0.2198
N4490 X-0.3656 Y-0.2236
N4495 X-0.3429 Y-0.2253
N4500 X-0.3216 Y-0.2251
N4505 X-0.3029 Y-0.2235
N4510 X-0.2864 Y-0.2207
N4515 X-0.2714 Y-0.217
N4520 X-0.258 Y-0.2124
N4525 X-0.247 Y-0.2077
N4530 X-0.2376 Y-0.2027
N4535 X-0.2296 Y-0.1976
N4540 X-0.2235 Y-0.193
N4545 X-0.2173 Y-0.1874
N4550 X-0.2124 Y-0.1822
N4555 X-0.2118 Y-0.1815
N4560 X-0.2078 Y-0.1748
N4565 X-0.2056 Y-0.1673
N4570 X-0.2055 Y-0.1595
N4575 X-0.2076 Y-0.1519
N4580 X-0.2115 Y-0.1452
N4585 X-0.2158 Y-0.1397
N4590 X-0.2195 Y-0.1342
N4595 X-0.2201 Y-0.133
N4600 X-0.2234 Y-0.1264
N4605 X-0.2281 Y-0.1161
N4610 G3 X-0.2363 Y-0.1096 I-0.0112 J-0.0056
N4615 G1 X-0.5993 Y-0.0206
N4620 G3 X-0.6148 Y-0.0333 I-0.003 J-0.0121
N4625 G1 X-0.6118 Y-0.0732
N4630 X-0.6112 Y-0.0798
N4635 X-0.6084 Y-0.0998
N4640 X-0.6071 Y-0.1064
N4645 X-0.6056 Y-0.1131
N4650 X-0.6028 Y-0.1228
N4655 X-0.6 Y-0.1305
N4660 X-0.5956 Y-0.1398
N4665 X-0.5905 Y-0.1489
N4670 X-0.583 Y-0.1599
N4675 X-0.5739 Y-0.1713
N4680 X-0.5616 Y-0.1844
N4685 X-0.5476 Y-0.197
N4690 X-0.5294 Y-0.2109
N4695 X-0.5078 Y-0.2249
N4700 X-0.4842 Y-0.2375
N4705 X-0.459 Y-0.2486
N4710 X-0.4321 Y-0.2578
N4715 X-0.4048 Y-0.2649
N4720 X-0.378 Y-0.2695
N4725 X-0.3527 Y-0.2718
N4730 X-0.329 Y-0.2721
N4735 X-0.3067 Y-0.2705
N4740 X-0.286 Y-0.2674
N4745 X-0.2676 Y-0.2631
N4750 X-0.2517 Y-0.258
N4755 X-0.2376 Y-0.2522
N4760 X-0.2248 Y-0.2457
N4765 X-0.2149 Y-0.2396
N4770 X-0.2064 Y-0.2333
N4775 X-0.1998 Y-0.2276
N4780 X-0.194 Y-0.2218
N4785 X-0.189 Y-0.2159
N4790 X-0.1852 Y-0.2104
N4795 X-0.1841 Y-0.2086
N4800 X-0.1807 Y-0.2002
N4805 X-0.1801 Y-0.1911
N4810 X-0.1823 Y-0.1823
N4815 X-0.1871 Y-0.1746
N4820 X-0.2 Y-0.1596
N4825 X-0.2062 Y-0.152
N4830 X-0.2115 Y-0.1452
N4835 G3 X-0.2197 Y-0.1408 I-0.0096 J-0.0081
N4840 G1 X-0.5919 Y-0.0983
N4845 G3 X-0.6056 Y-0.1131 I-0.0014 J-0.0124
N4850 G1 X-0.5934 Y-0.1663
N4855 X-0.592 Y-0.1718
N4860 X-0.5876 Y-0.1862
N4865 X-0.5855 Y-0.1929
N4870 X-0.5829 Y-0.1995
N4875 X-0.5805 Y-0.205
N4880 X-0.5763 Y-0.2125
N4885 X-0.5704 Y-0.2213
N4890 X-0.5634 Y-0.2302
N4895 X-0.554 Y-0.2402
N4900 X-0.5426 Y-0.2506
N4905 X-0.5278 Y-0.2621
N4910 X-0.5115 Y-0.2728
N4915 X-0.4908 Y-0.284
N4920 X-0.4668 Y-0.2947
N4925 X-0.4406 Y-0.304
N4930 X-0.4133 Y-0.3112
N4935 X-0.3857 Y-0.3161
N4940 X-0.3583 Y-0.3188
N4945 X-0.3318 Y-0.3192
N4950 X-0.3067 Y-0.3176
N4955 X-0.2832 Y-0.3143
N4960 X-0.2617 Y-0.3093
N4965 X-0.2419 Y-0.3031
N4970 X-0.2252 Y-0.2964
N4975 X-0.2106 Y-0.289
N4980 X-0.1976 Y-0.2812
N4985 X-0.1865 Y-0.2731
N4990 X-0.178 Y-0.2659
N4995 X-0.1706 Y-0.2584
N5000 X-0.1648 Y-0.2516
N5005 X-0.1604 Y-0.2455
N5010 X-0.1562 Y-0.2385
N5015 X-0.1545 Y-0.2352
N5020 X-0.152 Y-0.2277
N5025 X-0.1515 Y-0.2198
N5030 X-0.1532 Y-0.2121
N5035 X-0.157 Y-0.2051
N5040 X-0.1624 Y-0.1994
N5045 X-0.1663 Y-0.1963
N5050 X-0.1704 Y-0.1929
N5055 X-0.1768 Y-0.1862
N5060 X-0.1796 Y-0.1832
N5065 X-0.1871 Y-0.1746
N5070 G3 X-0.1967 Y-0.1706 I-0.0092 J-0.0085
N5075 G1 X-0.5716 Y-0.1829
N5080 G3 X-0.5829 Y-0.1995 I0.0004 J-0.0125
N5085 G1 X-0.5594 Y-0.2594
N5090 X-0.5547 Y-0.2697
N5095 X-0.5515 Y-0.2759
N5100 X-0.5471 Y-0.2827
N5105 X-0.5421 Y-0.2895
N5110 X-0.5354 Y-0.297
N5115 X-0.5266 Y-0.3055
N5120 X-0.5165 Y-0.3136
N5125 X-0.503 Y-0.323
N5130 X-0.4879 Y-0.3317
N5135 X-0.4691 Y-0.3407
N5140 X-0.4464 Y-0.3493
N5145 X-0.4219 Y-0.3564
N5150 X-0.3958 Y-0.3618
N5155 X-0.3677 Y-0.3652
N5160 X-0.3392 Y-0.3664
N5165 X-0.3111 Y-0.3654
N5170 X-0.2843 Y-0.3622
N5175 X-0.2597 Y-0.3572
N5180 X-0.2374 Y-0.3508
N5185 X-0.2169 Y-0.3431
N5190 X-0.1983 Y-0.3344
N5195 X-0.1822 Y-0.3251
N5200 X-0.1687 Y-0.3158
N5205 X-0.157 Y-0.3064
N5210 X-0.1471 Y-0.2969
N5215 X-0.1395 Y-0.2885
N5220 X-0.1335 Y-0.2804
N5225 X-0.129 Y-0.2735
N5230 X-0.125 Y-0.2659
N5235 X-0.1222 Y-0.2595
N5240 X-0.1199 Y-0.2526
N5245 X-0.1194 Y-0.2508
N5250 X-0.1186 Y-0.2418
N5255 X-0.1206 Y-0.233
N5260 X-0.1252 Y-0.2252
N5265 X-0.1319 Y-0.2192
N5270 X-0.1596 Y-0.2014
N5275 X-0.1624 Y-0.1994
N5280 G3 X-0.1717 Y-0.197 I-0.0074 J-0.01
N5285 G1 X-0.545 Y-0.2525
N5290 G3 X-0.5547 Y-0.2697 I0.0018 J-0.0124
N5295 G1 X-0.5533 Y-0.2727
N5300 X-0.5226 Y-0.3259
N5305 X-0.5147 Y-0.3392
N5310 X-0.5094 Y-0.3471
N5315 X-0.5048 Y-0.353
N5320 X-0.499 Y-0.3592
N5325 X-0.4922 Y-0.3654
N5330 X-0.483 Y-0.3726
N5335 X-0.4729 Y-0.3792
N5340 X-0.4594 Y-0.3866
N5345 X-0.4447 Y-0.3931
N5350 X-0.4255 Y-0.3999
N5355 X-0.4046 Y-0.4055
N5360 X-0.3806 Y-0.4098
N5365 X-0.3537 Y-0.4125
N5370 X-0.3252 Y-0.413
N5375 X-0.2966 Y-0.4112
N5380 X-0.2689 Y-0.4073
N5385 X-0.2424 Y-0.4013
N5390 X-0.2175 Y-0.3935
N5395 X-0.1946 Y-0.3842
N5400 X-0.1744 Y-0.3741
N5405 X-0.1568 Y-0.3635
N5410 X-0.1415 Y-0.3525
N5415 X-0.1282 Y-0.3412
N5420 X-0.1173 Y-0.3302
N5425 X-0.1082 Y-0.3195
N5430 X-0.1006 Y-0.309
N5435 X-0.0953 Y-0.3003
N5440 X-0.0907 Y-0.2911
N5445 X-0.0877 Y-0.2836
N5450 X-0.0854 Y-0.2762
N5455 X-0.0836 Y-0.2686
N5460 X-0.0835 Y-0.2675
N5465 X-0.0834 Y-0.2597
N5470 X-0.0854 Y-0.2521
N5475 X-0.0894 Y-0.2453
N5480 X-0.0951 Y-0.2399
N5485 X-0.1019 Y-0.2361
N5490 X-0.1064 Y-0.2344
N5495 X-0.1131 Y-0.231
N5500 X-0.1197 Y-0.227
N5505 X-0.1319 Y-0.2192
N5510 G3 X-0.1417 Y-0.2179 I-0.0064 J-0.0107
N5515 G1 X-0.5071 Y-0.3212
N5520 G3 X-0.5147 Y-0.3392 I0.0034 J-0.012
N5525 G1 X-0.5107 Y-0.3459
N5530 X-0.5062 Y-0.3525
N5535 X-0.4611 Y-0.409
N5540 X-0.4565 Y-0.4143
N5545 X-0.4514 Y-0.4192
N5550 X-0.4452 Y-0.4243
N5555 X-0.4369 Y-0.43
N5560 X-0.428 Y-0.4352
N5565 X-0.4164 Y-0.4407
N5570 X-0.403 Y-0.4459
N5575 X-0.3863 Y-0.4507
N5580 X-0.3679 Y-0.4546
N5585 X-0.3451 Y-0.4574
N5590 X-0.3198 Y-0.4586
N5595 X-0.294 Y-0.4576
N5600 X-0.2663 Y-0.4544
N5605 X-0.2381 Y-0.4488
N5610 X-0.2105 Y-0.4409
N5615 X-0.1846 Y-0.4312
N5620 X-0.1614 Y-0.4204
N5625 X-0.1407 Y-0.4086
N5630 X-0.1222 Y-0.396
N5635 X-0.1059 Y-0.3828
N5640 X-0.0917 Y-0.3693
N5645 X-0.0801 Y-0.3564
N5650 X-0.0707 Y-0.344
N5655 X-0.0628 Y-0.3318
N5660 X-0.0569 Y-0.3206
N5665 X-0.0526 Y-0.3108
N5670 X-0.0497 Y-0.3022
N5675 X-0.0476 Y-0.2943
N5680 X-0.0463 Y-0.2864
N5685 X-0.0457 Y-0.2796
N5690 Y-0.2752
N5695 X-0.0466 Y-0.2677
N5700 X-0.0494 Y-0.2607
N5705 X-0.0538 Y-0.2547
N5710 X-0.0597 Y-0.25
N5715 X-0.0666 Y-0.247
N5720 X-0.0931 Y-0.2392
N5725 X-0.0998 Y-0.2369
N5730 X-0.1019 Y-0.2361
N5735 G3 X-0.1111 Y-0.2365 I-0.004 J-0.0118
N5740 G1 X-0.4562 Y-0.3902
N5745 G3 X-0.4611 Y-0.409 I0.0051 J-0.0114
N5750 G1 X-0.4584 Y-0.4124
N5755 X-0.4529 Y-0.419
N5760 X-0.439 Y-0.4324
N5765 X-0.3991 Y-0.4694
N5770 X-0.3936 Y-0.474
N5775 X-0.3879 Y-0.4781
N5780 X-0.3806 Y-0.4824
N5785 X-0.3714 Y-0.4869
N5790 X-0.3616 Y-0.4908
N5795 X-0.3487 Y-0.4947
N5800 X-0.3349 Y-0.4978
N5805 X-0.3168 Y-0.5002
N5810 X-0.2982 Y-0.5013
N5815 X-0.2754 Y-0.5007
N5820 X-0.2497 Y-0.498
N5825 X-0.2227 Y-0.4929
N5830 X-0.1957 Y-0.4855
N5835 X-0.1691 Y-0.4759
N5840 X-0.1439 Y-0.4644
N5845 X-0.1206 Y-0.4515
N5850 X-0.0994 Y-0.4374
N5855 X-0.0805 Y-0.4225
N5860 X-0.064 Y-0.4072
N5865 X-0.0497 Y-0.3916
N5870 X-0.038 Y-0.3765
N5875 X-0.0288 Y-0.3625
N5880 X-0.0213 Y-0.349
N5885 X-0.0155 Y-0.3359
N5890 X-0.0114 Y-0.3243
N5895 X-0.0085 Y-0.3136
N5900 X-0.0069 Y-0.3046
N5905 X-0.006 Y-0.2961
N5910 X-0.0059 Y-0.2882
N5915 X-0.0063 Y-0.2815
N5920 X-0.008 Y-0.2735
N5925 X-0.012 Y-0.2663
N5930 X-0.0179 Y-0.2605
N5935 X-0.0252 Y-0.2567
N5940 X-0.0333 Y-0.2552
N5945 X-0.0399 Y-0.2542
N5950 X-0.0466 Y-0.2527
N5955 X-0.0532 Y-0.2509
N5960 X-0.0666 Y-0.247
N5965 G3 X-0.0764 Y-0.2485 I-0.0031 J-0.0121
N5970 G1 X-0.3969 Y-0.45
N5975 G3 X-0.3991 Y-0.4694 I0.0067 J-0.0106
N5980 G1 X-0.396 Y-0.4723
N5985 X-0.3804 Y-0.4856
N5990 X-0.3791 Y-0.4865
N5995 X-0.3317 Y-0.5188
N6000 X-0.3226 Y-0.5244
N6005 X-0.3162 Y-0.5276
N6010 X-0.3084 Y-0.5308
N6015 X-0.2985 Y-0.534
N6020 X-0.288 Y-0.5364
N6025 X-0.2746 Y-0.5384
N6030 X-0.2597 Y-0.5394
N6035 X-0.2412 Y-0.5391
N6040 X-0.2221 Y-0.5373
N6045 X-0.1992 Y-0.5332
N6050 X-0.1742 Y-0.5267
N6055 X-0.1484 Y-0.5177
N6060 X-0.1231 Y-0.5065
N6065 X-0.0984 Y-0.4932
N6070 X-0.0752 Y-0.4781
N6075 X-0.0541 Y-0.4618
N6080 X-0.0353 Y-0.4448
N6085 X-0.019 Y-0.4274
N6090 X-0.0051 Y-0.41
N6095 X0.0065 Y-0.3927
N6100 X0.0158 Y-0.3762
N6105 X0.0228 Y-0.3611
N6110 X0.0281 Y-0.3465
N6115 X0.032 Y-0.3327
N6120 X0.0342 Y-0.3211
N6125 X0.0354 Y-0.3104
N6130 X0.0356 Y-0.302
N6135 X0.0352 Y-0.2933
N6140 X0.0342 Y-0.2861
N6145 X0.0328 Y-0.2794
N6150 X0.032 Y-0.2765
N6155 X0.0279 Y-0.2682
N6160 X0.0214 Y-0.2615
N6165 X0.0132 Y-0.2572
N6170 X0.004 Y-0.2557
N6175 X-0.0067
N6180 X-0.0133
N6185 X-0.0266 Y-0.2555
N6190 X-0.0333 Y-0.2552
N6195 G3 X-0.0413 Y-0.2581 I0. J-0.0125
N6200 G1 X-0.3323 Y-0.4991
N6205 G3 X-0.3317 Y-0.5188 I0.008 J-0.0096
N6210 G1 X-0.3193 Y-0.5273
N6215 X-0.3126 Y-0.5317
N6220 X-0.306 Y-0.5357
N6225 X-0.2993 Y-0.5391
N6230 X-0.2528 Y-0.5615
N6235 X-0.246 Y-0.5643
N6240 X-0.2386 Y-0.5668
N6245 X-0.2304 Y-0.5687
N6250 X-0.2201 Y-0.5704
N6255 X-0.2088 Y-0.5713
N6260 X-0.1952 Y-0.5712
N6265 X-0.1797 Y-0.5699
N6270 X-0.1615 Y-0.5669
N6275 X-0.1424 Y-0.5622
N6280 X-0.1201 Y-0.5547
N6285 X-0.0962 Y-0.5444
N6290 X-0.072 Y-0.5317
N6295 X-0.0485 Y-0.5168
N6300 X-0.0261 Y-0.4999
N6305 X-0.0055 Y-0.4816
N6310 X0.0128 Y-0.4625
N6315 X0.0287 Y-0.443
N6320 X0.0422 Y-0.4235
N6325 X0.0533 Y-0.4043
N6330 X0.0622 Y-0.3854
N6335 X0.0688 Y-0.3681
N6340 X0.0733 Y-0.3524
N6345 X0.0764 Y-0.3374
N6350 X0.0781 Y-0.3236
N6355 X0.0786 Y-0.312
N6360 X0.0782 Y-0.3015
N6365 X0.0771 Y-0.2922
N6370 X0.0755 Y-0.2848
N6375 X0.0733 Y-0.2769
N6380 X0.0718 Y-0.273
N6385 X0.068 Y-0.266
N6390 X0.0625 Y-0.2603
N6395 X0.0556 Y-0.2562
N6400 X0.0479 Y-0.2541
N6405 X0.0399 Y-0.2542
N6410 X0.0333 Y-0.2552
N6415 X0.0266 Y-0.2555
N6420 X0.0133 Y-0.2557
N6425 X0.004
N6430 G3 X-0.0049 Y-0.2599 I0.0004 J-0.0125
N6435 G1 X-0.2563 Y-0.5421
N6440 G3 X-0.2528 Y-0.5615 I0.0093 J-0.0083
N6445 G1 X-0.2395 Y-0.5679
N6450 X-0.2328 Y-0.5708
N6455 X-0.2261 Y-0.5737
N6460 X-0.2195 Y-0.5765
N6465 X-0.1729 Y-0.5908
N6470 X-0.1639 Y-0.5931
N6475 X-0.1559 Y-0.5945
N6480 X-0.1475 Y-0.5952
N6485 X-0.137 Y-0.5953
N6490 X-0.1253 Y-0.5945
N6495 X-0.1119 Y-0.5924
N6500 X-0.0963 Y-0.5887
N6505 X-0.0788 Y-0.583
N6510 X-0.0602 Y-0.5753
N6515 X-0.0389 Y-0.5644
N6520 X-0.0166 Y-0.5506
N6525 X0.0054 Y-0.5344
N6530 X0.0264 Y-0.5161
N6535 X0.0461 Y-0.4961
N6540 X0.0636 Y-0.475
N6545 X0.0789 Y-0.4535
N6550 X0.0916 Y-0.4319
N6555 X0.1019 Y-0.4109
N6560 X0.1099 Y-0.3904
N6565 X0.1159 Y-0.3707
N6570 X0.1197 Y-0.353
N6575 X0.1219 Y-0.3367
N6580 X0.1227 Y-0.3216
N6585 X0.1223 Y-0.3081
N6590 X0.1211 Y-0.2968
N6595 X0.1192 Y-0.2872
N6600 X0.117 Y-0.279
N6605 X0.1141 Y-0.2711
N6610 X0.1112 Y-0.2648
N6615 X0.1076 Y-0.2583
N6620 X0.1064 Y-0.2565
N6625 X0.1002 Y-0.2498
N6630 X0.0921 Y-0.2454
N6635 X0.0831 Y-0.2436
N6640 X0.074 Y-0.2448
N6645 X0.0532 Y-0.2509
N6650 X0.0463 Y-0.2528
N6655 X0.0399 Y-0.2542
N6660 G3 X0.0328 Y-0.2593 I0.0032 J-0.0121
N6665 G1 X-0.1792 Y-0.572
N6670 G3 X-0.1729 Y-0.5908 I0.0103 J-0.007
N6675 G1 X-0.1476 Y-0.5986
N6680 X-0.1463 Y-0.599
N6685 X-0.1264 Y-0.6033
N6690 X-0.1197 Y-0.6044
N6695 X-0.0865 Y-0.6095
N6700 X-0.0789 Y-0.6102
N6705 X-0.0706 Y-0.6104
N6710 X-0.062 Y-0.6099
N6715 X-0.0516 Y-0.6084
N6720 X-0.0397 Y-0.6057
N6725 X-0.0267 Y-0.6016
N6730 X-0.0114 Y-0.5955
N6735 X0.0051 Y-0.5872
N6740 X0.0228 Y-0.5765
N6745 X0.0425 Y-0.5624
N6750 X0.0627 Y-0.5453
N6755 X0.0821 Y-0.5259
N6760 X0.1002 Y-0.5046
N6765 X0.1166 Y-0.4819
N6770 X0.1308 Y-0.4586
N6775 X0.1426 Y-0.4351
N6780 X0.1519 Y-0.4122
N6785 X0.1589 Y-0.3899
N6790 X0.1637 Y-0.3686
N6795 X0.1666 Y-0.3486
N6800 X0.1678 Y-0.331
N6805 X0.1675 Y-0.315
N6810 X0.166 Y-0.3001
N6815 X0.1636 Y-0.2868
N6820 X0.1608 Y-0.276
N6825 X0.1573 Y-0.2662
N6830 X0.1537 Y-0.2579
N6835 X0.1501 Y-0.2513
N6840 X0.1456 Y-0.2445
N6845 X0.1437 Y-0.242
N6850 X0.1379 Y-0.2364
N6855 X0.1308 Y-0.2325
N6860 X0.1229 Y-0.2308
N6865 X0.1149 Y-0.2313
N6870 X0.1072 Y-0.234
N6875 X0.1064 Y-0.2344
N6880 X0.0998 Y-0.2369
N6885 X0.0931 Y-0.2392
N6890 X0.074 Y-0.2448
N6895 G3 X0.0666 Y-0.2513 I0.0039 J-0.0119
N6900 G1 X-0.0955 Y-0.5918
N6905 G3 X-0.0865 Y-0.6095 I0.0113 J-0.0054
N6910 G1 X-0.0599 Y-0.6135
N6915 X-0.0532 Y-0.6142
N6920 X-0.0333 Y-0.6155
N6925 X0.
N6930 X0.0077 Y-0.6152
N6935 X0.016 Y-0.6141
N6940 X0.0247 Y-0.6122
N6945 X0.0348 Y-0.6092
N6950 X0.0467 Y-0.6045
N6955 X0.0589 Y-0.5986
N6960 X0.0736 Y-0.59
N6965 X0.0886 Y-0.5794
N6970 X0.105 Y-0.5658
N6975 X0.1226 Y-0.5487
N6980 X0.1401 Y-0.5286
N6985 X0.1565 Y-0.5065
N6990 X0.1712 Y-0.4827
N6995 X0.1841 Y-0.4579
N7000 X0.1946 Y-0.4328
N7005 X0.2027 Y-0.408
N7010 X0.2084 Y-0.3841
N7015 X0.2119 Y-0.3614
N7020 X0.2135 Y-0.3399
N7025 X0.2134 Y-0.3199
N7030 X0.2119 Y-0.3024
N7035 X0.2092 Y-0.2865
N7040 X0.2056 Y-0.272
N7045 X0.2014 Y-0.2598
N7050 X0.197 Y-0.2496
N7055 X0.1926 Y-0.2412
N7060 X0.1881 Y-0.2342
N7065 X0.1831 Y-0.2276
N7070 X0.1786 Y-0.2225
N7075 X0.1733 Y-0.2175
N7080 X0.1726 Y-0.2169
N7085 X0.1647 Y-0.2123
N7090 X0.1558 Y-0.2104
N7095 X0.1467 Y-0.2114
N7100 X0.1384 Y-0.215
N7105 X0.1197 Y-0.227
N7110 X0.1131 Y-0.231
N7115 X0.1072 Y-0.234
N7120 G3 X0.1014 Y-0.2411 I0.0061 J-0.0109
N7125 G1 X-0.0115 Y-0.5993
N7130 G3 X0. Y-0.6155 I0.0119 J-0.0038
N7135 G1 X0.0333
N7140 X0.0532 Y-0.6142
N7145 X0.0599 Y-0.6135
N7150 X0.0865 Y-0.6095
N7155 X0.0941 Y-0.6079
N7160 X0.1022 Y-0.6056
N7165 X0.111 Y-0.6023
N7170 X0.1205 Y-0.5978
N7175 X0.1319 Y-0.5912
N7180 X0.1431 Y-0.5835
N7185 X0.1568 Y-0.5725
N7190 X0.1701 Y-0.5598
N7195 X0.1846 Y-0.5435
N7200 X0.1996 Y-0.5237
N7205 X0.2141 Y-0.501
N7210 X0.227 Y-0.4767
N7215 X0.2381 Y-0.4509
N7220 X0.247 Y-0.4246
N7225 X0.2536 Y-0.3984
N7230 X0.2578 Y-0.3729
N7235 X0.2599 Y-0.3486
N7240 X0.2601 Y-0.3257
N7245 X0.2584 Y-0.3042
N7250 X0.2554 Y-0.2847
N7255 X0.2514 Y-0.268
N7260 X0.2465 Y-0.2531
N7265 X0.2408 Y-0.2396
N7270 X0.2348 Y-0.2278
N7275 X0.2292 Y-0.2188
N7280 X0.223 Y-0.2106
N7285 X0.2174 Y-0.2041
N7290 X0.2121 Y-0.1989
N7295 X0.2059 Y-0.1938
N7300 X0.2043 Y-0.1927
N7305 X0.1976 Y-0.1892
N7310 X0.1903 Y-0.1875
N7315 X0.1827 Y-0.1878
N7320 X0.1755 Y-0.19
N7325 X0.1691 Y-0.194
N7330 X0.1663 Y-0.1963
N7335 X0.1622 Y-0.1995
N7340 X0.1596 Y-0.2014
N7345 X0.1384 Y-0.215
N7350 G3 X0.1332 Y-0.2233 I0.0071 J-0.0103
N7355 G1 X0.0727 Y-0.595
N7360 G3 X0.0865 Y-0.6095 I0.0123 J-0.002
N7365 G1 X0.1197 Y-0.6044
N7370 X0.1264 Y-0.6033
N7375 X0.1463 Y-0.599
N7380 X0.1476 Y-0.5986
N7385 X0.1692 Y-0.592
N7390 X0.1787 Y-0.5885
N7395 X0.1864 Y-0.585
N7400 X0.195 Y-0.5802
N7405 X0.2037 Y-0.5743
N7410 X0.2143 Y-0.566
N7415 X0.2244 Y-0.5565
N7420 X0.2365 Y-0.5432
N7425 X0.2478 Y-0.5286
N7430 X0.26 Y-0.51
N7435 X0.272 Y-0.4879
N7440 X0.283 Y-0.4632
N7445 X0.2921 Y-0.4372
N7450 X0.2992 Y-0.4101
N7455 X0.3041 Y-0.3828
N7460 X0.3067 Y-0.356
N7465 X0.3072 Y-0.3302
N7470 X0.3056 Y-0.3061
N7475 X0.3024 Y-0.2837
N7480 X0.2976 Y-0.263
N7485 X0.2918 Y-0.2444
N7490 X0.2853 Y-0.2285
N7495 X0.2782 Y-0.2143
N7500 X0.2706 Y-0.2018
N7505 X0.2634 Y-0.1919
N7510 X0.2564 Y-0.1836
N7515 X0.2501 Y-0.1774
N7520 X0.2436 Y-0.1718
N7525 X0.2373 Y-0.1674
N7530 X0.2314 Y-0.1638
N7535 X0.2272 Y-0.1617
N7540 X0.22 Y-0.1592
N7545 X0.2123 Y-0.1587
N7550 X0.2048 Y-0.1602
N7555 X0.1979 Y-0.1636
N7560 X0.1922 Y-0.1687
N7565 X0.1796 Y-0.1832
N7570 X0.1768 Y-0.1862
N7575 X0.1704 Y-0.1929
N7580 X0.1691 Y-0.194
N7585 G3 X0.1648 Y-0.203 I0.0083 J-0.0094
N7590 G1 X0.1534 Y-0.5795
N7595 G3 X0.1692 Y-0.592 I0.0125 J-0.0004
N7600 G1 X0.2195 Y-0.5765
N7605 X0.2261 Y-0.5737
N7610 X0.2328 Y-0.5708
N7615 X0.2395 Y-0.5679
N7620 X0.2528 Y-0.5615
N7625 X0.2596 Y-0.5577
N7630 X0.2666 Y-0.5531
N7635 X0.2748 Y-0.5468
N7640 X0.2826 Y-0.5397
N7645 X0.2918 Y-0.5298
N7650 X0.3008 Y-0.5185
N7655 X0.311 Y-0.5033
N7660 X0.3201 Y-0.487
N7665 X0.3295 Y-0.4663
N7670 X0.3383 Y-0.4423
N7675 X0.3455 Y-0.4162
N7680 X0.3506 Y-0.389
N7685 X0.3537 Y-0.3611
N7690 X0.3544 Y-0.3334
N7695 X0.353 Y-0.3067
N7700 X0.3496 Y-0.2814
N7705 X0.3445 Y-0.2579
N7710 X0.338 Y-0.2362
N7715 X0.3302 Y-0.2165
N7720 X0.3219 Y-0.1993
N7725 X0.3133 Y-0.185
N7730 X0.3044 Y-0.1723
N7735 X0.2952 Y-0.1614
N7740 X0.2866 Y-0.1525
N7745 X0.2782 Y-0.1452
N7750 X0.2708 Y-0.1398
N7755 X0.2635 Y-0.1353
N7760 X0.2565 Y-0.1317
N7765 X0.2504 Y-0.1292
N7770 X0.2429 Y-0.1272
N7775 X0.2351 Y-0.1274
N7780 X0.2276 Y-0.1296
N7785 X0.221 Y-0.1338
N7790 X0.2158 Y-0.1397
N7795 X0.2054 Y-0.153
N7800 X0.2 Y-0.1596
N7805 X0.1922 Y-0.1687
N7810 G3 X0.1895 Y-0.1781 I0.0097 J-0.0079
N7815 G1 X0.2353 Y-0.5516
N7820 G3 X0.2528 Y-0.5615 I0.0124 J0.0015
N7825 G1 X0.2999 Y-0.5388
N7830 X0.306 Y-0.5357
N7835 X0.3126 Y-0.5317
N7840 X0.3193 Y-0.5273
N7845 X0.3259 Y-0.5228
N7850 X0.3356 Y-0.5154
N7855 X0.3419 Y-0.5098
N7860 X0.3491 Y-0.5023
N7865 X0.3559 Y-0.4939
N7870 X0.3636 Y-0.4827
N7875 X0.371 Y-0.4697
N7880 X0.3789 Y-0.4531
N7885 X0.3856 Y-0.4352
N7890 X0.392 Y-0.413
N7895 X0.3971 Y-0.3877
N7900 X0.4003 Y-0.3607
N7905 X0.4014 Y-0.333
N7910 X0.4002 Y-0.305
N7915 X0.3968 Y-0.2775
N7920 X0.3915 Y-0.2513
N7925 X0.3844 Y-0.227
N7930 X0.3759 Y-0.2047
N7935 X0.3664 Y-0.1846
N7940 X0.3559 Y-0.1665
N7945 X0.3452 Y-0.1509
N7950 X0.3346 Y-0.138
N7955 X0.3238 Y-0.1267
N7960 X0.3131 Y-0.1172
N7965 X0.3036 Y-0.11
N7970 X0.2946 Y-0.1044
N7975 X0.2871 Y-0.1004
N7980 X0.2791 Y-0.097
N7985 X0.2724 Y-0.0947
N7990 X0.2652 Y-0.093
N7995 X0.2625 Y-0.0925
N8000 X0.2549 Y-0.0923
N8005 X0.2475 Y-0.094
N8010 X0.2408 Y-0.0976
N8015 X0.2353 Y-0.1027
N8020 X0.2313 Y-0.1092
N8025 X0.2234 Y-0.1264
N8030 X0.2201 Y-0.133
N8035 X0.2195 Y-0.1342
N8040 X0.2158 Y-0.1397
N8045 G3 X0.2144 Y-0.1493 I0.0106 J-0.0066
N8050 G1 X0.3071 Y-0.5153
N8055 G3 X0.3259 Y-0.5228 I0.0121 J0.0031
N8060 G1 X0.3791 Y-0.4865
N8065 X0.3804 Y-0.4856
N8070 X0.396 Y-0.4723
N8075 X0.4048 Y-0.4633
N8080 X0.4101 Y-0.4568
N8085 X0.4162 Y-0.4482
N8090 X0.4219 Y-0.4384
N8095 X0.4278 Y-0.4262
N8100 X0.4335 Y-0.4117
N8105 X0.4388 Y-0.3941
N8110 X0.4429 Y-0.3748
N8115 X0.4459 Y-0.3515
N8120 X0.4472 Y-0.3255
N8125 X0.4464 Y-0.2981
N8130 X0.4433 Y-0.2705
N8135 X0.438 Y-0.2429
N8140 X0.4306 Y-0.2164
N8145 X0.4214 Y-0.1915
N8150 X0.4109 Y-0.1686
N8155 X0.3993 Y-0.148
N8160 X0.3868 Y-0.1295
N8165 X0.3738 Y-0.1132
N8170 X0.3611 Y-0.0997
N8175 X0.349 Y-0.0887
N8180 X0.3368 Y-0.0793
N8185 X0.3252 Y-0.0717
N8190 X0.3149 Y-0.0662
N8195 X0.305 Y-0.0618
N8200 X0.2967 Y-0.059
N8205 X0.2885 Y-0.0568
N8210 X0.281 Y-0.0555
N8215 X0.2741 Y-0.0548
N8220 X0.2649 Y-0.0562
N8225 X0.2567 Y-0.0604
N8230 X0.2502 Y-0.067
N8235 X0.2461 Y-0.0753
N8240 X0.2444 Y-0.0798
N8245 X0.2416 Y-0.0865
N8250 X0.2313 Y-0.1092
N8255 G3 Y-0.1188 I0.0115 J-0.0048
N8260 G1 X0.3767 Y-0.4673
N8265 G3 X0.396 Y-0.4723 I0.0115 J0.0048
N8270 G1 X0.439 Y-0.4323
N8275 X0.4523 Y-0.4196
N8280 X0.4529 Y-0.419
N8285 X0.4646 Y-0.4034
N8290 X0.469 Y-0.3965
N8295 X0.4736 Y-0.3878
N8300 X0.4783 Y-0.377
N8305 X0.4823 Y-0.3651
N8310 X0.4862 Y-0.3496
N8315 X0.4889 Y-0.333
N8320 X0.4906 Y-0.3128
N8325 X0.4907 Y-0.2891
N8330 X0.4888 Y-0.2648
N8335 X0.4846 Y-0.2386
N8340 X0.478 Y-0.2113
N8345 X0.4691 Y-0.1843
N8350 X0.4583 Y-0.1584
N8355 X0.4457 Y-0.1343
N8360 X0.4319 Y-0.1122
N8365 X0.4179 Y-0.0933
N8370 X0.4034 Y-0.0768
N8375 X0.3886 Y-0.0624
N8380 X0.3739 Y-0.0502
N8385 X0.3598 Y-0.0404
N8390 X0.3466 Y-0.0327
N8395 X0.3337 Y-0.0265
N8400 X0.3225 Y-0.0221
N8405 X0.313 Y-0.0193
N8410 X0.3037 Y-0.0173
N8415 X0.2962 Y-0.0164
N8420 X0.2884 Y-0.016
N8425 X0.281 Y-0.0162
N8430 X0.278 Y-0.0166
N8435 X0.2706 Y-0.0184
N8440 X0.2639 Y-0.0222
N8445 X0.2584 Y-0.0275
N8450 X0.2545 Y-0.0341
N8455 X0.2524 Y-0.0414
N8460 X0.2507 Y-0.0532
N8465 X0.2467 Y-0.0732
N8470 X0.2461 Y-0.0753
N8475 G3 X0.2473 Y-0.0846 I0.0121 J-0.0032
N8480 G1 X0.4337 Y-0.4156
N8485 G3 X0.4539 Y-0.4179 I0.0109 J0.0061
N8490 G1 X0.459 Y-0.4117
N8495 X0.5055 Y-0.3534
N8500 X0.5062 Y-0.3525
N8505 X0.5144 Y-0.339
N8510 X0.518 Y-0.332
N8515 X0.5214 Y-0.3236
N8520 X0.5248 Y-0.313
N8525 X0.5273 Y-0.3018
N8530 X0.5295 Y-0.287
N8535 X0.5305 Y-0.2718
N8540 X0.5302 Y-0.2523
N8545 X0.5282 Y-0.2314
N8550 X0.5241 Y-0.2082
N8555 X0.5174 Y-0.1825
N8560 X0.5082 Y-0.156
N8565 X0.4965 Y-0.1297
N8570 X0.4831 Y-0.1049
N8575 X0.4682 Y-0.082
N8580 X0.4521 Y-0.0612
N8585 X0.4353 Y-0.0427
N8590 X0.4182 Y-0.0266
N8595 X0.4014 Y-0.0133
N8600 X0.3853 Y-0.0024
N8605 X0.3699 Y0.0062
N8610 X0.355 Y0.0131
N8615 X0.3415 Y0.018
N8620 X0.3285 Y0.0216
N8625 X0.3176 Y0.0237
N8630 X0.3072 Y0.0249
N8635 X0.299 Y0.0251
N8640 X0.2904 Y0.0247
N8645 X0.2833 Y0.0238
N8650 X0.2803 Y0.0231
N8655 X0.2731 Y0.0206
N8660 X0.2669 Y0.0163
N8665 X0.262 Y0.0105
N8670 X0.2587 Y0.0037
N8675 X0.2573 Y-0.0037
N8680 X0.2571 Y-0.0067
N8685 X0.2564 Y-0.0133
N8690 X0.2524 Y-0.0414
N8695 G3 X0.2549 Y-0.0504 I0.0124 J-0.0013
N8700 G1 X0.4876 Y-0.3507
N8705 G3 X0.5076 Y-0.3505 I0.0099 J0.0077
N8710 G1 X0.5107 Y-0.3459
N8715 X0.5226 Y-0.3259
N8720 X0.5521 Y-0.2749
N8725 X0.5528 Y-0.2737
N8730 X0.5533 Y-0.2727
N8735 X0.5573 Y-0.2628
N8740 X0.5599 Y-0.2544
N8745 X0.562 Y-0.2455
N8750 X0.5635 Y-0.2346
N8755 X0.5644 Y-0.2216
N8760 X0.5641 Y-0.2073
N8765 X0.5624 Y-0.1899
N8770 X0.5589 Y-0.1706
N8775 X0.5534 Y-0.1495
N8780 X0.545 Y-0.1256
N8785 X0.5339 Y-0.1007
N8790 X0.5204 Y-0.076
N8795 X0.5048 Y-0.0522
N8800 X0.4876 Y-0.0301
N8805 X0.4694 Y-0.0101
N8810 X0.4505 Y0.0074
N8815 X0.4315 Y0.0225
N8820 X0.4125 Y0.0352
N8825 X0.3941 Y0.0455
N8830 X0.3769 Y0.0533
N8835 X0.3607 Y0.0592
N8840 X0.3453 Y0.0634
N8845 X0.331 Y0.0661
N8850 X0.319 Y0.0674
N8855 X0.3079 Y0.0677
N8860 X0.2992 Y0.0673
N8865 X0.2906 Y0.0661
N8870 X0.2832 Y0.0645
N8875 X0.2764 Y0.0624
N8880 X0.2723 Y0.0608
N8885 X0.2655 Y0.057
N8890 X0.2599 Y0.0516
N8895 X0.256 Y0.0448
N8900 X0.254 Y0.0373
N8905 X0.2541 Y0.0295
N8910 X0.2564 Y0.0133
N8915 X0.2571 Y0.0067
N8920 X0.2575 Y0.
N8925 X0.2573 Y-0.0037
N8930 G3 X0.2612 Y-0.0131 I0.0125 J-0.0003
N8935 G1 X0.5352 Y-0.2727
N8940 G3 X0.5549 Y-0.2693 I0.0086 J0.0091
N8945 G1 X0.5594 Y-0.2594
N8950 X0.5853 Y-0.1935
N8955 X0.5855 Y-0.1929
N8960 X0.5881 Y-0.1828
N8965 X0.5895 Y-0.1749
N8970 X0.5904 Y-0.1649
N8975 X0.5905 Y-0.1546
N8980 X0.5896 Y-0.1418
N8985 X0.5874 Y-0.1275
N8990 X0.5835 Y-0.1107
N8995 X0.5777 Y-0.0928
N9000 X0.569 Y-0.0717
N9005 X0.5576 Y-0.0493
N9010 X0.544 Y-0.0273
N9015 X0.5276 Y-0.0049
N9020 X0.5089 Y0.0167
N9025 X0.4887 Y0.0366
N9030 X0.4675 Y0.0543
N9035 X0.4463 Y0.0694
N9040 X0.4257 Y0.0816
N9045 X0.4055 Y0.0915
N9050 X0.3858 Y0.0992
N9055 X0.3671 Y0.1049
N9060 X0.3501 Y0.1086
N9065 X0.3348 Y0.1107
N9070 X0.3203 Y0.1115
N9075 X0.3073 Y0.1112
N9080 X0.2963 Y0.11
N9085 X0.2867 Y0.1082
N9090 X0.2787 Y0.106
N9095 X0.2709 Y0.1031
N9100 X0.2646 Y0.1003
N9105 X0.2622 Y0.099
N9110 X0.255 Y0.0933
N9115 X0.25 Y0.0857
N9120 X0.2475 Y0.0769
N9125 X0.2478 Y0.0678
N9130 X0.2507 Y0.0532
N9135 X0.2541 Y0.0295
N9140 G3 X0.2592 Y0.0216 I0.0123 J0.0022
N9145 G1 X0.567 Y-0.1974
N9150 G3 X0.586 Y-0.1913 I0.0072 J0.0102
N9155 G1 X0.5876 Y-0.1862
N9160 X0.592 Y-0.1718
N9165 X0.5934 Y-0.1663
N9170 X0.6053 Y-0.1143
N9175 X0.6071 Y-0.1042
N9180 X0.6077 Y-0.0973
N9185 X0.6078 Y-0.0887
N9190 X0.6072 Y-0.0786
N9195 X0.6056 Y-0.0679
N9200 X0.6025 Y-0.0546
N9205 X0.5982 Y-0.0412
N9210 X0.5913 Y-0.0243
N9215 X0.5828 Y-0.0073
N9220 X0.571 Y0.0119
N9225 X0.5559 Y0.0327
N9230 X0.5379 Y0.0536
N9235 X0.5178 Y0.0735
N9240 X0.4963 Y0.0917
N9245 X0.4739 Y0.1076
N9250 X0.4511 Y0.1214
N9255 X0.4282 Y0.1327
N9260 X0.4058 Y0.1416
N9265 X0.3843 Y0.1482
N9270 X0.3638 Y0.1528
N9275 X0.3452 Y0.1554
N9280 X0.3282 Y0.1564
N9285 X0.3125 Y0.156
N9290 X0.2981 Y0.1545
N9295 X0.2865 Y0.1524
N9300 X0.2762 Y0.1496
N9305 X0.2674 Y0.1465
N9310 X0.2605 Y0.1433
N9315 X0.2532 Y0.1393
N9320 X0.2472 Y0.1354
N9325 X0.2447 Y0.1334
N9330 X0.2393 Y0.1279
N9335 X0.2356 Y0.1211
N9340 X0.2337 Y0.1135
N9345 X0.234 Y0.1058
N9350 X0.2362 Y0.0983
N9355 X0.2416 Y0.0865
N9360 X0.2444 Y0.0798
N9365 X0.2461 Y0.0753
N9370 X0.2467 Y0.0732
N9375 X0.2478 Y0.0678
N9380 G3 X0.254 Y0.0597 I0.0122 J0.0029
N9385 G1 X0.5872 Y-0.1221
N9390 G3 X0.6053 Y-0.1143 I0.006 J0.011
N9395 G1 X0.6071 Y-0.1064
N9400 X0.6084 Y-0.0998
N9405 X0.6112 Y-0.0798
N9410 X0.6119 Y-0.0712
N9415 X0.6153 Y-0.0266
N9420 X0.6155 Y-0.0178
N9425 X0.6151 Y-0.0105
N9430 X0.6139 Y-0.0021
N9435 X0.6117 Y0.0081
N9440 X0.6085 Y0.0185
N9445 X0.6036 Y0.0311
N9450 X0.5969 Y0.0446
N9455 X0.5875 Y0.0604
N9460 X0.5762 Y0.0762
N9465 X0.5612 Y0.0941
N9470 X0.543 Y0.1125
N9475 X0.5224 Y0.1303
N9480 X0.5 Y0.1467
N9485 X0.4761 Y0.1614
N9490 X0.4514 Y0.174
N9495 X0.4268 Y0.1841
N9500 X0.4027 Y0.1918
N9505 X0.3796 Y0.1972
N9510 X0.3574 Y0.2006
N9515 X0.3365 Y0.202
N9520 X0.3179 Y0.2018
N9525 X0.3013 Y0.2003
N9530 X0.2863 Y0.1977
N9535 X0.2725 Y0.1941
N9540 X0.2611 Y0.1902
N9545 X0.2512 Y0.1858
N9550 X0.2433 Y0.1816
N9555 X0.2362 Y0.177
N9560 X0.23 Y0.1723
N9565 X0.225 Y0.1677
N9570 X0.2244 Y0.1672
N9575 X0.2193 Y0.1596
N9580 X0.2167 Y0.1509
N9585 X0.217 Y0.1417
N9590 X0.2201 Y0.1331
N9595 X0.2234 Y0.1264
N9600 X0.2362 Y0.0983
N9605 G3 X0.2431 Y0.0922 I0.0112 J0.0056
N9610 G1 X0.5986 Y-0.037
N9615 G3 X0.6153 Y-0.0266 I0.0043 J0.0117
N9620 G1 X0.6163 Y-0.0133
N9625 X0.6164 Y-0.0067
N9630 Y0.0067
N9635 X0.6163 Y0.0133
N9640 X0.6128 Y0.0599
N9645 X0.6116 Y0.069
N9650 X0.6108 Y0.075
N9655 X0.6096 Y0.0809
N9660 X0.6081 Y0.0866
N9665 X0.6062 Y0.0923
N9670 X0.604 Y0.0979
N9675 X0.6015 Y0.1034
N9680 X0.5988 Y0.1088
N9685 X0.5959 Y0.114
N9690 X0.5928 Y0.1191
N9695 X0.5896 Y0.1242
N9700 X0.5861 Y0.1291
N9705 X0.5825 Y0.1339
N9710 X0.5788 Y0.1386
N9715 X0.5749 Y0.1432
N9720 X0.571 Y0.1477
N9725 X0.5669 Y0.1521
N9730 X0.5627 Y0.1564
N9735 X0.5584 Y0.1606
N9740 X0.554 Y0.1647
N9745 X0.5496 Y0.1687
N9750 X0.545 Y0.1726
N9755 X0.5404 Y0.1764
N9760 X0.5357 Y0.1801
N9765 X0.5309 Y0.1838
N9770 X0.526 Y0.1873
N9775 X0.5211 Y0.1907
N9780 X0.5162 Y0.1941
N9785 X0.5111 Y0.1974
N9790 X0.506 Y0.2005
N9795 X0.5009 Y0.2036
N9800 X0.4957 Y0.2066
N9805 X0.4905 Y0.2096
N9810 X0.4852 Y0.2124
N9815 X0.4798 Y0.2151
N9820 X0.4744 Y0.2177
N9825 X0.469 Y0.2203
N9830 X0.4635 Y0.2227
N9835 X0.458 Y0.2251
N9840 X0.4524 Y0.2273
N9845 X0.4468 Y0.2295
N9850 X0.4412 Y0.2316
N9855 X0.4356 Y0.2336
N9860 X0.4299 Y0.2354
N9865 X0.4241 Y0.2372
N9870 X0.4184 Y0.2389
N9875 X0.4126 Y0.2405
N9880 X0.4068 Y0.242
N9885 X0.4009 Y0.2433
N9890 X0.3951 Y0.2446
N9895 X0.3892 Y0.2458
N9900 X0.3833 Y0.2468
N9905 X0.3773 Y0.2478
N9910 X0.3714 Y0.2486
N9915 X0.3654 Y0.2493
N9920 X0.3595 Y0.2499
N9925 X0.3535 Y0.2504
N9930 X0.3475 Y0.2507
N9935 X0.3415 Y0.251
N9940 X0.3355 Y0.2511
N9945 X0.3295 Y0.251
N9950 X0.3235 Y0.2509
N9955 X0.3175 Y0.2506
N9960 X0.3115 Y0.2501
N9965 X0.3056 Y0.2496
N9970 X0.2996 Y0.2488
N9975 X0.2937 Y0.248
N9980 X0.2877 Y0.247
N9985 X0.2819 Y0.2458
N9990 X0.276 Y0.2445
N9995 X0.2702 Y0.243
N10000 X0.2644 Y0.2413
N10005 X0.2587 Y0.2395
N10010 X0.2531 Y0.2375
N10015 X0.2475 Y0.2353
N10020 X0.242 Y0.2329
N10025 X0.2366 Y0.2303
N10030 X0.2312 Y0.2276
N10035 X0.226 Y0.2246
N10040 X0.221 Y0.2213
N10045 X0.2161 Y0.2178
N10050 X0.2114 Y0.2141
N10055 X0.2069 Y0.2101
N10060 X0.2027 Y0.2058
N10065 X0.1987 Y0.2013
N10070 X0.1969 Y0.199
N10075 X0.1929 Y0.192
N10080 X0.191 Y0.1843
N10085 X0.1912 Y0.1763
N10090 X0.1936 Y0.1687
N10095 X0.1979 Y0.162
N10100 X0.2 Y0.1596
N10105 X0.2062 Y0.152
N10110 X0.2158 Y0.1397
N10115 X0.2195 Y0.1342
N10120 X0.2201 Y0.1331
N10125 G3 X0.2282 Y0.1273 I0.0107 J0.0064
N10130 G1 X0.5976 Y0.0471
N10135 G3 X0.6128 Y0.0599 I0.0027 J0.0122
N10140 G1 X0.6118 Y0.0732
N10145 X0.6112 Y0.0798
N10150 X0.6084 Y0.0998
N10155 X0.6071 Y0.1064
N10160 X0.5965 Y0.153
N10165 X0.5948 Y0.1588
N10170 X0.5922 Y0.1659
N10175 X0.5884 Y0.1739
N10180 X0.5834 Y0.1827
N10185 X0.5769 Y0.1923
N10190 X0.5684 Y0.2028
N10195 X0.5576 Y0.2142
N10200 X0.5443 Y0.2261
N10205 X0.5278 Y0.2387
N10210 X0.5082 Y0.2513
N10215 X0.4856 Y0.2634
N10220 X0.4604 Y0.2744
N10225 X0.4336 Y0.2836
N10230 X0.406 Y0.2906
N10235 X0.3786 Y0.2953
N10240 X0.3519 Y0.2977
N10245 X0.3267 Y0.2979
N10250 X0.303 Y0.2962
N10255 X0.2958 Y0.2951
N10260 X0.2922 Y0.2945
N10265 X0.2849 Y0.2931
N10270 X0.2778 Y0.2916
N10275 X0.2705 Y0.2919
N10280 X0.2634 Y0.294
N10285 X0.2572 Y0.2978
N10290 X0.252 Y0.3031
N10295 X0.2484 Y0.3094
N10300 X0.2445 Y0.3236
N10305 X0.246 Y0.3529
N10310 X0.2495 Y0.382
N10315 X0.2527 Y0.4111
N10320 X0.2542 Y0.4404
N10325 X0.2535 Y0.4677
N10330 X0.2508 Y0.4931
N10335 X0.2463 Y0.5171
N10340 X0.2401 Y0.5399
N10345 X0.2325 Y0.561
N10350 X0.2319 Y0.5624
N10355 X0.2275 Y0.5693
N10360 X0.2213 Y0.5747
N10365 X0.2139 Y0.5782
N10370 X0.1521 Y0.5972
N10375 G3 X0.137 Y0.589 I-0.0033 J-0.0121
N10380 G1 X0.0332 Y0.2697
N10385 G3 X0.0418 Y0.2538 I0.0119 J-0.0039
N10390 G1 X0.0466 Y0.2527
N10395 X0.0532 Y0.2509
N10400 X0.0931 Y0.2392
N10405 X0.0998 Y0.2369
N10410 X0.1064 Y0.2344
N10415 X0.1131 Y0.231
N10420 X0.1197 Y0.227
N10425 X0.153 Y0.2057
N10430 X0.1596 Y0.2014
N10435 X0.1622 Y0.1995
N10440 X0.1663 Y0.1963
N10445 X0.1704 Y0.1929
N10450 X0.1768 Y0.1862
N10455 X0.1796 Y0.1832
N10460 X0.1979 Y0.162
N10465 G3 X0.2064 Y0.1581 I0.0092 J0.0085
N10470 G1 X0.5835 Y0.1381
N10475 G3 X0.5965 Y0.153 I0.0007 J0.0125
N10480 G1 X0.5934 Y0.1663
N10485 X0.592 Y0.1718
N10490 X0.5876 Y0.1862
N10495 X0.5855 Y0.1929
N10500 X0.5699 Y0.2328
N10505 X0.5664 Y0.2406
N10510 X0.5624 Y0.2477
N10515 X0.5578 Y0.2547
N10520 X0.5513 Y0.2629
N10525 X0.5433 Y0.2716
N10530 X0.5334 Y0.2808
N10535 X0.5208 Y0.2907
N10540 X0.5055 Y0.3008
N10545 X0.4876 Y0.3106
N10550 X0.4656 Y0.3206
N10555 X0.4406 Y0.3295
N10560 X0.4142 Y0.3366
N10565 X0.3866 Y0.3417
N10570 X0.372 Y0.3432
N10575 X0.3647 Y0.3437
N10580 X0.3577 Y0.3459
N10585 X0.3453 Y0.3538
N10590 X0.3358 Y0.365
N10595 X0.3211 Y0.3903
N10600 X0.3131 Y0.4186
N10605 X0.3081 Y0.4475
N10610 X0.3037 Y0.4765
N10615 X0.2985 Y0.5053
N10620 X0.2925 Y0.5304
N10625 X0.2893 Y0.5383
N10630 X0.2839 Y0.5451
N10635 X0.2768 Y0.5499
N10640 X0.2395 Y0.5679
N10645 X0.2328 Y0.5708
N10650 X0.2261 Y0.5737
N10655 X0.2195 Y0.5765
N10660 X0.2139 Y0.5782
N10665 G3 X0.2091 Y0.5785 I-0.0033 J-0.0121
N10670 G1 X0.2063 Y0.5781 Z-0.0893
N10675 X0.2037 Y0.5778 Z-0.0884
N10680 X0.2013 Y0.5775 Z-0.0869
N10685 X0.1994 Y0.5773 Z-0.0849
N10690 X0.1979 Y0.5771 Z-0.0825
N10695 X0.197 Y0.5769 Z-0.0799
N10700 X0.1967 Z-0.0771
N10705 G0 Z0.1004
N10710 X0.5576 Y0.24
N10715 Z-0.0646
N10720 G1 Z-0.0771 F30.
N10725 X0.5578 Y0.2397 Z-0.0799
N10730 X0.5584 Y0.239 Z-0.0825
N10735 X0.5594 Y0.2379 Z-0.0849
N10740 X0.5606 Y0.2364 Z-0.0869
N10745 X0.5621 Y0.2345 Z-0.0884
N10750 X0.5638 Y0.2325 Z-0.0893
N10755 X0.5656 Y0.2304 Z-0.0896
N10760 G3 X0.5699 Y0.2328 I0.0019 J0.0016
N10765 G1 X0.5594 Y0.2594
N10770 X0.5564 Y0.2661
N10775 X0.5533 Y0.2727
N10780 X0.5321 Y0.3094
N10785 X0.5268 Y0.3177
N10790 X0.5217 Y0.3243
N10795 X0.5159 Y0.3307
N10800 X0.5083 Y0.3379
N10805 X0.4986 Y0.3457
N10810 X0.4874 Y0.3533
N10815 X0.4729 Y0.3615
N10820 X0.4562 Y0.3693
N10825 X0.4286 Y0.3794
N10830 X0.4154 Y0.3857
N10835 X0.392 Y0.4034
N10840 X0.376 Y0.428
N10845 X0.3651 Y0.4552
N10850 X0.3568 Y0.4834
N10855 X0.3536 Y0.4953
N10860 X0.3511 Y0.5017
N10865 X0.3471 Y0.5074
N10870 X0.3419 Y0.5119
N10875 G3 X0.3373 Y0.5137 I-0.0067 J-0.0106
N10880 G1 X0.3346 Y0.5141 Z-0.0893
N10885 X0.332 Y0.5146 Z-0.0884
N10890 X0.3296 Y0.515 Z-0.0869
N10895 X0.3277 Y0.5153 Z-0.0849
N10900 X0.3262 Y0.5156 Z-0.0825
N10905 X0.3253 Y0.5157 Z-0.0799
N10910 X0.325 Y0.5158 Z-0.0771
N10915 G0 Z0.1004
N10920 X0.5189 Y0.3147
N10925 Z-0.0646
N10930 G1 Z-0.0771 F30.
N10935 X0.5192 Y0.3145 Z-0.0799
N10940 X0.5198 Y0.3139 Z-0.0825
N10945 X0.521 Y0.3129 Z-0.0849
N10950 X0.5224 Y0.3116 Z-0.0869
N10955 X0.5242 Y0.31 Z-0.0884
N10960 X0.5262 Y0.3082 Z-0.0893
N10965 X0.5283 Y0.3064 Z-0.0896
N10970 G3 X0.5321 Y0.3094 I0.0017 J0.0019
N10975 G1 X0.5226 Y0.3259
N10980 X0.5107 Y0.3459
N10985 X0.5062 Y0.3525
N10990 X0.4797 Y0.3858
N10995 X0.4584 Y0.4124
N11000 X0.4529 Y0.419
N11005 X0.439 Y0.4324
N11010 X0.396 Y0.4723
N11015 X0.3804 Y0.4856
N11020 X0.3791 Y0.4865
N11025 X0.3193 Y0.5273
N11030 X0.3126 Y0.5317
N11035 X0.306 Y0.5357
N11040 X0.2993 Y0.5391
N11045 X0.2768 Y0.5499
N11050 X0.2753 Y0.5502 Z-0.0894
N11055 X0.274 Y0.5505 Z-0.0887
N11060 X0.273 Y0.5507 Z-0.0876
N11065 X0.2723 Y0.5509 Z-0.0862
N11070 X0.2721 Z-0.0847
N11075 G0 Z0.1004
N11080 X0.0187 Y0.4745
N11085 Z0.0229
N11090 G1 Z0.0104 F30.
N11095 G3 X-0.0709 Y0.3965 Z0.0039 I-0.0448 J-0.039
N11100 X0.0187 Y0.4745 Z-0.0026 I0.0448 J0.039
N11105 X-0.0709 Y0.3965 Z-0.0091 I-0.0448 J-0.039
N11110 X0.0187 Y0.4745 Z-0.0157 I0.0448 J0.039
N11115 X-0.0709 Y0.3965 Z-0.0222 I-0.0448 J-0.039
N11120 X0.0187 Y0.4745 Z-0.0287 I0.0448 J0.039
N11125 X-0.0709 Y0.3965 Z-0.0352 I-0.0448 J-0.039
N11130 X0.0187 Y0.4745 Z-0.0417 I0.0448 J0.039
N11135 X-0.0709 Y0.3965 Z-0.0482 I-0.0448 J-0.039
N11140 X0.0187 Y0.4745 Z-0.0547 I0.0448 J0.039
N11145 X-0.0709 Y0.3965 Z-0.0613 I-0.0448 J-0.039
N11150 X0.0187 Y0.4745 Z-0.0678 I0.0448 J0.039
N11155 X-0.0709 Y0.3965 Z-0.0743 I-0.0448 J-0.039
N11160 X0.0187 Y0.4745 Z-0.0808 I0.0448 J0.039
N11165 X-0.0709 Y0.3965 Z-0.0873 I-0.0448 J-0.039
N11170 X0.0187 Y0.4745 Z-0.0938 I0.0448 J0.039
N11175 X-0.0709 Y0.3965 Z-0.1003 I-0.0448 J-0.039
N11180 X0.0187 Y0.4745 Z-0.1069 I0.0448 J0.039
N11185 X-0.0709 Y0.3965 Z-0.1134 I-0.0448 J-0.039
N11190 X0.0187 Y0.4745 Z-0.1199 I0.0448 J0.039
N11195 X-0.0709 Y0.3965 Z-0.1264 I-0.0448 J-0.039
N11200 X0.0187 Y0.4745 Z-0.1329 I0.0448 J0.039
N11205 X-0.0709 Y0.3965 Z-0.1394 I-0.0448 J-0.039
N11210 X0.0187 Y0.4745 Z-0.1459 I0.0448 J0.039
N11215 X-0.0709 Y0.3965 Z-0.1525 I-0.0448 J-0.039
N11220 X0.0333 Y0.4355 Z-0.1575 I0.0448 J0.039
N11225 X-0.0855 I-0.0594 J0.
N11230 X0.0333 I0.0594 J0.
N11235 G1 X0.034 Y0.4648
N11240 X0.0349 Y0.4684
N11245 X0.0354 Y0.4744
N11250 X0.0349 Y0.4804
N11255 X0.0334 Y0.4862
N11260 X0.0311 Y0.4917
N11265 X0.0282 Y0.497
N11270 X0.0247 Y0.5018
N11275 X0.0207 Y0.5063
N11280 X0.0163 Y0.5104
N11285 X0.0115 Y0.514
N11290 X0.0064 Y0.5172
N11295 X0.0011 Y0.5199
N11300 X-0.0045 Y0.5222
N11305 X-0.0103 Y0.5241
N11310 X-0.0165 Y0.5256
N11315 X-0.0228 Y0.5265
N11320 X-0.0293 Y0.527
N11325 X-0.036 Y0.5269
N11330 X-0.0428 Y0.5263
N11335 X-0.0495 Y0.5251
N11340 X-0.0563 Y0.5234
N11345 X-0.0629 Y0.5211
N11350 X-0.0694 Y0.5183
N11355 X-0.0757 Y0.5149
N11360 X-0.0818 Y0.511
N11365 X-0.0876 Y0.5066
N11370 X-0.093 Y0.5017
N11375 X-0.0981 Y0.4963
N11380 X-0.1027 Y0.4906
N11385 X-0.1069 Y0.4844
N11390 X-0.1105 Y0.478
N11395 X-0.1137 Y0.4712
N11400 X-0.1163 Y0.4642
N11405 X-0.1183 Y0.4569
N11410 X-0.1198 Y0.4496
N11415 X-0.1207 Y0.4421
N11420 X-0.1209 Y0.4345
N11425 X-0.1206 Y0.427
N11430 X-0.1196 Y0.4195
N11435 X-0.1181 Y0.412
N11440 X-0.1159 Y0.4048
N11445 X-0.1132 Y0.3977
N11450 X-0.1099 Y0.3908
N11455 X-0.1061 Y0.3843
N11460 X-0.1017 Y0.378
N11465 X-0.0969 Y0.3721
N11470 X-0.0916 Y0.3667
N11475 X-0.0859 Y0.3616
N11480 X-0.0797 Y0.3571
N11485 X-0.0733 Y0.353
N11490 X-0.0665 Y0.3495
N11495 X-0.0595 Y0.3465
N11500 X-0.0523 Y0.3441
N11505 X-0.0449 Y0.3423
N11510 X-0.0373 Y0.3411
N11515 X-0.0297 Y0.3405
N11520 X-0.0221
N11525 X-0.0145 Y0.3412
N11530 X-0.0069 Y0.3424
N11535 X0.0005 Y0.3442
N11540 X0.0077 Y0.3467
N11545 X0.0147 Y0.3497
N11550 X0.0215 Y0.3532
N11555 X0.0279 Y0.3573
N11560 X0.034 Y0.3619
N11565 X0.0398 Y0.3669
N11570 X0.045 Y0.3724
N11575 X0.0499 Y0.3784
N11580 X0.0542 Y0.3846
N11585 X0.0584 Y0.3918
N11590 X0.0628 Y0.4011
N11595 X0.0688 Y0.4168
N11600 X0.0724 Y0.4294
N11605 X0.0746 Y0.44
N11610 X0.0758 Y0.4499
N11615 X0.0762 Y0.4592
N11620 X0.0759 Y0.4679
N11625 X0.0749 Y0.4763
N11630 X0.0733 Y0.4843
N11635 X0.071 Y0.4922
N11640 X0.0681 Y0.4999
N11645 X0.0646 Y0.5074
N11650 X0.0606 Y0.5145
N11655 X0.0559 Y0.5213
N11660 X0.0507 Y0.5278
N11665 X0.0449 Y0.5339
N11670 X0.0385 Y0.5395
N11675 X0.0316 Y0.5448
N11680 X0.0243 Y0.5495
N11685 X0.0164 Y0.5536
N11690 X0.0081 Y0.5572
N11695 X-0.0005 Y0.5602
N11700 X-0.0095 Y0.5624
N11705 X-0.0188 Y0.564
N11710 X-0.0283 Y0.5648
N11715 X-0.0379 Y0.5649
N11720 X-0.0476 Y0.5642
N11725 X-0.0573 Y0.5627
N11730 X-0.067 Y0.5604
N11735 X-0.0765 Y0.5573
N11740 X-0.0858 Y0.5534
N11745 X-0.0948 Y0.5487
N11750 X-0.1035 Y0.5433
N11755 X-0.1118 Y0.5372
N11760 X-0.1196 Y0.5304
N11765 X-0.1268 Y0.523
N11770 X-0.1335 Y0.515
N11775 X-0.1395 Y0.5064
N11780 X-0.1449 Y0.4973
N11785 X-0.1495 Y0.4879
N11790 X-0.1534 Y0.478
N11795 X-0.1564 Y0.4678
N11800 X-0.1586 Y0.4574
N11805 X-0.16 Y0.4468
N11810 X-0.1606 Y0.4362
N11815 X-0.1603 Y0.4255
N11820 X-0.1591 Y0.4148
N11825 X-0.157 Y0.4043
N11830 X-0.1542 Y0.3939
N11835 X-0.1505 Y0.3838
N11840 X-0.146 Y0.374
N11845 X-0.1407 Y0.3646
N11850 X-0.1347 Y0.3557
N11855 X-0.128 Y0.3472
N11860 X-0.1206 Y0.3393
N11865 X-0.1126 Y0.3321
N11870 X-0.104 Y0.3255
N11875 X-0.095 Y0.3196
N11880 X-0.0854 Y0.3144
N11885 X-0.0756 Y0.31
N11890 X-0.0653 Y0.3065
N11895 X-0.0549 Y0.3037
N11900 X-0.0442 Y0.3018
N11905 X-0.0334 Y0.3008
N11910 X-0.0226 Y0.3007
N11915 X-0.0118 Y0.3014
N11920 X-0.0011 Y0.3029
N11925 X0.0095 Y0.3054
N11930 X0.0198 Y0.3086
N11935 X0.0298 Y0.3127
N11940 X0.0395 Y0.3176
N11945 X0.0488 Y0.3233
N11950 X0.0575 Y0.3296
N11955 X0.0658 Y0.3368
N11960 X0.0739 Y0.3449
N11965 X0.0824 Y0.3549
N11970 X0.0902 Y0.3658
N11975 X0.0973 Y0.3777
N11980 X0.1036 Y0.3903
N11985 X0.1087 Y0.4031
N11990 X0.1127 Y0.4159
N11995 X0.1155 Y0.4287
N12000 X0.1173 Y0.4412
N12005 X0.118 Y0.4537
N12010 X0.1177 Y0.4659
N12015 X0.1165 Y0.478
N12020 X0.1143 Y0.4898
N12025 X0.1112 Y0.5013
N12030 X0.1073 Y0.5124
N12035 X0.1024 Y0.5232
N12040 X0.0967 Y0.5336
N12045 X0.0902 Y0.5434
N12050 X0.0829 Y0.5528
N12055 X0.0748 Y0.5615
N12060 X0.066 Y0.5697
N12065 X0.0565 Y0.5771
N12070 X0.0463 Y0.5839
N12075 X0.0356 Y0.5898
N12080 X0.0243 Y0.5949
N12085 X0.0125 Y0.5991
N12090 X0.0004 Y0.6024
N12095 X-0.0121 Y0.6047
N12100 X-0.0249 Y0.6061
N12105 X-0.0378 Y0.6064
N12110 X-0.0508 Y0.6056
N12115 X-0.0638 Y0.6038
N12120 X-0.0767 Y0.601
N12125 X-0.0893 Y0.597
N12130 X-0.1017 Y0.5921
N12135 X-0.1138 Y0.5862
N12140 X-0.1254 Y0.5792
N12145 X-0.1364 Y0.5713
N12150 X-0.1469 Y0.5625
N12155 X-0.1566 Y0.5529
N12160 X-0.1656 Y0.5425
N12165 X-0.1737 Y0.5313
N12170 X-0.1809 Y0.5195
N12175 X-0.1872 Y0.5071
N12180 X-0.1925 Y0.4942
N12185 X-0.1967 Y0.4809
N12190 X-0.1999 Y0.4672
N12195 X-0.202 Y0.4533
N12200 X-0.2029 Y0.4393
N12205 X-0.2027 Y0.4252
N12210 X-0.2014 Y0.4112
N12215 X-0.199 Y0.3972
N12220 X-0.1954 Y0.3836
N12225 X-0.1908 Y0.3702
N12230 X-0.185 Y0.3572
N12235 X-0.1783 Y0.3448
N12240 X-0.1706 Y0.3329
N12245 X-0.1619 Y0.3216
N12250 X-0.1524 Y0.3111
N12255 X-0.142 Y0.3014
N12260 X-0.1309 Y0.2925
N12265 X-0.1191 Y0.2845
N12270 X-0.1068 Y0.2776
N12275 X-0.0938 Y0.2716
N12280 X-0.0805 Y0.2667
N12285 X-0.0668 Y0.2629
N12290 X-0.0528 Y0.2601
N12295 X-0.0387 Y0.2586
N12300 X-0.0244 Y0.2581
N12305 X-0.0102 Y0.2588
N12310 X0.0039 Y0.2607
N12315 X0.0179 Y0.2636
N12320 X0.0315 Y0.2677
N12325 X0.0448 Y0.2729
N12330 X0.0576 Y0.2791
N12335 X0.0701 Y0.2864
N12340 X0.0823 Y0.295
N12345 X0.0941 Y0.3048
N12350 X0.1055 Y0.3159
N12355 X0.1162 Y0.3281
N12360 X0.1261 Y0.3414
N12365 X0.1348 Y0.3555
N12370 X0.1425 Y0.3703
N12375 X0.1489 Y0.3855
N12380 X0.154 Y0.401
N12385 X0.1578 Y0.4168
N12390 X0.1602 Y0.4327
N12395 X0.1614 Y0.4486
N12400 Y0.4644
N12405 X0.16 Y0.4801
N12410 X0.1575 Y0.4954
N12415 X0.1537 Y0.5105
N12420 X0.1487 Y0.5251
N12425 X0.1426 Y0.5393
N12430 X0.1354 Y0.5529
N12435 X0.1271 Y0.566
N12440 X0.1178 Y0.5783
N12445 X0.1075 Y0.5899
N12450 X0.0962 Y0.6006
N12455 X0.0912 Y0.6047
N12460 X0.0869 Y0.6076
N12465 X0.0822 Y0.6096
N12470 X0.0772 Y0.6109
N12475 X0.0599 Y0.6135
N12480 X0.0532 Y0.6142
N12485 X0.0333 Y0.6155
N12490 X-0.0333
N12495 X-0.0532 Y0.6142
N12500 X-0.0599 Y0.6135
N12505 X-0.1197 Y0.6044
N12510 X-0.1264 Y0.6033
N12515 X-0.1397 Y0.6004
N12520 X-0.1455 Y0.5988
N12525 X-0.1529 Y0.5961
N12530 X-0.1604 Y0.5927
N12535 X-0.1687 Y0.5881
N12540 X-0.177 Y0.5826
N12545 X-0.1855 Y0.5759
N12550 X-0.1944 Y0.5676
N12555 X-0.2029 Y0.5583
N12560 X-0.211 Y0.5479
N12565 X-0.2188 Y0.5361
N12570 X-0.2259 Y0.5231
N12575 X-0.2322 Y0.5089
N12580 X-0.2376 Y0.4939
N12585 X-0.2418 Y0.4781
N12590 X-0.2447 Y0.4618
N12595 X-0.2464 Y0.445
N12600 X-0.2467 Y0.428
N12605 X-0.2457 Y0.4109
N12610 X-0.2432 Y0.3938
N12615 X-0.2394 Y0.3768
N12620 X-0.2342 Y0.3601
N12625 X-0.2276 Y0.3438
N12630 X-0.2197 Y0.3281
N12635 X-0.2106 Y0.3129
N12640 X-0.2003 Y0.2986
N12645 X-0.1888 Y0.2851
N12650 X-0.1763 Y0.2725
N12655 X-0.1628 Y0.261
N12660 X-0.1484 Y0.2506
N12665 X-0.1332 Y0.2414
N12670 X-0.1251 Y0.2374
N12675 X-0.1175 Y0.2348
N12680 X-0.1095 Y0.2344
N12685 X-0.1017 Y0.2362
N12690 X-0.0998 Y0.2369
N12695 X-0.0931 Y0.2392
N12700 X-0.0532 Y0.2509
N12705 X-0.0463 Y0.2528
N12710 X-0.0399 Y0.2542
N12715 X-0.0333 Y0.2552
N12720 X-0.0266 Y0.2555
N12725 X-0.0133 Y0.2557
N12730 X0.
N12735 X0.0133
N12740 X0.0266 Y0.2555
N12745 X0.0333 Y0.2552
N12750 X0.0399 Y0.2542
N12755 X0.0418 Y0.2538
N12760 X0.0477 Y0.2527
N12765 X0.0537 Y0.2524
N12770 X0.0601 Y0.2526
N12775 X0.0668 Y0.2533
N12780 X0.0746 Y0.2549
N12785 X0.0826 Y0.2571
N12790 X0.0918 Y0.2605
N12795 X0.1011 Y0.2648
N12800 X0.1112 Y0.2705
N12805 X0.1221 Y0.2778
N12810 X0.1325 Y0.2861
N12815 X0.1433 Y0.2963
N12820 X0.1541 Y0.3082
N12825 X0.1645 Y0.3217
N12830 X0.1741 Y0.3365
N12835 X0.1826 Y0.3523
N12840 X0.19 Y0.3691
N12845 X0.1962 Y0.3868
N12850 X0.201 Y0.4052
N12855 X0.2043 Y0.424
N12860 X0.2061 Y0.4431
N12865 X0.2063 Y0.4623
N12870 X0.205 Y0.4814
N12875 X0.2022 Y0.5003
N12880 X0.1979 Y0.5189
N12885 X0.1921 Y0.5371
N12890 X0.1849 Y0.5547
N12895 X0.1763 Y0.5717
N12900 X0.1684 Y0.5846
N12905 X0.1641 Y0.5901
N12910 X0.1585 Y0.5944
N12915 X0.1521 Y0.5972
N12920 X0.1476 Y0.5986
N12925 X0.1463 Y0.599
N12930 X0.1264 Y0.6033
N12935 X0.1197 Y0.6044
N12940 X0.0772 Y0.6109
N12945 G3 X0.0751 I-0.0014 J-0.0124
N12950 G1 X0.0723 Y0.6108
N12955 X-0.1348 Y0.6007
N12960 X-0.1381 Y0.6006
N12965 G3 X-0.1397 Y0.6004 I0.0006 J-0.0125
N12970 G1 X-0.1463 Y0.599
N12975 X-0.1476 Y0.5986
N12980 X-0.2062 Y0.5806
N12985 X-0.2141 Y0.5777
N12990 X-0.2196 Y0.5752
N12995 X-0.2254 Y0.5719
N13000 X-0.2313 Y0.5679
N13005 X-0.2379 Y0.5627
N13010 X-0.2443 Y0.5567
N13015 X-0.2511 Y0.5492
N13020 X-0.2578 Y0.5405
N13025 X-0.2643 Y0.5305
N13030 X-0.2708 Y0.5186
N13035 X-0.2766 Y0.5055
N13040 X-0.2815 Y0.4912
N13045 X-0.2857 Y0.4753
N13050 X-0.2887 Y0.458
N13055 X-0.2905 Y0.4397
N13060 X-0.2908 Y0.4206
N13065 X-0.2895 Y0.4012
N13070 X-0.2866 Y0.3816
N13075 X-0.2821 Y0.3619
N13080 X-0.2759 Y0.3424
N13085 X-0.268 Y0.3232
N13090 X-0.2586 Y0.3045
N13095 X-0.2476 Y0.2865
N13100 X-0.2351 Y0.2693
N13105 X-0.2213 Y0.2532
N13110 X-0.2062 Y0.2382
N13115 X-0.1906 Y0.2251
N13120 X-0.1785 Y0.2163
N13125 X-0.1722 Y0.2126
N13130 X-0.1648 Y0.2094
N13135 X-0.1568 Y0.2084
N13140 X-0.1488 Y0.2097
N13145 X-0.1414 Y0.2131
N13150 X-0.1197 Y0.227
N13155 X-0.1131 Y0.231
N13160 X-0.1064 Y0.2344
N13165 X-0.1017 Y0.2362
N13170 G3 X-0.0946 Y0.2513 I-0.0049 J0.0115
N13175 G1 X-0.191 Y0.5721
N13180 G3 X-0.2062 Y0.5806 I-0.012 J-0.0036
N13185 G1 X-0.2195 Y0.5765
N13190 X-0.2261 Y0.5737
N13195 X-0.2328 Y0.5708
N13200 X-0.2395 Y0.5679
N13205 X-0.2723 Y0.5521
N13210 X-0.2776 Y0.5492
N13215 X-0.2826 Y0.5459
N13220 X-0.2879 Y0.5417
N13225 X-0.2931 Y0.5369
N13230 X-0.2989 Y0.5306
N13235 X-0.3043 Y0.5237
N13240 X-0.3101 Y0.5149
N13245 X-0.3154 Y0.5053
N13250 X-0.3207 Y0.4935
N13255 X-0.3253 Y0.4805
N13260 X-0.3292 Y0.4658
N13265 X-0.3323 Y0.449
N13270 X-0.3342 Y0.4306
N13275 X-0.3346 Y0.4116
N13280 X-0.3334 Y0.3913
N13285 X-0.3303 Y0.37
N13290 X-0.3254 Y0.3481
N13295 X-0.3186 Y0.326
N13300 X-0.3097 Y0.3039
N13305 X-0.299 Y0.2824
N13310 X-0.2864 Y0.2615
N13315 X-0.2721 Y0.2415
N13320 X-0.2563 Y0.2228
N13325 X-0.2406 Y0.207
N13330 X-0.2287 Y0.1969
N13335 X-0.2193 Y0.1901
N13340 X-0.2107 Y0.1848
N13345 X-0.208 Y0.1835
N13350 X-0.1992 Y0.1807
N13355 X-0.1899 Y0.1808
N13360 X-0.1812 Y0.1838
N13365 X-0.1738 Y0.1894
N13370 X-0.1704 Y0.1929
N13375 X-0.1663 Y0.1963
N13380 X-0.1622 Y0.1995
N13385 X-0.1596 Y0.2014
N13390 X-0.1414 Y0.2131
N13395 G3 X-0.1369 Y0.2277 I-0.0071 J0.0103
N13400 G1 X-0.2556 Y0.545
N13405 G3 X-0.2723 Y0.5521 I-0.0117 J-0.0044
N13410 G1 X-0.2999 Y0.5388
N13415 X-0.306 Y0.5357
N13420 X-0.3126 Y0.5317
N13425 X-0.3193 Y0.5273
N13430 X-0.3317 Y0.5188
N13435 X-0.3365 Y0.5152
N13440 X-0.3411 Y0.5108
N13445 X-0.346 Y0.5054
N13450 X-0.351 Y0.4988
N13455 X-0.3558 Y0.4913
N13460 X-0.3608 Y0.482
N13465 X-0.3653 Y0.4717
N13470 X-0.3694 Y0.4596
N13475 X-0.3731 Y0.4453
N13480 X-0.3756 Y0.4303
N13485 X-0.3772 Y0.4126
N13490 X-0.3774 Y0.3927
N13495 X-0.3759 Y0.3722
N13500 X-0.3725 Y0.3503
N13505 X-0.367 Y0.3269
N13510 X-0.3592 Y0.3027
N13515 X-0.3491 Y0.2784
N13520 X-0.3368 Y0.2543
N13525 X-0.3223 Y0.231
N13530 X-0.3064 Y0.2093
N13535 X-0.2904 Y0.1909
N13540 X-0.2764 Y0.1771
N13545 X-0.2657 Y0.1682
N13550 X-0.2554 Y0.1609
N13555 X-0.2476 Y0.1563
N13560 X-0.2395 Y0.1524
N13565 X-0.2318 Y0.1493
N13570 X-0.2232 Y0.1481
N13575 X-0.2147 Y0.1494
N13580 X-0.2069 Y0.1531
N13585 X-0.2006 Y0.1589
N13590 X-0.1995 Y0.1602
N13595 X-0.1796 Y0.1832
N13600 X-0.1751 Y0.188
N13605 X-0.1738 Y0.1894
N13610 G3 X-0.1718 Y0.2029 I-0.0093 J0.0083
N13615 G1 X-0.3137 Y0.5134
N13620 G3 X-0.3317 Y0.5188 I-0.0114 J-0.0052
N13625 G1 X-0.3761 Y0.4885
N13630 X-0.3811 Y0.4848
N13635 X-0.3856 Y0.4808
N13640 X-0.3899 Y0.4762
N13645 X-0.3941 Y0.4709
N13650 X-0.3986 Y0.4642
N13655 X-0.4028 Y0.4568
N13660 X-0.407 Y0.4476
N13665 X-0.4108 Y0.4373
N13670 X-0.4143 Y0.4248
N13675 X-0.4169 Y0.4115
N13680 X-0.4187 Y0.3952
N13685 X-0.4192 Y0.3776
N13690 X-0.4182 Y0.3582
N13695 X-0.4153 Y0.336
N13700 X-0.4101 Y0.3118
N13705 X-0.4027 Y0.2868
N13710 X-0.3929 Y0.2618
N13715 X-0.3803 Y0.2359
N13720 X-0.3655 Y0.2106
N13725 X-0.3489 Y0.1869
N13730 X-0.3333 Y0.1682
N13735 X-0.3184 Y0.1529
N13740 X-0.3048 Y0.141
N13745 X-0.2923 Y0.1317
N13750 X-0.2827 Y0.1257
N13755 X-0.2732 Y0.1208
N13760 X-0.2656 Y0.1176
N13765 X-0.2574 Y0.1149
N13770 X-0.2547 Y0.1143
N13775 X-0.2469 Y0.1135
N13780 X-0.2391 Y0.1148
N13785 X-0.232 Y0.1182
N13790 X-0.2261 Y0.1233
N13795 X-0.2217 Y0.1299
N13800 X-0.2201 Y0.133
N13805 X-0.2195 Y0.1342
N13810 X-0.2158 Y0.1397
N13815 X-0.2054 Y0.153
N13820 X-0.2006 Y0.1589
N13825 G3 X-0.1995 Y0.1721 I-0.01 J0.0075
N13830 G1 X-0.3583 Y0.4837
N13835 G3 X-0.3761 Y0.4885 I-0.0111 J-0.0057
N13840 G1 X-0.3791 Y0.4865
N13845 X-0.3804 Y0.4856
N13850 X-0.396 Y0.4723
N13855 X-0.4291 Y0.4416
N13860 X-0.4333 Y0.4373
N13865 X-0.437 Y0.4326
N13870 X-0.441 Y0.4266
N13875 X-0.4446 Y0.4201
N13880 X-0.4482 Y0.4122
N13885 X-0.4516 Y0.4029
N13890 X-0.4545 Y0.3923
N13895 X-0.4569 Y0.3796
N13900 X-0.4584 Y0.3654
N13905 X-0.4588 Y0.349
N13910 X-0.4578 Y0.3294
N13915 X-0.4551 Y0.3095
N13920 X-0.4501 Y0.2866
N13925 X-0.4423 Y0.2612
N13930 X-0.4318 Y0.2344
N13935 X-0.4189 Y0.208
N13940 X-0.404 Y0.1828
N13945 X-0.3879 Y0.1599
N13950 X-0.3713 Y0.14
N13955 X-0.3548 Y0.123
N13960 X-0.3397 Y0.1099
N13965 X-0.326 Y0.0997
N13970 X-0.3131 Y0.0917
N13975 X-0.3025 Y0.0863
N13980 X-0.2933 Y0.0824
N13985 X-0.285 Y0.0797
N13990 X-0.2768 Y0.0777
N13995 X-0.2698 Y0.0766
N14000 X-0.2672 Y0.0764
N14005 X-0.2584 Y0.0771
N14010 X-0.2502 Y0.0804
N14015 X-0.2433 Y0.086
N14020 X-0.2385 Y0.0934
N14025 X-0.2234 Y0.1264
N14030 X-0.2217 Y0.1299
N14035 G3 X-0.2225 Y0.1416 I-0.0114 J0.0051
N14040 G1 X-0.4103 Y0.4388
N14045 G3 X-0.4291 Y0.4416 I-0.0106 J-0.0067
N14050 G1 X-0.439 Y0.4323
N14055 X-0.4529 Y0.419
N14060 X-0.459 Y0.4117
N14065 X-0.4744 Y0.3924
N14070 X-0.4786 Y0.3865
N14075 X-0.482 Y0.3809
N14080 X-0.4854 Y0.3741
N14085 X-0.4883 Y0.3667
N14090 X-0.4913 Y0.3574
N14095 X-0.4935 Y0.3475
N14100 X-0.4953 Y0.3351
N14105 X-0.4961 Y0.3216
N14110 X-0.4957 Y0.3049
N14115 X-0.494 Y0.2876
N14120 X-0.4901 Y0.2662
N14125 X-0.4839 Y0.2428
N14130 X-0.4752 Y0.2185
N14135 X-0.4634 Y0.1921
N14140 X-0.4493 Y0.1663
N14145 X-0.4332 Y0.1418
N14150 X-0.4156 Y0.119
N14155 X-0.3977 Y0.0993
N14160 X-0.3809 Y0.0835
N14165 X-0.3648 Y0.0707
N14170 X-0.3495 Y0.0605
N14175 X-0.3357 Y0.0527
N14180 X-0.3227 Y0.0468
N14185 X-0.3123 Y0.043
N14190 X-0.302 Y0.0401
N14195 X-0.2939 Y0.0385
N14200 X-0.2856 Y0.0376
N14205 X-0.2779 Y0.0374
N14210 X-0.2763 Y0.0375
N14215 X-0.2687 Y0.0389
N14220 X-0.2618 Y0.0422
N14225 X-0.256 Y0.0473
N14230 X-0.2517 Y0.0536
N14235 X-0.2492 Y0.0609
N14240 X-0.2467 Y0.0732
N14245 X-0.2461 Y0.0753
N14250 X-0.2444 Y0.0798
N14255 X-0.2416 Y0.0865
N14260 X-0.2385 Y0.0934
N14265 G3 X-0.24 Y0.1057 I-0.0115 J0.0048
N14270 G1 X-0.4549 Y0.3918
N14275 G3 X-0.4744 Y0.3924 I-0.01 J-0.0075
N14280 G1 X-0.5062 Y0.3525
N14285 X-0.5107 Y0.3459
N14290 X-0.5169 Y0.3356
N14295 X-0.52 Y0.3296
N14300 X-0.5227 Y0.3235
N14305 X-0.5253 Y0.3158
N14310 X-0.5276 Y0.3068
N14315 X-0.5292 Y0.2969
N14320 X-0.5303 Y0.2844
N14325 X-0.5304 Y0.2714
N14330 X-0.5292 Y0.255
N14335 X-0.5265 Y0.2379
N14340 X-0.5216 Y0.2174
N14345 X-0.514 Y0.194
N14350 X-0.504 Y0.1701
N14355 X-0.491 Y0.1449
N14360 X-0.4755 Y0.1199
N14365 X-0.4582 Y0.0963
N14370 X-0.4394 Y0.0745
N14375 X-0.4206 Y0.0559
N14380 X-0.4026 Y0.0408
N14385 X-0.3849 Y0.0282
N14390 X-0.3681 Y0.0182
N14395 X-0.3527 Y0.0106
N14400 X-0.3385 Y0.0049
N14405 X-0.3253 Y0.0009
N14410 X-0.3145 Y-0.0015
N14415 X-0.3049 Y-0.0028
N14420 X-0.2966 Y-0.0033
N14425 X-0.2884 Y-0.0031
N14430 X-0.2815 Y-0.0024
N14435 X-0.2786 Y-0.0018
N14440 X-0.2701 Y0.0012
N14445 X-0.2629 Y0.0067
N14450 X-0.2577 Y0.0141
N14455 X-0.2551 Y0.0227
N14460 X-0.2507 Y0.0532
N14465 X-0.2492 Y0.0609
N14470 G3 X-0.2523 Y0.0714 I-0.0123 J0.002
N14475 G1 X-0.4972 Y0.3373
N14480 G3 X-0.5169 Y0.3356 I-0.0092 J-0.0085
N14485 G1 X-0.5226 Y0.3259
N14490 X-0.5495 Y0.2794
N14495 X-0.5522 Y0.274
N14500 X-0.5545 Y0.2684
N14505 X-0.5568 Y0.2614
N14510 X-0.5586 Y0.2535
N14515 X-0.5599 Y0.2445
N14520 X-0.5607 Y0.2332
N14525 X-0.5606 Y0.2216
N14530 X-0.5592 Y0.2067
N14535 X-0.5565 Y0.1916
N14540 X-0.5516 Y0.1726
N14545 X-0.5446 Y0.1526
N14550 X-0.5349 Y0.1304
N14555 X-0.5218 Y0.1061
N14560 X-0.5058 Y0.0815
N14565 X-0.488 Y0.0582
N14570 X-0.4687 Y0.0367
N14575 X-0.4486 Y0.0178
N14580 X-0.4283 Y0.0014
N14585 X-0.4084 Y-0.0121
N14590 X-0.3896 Y-0.0228
N14595 X-0.3723 Y-0.0309
N14600 X-0.3559 Y-0.037
N14605 X-0.3409 Y-0.0412
N14610 X-0.3272 Y-0.0439
N14615 X-0.316 Y-0.0452
N14620 X-0.3051 Y-0.0456
N14625 X-0.2964 Y-0.0452
N14630 X-0.2887 Y-0.0442
N14635 X-0.2807 Y-0.0426
N14640 X-0.2774 Y-0.0416
N14645 X-0.2701 Y-0.0383
N14650 X-0.264 Y-0.0331
N14655 X-0.2595 Y-0.0264
N14660 X-0.257 Y-0.0187
N14665 X-0.2567 Y-0.0107
N14670 X-0.2571 Y-0.0067
N14675 X-0.2575 Y0.
N14680 X-0.2571 Y0.0067
N14685 X-0.2564 Y0.0133
N14690 X-0.2551 Y0.0227
N14695 G3 X-0.2591 Y0.0333 I-0.0124 J0.0013
N14700 G1 X-0.5304 Y0.282
N14705 G3 X-0.5495 Y0.2794 I-0.0084 J-0.0092
N14710 G1 X-0.5533 Y0.2727
N14715 X-0.5587 Y0.261
N14720 X-0.5594 Y0.2594
N14725 X-0.5787 Y0.2104
N14730 X-0.5815 Y0.202
N14735 X-0.5831 Y0.1954
N14740 X-0.5844 Y0.1876
N14745 X-0.5851 Y0.1793
N14750 Y0.1689
N14755 X-0.5843 Y0.1577
N14760 X-0.5822 Y0.1446
N14765 X-0.5785 Y0.1295
N14770 X-0.5728 Y0.1123
N14775 X-0.5649 Y0.0936
N14780 X-0.5537 Y0.0719
N14785 X-0.5393 Y0.049
N14790 X-0.5228 Y0.0268
N14795 X-0.5037 Y0.0051
N14800 X-0.4827 Y-0.0153
N14805 X-0.4609 Y-0.0333
N14810 X-0.4396 Y-0.0482
N14815 X-0.4185 Y-0.0605
N14820 X-0.398 Y-0.0703
N14825 X-0.3783 Y-0.0779
N14830 X-0.3605 Y-0.0832
N14835 X-0.3443 Y-0.0866
N14840 X-0.3293 Y-0.0885
N14845 X-0.3158 Y-0.0892
N14850 X-0.3046 Y-0.0888
N14855 X-0.2949 Y-0.0877
N14860 X-0.2868 Y-0.0861
N14865 X-0.2787 Y-0.0838
N14870 X-0.2722 Y-0.0814
N14875 X-0.2679 Y-0.0794
N14880 X-0.2602 Y-0.0742
N14885 X-0.2546 Y-0.0669
N14890 X-0.2515 Y-0.0581
N14895 X-0.2513 Y-0.0488
N14900 X-0.2564 Y-0.0133
N14905 X-0.2567 Y-0.0107
N14910 G3 X-0.2617 Y-0.0023 I-0.0124 J-0.0017
N14915 G1 X-0.5598 Y0.2155
N14920 G3 X-0.5787 Y0.2104 I-0.0074 J-0.0101
N14925 G1 X-0.5855 Y0.1929
N14930 X-0.5876 Y0.1862
N14935 X-0.592 Y0.1718
N14940 X-0.5934 Y0.1663
N14945 X-0.601 Y0.133
N14950 X-0.6024 Y0.125
N14955 X-0.6031 Y0.1182
N14960 X-0.6032 Y0.1097
N14965 X-0.6025 Y0.1
N14970 X-0.601 Y0.0896
N14975 X-0.598 Y0.0765
N14980 X-0.5938 Y0.0633
N14985 X-0.587 Y0.0467
N14990 X-0.5787 Y0.0303
N14995 X-0.5669 Y0.0111
N15000 X-0.5517 Y-0.0099
N15005 X-0.5337 Y-0.0308
N15010 X-0.5137 Y-0.0506
N15015 X-0.4918 Y-0.0691
N15020 X-0.4688 Y-0.0855
N15025 X-0.4457 Y-0.0994
N15030 X-0.423 Y-0.1106
N15035 X-0.401 Y-0.1194
N15040 X-0.3798 Y-0.1259
N15045 X-0.3599 Y-0.1304
N15050 X-0.3423 Y-0.1328
N15055 X-0.3264 Y-0.1337
N15060 X-0.3115 Y-0.1334
N15065 X-0.2986 Y-0.1321
N15070 X-0.2879 Y-0.1301
N15075 X-0.2781 Y-0.1274
N15080 X-0.2706 Y-0.1248
N15085 X-0.263 Y-0.1213
N15090 X-0.2564 Y-0.1177
N15095 X-0.2547 Y-0.1166
N15100 X-0.2487 Y-0.1113
N15105 X-0.2444 Y-0.1045
N15110 X-0.242 Y-0.0969
N15115 X-0.2418 Y-0.0888
N15120 X-0.2439 Y-0.0811
N15125 X-0.2444 Y-0.0798
N15130 X-0.2461 Y-0.0753
N15135 X-0.2467 Y-0.0732
N15140 X-0.2507 Y-0.0532
N15145 X-0.2513 Y-0.0488
N15150 G3 X-0.2576 Y-0.0401 I-0.0123 J-0.0022
N15155 G1 X-0.5829 Y0.1407
N15160 G3 X-0.601 Y0.133 I-0.0061 J-0.0109
N15165 G1 X-0.6071 Y0.1064
N15170 X-0.6084 Y0.0998
N15175 X-0.6112 Y0.0798
N15180 X-0.6119 Y0.0712
N15185 X-0.6133 Y0.0532
N15190 X-0.6135 Y0.0441
N15195 X-0.6131 Y0.0362
N15200 X-0.6119 Y0.0279
N15205 X-0.6097 Y0.0176
N15210 X-0.6063 Y0.0066
N15215 X-0.6013 Y-0.006
N15220 X-0.5943 Y-0.0201
N15225 X-0.5849 Y-0.036
N15230 X-0.5733 Y-0.0523
N15235 X-0.5578 Y-0.0707
N15240 X-0.5392 Y-0.0897
N15245 X-0.5183 Y-0.1077
N15250 X-0.4955 Y-0.1243
N15255 X-0.4713 Y-0.1392
N15260 X-0.4467 Y-0.1517
N15265 X-0.4223 Y-0.1618
N15270 X-0.3988 Y-0.1693
N15275 X-0.3763 Y-0.1746
N15280 X-0.3549 Y-0.1778
N15285 X-0.3351 Y-0.1792
N15290 X-0.3178 Y-0.179
N15295 X-0.3021 Y-0.1775
N15300 X-0.2876 Y-0.175
N15305 X-0.2757 Y-0.1719
N15310 X-0.2654 Y-0.1684
N15315 X-0.2571 Y-0.1647
N15320 X-0.2499 Y-0.1609
N15325 X-0.2431 Y-0.1565
N15330 X-0.2377 Y-0.1524
N15335 X-0.235 Y-0.1499
N15340 X-0.2293 Y-0.1428
N15345 X-0.226 Y-0.1342
N15350 X-0.2256 Y-0.125
N15355 X-0.2281 Y-0.1161
N15360 X-0.2416 Y-0.0865
N15365 X-0.2439 Y-0.0811
N15370 G3 X-0.2506 Y-0.0747 I-0.0114 J-0.0052
N15375 G1 X-0.5962 Y0.0635
N15380 G3 X-0.6133 Y0.0532 I-0.0046 J-0.0116
N15385 G1 X-0.6163 Y0.0133
N15390 X-0.6164 Y0.0067
N15395 Y-0.0067
N15400 X-0.6163 Y-0.0133
N15405 X-0.6148 Y-0.0333
N15410 X-0.614 Y-0.0392
N15415 X-0.6122 Y-0.0476
N15420 X-0.6096 Y-0.0564
N15425 X-0.6057 Y-0.0664
N15430 X-0.6 Y-0.0781
N15435 X-0.593 Y-0.09
N15440 X-0.583 Y-0.1043
N15445 X-0.5709 Y-0.1188
N15450 X-0.5558 Y-0.1343
N15455 X-0.5369 Y-0.1508
N15460 X-0.5151 Y-0.1669
N15465 X-0.4913 Y-0.1817
N15470 X-0.4662 Y-0.1947
N15475 X-0.4404 Y-0.2054
N15480 X-0.4147 Y-0.2138
N15485 X-0.3896 Y-0.2198
N15490 X-0.3656 Y-0.2236
N15495 X-0.3429 Y-0.2253
N15500 X-0.3216 Y-0.2251
N15505 X-0.3029 Y-0.2235
N15510 X-0.2864 Y-0.2207
N15515 X-0.2714 Y-0.217
N15520 X-0.258 Y-0.2124
N15525 X-0.247 Y-0.2077
N15530 X-0.2376 Y-0.2027
N15535 X-0.2296 Y-0.1976
N15540 X-0.2235 Y-0.193
N15545 X-0.2173 Y-0.1874
N15550 X-0.2124 Y-0.1822
N15555 X-0.2118 Y-0.1815
N15560 X-0.2078 Y-0.1748
N15565 X-0.2056 Y-0.1673
N15570 X-0.2055 Y-0.1595
N15575 X-0.2076 Y-0.1519
N15580 X-0.2115 Y-0.1452
N15585 X-0.2158 Y-0.1397
N15590 X-0.2195 Y-0.1342
N15595 X-0.2201 Y-0.133
N15600 X-0.2234 Y-0.1264
N15605 X-0.2281 Y-0.1161
N15610 G3 X-0.2363 Y-0.1096 I-0.0112 J-0.0056
N15615 G1 X-0.5993 Y-0.0206
N15620 G3 X-0.6148 Y-0.0333 I-0.003 J-0.0121
N15625 G1 X-0.6118 Y-0.0732
N15630 X-0.6112 Y-0.0798
N15635 X-0.6084 Y-0.0998
N15640 X-0.6071 Y-0.1064
N15645 X-0.6056 Y-0.1131
N15650 X-0.6028 Y-0.1228
N15655 X-0.6 Y-0.1305
N15660 X-0.5956 Y-0.1398
N15665 X-0.5905 Y-0.1489
N15670 X-0.583 Y-0.1599
N15675 X-0.5739 Y-0.1713
N15680 X-0.5616 Y-0.1844
N15685 X-0.5476 Y-0.197
N15690 X-0.5294 Y-0.2109
N15695 X-0.5078 Y-0.2249
N15700 X-0.4842 Y-0.2375
N15705 X-0.459 Y-0.2486
N15710 X-0.4321 Y-0.2578
N15715 X-0.4048 Y-0.2649
N15720 X-0.378 Y-0.2695
N15725 X-0.3527 Y-0.2718
N15730 X-0.329 Y-0.2721
N15735 X-0.3067 Y-0.2705
N15740 X-0.286 Y-0.2674
N15745 X-0.2676 Y-0.2631
N15750 X-0.2517 Y-0.258
N15755 X-0.2376 Y-0.2522
N15760 X-0.2248 Y-0.2457
N15765 X-0.2149 Y-0.2396
N15770 X-0.2064 Y-0.2333
N15775 X-0.1998 Y-0.2276
N15780 X-0.194 Y-0.2218
N15785 X-0.189 Y-0.2159
N15790 X-0.1852 Y-0.2104
N15795 X-0.1841 Y-0.2086
N15800 X-0.1807 Y-0.2002
N15805 X-0.1801 Y-0.1911
N15810 X-0.1823 Y-0.1823
N15815 X-0.1871 Y-0.1746
N15820 X-0.2 Y-0.1596
N15825 X-0.2062 Y-0.152
N15830 X-0.2115 Y-0.1452
N15835 G3 X-0.2197 Y-0.1408 I-0.0096 J-0.0081
N15840 G1 X-0.5919 Y-0.0983
N15845 G3 X-0.6056 Y-0.1131 I-0.0014 J-0.0124
N15850 G1 X-0.5934 Y-0.1663
N15855 X-0.592 Y-0.1718
N15860 X-0.5876 Y-0.1862
N15865 X-0.5855 Y-0.1929
N15870 X-0.5829 Y-0.1995
N15875 X-0.5805 Y-0.205
N15880 X-0.5763 Y-0.2125
N15885 X-0.5704 Y-0.2213
N15890 X-0.5634 Y-0.2302
N15895 X-0.554 Y-0.2402
N15900 X-0.5426 Y-0.2506
N15905 X-0.5278 Y-0.2621
N15910 X-0.5115 Y-0.2728
N15915 X-0.4908 Y-0.284
N15920 X-0.4668 Y-0.2947
N15925 X-0.4406 Y-0.304
N15930 X-0.4133 Y-0.3112
N15935 X-0.3857 Y-0.3161
N15940 X-0.3583 Y-0.3188
N15945 X-0.3318 Y-0.3192
N15950 X-0.3067 Y-0.3176
N15955 X-0.2832 Y-0.3143
N15960 X-0.2617 Y-0.3093
N15965 X-0.2419 Y-0.3031
N15970 X-0.2252 Y-0.2964
N15975 X-0.2106 Y-0.289
N15980 X-0.1976 Y-0.2812
N15985 X-0.1865 Y-0.2731
N15990 X-0.178 Y-0.2659
N15995 X-0.1706 Y-0.2584
N16000 X-0.1648 Y-0.2516
N16005 X-0.1604 Y-0.2455
N16010 X-0.1562 Y-0.2385
N16015 X-0.1545 Y-0.2352
N16020 X-0.152 Y-0.2277
N16025 X-0.1515 Y-0.2198
N16030 X-0.1532 Y-0.2121
N16035 X-0.157 Y-0.2051
N16040 X-0.1624 Y-0.1994
N16045 X-0.1663 Y-0.1963
N16050 X-0.1704 Y-0.1929
N16055 X-0.1768 Y-0.1862
N16060 X-0.1796 Y-0.1832
N16065 X-0.1871 Y-0.1746
N16070 G3 X-0.1967 Y-0.1706 I-0.0092 J-0.0085
N16075 G1 X-0.5716 Y-0.1829
N16080 G3 X-0.5829 Y-0.1995 I0.0004 J-0.0125
N16085 G1 X-0.5594 Y-0.2594
N16090 X-0.5547 Y-0.2697
N16095 X-0.5515 Y-0.2759
N16100 X-0.5471 Y-0.2827
N16105 X-0.5421 Y-0.2895
N16110 X-0.5354 Y-0.297
N16115 X-0.5266 Y-0.3055
N16120 X-0.5165 Y-0.3136
N16125 X-0.503 Y-0.323
N16130 X-0.4879 Y-0.3317
N16135 X-0.4691 Y-0.3407
N16140 X-0.4464 Y-0.3493
N16145 X-0.4219 Y-0.3564
N16150 X-0.3958 Y-0.3618
N16155 X-0.3677 Y-0.3652
N16160 X-0.3392 Y-0.3664
N16165 X-0.3111 Y-0.3654
N16170 X-0.2843 Y-0.3622
N16175 X-0.2597 Y-0.3572
N16180 X-0.2374 Y-0.3508
N16185 X-0.2169 Y-0.3431
N16190 X-0.1983 Y-0.3344
N16195 X-0.1822 Y-0.3251
N16200 X-0.1687 Y-0.3158
N16205 X-0.157 Y-0.3064
N16210 X-0.1471 Y-0.2969
N16215 X-0.1395 Y-0.2885
N16220 X-0.1335 Y-0.2804
N16225 X-0.129 Y-0.2735
N16230 X-0.125 Y-0.2659
N16235 X-0.1222 Y-0.2595
N16240 X-0.1199 Y-0.2526
N16245 X-0.1194 Y-0.2508
N16250 X-0.1186 Y-0.2418
N16255 X-0.1206 Y-0.233
N16260 X-0.1252 Y-0.2252
N16265 X-0.1319 Y-0.2192
N16270 X-0.1596 Y-0.2014
N16275 X-0.1624 Y-0.1994
N16280 G3 X-0.1717 Y-0.197 I-0.0074 J-0.01
N16285 G1 X-0.545 Y-0.2525
N16290 G3 X-0.5547 Y-0.2697 I0.0018 J-0.0124
N16295 G1 X-0.5533 Y-0.2727
N16300 X-0.5226 Y-0.3259
N16305 X-0.5147 Y-0.3392
N16310 X-0.5094 Y-0.3471
N16315 X-0.5048 Y-0.353
N16320 X-0.499 Y-0.3592
N16325 X-0.4922 Y-0.3654
N16330 X-0.483 Y-0.3726
N16335 X-0.4729 Y-0.3792
N16340 X-0.4594 Y-0.3866
N16345 X-0.4447 Y-0.3931
N16350 X-0.4255 Y-0.3999
N16355 X-0.4046 Y-0.4055
N16360 X-0.3806 Y-0.4098
N16365 X-0.3537 Y-0.4125
N16370 X-0.3252 Y-0.413
N16375 X-0.2966 Y-0.4112
N16380 X-0.2689 Y-0.4073
N16385 X-0.2424 Y-0.4013
N16390 X-0.2175 Y-0.3935
N16395 X-0.1946 Y-0.3842
N16400 X-0.1744 Y-0.3741
N16405 X-0.1568 Y-0.3635
N16410 X-0.1415 Y-0.3525
N16415 X-0.1282 Y-0.3412
N16420 X-0.1173 Y-0.3302
N16425 X-0.1082 Y-0.3195
N16430 X-0.1006 Y-0.309
N16435 X-0.0953 Y-0.3003
N16440 X-0.0907 Y-0.2911
N16445 X-0.0877 Y-0.2836
N16450 X-0.0854 Y-0.2762
N16455 X-0.0836 Y-0.2686
N16460 X-0.0835 Y-0.2675
N16465 X-0.0834 Y-0.2597
N16470 X-0.0854 Y-0.2521
N16475 X-0.0894 Y-0.2453
N16480 X-0.0951 Y-0.2399
N16485 X-0.1019 Y-0.2361
N16490 X-0.1064 Y-0.2344
N16495 X-0.1131 Y-0.231
N16500 X-0.1197 Y-0.227
N16505 X-0.1319 Y-0.2192
N16510 G3 X-0.1417 Y-0.2179 I-0.0064 J-0.0107
N16515 G1 X-0.5071 Y-0.3212
N16520 G3 X-0.5147 Y-0.3392 I0.0034 J-0.012
N16525 G1 X-0.5107 Y-0.3459
N16530 X-0.5062 Y-0.3525
N16535 X-0.4611 Y-0.409
N16540 X-0.4565 Y-0.4143
N16545 X-0.4514 Y-0.4192
N16550 X-0.4452 Y-0.4243
N16555 X-0.4369 Y-0.43
N16560 X-0.428 Y-0.4352
N16565 X-0.4164 Y-0.4407
N16570 X-0.403 Y-0.4459
N16575 X-0.3863 Y-0.4507
N16580 X-0.3679 Y-0.4546
N16585 X-0.3451 Y-0.4574
N16590 X-0.3198 Y-0.4586
N16595 X-0.294 Y-0.4576
N16600 X-0.2663 Y-0.4544
N16605 X-0.2381 Y-0.4488
N16610 X-0.2105 Y-0.4409
N16615 X-0.1846 Y-0.4312
N16620 X-0.1614 Y-0.4204
N16625 X-0.1407 Y-0.4086
N16630 X-0.1222 Y-0.396
N16635 X-0.1059 Y-0.3828
N16640 X-0.0917 Y-0.3693
N16645 X-0.0801 Y-0.3564
N16650 X-0.0707 Y-0.344
N16655 X-0.0628 Y-0.3318
N16660 X-0.0569 Y-0.3206
N16665 X-0.0526 Y-0.3108
N16670 X-0.0497 Y-0.3022
N16675 X-0.0476 Y-0.2943
N16680 X-0.0463 Y-0.2864
N16685 X-0.0457 Y-0.2796
N16690 Y-0.2752
N16695 X-0.0466 Y-0.2677
N16700 X-0.0494 Y-0.2607
N16705 X-0.0538 Y-0.2547
N16710 X-0.0597 Y-0.25
N16715 X-0.0666 Y-0.247
N16720 X-0.0931 Y-0.2392
N16725 X-0.0998 Y-0.2369
N16730 X-0.1019 Y-0.2361
N16735 G3 X-0.1111 Y-0.2365 I-0.004 J-0.0118
N16740 G1 X-0.4562 Y-0.3902
N16745 G3 X-0.4611 Y-0.409 I0.0051 J-0.0114
N16750 G1 X-0.4584 Y-0.4124
N16755 X-0.4529 Y-0.419
N16760 X-0.439 Y-0.4324
N16765 X-0.3991 Y-0.4694
N16770 X-0.3936 Y-0.474
N16775 X-0.3879 Y-0.4781
N16780 X-0.3806 Y-0.4824
N16785 X-0.3714 Y-0.4869
N16790 X-0.3616 Y-0.4908
N16795 X-0.3487 Y-0.4947
N16800 X-0.3349 Y-0.4978
N16805 X-0.3168 Y-0.5002
N16810 X-0.2982 Y-0.5013
N16815 X-0.2754 Y-0.5007
N16820 X-0.2497 Y-0.498
N16825 X-0.2227 Y-0.4929
N16830 X-0.1957 Y-0.4855
N16835 X-0.1691 Y-0.4759
N16840 X-0.1439 Y-0.4644
N16845 X-0.1206 Y-0.4515
N16850 X-0.0994 Y-0.4374
N16855 X-0.0805 Y-0.4225
N16860 X-0.064 Y-0.4072
N16865 X-0.0497 Y-0.3916
N16870 X-0.038 Y-0.3765
N16875 X-0.0288 Y-0.3625
N16880 X-0.0213 Y-0.349
N16885 X-0.0155 Y-0.3359
N16890 X-0.0114 Y-0.3243
N16895 X-0.0085 Y-0.3136
N16900 X-0.0069 Y-0.3046
N16905 X-0.006 Y-0.2961
N16910 X-0.0059 Y-0.2882
N16915 X-0.0063 Y-0.2815
N16920 X-0.008 Y-0.2735
N16925 X-0.012 Y-0.2663
N16930 X-0.0179 Y-0.2605
N16935 X-0.0252 Y-0.2567
N16940 X-0.0333 Y-0.2552
N16945 X-0.0399 Y-0.2542
N16950 X-0.0466 Y-0.2527
N16955 X-0.0532 Y-0.2509
N16960 X-0.0666 Y-0.247
N16965 G3 X-0.0764 Y-0.2485 I-0.0031 J-0.0121
N16970 G1 X-0.3969 Y-0.45
N16975 G3 X-0.3991 Y-0.4694 I0.0067 J-0.0106
N16980 G1 X-0.396 Y-0.4723
N16985 X-0.3804 Y-0.4856
N16990 X-0.3791 Y-0.4865
N16995 X-0.3317 Y-0.5188
N17000 X-0.3226 Y-0.5244
N17005 X-0.3162 Y-0.5276
N17010 X-0.3084 Y-0.5308
N17015 X-0.2985 Y-0.534
N17020 X-0.288 Y-0.5364
N17025 X-0.2746 Y-0.5384
N17030 X-0.2597 Y-0.5394
N17035 X-0.2412 Y-0.5391
N17040 X-0.2221 Y-0.5373
N17045 X-0.1992 Y-0.5332
N17050 X-0.1742 Y-0.5267
N17055 X-0.1484 Y-0.5177
N17060 X-0.1231 Y-0.5065
N17065 X-0.0984 Y-0.4932
N17070 X-0.0752 Y-0.4781
N17075 X-0.0541 Y-0.4618
N17080 X-0.0353 Y-0.4448
N17085 X-0.019 Y-0.4274
N17090 X-0.0051 Y-0.41
N17095 X0.0065 Y-0.3927
N17100 X0.0158 Y-0.3762
N17105 X0.0228 Y-0.3611
N17110 X0.0281 Y-0.3465
N17115 X0.032 Y-0.3327
N17120 X0.0342 Y-0.3211
N17125 X0.0354 Y-0.3104
N17130 X0.0356 Y-0.302
N17135 X0.0352 Y-0.2933
N17140 X0.0342 Y-0.2861
N17145 X0.0328 Y-0.2794
N17150 X0.032 Y-0.2765
N17155 X0.0279 Y-0.2682
N17160 X0.0214 Y-0.2615
N17165 X0.0132 Y-0.2572
N17170 X0.004 Y-0.2557
N17175 X-0.0067
N17180 X-0.0133
N17185 X-0.0266 Y-0.2555
N17190 X-0.0333 Y-0.2552
N17195 G3 X-0.0413 Y-0.2581 I0. J-0.0125
N17200 G1 X-0.3323 Y-0.4991
N17205 G3 X-0.3317 Y-0.5188 I0.008 J-0.0096
N17210 G1 X-0.3193 Y-0.5273
N17215 X-0.3126 Y-0.5317
N17220 X-0.306 Y-0.5357
N17225 X-0.2993 Y-0.5391
N17230 X-0.2528 Y-0.5615
N17235 X-0.246 Y-0.5643
N17240 X-0.2386 Y-0.5668
N17245 X-0.2304 Y-0.5687
N17250 X-0.2201 Y-0.5704
N17255 X-0.2088 Y-0.5713
N17260 X-0.1952 Y-0.5712
N17265 X-0.1797 Y-0.5699
N17270 X-0.1615 Y-0.5669
N17275 X-0.1424 Y-0.5622
N17280 X-0.1201 Y-0.5547
N17285 X-0.0962 Y-0.5444
N17290 X-0.072 Y-0.5317
N17295 X-0.0485 Y-0.5168
N17300 X-0.0261 Y-0.4999
N17305 X-0.0055 Y-0.4816
N17310 X0.0128 Y-0.4625
N17315 X0.0287 Y-0.443
N17320 X0.0422 Y-0.4235
N17325 X0.0533 Y-0.4043
N17330 X0.0622 Y-0.3854
N17335 X0.0688 Y-0.3681
N17340 X0.0733 Y-0.3524
N17345 X0.0764 Y-0.3374
N17350 X0.0781 Y-0.3236
N17355 X0.0786 Y-0.312
N17360 X0.0782 Y-0.3015
N17365 X0.0771 Y-0.2922
N17370 X0.0755 Y-0.2848
N17375 X0.0733 Y-0.2769
N17380 X0.0718 Y-0.273
N17385 X0.068 Y-0.266
N17390 X0.0625 Y-0.2603
N17395 X0.0556 Y-0.2562
N17400 X0.0479 Y-0.2541
N17405 X0.0399 Y-0.2542
N17410 X0.0333 Y-0.2552
N17415 X0.0266 Y-0.2555
N17420 X0.0133 Y-0.2557
N17425 X0.004
N17430 G3 X-0.0049 Y-0.2599 I0.0004 J-0.0125
N17435 G1 X-0.2563 Y-0.5421
N17440 G3 X-0.2528 Y-0.5615 I0.0093 J-0.0083
N17445 G1 X-0.2395 Y-0.5679
N17450 X-0.2328 Y-0.5708
N17455 X-0.2261 Y-0.5737
N17460 X-0.2195 Y-0.5765
N17465 X-0.1729 Y-0.5908
N17470 X-0.1639 Y-0.5931
N17475 X-0.1559 Y-0.5945
N17480 X-0.1475 Y-0.5952
N17485 X-0.137 Y-0.5953
N17490 X-0.1253 Y-0.5945
N17495 X-0.1119 Y-0.5924
N17500 X-0.0963 Y-0.5887
N17505 X-0.0788 Y-0.583
N17510 X-0.0602 Y-0.5753
N17515 X-0.0389 Y-0.5644
N17520 X-0.0166 Y-0.5506
N17525 X0.0054 Y-0.5344
N17530 X0.0264 Y-0.5161
N17535 X0.0461 Y-0.4961
N17540 X0.0636 Y-0.475
N17545 X0.0789 Y-0.4535
N17550 X0.0916 Y-0.4319
N17555 X0.1019 Y-0.4109
N17560 X0.1099 Y-0.3904
N17565 X0.1159 Y-0.3707
N17570 X0.1197 Y-0.353
N17575 X0.1219 Y-0.3367
N17580 X0.1227 Y-0.3216
N17585 X0.1223 Y-0.3081
N17590 X0.1211 Y-0.2968
N17595 X0.1192 Y-0.2872
N17600 X0.117 Y-0.279
N17605 X0.1141 Y-0.2711
N17610 X0.1112 Y-0.2648
N17615 X0.1076 Y-0.2583
N17620 X0.1064 Y-0.2565
N17625 X0.1002 Y-0.2498
N17630 X0.0921 Y-0.2454
N17635 X0.0831 Y-0.2436
N17640 X0.074 Y-0.2448
N17645 X0.0532 Y-0.2509
N17650 X0.0463 Y-0.2528
N17655 X0.0399 Y-0.2542
N17660 G3 X0.0328 Y-0.2593 I0.0032 J-0.0121
N17665 G1 X-0.1792 Y-0.572
N17670 G3 X-0.1729 Y-0.5908 I0.0103 J-0.007
N17675 G1 X-0.1476 Y-0.5986
N17680 X-0.1463 Y-0.599
N17685 X-0.1264 Y-0.6033
N17690 X-0.1197 Y-0.6044
N17695 X-0.0865 Y-0.6095
N17700 X-0.0789 Y-0.6102
N17705 X-0.0706 Y-0.6104
N17710 X-0.062 Y-0.6099
N17715 X-0.0516 Y-0.6084
N17720 X-0.0397 Y-0.6057
N17725 X-0.0267 Y-0.6016
N17730 X-0.0114 Y-0.5955
N17735 X0.0051 Y-0.5872
N17740 X0.0228 Y-0.5765
N17745 X0.0425 Y-0.5624
N17750 X0.0627 Y-0.5453
N17755 X0.0821 Y-0.5259
N17760 X0.1002 Y-0.5046
N17765 X0.1166 Y-0.4819
N17770 X0.1308 Y-0.4586
N17775 X0.1426 Y-0.4351
N17780 X0.1519 Y-0.4122
N17785 X0.1589 Y-0.3899
N17790 X0.1637 Y-0.3686
N17795 X0.1666 Y-0.3486
N17800 X0.1678 Y-0.331
N17805 X0.1675 Y-0.315
N17810 X0.166 Y-0.3001
N17815 X0.1636 Y-0.2868
N17820 X0.1608 Y-0.276
N17825 X0.1573 Y-0.2662
N17830 X0.1537 Y-0.2579
N17835 X0.1501 Y-0.2513
N17840 X0.1456 Y-0.2445
N17845 X0.1437 Y-0.242
N17850 X0.1379 Y-0.2364
N17855 X0.1308 Y-0.2325
N17860 X0.1229 Y-0.2308
N17865 X0.1149 Y-0.2313
N17870 X0.1072 Y-0.234
N17875 X0.1064 Y-0.2344
N17880 X0.0998 Y-0.2369
N17885 X0.0931 Y-0.2392
N17890 X0.074 Y-0.2448
N17895 G3 X0.0666 Y-0.2513 I0.0039 J-0.0119
N17900 G1 X-0.0955 Y-0.5918
N17905 G3 X-0.0865 Y-0.6095 I0.0113 J-0.0054
N17910 G1 X-0.0599 Y-0.6135
N17915 X-0.0532 Y-0.6142
N17920 X-0.0333 Y-0.6155
N17925 X0.
N17930 X0.0077 Y-0.6152
N17935 X0.016 Y-0.6141
N17940 X0.0247 Y-0.6122
N17945 X0.0348 Y-0.6092
N17950 X0.0467 Y-0.6045
N17955 X0.0589 Y-0.5986
N17960 X0.0736 Y-0.59
N17965 X0.0886 Y-0.5794
N17970 X0.105 Y-0.5658
N17975 X0.1226 Y-0.5487
N17980 X0.1401 Y-0.5286
N17985 X0.1565 Y-0.5065
N17990 X0.1712 Y-0.4827
N17995 X0.1841 Y-0.4579
N18000 X0.1946 Y-0.4328
N18005 X0.2027 Y-0.408
N18010 X0.2084 Y-0.3841
N18015 X0.2119 Y-0.3614
N18020 X0.2135 Y-0.3399
N18025 X0.2134 Y-0.3199
N18030 X0.2119 Y-0.3024
N18035 X0.2092 Y-0.2865
N18040 X0.2056 Y-0.272
N18045 X0.2014 Y-0.2598
N18050 X0.197 Y-0.2496
N18055 X0.1926 Y-0.2412
N18060 X0.1881 Y-0.2342
N18065 X0.1831 Y-0.2276
N18070 X0.1786 Y-0.2225
N18075 X0.1733 Y-0.2175
N18080 X0.1726 Y-0.2169
N18085 X0.1647 Y-0.2123
N18090 X0.1558 Y-0.2104
N18095 X0.1467 Y-0.2114
N18100 X0.1384 Y-0.215
N18105 X0.1197 Y-0.227
N18110 X0.1131 Y-0.231
N18115 X0.1072 Y-0.234
N18120 G3 X0.1014 Y-0.2411 I0.0061 J-0.0109
N18125 G1 X-0.0115 Y-0.5993
N18130 G3 X0. Y-0.6155 I0.0119 J-0.0038
N18135 G1 X0.0333
N18140 X0.0532 Y-0.6142
N18145 X0.0599 Y-0.6135
N18150 X0.0865 Y-0.6095
N18155 X0.0941 Y-0.6079
N18160 X0.1022 Y-0.6056
N18165 X0.111 Y-0.6023
N18170 X0.1205 Y-0.5978
N18175 X0.1319 Y-0.5912
N18180 X0.1431 Y-0.5835
N18185 X0.1568 Y-0.5725
N18190 X0.1701 Y-0.5598
N18195 X0.1846 Y-0.5435
N18200 X0.1996 Y-0.5237
N18205 X0.2141 Y-0.501
N18210 X0.227 Y-0.4767
N18215 X0.2381 Y-0.4509
N18220 X0.247 Y-0.4246
N18225 X0.2536 Y-0.3984
N18230 X0.2578 Y-0.3729
N18235 X0.2599 Y-0.3486
N18240 X0.2601 Y-0.3257
N18245 X0.2584 Y-0.3042
N18250 X0.2554 Y-0.2847
N18255 X0.2514 Y-0.268
N18260 X0.2465 Y-0.2531
N18265 X0.2408 Y-0.2396
N18270 X0.2348 Y-0.2278
N18275 X0.2292 Y-0.2188
N18280 X0.223 Y-0.2106
N18285 X0.2174 Y-0.2041
N18290 X0.2121 Y-0.1989
N18295 X0.2059 Y-0.1938
N18300 X0.2043 Y-0.1927
N18305 X0.1976 Y-0.1892
N18310 X0.1903 Y-0.1875
N18315 X0.1827 Y-0.1878
N18320 X0.1755 Y-0.19
N18325 X0.1691 Y-0.194
N18330 X0.1663 Y-0.1963
N18335 X0.1622 Y-0.1995
N18340 X0.1596 Y-0.2014
N18345 X0.1384 Y-0.215
N18350 G3 X0.1332 Y-0.2233 I0.0071 J-0.0103
N18355 G1 X0.0727 Y-0.595
N18360 G3 X0.0865 Y-0.6095 I0.0123 J-0.002
N18365 G1 X0.1197 Y-0.6044
N18370 X0.1264 Y-0.6033
N18375 X0.1463 Y-0.599
N18380 X0.1476 Y-0.5986
N18385 X0.1692 Y-0.592
N18390 X0.1787 Y-0.5885
N18395 X0.1864 Y-0.585
N18400 X0.195 Y-0.5802
N18405 X0.2037 Y-0.5743
N18410 X0.2143 Y-0.566
N18415 X0.2244 Y-0.5565
N18420 X0.2365 Y-0.5432
N18425 X0.2478 Y-0.5286
N18430 X0.26 Y-0.51
N18435 X0.272 Y-0.4879
N18440 X0.283 Y-0.4632
N18445 X0.2921 Y-0.4372
N18450 X0.2992 Y-0.4101
N18455 X0.3041 Y-0.3828
N18460 X0.3067 Y-0.356
N18465 X0.3072 Y-0.3302
N18470 X0.3056 Y-0.3061
N18475 X0.3024 Y-0.2837
N18480 X0.2976 Y-0.263
N18485 X0.2918 Y-0.2444
N18490 X0.2853 Y-0.2285
N18495 X0.2782 Y-0.2143
N18500 X0.2706 Y-0.2018
N18505 X0.2634 Y-0.1919
N18510 X0.2564 Y-0.1836
N18515 X0.2501 Y-0.1774
N18520 X0.2436 Y-0.1718
N18525 X0.2373 Y-0.1674
N18530 X0.2314 Y-0.1638
N18535 X0.2272 Y-0.1617
N18540 X0.22 Y-0.1592
N18545 X0.2123 Y-0.1587
N18550 X0.2048 Y-0.1602
N18555 X0.1979 Y-0.1636
N18560 X0.1922 Y-0.1687
N18565 X0.1796 Y-0.1832
N18570 X0.1768 Y-0.1862
N18575 X0.1704 Y-0.1929
N18580 X0.1691 Y-0.194
N18585 G3 X0.1648 Y-0.203 I0.0083 J-0.0094
N18590 G1 X0.1534 Y-0.5795
N18595 G3 X0.1692 Y-0.592 I0.0125 J-0.0004
N18600 G1 X0.2195 Y-0.5765
N18605 X0.2261 Y-0.5737
N18610 X0.2328 Y-0.5708
N18615 X0.2395 Y-0.5679
N18620 X0.2528 Y-0.5615
N18625 X0.2596 Y-0.5577
N18630 X0.2666 Y-0.5531
N18635 X0.2748 Y-0.5468
N18640 X0.2826 Y-0.5397
N18645 X0.2918 Y-0.5298
N18650 X0.3008 Y-0.5185
N18655 X0.311 Y-0.5033
N18660 X0.3201 Y-0.487
N18665 X0.3295 Y-0.4663
N18670 X0.3383 Y-0.4423
N18675 X0.3455 Y-0.4162
N18680 X0.3506 Y-0.389
N18685 X0.3537 Y-0.3611
N18690 X0.3544 Y-0.3334
N18695 X0.353 Y-0.3067
N18700 X0.3496 Y-0.2814
N18705 X0.3445 Y-0.2579
N18710 X0.338 Y-0.2362
N18715 X0.3302 Y-0.2165
N18720 X0.3219 Y-0.1993
N18725 X0.3133 Y-0.185
N18730 X0.3044 Y-0.1723
N18735 X0.2952 Y-0.1614
N18740 X0.2866 Y-0.1525
N18745 X0.2782 Y-0.1452
N18750 X0.2708 Y-0.1398
N18755 X0.2635 Y-0.1353
N18760 X0.2565 Y-0.1317
N18765 X0.2504 Y-0.1292
N18770 X0.2429 Y-0.1272
N18775 X0.2351 Y-0.1274
N18780 X0.2276 Y-0.1296
N18785 X0.221 Y-0.1338
N18790 X0.2158 Y-0.1397
N18795 X0.2054 Y-0.153
N18800 X0.2 Y-0.1596
N18805 X0.1922 Y-0.1687
N18810 G3 X0.1895 Y-0.1781 I0.0097 J-0.0079
N18815 G1 X0.2353 Y-0.5516
N18820 G3 X0.2528 Y-0.5615 I0.0124 J0.0015
N18825 G1 X0.2999 Y-0.5388
N18830 X0.306 Y-0.5357
N18835 X0.3126 Y-0.5317
N18840 X0.3193 Y-0.5273
N18845 X0.3259 Y-0.5228
N18850 X0.3356 Y-0.5154
N18855 X0.3419 Y-0.5098
N18860 X0.3491 Y-0.5023
N18865 X0.3559 Y-0.4939
N18870 X0.3636 Y-0.4827
N18875 X0.371 Y-0.4697
N18880 X0.3789 Y-0.4531
N18885 X0.3856 Y-0.4352
N18890 X0.392 Y-0.413
N18895 X0.3971 Y-0.3877
N18900 X0.4003 Y-0.3607
N18905 X0.4014 Y-0.333
N18910 X0.4002 Y-0.305
N18915 X0.3968 Y-0.2775
N18920 X0.3915 Y-0.2513
N18925 X0.3844 Y-0.227
N18930 X0.3759 Y-0.2047
N18935 X0.3664 Y-0.1846
N18940 X0.3559 Y-0.1665
N18945 X0.3452 Y-0.1509
N18950 X0.3346 Y-0.138
N18955 X0.3238 Y-0.1267
N18960 X0.3131 Y-0.1172
N18965 X0.3036 Y-0.11
N18970 X0.2946 Y-0.1044
N18975 X0.2871 Y-0.1004
N18980 X0.2791 Y-0.097
N18985 X0.2724 Y-0.0947
N18990 X0.2652 Y-0.093
N18995 X0.2625 Y-0.0925
N19000 X0.2549 Y-0.0923
N19005 X0.2475 Y-0.094
N19010 X0.2408 Y-0.0976
N19015 X0.2353 Y-0.1027
N19020 X0.2313 Y-0.1092
N19025 X0.2234 Y-0.1264
N19030 X0.2201 Y-0.133
N19035 X0.2195 Y-0.1342
N19040 X0.2158 Y-0.1397
N19045 G3 X0.2144 Y-0.1493 I0.0106 J-0.0066
N19050 G1 X0.3071 Y-0.5153
N19055 G3 X0.3259 Y-0.5228 I0.0121 J0.0031
N19060 G1 X0.3791 Y-0.4865
N19065 X0.3804 Y-0.4856
N19070 X0.396 Y-0.4723
N19075 X0.4048 Y-0.4633
N19080 X0.4101 Y-0.4568
N19085 X0.4162 Y-0.4482
N19090 X0.4219 Y-0.4384
N19095 X0.4278 Y-0.4262
N19100 X0.4335 Y-0.4117
N19105 X0.4388 Y-0.3941
N19110 X0.4429 Y-0.3748
N19115 X0.4459 Y-0.3515
N19120 X0.4472 Y-0.3255
N19125 X0.4464 Y-0.2981
N19130 X0.4433 Y-0.2705
N19135 X0.438 Y-0.2429
N19140 X0.4306 Y-0.2164
N19145 X0.4214 Y-0.1915
N19150 X0.4109 Y-0.1686
N19155 X0.3993 Y-0.148
N19160 X0.3868 Y-0.1295
N19165 X0.3738 Y-0.1132
N19170 X0.3611 Y-0.0997
N19175 X0.349 Y-0.0887
N19180 X0.3368 Y-0.0793
N19185 X0.3252 Y-0.0717
N19190 X0.3149 Y-0.0662
N19195 X0.305 Y-0.0618
N19200 X0.2967 Y-0.059
N19205 X0.2885 Y-0.0568
N19210 X0.281 Y-0.0555
N19215 X0.2741 Y-0.0548
N19220 X0.2649 Y-0.0562
N19225 X0.2567 Y-0.0604
N19230 X0.2502 Y-0.067
N19235 X0.2461 Y-0.0753
N19240 X0.2444 Y-0.0798
N19245 X0.2416 Y-0.0865
N19250 X0.2313 Y-0.1092
N19255 G3 Y-0.1188 I0.0115 J-0.0048
N19260 G1 X0.3767 Y-0.4673
N19265 G3 X0.396 Y-0.4723 I0.0115 J0.0048
N19270 G1 X0.439 Y-0.4323
N19275 X0.4523 Y-0.4196
N19280 X0.4529 Y-0.419
N19285 X0.4646 Y-0.4034
N19290 X0.469 Y-0.3965
N19295 X0.4736 Y-0.3878
N19300 X0.4783 Y-0.377
N19305 X0.4823 Y-0.3651
N19310 X0.4862 Y-0.3496
N19315 X0.4889 Y-0.333
N19320 X0.4906 Y-0.3128
N19325 X0.4907 Y-0.2891
N19330 X0.4888 Y-0.2648
N19335 X0.4846 Y-0.2386
N19340 X0.478 Y-0.2113
N19345 X0.4691 Y-0.1843
N19350 X0.4583 Y-0.1584
N19355 X0.4457 Y-0.1343
N19360 X0.4319 Y-0.1122
N19365 X0.4179 Y-0.0933
N19370 X0.4034 Y-0.0768
N19375 X0.3886 Y-0.0624
N19380 X0.3739 Y-0.0502
N19385 X0.3598 Y-0.0404
N19390 X0.3466 Y-0.0327
N19395 X0.3337 Y-0.0265
N19400 X0.3225 Y-0.0221
N19405 X0.313 Y-0.0193
N19410 X0.3037 Y-0.0173
N19415 X0.2962 Y-0.0164
N19420 X0.2884 Y-0.016
N19425 X0.281 Y-0.0162
N19430 X0.278 Y-0.0166
N19435 X0.2706 Y-0.0184
N19440 X0.2639 Y-0.0222
N19445 X0.2584 Y-0.0275
N19450 X0.2545 Y-0.0341
N19455 X0.2524 Y-0.0414
N19460 X0.2507 Y-0.0532
N19465 X0.2467 Y-0.0732
N19470 X0.2461 Y-0.0753
N19475 G3 X0.2473 Y-0.0846 I0.0121 J-0.0032
N19480 G1 X0.4337 Y-0.4156
N19485 G3 X0.4539 Y-0.4179 I0.0109 J0.0061
N19490 G1 X0.459 Y-0.4117
N19495 X0.5055 Y-0.3534
N19500 X0.5062 Y-0.3525
N19505 X0.5144 Y-0.339
N19510 X0.518 Y-0.332
N19515 X0.5214 Y-0.3236
N19520 X0.5248 Y-0.313
N19525 X0.5273 Y-0.3018
N19530 X0.5295 Y-0.287
N19535 X0.5305 Y-0.2718
N19540 X0.5302 Y-0.2523
N19545 X0.5282 Y-0.2314
N19550 X0.5241 Y-0.2082
N19555 X0.5174 Y-0.1825
N19560 X0.5082 Y-0.156
N19565 X0.4965 Y-0.1297
N19570 X0.4831 Y-0.1049
N19575 X0.4682 Y-0.082
N19580 X0.4521 Y-0.0612
N19585 X0.4353 Y-0.0427
N19590 X0.4182 Y-0.0266
N19595 X0.4014 Y-0.0133
N19600 X0.3853 Y-0.0024
N19605 X0.3699 Y0.0062
N19610 X0.355 Y0.0131
N19615 X0.3415 Y0.018
N19620 X0.3285 Y0.0216
N19625 X0.3176 Y0.0237
N19630 X0.3072 Y0.0249
N19635 X0.299 Y0.0251
N19640 X0.2904 Y0.0247
N19645 X0.2833 Y0.0238
N19650 X0.2803 Y0.0231
N19655 X0.2731 Y0.0206
N19660 X0.2669 Y0.0163
N19665 X0.262 Y0.0105
N19670 X0.2587 Y0.0037
N19675 X0.2573 Y-0.0037
N19680 X0.2571 Y-0.0067
N19685 X0.2564 Y-0.0133
N19690 X0.2524 Y-0.0414
N19695 G3 X0.2549 Y-0.0504 I0.0124 J-0.0013
N19700 G1 X0.4876 Y-0.3507
N19705 G3 X0.5076 Y-0.3505 I0.0099 J0.0077
N19710 G1 X0.5107 Y-0.3459
N19715 X0.5226 Y-0.3259
N19720 X0.5521 Y-0.2749
N19725 X0.5528 Y-0.2737
N19730 X0.5533 Y-0.2727
N19735 X0.5573 Y-0.2628
N19740 X0.5599 Y-0.2544
N19745 X0.562 Y-0.2455
N19750 X0.5635 Y-0.2346
N19755 X0.5644 Y-0.2216
N19760 X0.5641 Y-0.2073
N19765 X0.5624 Y-0.1899
N19770 X0.5589 Y-0.1706
N19775 X0.5534 Y-0.1495
N19780 X0.545 Y-0.1256
N19785 X0.5339 Y-0.1007
N19790 X0.5204 Y-0.076
N19795 X0.5048 Y-0.0522
N19800 X0.4876 Y-0.0301
N19805 X0.4694 Y-0.0101
N19810 X0.4505 Y0.0074
N19815 X0.4315 Y0.0225
N19820 X0.4125 Y0.0352
N19825 X0.3941 Y0.0455
N19830 X0.3769 Y0.0533
N19835 X0.3607 Y0.0592
N19840 X0.3453 Y0.0634
N19845 X0.331 Y0.0661
N19850 X0.319 Y0.0674
N19855 X0.3079 Y0.0677
N19860 X0.2992 Y0.0673
N19865 X0.2906 Y0.0661
N19870 X0.2832 Y0.0645
N19875 X0.2764 Y0.0624
N19880 X0.2723 Y0.0608
N19885 X0.2655 Y0.057
N19890 X0.2599 Y0.0516
N19895 X0.256 Y0.0448
N19900 X0.254 Y0.0373
N19905 X0.2541 Y0.0295
N19910 X0.2564 Y0.0133
N19915 X0.2571 Y0.0067
N19920 X0.2575 Y0.
N19925 X0.2573 Y-0.0037
N19930 G3 X0.2612 Y-0.0131 I0.0125 J-0.0003
N19935 G1 X0.5352 Y-0.2727
N19940 G3 X0.5549 Y-0.2693 I0.0086 J0.0091
N19945 G1 X0.5594 Y-0.2594
N19950 X0.5853 Y-0.1935
N19955 X0.5855 Y-0.1929
N19960 X0.5881 Y-0.1828
N19965 X0.5895 Y-0.1749
N19970 X0.5904 Y-0.1649
N19975 X0.5905 Y-0.1546
N19980 X0.5896 Y-0.1418
N19985 X0.5874 Y-0.1275
N19990 X0.5835 Y-0.1107
N19995 X0.5777 Y-0.0928
N20000 X0.569 Y-0.0717
N20005 X0.5576 Y-0.0493
N20010 X0.544 Y-0.0273
N20015 X0.5276 Y-0.0049
N20020 X0.5089 Y0.0167
N20025 X0.4887 Y0.0366
N20030 X0.4675 Y0.0543
N20035 X0.4463 Y0.0694
N20040 X0.4257 Y0.0816
N20045 X0.4055 Y0.0915
N20050 X0.3858 Y0.0992
N20055 X0.3671 Y0.1049
N20060 X0.3501 Y0.1086
N20065 X0.3348 Y0.1107
N20070 X0.3203 Y0.1115
N20075 X0.3073 Y0.1112
N20080 X0.2963 Y0.11
N20085 X0.2867 Y0.1082
N20090 X0.2787 Y0.106
N20095 X0.2709 Y0.1031
N20100 X0.2646 Y0.1003
N20105 X0.2622 Y0.099
N20110 X0.255 Y0.0933
N20115 X0.25 Y0.0857
N20120 X0.2475 Y0.0769
N20125 X0.2478 Y0.0678
N20130 X0.2507 Y0.0532
N20135 X0.2541 Y0.0295
N20140 G3 X0.2592 Y0.0216 I0.0123 J0.0022
N20145 G1 X0.567 Y-0.1974
N20150 G3 X0.586 Y-0.1913 I0.0072 J0.0102
N20155 G1 X0.5876 Y-0.1862
N20160 X0.592 Y-0.1718
N20165 X0.5934 Y-0.1663
N20170 X0.6053 Y-0.1143
N20175 X0.6071 Y-0.1042
N20180 X0.6077 Y-0.0973
N20185 X0.6078 Y-0.0887
N20190 X0.6072 Y-0.0786
N20195 X0.6056 Y-0.0679
N20200 X0.6025 Y-0.0546
N20205 X0.5982 Y-0.0412
N20210 X0.5913 Y-0.0243
N20215 X0.5828 Y-0.0073
N20220 X0.571 Y0.0119
N20225 X0.5559 Y0.0327
N20230 X0.5379 Y0.0536
N20235 X0.5178 Y0.0735
N20240 X0.4963 Y0.0917
N20245 X0.4739 Y0.1076
N20250 X0.4511 Y0.1214
N20255 X0.4282 Y0.1327
N20260 X0.4058 Y0.1416
N20265 X0.3843 Y0.1482
N20270 X0.3638 Y0.1528
N20275 X0.3452 Y0.1554
N20280 X0.3282 Y0.1564
N20285 X0.3125 Y0.156
N20290 X0.2981 Y0.1545
N20295 X0.2865 Y0.1524
N20300 X0.2762 Y0.1496
N20305 X0.2674 Y0.1465
N20310 X0.2605 Y0.1433
N20315 X0.2532 Y0.1393
N20320 X0.2472 Y0.1354
N20325 X0.2447 Y0.1334
N20330 X0.2393 Y0.1279
N20335 X0.2356 Y0.1211
N20340 X0.2337 Y0.1135
N20345 X0.234 Y0.1058
N20350 X0.2362 Y0.0983
N20355 X0.2416 Y0.0865
N20360 X0.2444 Y0.0798
N20365 X0.2461 Y0.0753
N20370 X0.2467 Y0.0732
N20375 X0.2478 Y0.0678
N20380 G3 X0.254 Y0.0597 I0.0122 J0.0029
N20385 G1 X0.5872 Y-0.1221
N20390 G3 X0.6053 Y-0.1143 I0.006 J0.011
N20395 G1 X0.6071 Y-0.1064
N20400 X0.6084 Y-0.0998
N20405 X0.6112 Y-0.0798
N20410 X0.6119 Y-0.0712
N20415 X0.6153 Y-0.0266
N20420 X0.6155 Y-0.0178
N20425 X0.6151 Y-0.0105
N20430 X0.6139 Y-0.0021
N20435 X0.6117 Y0.0081
N20440 X0.6085 Y0.0185
N20445 X0.6036 Y0.0311
N20450 X0.5969 Y0.0446
N20455 X0.5875 Y0.0604
