%
(1001)
(2 MM END MILL 16 MINUTES)
(T1  D=0.0787 CR=0. - ZMIN=-0.25 - FLAT END MILL)
N10 G90 G94 G17 G91.1
N15 G20
N20 G53 G0 Z0.
(2D ADAPTIVE1)
N25 M9
N30 T1 M6
N35 S12000 M3
N40 G54
N45 M8
N55 G0 X0.0039 Y0.4127
N60 G43 Z0.25 H1
N65 G0 Z0.1004
N70 G1 Z0.1 F40.
N75 G3 X-0.0553 Y0.4585 Z0.0959 I-0.0296 J0.0229 F5.
N80 X0.0039 Y0.4127 Z0.0918 I0.0296 J-0.0229
N85 X-0.0553 Y0.4585 Z0.0877 I-0.0296 J0.0229
N90 X0.0039 Y0.4127 Z0.0836 I0.0296 J-0.0229
N95 X-0.0553 Y0.4585 Z0.0795 I-0.0296 J0.0229
N100 X0.0039 Y0.4127 Z0.0754 I0.0296 J-0.0229
N105 X-0.0553 Y0.4585 Z0.0713 I-0.0296 J0.0229
N110 X0.0039 Y0.4127 Z0.0672 I0.0296 J-0.0229
N115 X-0.0553 Y0.4585 Z0.0631 I-0.0296 J0.0229
N120 X0.0039 Y0.4127 Z0.059 I0.0296 J-0.0229
N125 X-0.0553 Y0.4585 Z0.0549 I-0.0296 J0.0229
N130 X0.0039 Y0.4127 Z0.0508 I0.0296 J-0.0229
N135 X-0.0553 Y0.4585 Z0.0467 I-0.0296 J0.0229
N140 X0.0039 Y0.4127 Z0.0426 I0.0296 J-0.0229
N145 X-0.0553 Y0.4585 Z0.0385 I-0.0296 J0.0229
N150 X0.0039 Y0.4127 Z0.0343 I0.0296 J-0.0229
N155 X-0.0553 Y0.4585 Z0.0302 I-0.0296 J0.0229
N160 X0.0039 Y0.4127 Z0.0261 I0.0296 J-0.0229
N165 X-0.0553 Y0.4585 Z0.022 I-0.0296 J0.0229
N170 X0.0039 Y0.4127 Z0.0179 I0.0296 J-0.0229
N175 X-0.0553 Y0.4585 Z0.0138 I-0.0296 J0.0229
N180 X0.0039 Y0.4127 Z0.0097 I0.0296 J-0.0229
N185 X-0.0553 Y0.4585 Z0.0056 I-0.0296 J0.0229
N190 X0.0039 Y0.4127 Z0.0015 I0.0296 J-0.0229
N195 X-0.0553 Y0.4585 Z-0.0026 I-0.0296 J0.0229
N200 X0.0039 Y0.4127 Z-0.0067 I0.0296 J-0.0229
N205 X-0.0553 Y0.4585 Z-0.0108 I-0.0296 J0.0229
N210 X0.0039 Y0.4127 Z-0.0149 I0.0296 J-0.0229
N215 X-0.0553 Y0.4585 Z-0.019 I-0.0296 J0.0229
N220 X0.0039 Y0.4127 Z-0.0231 I0.0296 J-0.0229
N225 X-0.0553 Y0.4585 Z-0.0272 I-0.0296 J0.0229
N230 X0.0039 Y0.4127 Z-0.0313 I0.0296 J-0.0229
N235 X-0.0553 Y0.4585 Z-0.0354 I-0.0296 J0.0229
N240 X0.0039 Y0.4127 Z-0.0395 I0.0296 J-0.0229
N245 X-0.0553 Y0.4585 Z-0.0436 I-0.0296 J0.0229
N250 X0.0039 Y0.4127 Z-0.0477 I0.0296 J-0.0229
N255 X-0.0553 Y0.4585 Z-0.0518 I-0.0296 J0.0229
N260 X0.0039 Y0.4127 Z-0.0559 I0.0296 J-0.0229
N265 X-0.0553 Y0.4585 Z-0.06 I-0.0296 J0.0229
N270 X0.0039 Y0.4127 Z-0.0641 I0.0296 J-0.0229
N275 X-0.0553 Y0.4585 Z-0.0682 I-0.0296 J0.0229
N280 X0.0039 Y0.4127 Z-0.0723 I0.0296 J-0.0229
N285 X-0.0553 Y0.4585 Z-0.0764 I-0.0296 J0.0229
N290 X0.0039 Y0.4127 Z-0.0805 I0.0296 J-0.0229
N295 X-0.0553 Y0.4585 Z-0.0846 I-0.0296 J0.0229
N300 X0.0039 Y0.4127 Z-0.0887 I0.0296 J-0.0229
N305 X0.0117 Y0.4356 Z-0.0896 I-0.0296 J0.0229
N310 X-0.0631 I-0.0374 J0.
N315 X0.0117 I0.0374 J0.
N320 G1 X0.0129 Y0.4588 F40.
N325 X0.0127 Y0.4648
N330 X0.011 Y0.4705
N335 X0.0081 Y0.4758
N340 X0.0043 Y0.4805
N345 X-0.0001 Y0.4845
N350 X-0.0051 Y0.4878
N355 X-0.0105 Y0.4904
N360 X-0.0162 Y0.4923
N365 X-0.0221 Y0.4934
N370 X-0.0281 Y0.4939
N375 X-0.0341 Y0.4937
N380 X-0.04 Y0.4928
N385 X-0.0458 Y0.4913
N390 X-0.0514 Y0.4891
N395 X-0.0568 Y0.4864
N400 X-0.0618 Y0.4831
N405 X-0.0664 Y0.4793
N410 X-0.0707 Y0.4751
N415 X-0.0745 Y0.4704
N420 X-0.0777 Y0.4654
N425 X-0.0805 Y0.4601
N430 X-0.0827 Y0.4545
N435 X-0.0843 Y0.4487
N440 X-0.0854 Y0.4428
N445 X-0.0858 Y0.4368
N450 X-0.0857 Y0.4308
N455 X-0.0849 Y0.4249
N460 X-0.0835 Y0.419
N465 X-0.0816 Y0.4133
N470 X-0.0791 Y0.4079
N475 X-0.0761 Y0.4027
N480 X-0.0726 Y0.3978
N485 X-0.0686 Y0.3934
N490 X-0.0642 Y0.3893
N495 X-0.0594 Y0.3857
N500 X-0.0543 Y0.3826
N505 X-0.0488 Y0.38
N510 X-0.0432 Y0.378
N515 X-0.0374 Y0.3765
N520 X-0.0314 Y0.3757
N525 X-0.0254 Y0.3754
N530 X-0.0195 Y0.3757
N535 X-0.0135 Y0.3766
N540 X-0.0077 Y0.3781
N545 X-0.0021 Y0.3802
N550 X0.0033 Y0.3828
N555 X0.0084 Y0.386
N560 X0.0132 Y0.3896
N565 X0.0176 Y0.3937
N570 X0.0215 Y0.3982
N575 X0.025 Y0.4031
N580 X0.028 Y0.4083
N585 X0.031 Y0.4149
N590 X0.0343 Y0.4237
N595 X0.0368 Y0.4325
N600 X0.0381 Y0.4393
N605 X0.0388 Y0.4459
N610 X0.039 Y0.4519
N615 X0.0387 Y0.4579
N620 X0.0379 Y0.4638
N625 X0.0365 Y0.4696
N630 X0.0346 Y0.4753
N635 X0.0321 Y0.4808
N640 X0.0292 Y0.486
N645 X0.0258 Y0.491
N650 X0.0219 Y0.4956
N655 X0.0177 Y0.4998
N660 X0.0131 Y0.5037
N665 X0.0081 Y0.5071
N670 X0.0029 Y0.51
N675 X-0.0025 Y0.5125
N680 X-0.0082 Y0.5146
N685 X-0.014 Y0.5161
N690 X-0.0199 Y0.5172
N695 X-0.0259 Y0.5178
N700 X-0.032 Y0.5179
N705 X-0.0383 Y0.5175
N710 X-0.0444 Y0.5166
N715 X-0.0504 Y0.5152
N720 X-0.0565 Y0.5133
N725 X-0.0626 Y0.5109
N730 X-0.0683 Y0.508
N735 X-0.0738 Y0.5047
N740 X-0.0791 Y0.5009
N745 X-0.0842 Y0.4966
N750 X-0.0889 Y0.4919
N755 X-0.0931 Y0.4869
N760 X-0.0969 Y0.4815
N765 X-0.1004 Y0.4758
N770 X-0.1035 Y0.4697
N775 X-0.106 Y0.4635
N780 X-0.1079 Y0.4572
N785 X-0.1094 Y0.4506
N790 X-0.1104 Y0.4438
N795 X-0.1108 Y0.437
N800 X-0.1107 Y0.4302
N805 X-0.11 Y0.4236
N810 X-0.1088 Y0.4169
N815 X-0.1071 Y0.4102
N820 X-0.1048 Y0.4037
N825 X-0.102 Y0.3975
N830 X-0.0988 Y0.3916
N835 X-0.095 Y0.386
N840 X-0.0908 Y0.3805
N845 X-0.0861 Y0.3754
N850 X-0.0811 Y0.3707
N855 X-0.0759 Y0.3666
N860 X-0.0702 Y0.3628
N865 X-0.0641 Y0.3594
N870 X-0.0578 Y0.3566
N875 X-0.0514 Y0.3542
N880 X-0.0449 Y0.3525
N885 X-0.0382 Y0.3512
N890 X-0.0313 Y0.3505
N895 X-0.0244 Y0.3503
N900 X-0.0175 Y0.3507
N905 X-0.0109 Y0.3516
N910 X-0.0042 Y0.353
N915 X0.0024 Y0.355
N920 X0.0088 Y0.3576
N925 X0.015 Y0.3606
N930 X0.0208 Y0.3641
N935 X0.0264 Y0.368
N940 X0.0317 Y0.3724
N945 X0.0369 Y0.3776
N950 X0.042 Y0.3835
N955 X0.0469 Y0.3901
N960 X0.0515 Y0.3977
N965 X0.0556 Y0.4056
N970 X0.059 Y0.4138
N975 X0.0616 Y0.4221
N980 X0.0636 Y0.4303
N985 X0.0648 Y0.4384
N990 X0.0653 Y0.4464
N995 Y0.4543
N1000 X0.0646 Y0.462
N1005 X0.0633 Y0.4695
N1010 X0.0614 Y0.4769
N1015 X0.0589 Y0.484
N1020 X0.056 Y0.4908
N1025 X0.0525 Y0.4973
N1030 X0.0485 Y0.5035
N1035 X0.044 Y0.5094
N1040 X0.0389 Y0.515
N1045 X0.0334 Y0.5202
N1050 X0.0275 Y0.5249
N1055 X0.0212 Y0.5292
N1060 X0.0144 Y0.5331
N1065 X0.0073 Y0.5364
N1070 X0. Y0.5391
N1075 X-0.0077 Y0.5413
N1080 X-0.0156 Y0.5428
N1085 X-0.0236 Y0.5437
N1090 X-0.0317 Y0.544
N1095 X-0.04 Y0.5436
N1100 X-0.0482 Y0.5426
N1105 X-0.0564 Y0.5409
N1110 X-0.0644 Y0.5385
N1115 X-0.0723 Y0.5355
N1120 X-0.08 Y0.5318
N1125 X-0.0874 Y0.5274
N1130 X-0.0944 Y0.5225
N1135 X-0.1011 Y0.517
N1140 X-0.1073 Y0.511
N1145 X-0.1131 Y0.5044
N1150 X-0.1183 Y0.4974
N1155 X-0.123 Y0.49
N1160 X-0.1271 Y0.4822
N1165 X-0.1305 Y0.474
N1170 X-0.1333 Y0.4656
N1175 X-0.1354 Y0.457
N1180 X-0.1368 Y0.4482
N1185 X-0.1375 Y0.4394
N1190 Y0.4304
N1195 X-0.1367 Y0.4215
N1200 X-0.1353 Y0.4127
N1205 X-0.1331 Y0.404
N1210 X-0.1303 Y0.3956
N1215 X-0.1268 Y0.3873
N1220 X-0.1226 Y0.3794
N1225 X-0.1178 Y0.3718
N1230 X-0.1124 Y0.3646
N1235 X-0.1065 Y0.3579
N1240 X-0.1 Y0.3517
N1245 X-0.093 Y0.346
N1250 X-0.0856 Y0.3408
N1255 X-0.0778 Y0.3364
N1260 X-0.0697 Y0.3325
N1265 X-0.0613 Y0.3293
N1270 X-0.0527 Y0.3268
N1275 X-0.0438 Y0.325
N1280 X-0.0349 Y0.3239
N1285 X-0.0259 Y0.3235
N1290 X-0.0169 Y0.3238
N1295 X-0.008 Y0.3249
N1300 X0.0009 Y0.3267
N1305 X0.0095 Y0.3291
N1310 X0.0179 Y0.3323
N1315 X0.0261 Y0.3361
N1320 X0.034 Y0.3407
N1325 X0.0417 Y0.3459
N1330 X0.0491 Y0.352
N1335 X0.0563 Y0.3588
N1340 X0.0631 Y0.3664
N1345 X0.0694 Y0.3748
N1350 X0.0751 Y0.3836
N1355 X0.0801 Y0.393
N1360 X0.0843 Y0.4026
N1365 X0.0876 Y0.4126
N1370 X0.0902 Y0.4226
N1375 X0.0919 Y0.4327
N1380 X0.0928 Y0.4429
N1385 Y0.453
N1390 X0.0921 Y0.4629
N1395 X0.0906 Y0.4727
N1400 X0.0883 Y0.4822
N1405 X0.0852 Y0.4915
N1410 X0.0815 Y0.5005
N1415 X0.077 Y0.5091
N1420 X0.0719 Y0.5174
N1425 X0.0661 Y0.5252
N1430 X0.0597 Y0.5326
N1435 X0.0527 Y0.5394
N1440 X0.0451 Y0.5457
N1445 X0.037 Y0.5514
N1450 X0.0284 Y0.5565
N1455 X0.0194 Y0.5609
N1460 X0.01 Y0.5645
N1465 X0.0003 Y0.5675
N1470 X-0.0097 Y0.5696
N1475 X-0.0199 Y0.5709
N1480 X-0.0302 Y0.5715
N1485 X-0.0406 Y0.5711
N1490 X-0.0511 Y0.57
N1495 X-0.0614 Y0.568
N1500 X-0.0716 Y0.5652
N1505 X-0.0816 Y0.5615
N1510 X-0.0913 Y0.557
N1515 X-0.1007 Y0.5518
N1520 X-0.1097 Y0.5457
N1525 X-0.1181 Y0.539
N1530 X-0.1261 Y0.5315
N1535 X-0.1334 Y0.5235
N1540 X-0.1401 Y0.5148
N1545 X-0.1461 Y0.5056
N1550 X-0.1514 Y0.4959
N1555 X-0.1558 Y0.4858
N1560 X-0.1595 Y0.4753
N1565 X-0.1623 Y0.4646
N1570 X-0.1642 Y0.4537
N1575 X-0.1653 Y0.4426
N1580 X-0.1654 Y0.4314
N1585 X-0.1647 Y0.4203
N1590 X-0.1631 Y0.4093
N1595 X-0.1606 Y0.3984
N1600 X-0.1572 Y0.3877
N1605 X-0.153 Y0.3773
N1610 X-0.1479 Y0.3673
N1615 X-0.1421 Y0.3578
N1620 X-0.1355 Y0.3487
N1625 X-0.1282 Y0.3402
N1630 X-0.1202 Y0.3322
N1635 X-0.1116 Y0.325
N1640 X-0.1025 Y0.3185
N1645 X-0.0929 Y0.3127
N1650 X-0.0828 Y0.3077
N1655 X-0.0723 Y0.3035
N1660 X-0.0616 Y0.3002
N1665 X-0.0506 Y0.2977
N1670 X-0.0395 Y0.2962
N1675 X-0.0283 Y0.2955
N1680 X-0.017 Y0.2958
N1685 X-0.0058 Y0.2969
N1690 X0.0052 Y0.299
N1695 X0.0161 Y0.3019
N1700 X0.0268 Y0.3057
N1705 X0.0372 Y0.3104
N1710 X0.0473 Y0.3159
N1715 X0.0571 Y0.3224
N1720 X0.0665 Y0.3298
N1725 X0.0754 Y0.338
N1730 X0.0838 Y0.3471
N1735 X0.0916 Y0.357
N1740 X0.0985 Y0.3675
N1745 X0.1046 Y0.3786
N1750 X0.1099 Y0.3901
N1755 X0.1141 Y0.402
N1760 X0.1174 Y0.4141
N1765 X0.1197 Y0.4264
N1770 X0.121 Y0.4388
N1775 X0.1212 Y0.4511
N1780 X0.1205 Y0.4634
N1785 X0.1188 Y0.4755
N1790 X0.1162 Y0.4873
N1795 X0.1127 Y0.4988
N1800 X0.1082 Y0.51
N1805 X0.1029 Y0.5208
N1810 X0.0967 Y0.5312
N1815 X0.0897 Y0.541
N1820 X0.0819 Y0.5502
N1825 X0.0734 Y0.5588
N1830 X0.0642 Y0.5667
N1835 X0.0543 Y0.5739
N1840 X0.0439 Y0.5803
N1845 X0.0329 Y0.5858
N1850 X0.0214 Y0.5905
N1855 X0.0096 Y0.5943
N1860 X-0.0026 Y0.5971
N1865 X-0.015 Y0.599
N1870 X-0.0276 Y0.5998
N1875 X-0.0403 Y0.5996
N1880 X-0.0529 Y0.5984
N1885 X-0.0656 Y0.5962
N1890 X-0.078 Y0.593
N1895 X-0.0902 Y0.5887
N1900 X-0.1021 Y0.5835
N1905 X-0.1135 Y0.5773
N1910 X-0.1245 Y0.5702
N1915 X-0.1349 Y0.5622
N1920 X-0.1446 Y0.5534
N1925 X-0.1537 Y0.5437
N1930 X-0.1619 Y0.5334
N1935 X-0.1693 Y0.5224
N1940 X-0.1759 Y0.5108
N1945 X-0.1815 Y0.4987
N1950 X-0.1861 Y0.4862
N1955 X-0.1897 Y0.4733
N1960 X-0.1922 Y0.4601
N1965 X-0.1937 Y0.4468
N1970 X-0.1941 Y0.4334
N1975 X-0.1934 Y0.42
N1980 X-0.1917 Y0.4066
N1985 X-0.1889 Y0.3934
N1990 X-0.185 Y0.3805
N1995 X-0.1801 Y0.3679
N2000 X-0.1743 Y0.3558
N2005 X-0.1674 Y0.3441
N2010 X-0.1596 Y0.3331
N2015 X-0.151 Y0.3227
N2020 X-0.1416 Y0.313
N2025 X-0.1314 Y0.3041
N2030 X-0.1205 Y0.296
N2035 X-0.109 Y0.2889
N2040 X-0.097 Y0.2827
N2045 X-0.0845 Y0.2774
N2050 X-0.0716 Y0.2732
N2055 X-0.0585 Y0.27
N2060 X-0.0451 Y0.2679
N2065 X-0.0316 Y0.2669
N2070 X-0.018 Y0.267
N2075 X-0.0045 Y0.2682
N2080 X0.0089 Y0.2704
N2085 X0.0221 Y0.2737
N2090 X0.0351 Y0.2781
N2095 X0.0477 Y0.2836
N2100 X0.06 Y0.2901
N2105 X0.072 Y0.2977
N2110 X0.0834 Y0.3063
N2115 X0.0942 Y0.3159
N2120 X0.1042 Y0.3265
N2125 X0.1135 Y0.338
N2130 X0.1219 Y0.3502
N2135 X0.1293 Y0.3631
N2140 X0.1357 Y0.3765
N2145 X0.1409 Y0.3904
N2150 X0.145 Y0.4047
N2155 X0.1479 Y0.4192
N2160 X0.1497 Y0.4338
N2165 X0.1503 Y0.4484
N2170 X0.1497 Y0.463
N2175 X0.1479 Y0.4774
N2180 X0.145 Y0.4916
N2185 X0.141 Y0.5055
N2190 X0.1359 Y0.519
N2195 X0.1297 Y0.532
N2200 X0.1225 Y0.5445
N2205 X0.1143 Y0.5564
N2210 X0.1052 Y0.5676
N2215 X0.0952 Y0.578
N2220 X0.0843 Y0.5876
N2225 X0.0727 Y0.5964
N2230 X0.0604 Y0.6042
N2235 X0.0475 Y0.611
N2240 X0.034 Y0.6168
N2245 X0.02 Y0.6215
N2250 X0.0056 Y0.6251
N2255 X-0.0091 Y0.6275
N2260 X-0.024 Y0.6287
N2265 X-0.039 Y0.6288
N2270 X-0.054 Y0.6276
N2275 X-0.0689 Y0.6253
N2280 X-0.0837 Y0.6217
N2285 X-0.0981 Y0.6169
N2290 X-0.1122 Y0.611
N2295 X-0.1259 Y0.6039
N2300 X-0.1389 Y0.5957
N2305 X-0.1513 Y0.5865
N2310 X-0.1629 Y0.5763
N2315 X-0.1737 Y0.5652
N2320 X-0.1837 Y0.5532
N2325 X-0.1926 Y0.5404
N2330 X-0.2005 Y0.5269
N2335 X-0.2073 Y0.5128
N2340 X-0.2129 Y0.4981
N2345 X-0.2174 Y0.4831
N2350 X-0.2207 Y0.4677
N2355 X-0.2227 Y0.452
N2360 X-0.2234 Y0.4363
N2365 X-0.2229 Y0.4205
N2370 X-0.2211 Y0.4048
N2375 X-0.2181 Y0.3893
N2380 X-0.2138 Y0.374
N2385 X-0.2083 Y0.3592
N2390 X-0.2016 Y0.3448
N2395 X-0.1938 Y0.331
N2400 X-0.1849 Y0.3179
N2405 X-0.175 Y0.3055
N2410 X-0.1641 Y0.2939
N2415 X-0.1523 Y0.2833
N2420 X-0.1397 Y0.2736
N2425 X-0.1263 Y0.265
N2430 X-0.1123 Y0.2575
N2435 X-0.0978 Y0.2511
N2440 X-0.0828 Y0.2459
N2445 X-0.0674 Y0.2419
N2450 X-0.0517 Y0.2392
N2455 X-0.0358 Y0.2377
N2460 X-0.0199 Y0.2376
N2465 X-0.004 Y0.2387
N2470 X0.0118 Y0.241
N2475 X0.0274 Y0.2447
N2480 X0.0427 Y0.2496
N2485 X0.0577 Y0.2558
N2490 X0.0723 Y0.2632
N2495 X0.0864 Y0.2718
N2500 X0.0998 Y0.2817
N2505 X0.1125 Y0.2926
N2510 X0.1244 Y0.3047
N2515 X0.1353 Y0.3177
N2520 X0.1452 Y0.3316
N2525 X0.154 Y0.3464
N2530 X0.1616 Y0.3618
N2535 X0.1679 Y0.3778
N2540 X0.1729 Y0.3942
N2545 X0.1766 Y0.4109
N2550 X0.1789 Y0.4279
N2555 X0.1799 Y0.4449
N2560 X0.1795 Y0.4618
N2565 X0.1777 Y0.4787
N2570 X0.1746 Y0.4953
N2575 X0.1701 Y0.5115
N2580 X0.1644 Y0.5274
N2585 X0.1575 Y0.5427
N2590 X0.1493 Y0.5574
N2595 X0.14 Y0.5714
N2600 X0.1296 Y0.5846
N2605 X0.1181 Y0.5969
N2610 X0.1057 Y0.6083
N2615 X0.0923 Y0.6187
N2620 X0.0782 Y0.6281
N2625 X0.0659 Y0.6348
N2630 X0.0639 Y0.6357
N2635 X0.0619 Y0.6364
N2640 X0.0598 Y0.6369
N2645 X0.0591 Y0.637
N2650 X0.0535 Y0.6376
N2655 X0.0422 Y0.6383
N2660 X0.0366 Y0.6387
N2665 X-0.0366
N2670 X-0.0422 Y0.6383
N2675 X-0.0535 Y0.6376
N2680 X-0.0591 Y0.637
N2685 X-0.1194 Y0.6279
N2690 X-0.1292 Y0.6259
N2695 X-0.1367 Y0.6238
N2700 X-0.1441 Y0.621
N2705 X-0.1533 Y0.6166
N2710 X-0.1623 Y0.6115
N2715 X-0.1724 Y0.6045
N2720 X-0.1832 Y0.5958
N2725 X-0.194 Y0.5855
N2730 X-0.2041 Y0.5741
N2735 X-0.2139 Y0.5612
N2740 X-0.223 Y0.5469
N2745 X-0.2312 Y0.5315
N2750 X-0.2382 Y0.5152
N2755 X-0.2439 Y0.4983
N2760 X-0.2483 Y0.4809
N2765 X-0.2513 Y0.4631
N2770 X-0.2528 Y0.445
N2775 X-0.2529 Y0.4269
N2780 X-0.2516 Y0.4088
N2785 X-0.2488 Y0.3908
N2790 X-0.2445 Y0.3731
N2795 X-0.2389 Y0.3558
N2800 X-0.2318 Y0.339
N2805 X-0.2235 Y0.3228
N2810 X-0.2138 Y0.3073
N2815 X-0.2029 Y0.2927
N2820 X-0.1909 Y0.2789
N2825 X-0.1779 Y0.2662
N2830 X-0.1638 Y0.2545
N2835 X-0.1488 Y0.244
N2840 X-0.1331 Y0.2347
N2845 X-0.1166 Y0.2268
N2850 X-0.0996 Y0.2201
N2855 X-0.0931 Y0.2182
N2860 X-0.0896 Y0.2175
N2865 X-0.0861
N2870 X-0.0826 Y0.2182
N2875 X-0.0535 Y0.2267
N2880 X-0.0366 Y0.2313
N2885 X-0.031 Y0.2321
N2890 X-0.0253 Y0.2325
N2895 X-0.0141 Y0.2326
N2900 X0.0197
N2905 X0.0253 Y0.2325
N2910 X0.031 Y0.2321
N2915 X0.0366 Y0.2313
N2920 X0.0425 Y0.2305
N2925 X0.0486 Y0.2307
N2930 X0.0553 Y0.2314
N2935 X0.0629 Y0.2328
N2940 X0.0718 Y0.2352
N2945 X0.0813 Y0.2387
N2950 X0.0921 Y0.2435
N2955 X0.1041 Y0.2503
N2960 X0.1162 Y0.2583
N2965 X0.1286 Y0.268
N2970 X0.1411 Y0.2797
N2975 X0.1533 Y0.293
N2980 X0.1648 Y0.3077
N2985 X0.1752 Y0.3236
N2990 X0.1845 Y0.3404
N2995 X0.1924 Y0.3581
N3000 X0.1989 Y0.3764
N3005 X0.2039 Y0.3952
N3010 X0.2074 Y0.4144
N3015 X0.2093 Y0.4337
N3020 X0.2097 Y0.4531
N3025 X0.2085 Y0.4724
N3030 X0.2058 Y0.4915
N3035 X0.2016 Y0.5103
N3040 X0.1959 Y0.5287
N3045 X0.1887 Y0.5465
N3050 X0.1801 Y0.5637
N3055 X0.1702 Y0.5802
N3060 X0.1589 Y0.5958
N3065 X0.1465 Y0.6105
N3070 X0.1351 Y0.6219
N3075 X0.1321 Y0.6243
N3080 X0.1286 Y0.6261
N3085 X0.1248 Y0.6271
N3090 X0.0598 Y0.6369
N3095 G3 X0.0585 I-0.0009 J-0.0078
N3100 G1 X0.0567 Y0.6368
N3105 X-0.1163 Y0.628
N3110 X-0.1194 Y0.6279
N3115 X-0.138 Y0.6251
N3120 X-0.1436 Y0.6241
N3125 X-0.1917 Y0.6092
N3130 X-0.1974 Y0.6072
N3135 X-0.2028 Y0.6046
N3140 X-0.2089 Y0.601
N3145 X-0.215 Y0.5967
N3150 X-0.2221 Y0.5909
N3155 X-0.2293 Y0.5838
N3160 X-0.2376 Y0.5744
N3165 X-0.2452 Y0.5641
N3170 X-0.2532 Y0.5513
N3175 X-0.261 Y0.5363
N3180 X-0.268 Y0.5196
N3185 X-0.2739 Y0.5016
N3190 X-0.2784 Y0.4827
N3195 X-0.2815 Y0.4632
N3200 X-0.283 Y0.4432
N3205 X-0.2829 Y0.423
N3210 X-0.2812 Y0.4026
N3215 X-0.2778 Y0.3824
N3220 X-0.2728 Y0.3624
N3225 X-0.2662 Y0.3429
N3230 X-0.2581 Y0.324
N3235 X-0.2484 Y0.3057
N3240 X-0.2373 Y0.2883
N3245 X-0.2249 Y0.2718
N3250 X-0.2111 Y0.2563
N3255 X-0.1962 Y0.242
N3260 X-0.1801 Y0.229
N3265 X-0.1631 Y0.2173
N3270 X-0.1451 Y0.2069
N3275 X-0.1331 Y0.2012
N3280 X-0.1271 Y0.1996
N3285 X-0.121 Y0.2
N3290 X-0.1153 Y0.2024
N3295 X-0.1098 Y0.2059
N3300 X-0.1042 Y0.2093
N3305 X-0.1011 Y0.2112
N3310 X-0.0985 Y0.2126
N3315 X-0.0929 Y0.2149
N3320 X-0.0872 Y0.2168
N3325 X-0.0826 Y0.2182
N3330 G3 X-0.0799 Y0.2197 I-0.0025 J0.0075
N3335 G1 X-0.0784 Y0.221 Z-0.0893
N3340 X-0.077 Y0.2222 Z-0.0886
N3345 X-0.0757 Y0.2233 Z-0.0873
N3350 X-0.0748 Y0.2241 Z-0.0857
N3355 X-0.0742 Y0.2246 Z-0.0838
N3360 X-0.074 Y0.2248 Z-0.0817
N3365 G0 Z0.1004
N3370 X-0.1968 Y0.6019
N3375 Z-0.0739
N3380 G1 Z-0.0817 F40.
N3385 X-0.1966 Y0.602 Z-0.0838
N3390 X-0.196 Y0.6025 Z-0.0857
N3395 X-0.195 Y0.6032 Z-0.0873
N3400 X-0.1936 Y0.6041 Z-0.0886
N3405 X-0.1921 Y0.6052 Z-0.0893
N3410 X-0.1904 Y0.6064 Z-0.0896
N3415 G3 X-0.1917 Y0.6092 I-0.0009 J0.0013
N3420 G1 X-0.2225 Y0.5997
N3425 X-0.2281 Y0.5979
N3430 X-0.2424 Y0.5919
N3435 X-0.2478 Y0.5893
N3440 X-0.2529 Y0.5861
N3445 X-0.2577 Y0.5824
N3450 X-0.2635 Y0.5773
N3455 X-0.2691 Y0.5713
N3460 X-0.2756 Y0.5633
N3465 X-0.2818 Y0.5542
N3470 X-0.2887 Y0.5421
N3475 X-0.295 Y0.5287
N3480 X-0.3009 Y0.513
N3485 X-0.3061 Y0.4948
N3490 X-0.31 Y0.4748
N3495 X-0.3125 Y0.4537
N3500 X-0.3133 Y0.4318
N3505 X-0.3124 Y0.4095
N3510 X-0.3096 Y0.3871
N3515 X-0.3049 Y0.3648
N3520 X-0.2985 Y0.3429
N3525 X-0.2903 Y0.3214
N3530 X-0.2804 Y0.3006
N3535 X-0.2688 Y0.2807
N3540 X-0.2556 Y0.2617
N3545 X-0.241 Y0.2438
N3550 X-0.225 Y0.2272
N3555 X-0.2076 Y0.2119
N3560 X-0.1891 Y0.198
N3565 X-0.1731 Y0.1879
N3570 X-0.1632 Y0.1827
N3575 X-0.1617 Y0.1821
N3580 X-0.156 Y0.1807
N3585 X-0.15 Y0.1812
N3590 X-0.1446 Y0.1836
N3595 X-0.1153 Y0.2024
N3600 G3 X-0.1131 Y0.2046 I-0.0045 J0.0065
N3605 G1 X-0.112 Y0.2063 Z-0.0893
N3610 X-0.111 Y0.2079 Z-0.0886
N3615 X-0.1101 Y0.2093 Z-0.0873
N3620 X-0.1094 Y0.2103 Z-0.0857
N3625 X-0.109 Y0.211 Z-0.0838
N3630 X-0.1089 Y0.2112 Z-0.0817
N3635 G0 Z0.1004
N3640 X-0.2468 Y0.5841
N3645 Z-0.0739
N3650 G1 Z-0.0817 F40.
N3655 X-0.2466 Y0.5842 Z-0.0838
N3660 X-0.246 Y0.5848 Z-0.0857
N3665 X-0.245 Y0.5856 Z-0.0873
N3670 X-0.2438 Y0.5867 Z-0.0886
N3675 X-0.2424 Y0.5879 Z-0.0893
N3680 X-0.2408 Y0.5892 Z-0.0896
N3685 G3 X-0.2424 Y0.5919 I-0.001 J0.0012
N3690 G1 X-0.245 Y0.5908
N3695 X-0.2506 Y0.5882
N3700 X-0.2844 Y0.5719
N3705 X-0.2898 Y0.569
N3710 X-0.2948 Y0.5657
N3715 X-0.2995 Y0.5619
N3720 X-0.3039 Y0.5576
N3725 X-0.309 Y0.5518
N3730 X-0.3137 Y0.5454
N3735 X-0.3192 Y0.5366
N3740 X-0.3242 Y0.5268
N3745 X-0.3297 Y0.5136
N3750 X-0.3344 Y0.4993
N3755 X-0.3385 Y0.4819
N3760 X-0.3417 Y0.4617
N3765 X-0.3433 Y0.4396
N3770 X-0.3432 Y0.4162
N3775 X-0.3411 Y0.3922
N3780 X-0.337 Y0.3679
N3785 X-0.3309 Y0.3439
N3790 X-0.323 Y0.3204
N3795 X-0.3132 Y0.2976
N3800 X-0.3016 Y0.2756
N3805 X-0.2883 Y0.2546
N3810 X-0.2735 Y0.2347
N3815 X-0.2571 Y0.2161
N3820 X-0.2393 Y0.1987
N3825 X-0.2202 Y0.1828
N3830 X-0.2043 Y0.1716
N3835 X-0.1953 Y0.1662
N3840 X-0.1883 Y0.1628
N3845 X-0.1844 Y0.1612
N3850 X-0.1789 Y0.16
N3855 X-0.1733 Y0.1604
N3860 X-0.1681 Y0.1626
N3865 X-0.1638 Y0.1661
N3870 X-0.1605 Y0.1698
N3875 X-0.1587 Y0.1718
N3880 X-0.1549 Y0.1758
N3885 X-0.1492 Y0.1805
N3890 X-0.1446 Y0.1836
N3895 G3 X-0.1424 Y0.1858 I-0.0045 J0.0065
N3900 G1 X-0.1413 Y0.1875 Z-0.0893
N3905 X-0.1403 Y0.1891 Z-0.0886
N3910 X-0.1394 Y0.1905 Z-0.0873
N3915 X-0.1388 Y0.1915 Z-0.0857
N3920 X-0.1383 Y0.1922 Z-0.0838
N3925 X-0.1382 Y0.1924 Z-0.0817
N3930 G0 Z0.1004
N3935 X-0.2883 Y0.5639
N3940 Z-0.0739
N3945 G1 Z-0.0817 F40.
N3950 X-0.2881 Y0.5641 Z-0.0838
N3955 X-0.2876 Y0.5646 Z-0.0857
N3960 X-0.2867 Y0.5655 Z-0.0873
N3965 X-0.2855 Y0.5666 Z-0.0886
N3970 X-0.2841 Y0.5679 Z-0.0893
N3975 X-0.2827 Y0.5694 Z-0.0896
N3980 G3 X-0.2844 Y0.5719 I-0.0011 J0.0011
N3985 G1 X-0.3013 Y0.5638
N3990 X-0.3197 Y0.5547
N3995 X-0.3238 Y0.5522
N4000 X-0.3285 Y0.5491
N4005 X-0.3332 Y0.5454
N4010 X-0.3377 Y0.5414
N4015 X-0.342 Y0.5367
N4020 X-0.346 Y0.5315
N4025 X-0.3505 Y0.5247
N4030 X-0.355 Y0.5165
N4035 X-0.3595 Y0.5065
N4040 X-0.3638 Y0.4943
N4045 X-0.368 Y0.4788
N4050 X-0.3709 Y0.4624
N4055 X-0.373 Y0.4419
N4060 X-0.3734 Y0.4187
N4065 X-0.3719 Y0.394
N4070 X-0.3684 Y0.3694
N4075 X-0.3631 Y0.3451
N4080 X-0.356 Y0.3213
N4085 X-0.3471 Y0.2982
N4090 X-0.3365 Y0.2757
N4095 X-0.3244 Y0.254
N4100 X-0.3107 Y0.2333
N4105 X-0.2956 Y0.2136
N4110 X-0.2792 Y0.195
N4115 X-0.2615 Y0.1776
N4120 X-0.2429 Y0.1618
N4125 X-0.2292 Y0.1519
N4130 X-0.2197 Y0.1462
N4135 X-0.2122 Y0.1424
N4140 X-0.2065 Y0.1401
N4145 X-0.2021 Y0.1387
N4150 X-0.1951 Y0.138
N4155 X-0.1883 Y0.1399
N4160 X-0.1827 Y0.1443
N4165 X-0.1638 Y0.1661
N4170 G3 X-0.1624 Y0.1688 I-0.0061 J0.0049
N4175 G1 X-0.1618 Y0.1708 Z-0.0893
N4180 X-0.1613 Y0.1726 Z-0.0886
N4185 X-0.1608 Y0.1742 Z-0.0873
N4190 X-0.1605 Y0.1754 Z-0.0857
N4195 X-0.1602 Y0.1761 Z-0.0838
N4200 Y0.1764 Z-0.0817
N4205 G0 Z0.1004
N4210 X-0.3311 Y0.5405
N4215 Z-0.0739
N4220 G1 Z-0.0817 F40.
N4225 X-0.331 Y0.5407 Z-0.0838
N4230 X-0.3305 Y0.5414 Z-0.0857
N4235 X-0.3297 Y0.5423 Z-0.0873
N4240 X-0.3288 Y0.5436 Z-0.0886
N4245 X-0.3276 Y0.5451 Z-0.0893
N4250 X-0.3264 Y0.5468 Z-0.0896
N4255 G3 X-0.3285 Y0.5491 I-0.0012 J0.001
N4260 G1 X-0.3663 Y0.5232
N4265 X-0.3711 Y0.5196
N4270 X-0.3753 Y0.5153
N4275 X-0.3791 Y0.5107
N4280 X-0.3827 Y0.5052
N4285 X-0.3867 Y0.4981
N4290 X-0.3903 Y0.4904
N4295 X-0.3943 Y0.4797
N4300 X-0.3974 Y0.4684
N4305 X-0.4005 Y0.4526
N4310 X-0.4024 Y0.4355
N4315 X-0.4031 Y0.4148
N4320 X-0.4019 Y0.3908
N4325 X-0.3988 Y0.3662
N4330 X-0.3938 Y0.3419
N4335 X-0.3871 Y0.318
N4340 X-0.3788 Y0.2946
N4345 X-0.3689 Y0.2718
N4350 X-0.3575 Y0.2497
N4355 X-0.3447 Y0.2285
N4360 X-0.3304 Y0.2082
N4365 X-0.3149 Y0.1888
N4370 X-0.2981 Y0.1705
N4375 X-0.2802 Y0.1533
N4380 X-0.2636 Y0.1394
N4385 X-0.2506 Y0.1302
N4390 X-0.2403 Y0.124
N4395 X-0.2328 Y0.1203
N4400 X-0.2257 Y0.1175
N4405 X-0.22 Y0.1158
N4410 X-0.2183 Y0.1155
N4415 X-0.2126 Y0.1152
N4420 X-0.2071 Y0.1167
N4425 X-0.2023 Y0.1197
N4430 X-0.1987 Y0.1241
N4435 X-0.1979 Y0.1254
N4440 X-0.1971 Y0.1267
N4445 X-0.1827 Y0.1443
N4450 G3 X-0.1813 Y0.147 I-0.0061 J0.0049
N4455 G1 X-0.1807 Y0.1489 Z-0.0893
N4460 X-0.1802 Y0.1508 Z-0.0886
N4465 X-0.1797 Y0.1523 Z-0.0873
N4470 X-0.1794 Y0.1535 Z-0.0857
N4475 X-0.1792 Y0.1543 Z-0.0838
N4480 X-0.1791 Y0.1546 Z-0.0817
N4485 G0 Z0.1004
N4490 X-0.369 Y0.5147
N4495 Z-0.0739
N4500 G1 Z-0.0817 F40.
N4505 X-0.3688 Y0.5149 Z-0.0838
N4510 X-0.3684 Y0.5155 Z-0.0857
N4515 X-0.3676 Y0.5165 Z-0.0873
N4520 X-0.3666 Y0.5178 Z-0.0886
N4525 X-0.3655 Y0.5193 Z-0.0893
N4530 X-0.3642 Y0.521 Z-0.0896
N4535 G3 X-0.3663 Y0.5232 I-0.0012 J0.001
N4540 G1 X-0.397 Y0.5023
N4545 X-0.4058 Y0.4938
N4550 X-0.4098 Y0.4893
N4555 X-0.4133 Y0.4845
N4560 X-0.4165 Y0.479
N4565 X-0.4201 Y0.4717
N4570 X-0.4232 Y0.464
N4575 X-0.4264 Y0.4535
N4580 X-0.429 Y0.4419
N4585 X-0.4312 Y0.426
N4590 X-0.4321 Y0.4096
N4595 X-0.4316 Y0.3882
N4600 X-0.429 Y0.3635
N4605 X-0.4245 Y0.3391
N4610 X-0.4182 Y0.3151
N4615 X-0.4105 Y0.2915
N4620 X-0.4012 Y0.2685
N4625 X-0.3905 Y0.2461
N4630 X-0.3784 Y0.2244
N4635 X-0.365 Y0.2035
N4640 X-0.3503 Y0.1835
N4645 X-0.3344 Y0.1644
N4650 X-0.3174 Y0.1463
N4655 X-0.2994 Y0.1293
N4660 X-0.2836 Y0.1164
N4665 X-0.2705 Y0.1074
N4670 X-0.2592 Y0.1009
N4675 X-0.2512 Y0.0971
N4680 X-0.2439 Y0.0943
N4685 X-0.2381 Y0.0926
N4690 X-0.2322 Y0.0914
N4695 X-0.2281 Y0.091
N4700 X-0.2224 Y0.0912
N4705 X-0.217 Y0.0932
N4710 X-0.2125 Y0.0968
N4715 X-0.2093 Y0.1016
N4720 X-0.2055 Y0.1098
N4725 X-0.1987 Y0.1241
N4730 G3 X-0.198 Y0.1272 I-0.0072 J0.0031
N4735 G1 Y0.1292 Z-0.0893
N4740 Y0.1311 Z-0.0886
N4745 X-0.1979 Y0.1327 Z-0.0873
N4750 Y0.134 Z-0.0857
N4755 Y0.1348 Z-0.0838
N4760 Y0.135 Z-0.0817
N4765 G0 Z0.1004
N4770 X-0.3997 Y0.4938
N4775 Z-0.0739
N4780 G1 Z-0.0817 F40.
N4785 X-0.3995 Y0.494 Z-0.0838
N4790 X-0.3991 Y0.4946 Z-0.0857
N4795 X-0.3983 Y0.4956 Z-0.0873
N4800 X-0.3973 Y0.4969 Z-0.0886
N4805 X-0.3962 Y0.4984 Z-0.0893
N4810 X-0.3949 Y0.5 Z-0.0896
N4815 G3 X-0.397 Y0.5023 I-0.0012 J0.001
N4820 G1 X-0.4026 Y0.4974
N4825 X-0.4083 Y0.4924
N4830 X-0.4308 Y0.4715
N4835 X-0.4364 Y0.4663
N4840 X-0.4406 Y0.462
N4845 X-0.4441 Y0.4572
N4850 X-0.4472 Y0.452
N4855 X-0.4502 Y0.4456
N4860 X-0.4529 Y0.4385
N4865 X-0.4555 Y0.4296
N4870 X-0.4578 Y0.4185
N4875 X-0.4594 Y0.4056
N4880 X-0.4602 Y0.3893
N4885 X-0.4594 Y0.3692
N4890 X-0.4568 Y0.3471
N4895 X-0.452 Y0.3227
N4900 X-0.4453 Y0.2988
N4905 X-0.4372 Y0.2753
N4910 X-0.4277 Y0.2524
N4915 X-0.4168 Y0.2301
N4920 X-0.4047 Y0.2085
N4925 X-0.3913 Y0.1876
N4930 X-0.3767 Y0.1674
N4935 X-0.3611 Y0.1482
N4940 X-0.3443 Y0.1298
N4945 X-0.3266 Y0.1124
N4950 X-0.3094 Y0.0979
N4955 X-0.2943 Y0.087
N4960 X-0.2821 Y0.0796
N4965 X-0.2713 Y0.0742
N4970 X-0.2621 Y0.0706
N4975 X-0.2544 Y0.0682
N4980 X-0.2481 Y0.0667
N4985 X-0.2421 Y0.0659
N4990 X-0.2384 Y0.0657
N4995 X-0.2312 Y0.0668
N5000 X-0.225 Y0.0706
N5005 X-0.2207 Y0.0765
N5010 X-0.2112 Y0.0975
N5015 X-0.2093 Y0.1016
N5020 G3 X-0.2087 Y0.1046 I-0.0073 J0.003
N5025 G1 Y0.1066 Z-0.0893
N5030 Y0.1085 Z-0.0886
N5035 Y0.1102 Z-0.0873
N5040 Y0.1114 Z-0.0857
N5045 Y0.1122 Z-0.0838
N5050 Y0.1125 Z-0.0817
N5055 G0 Z0.1004
N5060 X-0.4378 Y0.4575
N5065 Z-0.0739
N5070 G1 Z-0.0817 F40.
N5075 X-0.4377 Y0.4577 Z-0.0838
N5080 X-0.4373 Y0.4584 Z-0.0857
N5085 X-0.4367 Y0.4595 Z-0.0873
N5090 X-0.4359 Y0.4609 Z-0.0886
N5095 X-0.435 Y0.4626 Z-0.0893
N5100 X-0.434 Y0.4644 Z-0.0896
N5105 G3 X-0.4364 Y0.4663 I-0.0014 J0.0008
N5110 G1 X-0.4565 Y0.4477
N5115 X-0.4646 Y0.4401
N5120 X-0.4688 Y0.4358
N5125 X-0.4724 Y0.431
N5130 X-0.4755 Y0.4259
N5135 X-0.4782 Y0.4202
N5140 X-0.4807 Y0.4139
N5145 X-0.4832 Y0.4055
N5150 X-0.4851 Y0.3961
N5155 X-0.4867 Y0.3842
N5160 X-0.4873 Y0.3705
N5165 X-0.4867 Y0.3525
N5170 X-0.4845 Y0.3333
N5175 X-0.4797 Y0.3089
N5180 X-0.473 Y0.285
N5185 X-0.4648 Y0.2616
N5190 X-0.4552 Y0.2387
N5195 X-0.4443 Y0.2164
N5200 X-0.4322 Y0.1947
N5205 X-0.419 Y0.1737
N5210 X-0.4047 Y0.1534
N5215 X-0.3893 Y0.1339
N5220 X-0.373 Y0.1152
N5225 X-0.3557 Y0.0974
N5230 X-0.3376 Y0.0812
N5235 X-0.3209 Y0.0685
N5240 X-0.3057 Y0.0587
N5245 X-0.2931 Y0.0519
N5250 X-0.2816 Y0.0469
N5255 X-0.2719 Y0.0436
N5260 X-0.2648 Y0.0417
N5265 X-0.2573 Y0.0405
N5270 X-0.2514 Y0.0399
N5275 X-0.2454
N5280 X-0.2433 Y0.0401
N5285 X-0.2375 Y0.0417
N5290 X-0.2326 Y0.045
N5295 X-0.2289 Y0.0497
N5300 X-0.227 Y0.0553
N5305 X-0.2263 Y0.0591
N5310 X-0.2251 Y0.0648
N5315 X-0.2233 Y0.0704
N5320 X-0.2224 Y0.0727
N5325 X-0.2207 Y0.0765
N5330 G3 X-0.2201 Y0.0795 I-0.0073 J0.003
N5335 G1 Y0.0815 Z-0.0893
N5340 X-0.2202 Y0.0834 Z-0.0886
N5345 Y0.0851 Z-0.0873
N5350 Y0.0863 Z-0.0857
N5355 Y0.0871 Z-0.0838
N5360 Y0.0874 Z-0.0817
N5365 G0 Z0.1004
N5370 X-0.4659 Y0.4312
N5375 Z-0.0739
N5380 G1 Z-0.0817 F40.
N5385 X-0.4658 Y0.4315 Z-0.0838
N5390 X-0.4654 Y0.4322 Z-0.0857
N5395 X-0.4648 Y0.4333 Z-0.0873
N5400 X-0.4641 Y0.4347 Z-0.0886
N5405 X-0.4631 Y0.4364 Z-0.0893
N5410 X-0.4622 Y0.4382 Z-0.0896
N5415 G3 X-0.4646 Y0.4401 I-0.0014 J0.0008
N5420 G1 X-0.4685 Y0.4364
N5425 X-0.4702 Y0.4347
N5430 X-0.4984 Y0.3994
N5435 X-0.5019 Y0.3945
N5440 X-0.5046 Y0.3892
N5445 X-0.507 Y0.3832
N5450 X-0.5089 Y0.3769
N5455 X-0.5108 Y0.3686
N5460 X-0.5121 Y0.3591
N5465 X-0.5128 Y0.3476
N5470 X-0.5125 Y0.333
N5475 X-0.5107 Y0.3156
N5480 X-0.507 Y0.2953
N5485 X-0.5005 Y0.2713
N5490 X-0.4923 Y0.2479
N5495 X-0.4827 Y0.225
N5500 X-0.4719 Y0.2027
N5505 X-0.4599 Y0.1809
N5510 X-0.4468 Y0.1598
N5515 X-0.4327 Y0.1394
N5520 X-0.4176 Y0.1197
N5525 X-0.4016 Y0.1008
N5530 X-0.3846 Y0.0826
N5535 X-0.3666 Y0.0655
N5540 X-0.3485 Y0.0508
N5545 X-0.3316 Y0.039
N5550 X-0.3158 Y0.0299
N5555 X-0.3028 Y0.0237
N5560 X-0.2909 Y0.0192
N5565 X-0.2802 Y0.0161
N5570 X-0.2717 Y0.0143
N5575 X-0.2645 Y0.0134
N5580 X-0.2582 Y0.0132
N5585 X-0.2522 Y0.0134
N5590 X-0.2462 Y0.0142
N5595 X-0.2448 Y0.0145
N5600 X-0.2381 Y0.0175
N5605 X-0.2332 Y0.0229
N5610 X-0.2307 Y0.0298
N5615 X-0.2273 Y0.0535
N5620 X-0.227 Y0.0553
N5625 G3 X-0.2272 Y0.0584 I-0.0078 J0.0011
N5630 G1 X-0.2277 Y0.0603 Z-0.0893
N5635 X-0.2282 Y0.0622 Z-0.0886
N5640 X-0.2286 Y0.0638 Z-0.0873
N5645 X-0.2289 Y0.065 Z-0.0857
N5650 X-0.2291 Y0.0657 Z-0.0838
N5655 X-0.2292 Y0.066 Z-0.0817
N5660 G0 Z0.1004
N5665 X-0.4984 Y0.3905
N5670 Z-0.0739
N5675 G1 Z-0.0817 F40.
N5680 X-0.4983 Y0.3907 Z-0.0838
N5685 X-0.4981 Y0.3915 Z-0.0857
N5690 X-0.4976 Y0.3926 Z-0.0873
N5695 X-0.4971 Y0.3942 Z-0.0886
N5700 X-0.4964 Y0.3959 Z-0.0893
N5705 X-0.4957 Y0.3979 Z-0.0896
N5710 G3 X-0.4984 Y0.3994 I-0.0015 J0.0005
N5715 G1 X-0.5153 Y0.3782
N5720 X-0.5226 Y0.3688
N5725 X-0.5261 Y0.364
N5730 X-0.529 Y0.3587
N5735 X-0.5314 Y0.3532
N5740 X-0.5334 Y0.3469
N5745 X-0.535 Y0.3402
N5750 X-0.5362 Y0.3317
N5755 X-0.5369 Y0.3213
N5760 X-0.5368 Y0.3096
N5765 X-0.5354 Y0.2942
N5770 X-0.5322 Y0.2761
N5775 X-0.5266 Y0.2544
N5780 X-0.5184 Y0.231
N5785 X-0.5088 Y0.2081
N5790 X-0.4978 Y0.1858
N5795 X-0.4858 Y0.1641
N5800 X-0.4727 Y0.143
N5805 X-0.4586 Y0.1226
N5810 X-0.4436 Y0.1028
N5815 X-0.4277 Y0.0837
N5820 X-0.4109 Y0.0654
N5825 X-0.3931 Y0.0481
N5830 X-0.3743 Y0.0319
N5835 X-0.3556 Y0.0184
N5840 X-0.3382 Y0.0078
N5845 X-0.3223 Y-0.0003
N5850 X-0.3087 Y-0.0059
N5855 X-0.2963 Y-0.0098
N5860 X-0.2852 Y-0.0124
N5865 X-0.2755 Y-0.0138
N5870 X-0.2679 Y-0.0143
N5875 X-0.2612 Y-0.0142
N5880 X-0.2548 Y-0.0136
N5885 X-0.2489 Y-0.0126
N5890 X-0.2472 Y-0.0121
N5895 X-0.2408 Y-0.0088
N5900 X-0.2361 Y-0.0033
N5905 X-0.2339 Y0.0036
N5910 X-0.2328 Y0.0141
N5915 X-0.2321 Y0.0197
N5920 X-0.2307 Y0.0298
N5925 G3 X-0.231 Y0.0329 I-0.0078 J0.0008
N5930 G1 X-0.2315 Y0.0348 Z-0.0893
N5935 X-0.2321 Y0.0367 Z-0.0886
N5940 X-0.2325 Y0.0382 Z-0.0873
N5945 X-0.2329 Y0.0394 Z-0.0857
N5950 X-0.2331 Y0.0402 Z-0.0838
N5955 X-0.2332 Y0.0404 Z-0.0817
N5960 G0 Z0.1004
N5965 X-0.5226 Y0.3599
N5970 Z-0.0739
N5975 G1 Z-0.0817 F40.
N5980 X-0.5225 Y0.3601 Z-0.0838
N5985 X-0.5223 Y0.3609 Z-0.0857
N5990 X-0.5218 Y0.3621 Z-0.0873
N5995 X-0.5213 Y0.3636 Z-0.0886
N6000 X-0.5206 Y0.3654 Z-0.0893
N6005 X-0.52 Y0.3673 Z-0.0896
N6010 G3 X-0.5226 Y0.3688 I-0.0015 J0.0005
N6015 G1 X-0.5271 Y0.3632
N6020 X-0.531 Y0.3576
N6025 X-0.5491 Y0.3264
N6030 X-0.5521 Y0.3203
N6035 X-0.5544 Y0.3148
N6040 X-0.5561 Y0.309
N6045 X-0.5575 Y0.3024
N6050 X-0.5584 Y0.295
N6055 X-0.5588 Y0.2853
N6060 X-0.5584 Y0.2745
N6065 X-0.5567 Y0.2608
N6070 X-0.5535 Y0.2447
N6075 X-0.5475 Y0.2239
N6080 X-0.5388 Y0.2006
N6085 X-0.5284 Y0.1781
N6090 X-0.5168 Y0.1561
N6095 X-0.5041 Y0.1348
N6100 X-0.4905 Y0.114
N6105 X-0.476 Y0.0939
N6110 X-0.4605 Y0.0745
N6115 X-0.4442 Y0.0557
N6120 X-0.4271 Y0.0378
N6125 X-0.4089 Y0.0209
N6130 X-0.3897 Y0.0052
N6135 X-0.3698 Y-0.0088
N6140 X-0.3516 Y-0.0195
N6145 X-0.3352 Y-0.0275
N6150 X-0.3196 Y-0.0336
N6155 X-0.3053 Y-0.0379
N6160 X-0.2933 Y-0.0404
N6165 X-0.2822 Y-0.0419
N6170 X-0.2726 Y-0.0424
N6175 X-0.2658 Y-0.0422
N6180 X-0.2587 Y-0.0414
N6185 X-0.2528 Y-0.0403
N6190 X-0.247 Y-0.0386
N6195 X-0.2437 Y-0.0372
N6200 X-0.2386 Y-0.0341
N6205 X-0.2348 Y-0.0296
N6210 X-0.2326 Y-0.024
N6215 X-0.2323 Y-0.018
N6220 X-0.2328 Y-0.0141
N6225 X-0.2343 Y0.
N6230 X-0.2339 Y0.0036
N6235 G3 X-0.2343 Y0.0067 I-0.0079 J0.0006
N6240 G1 X-0.235 Y0.0086 Z-0.0893
N6245 X-0.2356 Y0.0104 Z-0.0886
N6250 X-0.2361 Y0.012 Z-0.0873
N6255 X-0.2365 Y0.0132 Z-0.0857
N6260 X-0.2367 Y0.0139 Z-0.0838
N6265 X-0.2368 Y0.0142 Z-0.0817
N6270 G0 Z0.1004
N6275 X-0.5478 Y0.3175
N6280 Z-0.0739
N6285 G1 Z-0.0817 F40.
N6290 X-0.5477 Y0.3178 Z-0.0838
N6295 X-0.5476 Y0.3185 Z-0.0857
N6300 X-0.5473 Y0.3198 Z-0.0873
N6305 X-0.547 Y0.3214 Z-0.0886
N6310 X-0.5466 Y0.3232 Z-0.0893
N6315 X-0.5462 Y0.3252 Z-0.0896
N6320 G3 X-0.5491 Y0.3264 I-0.0015 J0.0003
N6325 G1 X-0.5716 Y0.2873
N6330 X-0.5743 Y0.282
N6335 X-0.5763 Y0.2763
N6340 X-0.5777 Y0.2705
N6345 X-0.5786 Y0.2643
N6350 X-0.5792 Y0.2563
N6355 X-0.5791 Y0.2467
N6360 X-0.5781 Y0.236
N6365 X-0.5756 Y0.2217
N6370 X-0.5715 Y0.2056
N6375 X-0.5644 Y0.185
N6380 X-0.5545 Y0.1623
N6385 X-0.5431 Y0.1402
N6390 X-0.5305 Y0.1188
N6395 X-0.517 Y0.098
N6400 X-0.5025 Y0.0778
N6405 X-0.4873 Y0.0583
N6410 X-0.4711 Y0.0394
N6415 X-0.4542 Y0.0213
N6420 X-0.4363 Y0.004
N6425 X-0.4175 Y-0.0122
N6430 X-0.3977 Y-0.0271
N6435 X-0.3781 Y-0.0397
N6440 X-0.359 Y-0.0499
N6445 X-0.3408 Y-0.0578
N6450 X-0.324 Y-0.0636
N6455 X-0.3088 Y-0.0675
N6460 X-0.296 Y-0.0697
N6465 X-0.2841 Y-0.0707
N6470 X-0.2735 Y-0.0708
N6475 X-0.2648 Y-0.0702
N6480 X-0.2577 Y-0.0691
N6485 X-0.2512 Y-0.0676
N6490 X-0.2455 Y-0.0657
N6495 X-0.24 Y-0.0633
N6500 X-0.2381 Y-0.0623
N6505 X-0.2337 Y-0.059
N6510 X-0.2305 Y-0.0544
N6515 X-0.2288 Y-0.0492
N6520 X-0.2287 Y-0.0436
N6525 X-0.2321 Y-0.0197
N6530 X-0.2323 Y-0.018
N6535 G3 X-0.2334 Y-0.0151 I-0.0078 J-0.0012
N6540 G1 X-0.2345 Y-0.0134 Z-0.0893
N6545 X-0.2355 Y-0.0118 Z-0.0886
N6550 X-0.2363 Y-0.0104 Z-0.0873
N6555 X-0.237 Y-0.0093 Z-0.0857
N6560 X-0.2374 Y-0.0086 Z-0.0838
N6565 X-0.2375 Y-0.0084 Z-0.0817
N6570 G0 Z0.1004
N6575 X-0.5703 Y0.2785
N6580 Z-0.0739
N6585 G1 Z-0.0817 F40.
N6590 X-0.5702 Y0.2787 Z-0.0838
N6595 X-0.5701 Y0.2795 Z-0.0857
N6600 X-0.5698 Y0.2807 Z-0.0873
N6605 X-0.5695 Y0.2823 Z-0.0886
N6610 X-0.5691 Y0.2842 Z-0.0893
N6615 X-0.5687 Y0.2862 Z-0.0896
N6620 G3 X-0.5716 Y0.2873 I-0.0015 J0.0003
N6625 G1 X-0.5733 Y0.2844
N6630 X-0.5772 Y0.2758
N6635 X-0.581 Y0.2675
N6640 X-0.5828 Y0.2631
N6645 X-0.5922 Y0.2393
N6650 X-0.5941 Y0.2336
N6655 X-0.5954 Y0.2278
N6660 X-0.5961 Y0.2218
N6665 X-0.5964 Y0.2144
N6670 X-0.5961 Y0.2058
N6675 X-0.5949 Y0.196
N6680 X-0.5923 Y0.1828
N6685 X-0.5881 Y0.1684
N6690 X-0.5809 Y0.1492
N6695 X-0.5703 Y0.1268
N6700 X-0.5581 Y0.1051
N6705 X-0.5448 Y0.0841
N6710 X-0.5306 Y0.0638
N6715 X-0.5156 Y0.0441
N6720 X-0.4997 Y0.025
N6725 X-0.483 Y0.0066
N6730 X-0.4655 Y-0.011
N6735 X-0.4471 Y-0.0277
N6740 X-0.4278 Y-0.0433
N6745 X-0.4075 Y-0.0576
N6750 X-0.3862 Y-0.0703
N6755 X-0.3661 Y-0.0803
N6760 X-0.347 Y-0.0879
N6765 X-0.3292 Y-0.0934
N6770 X-0.3127 Y-0.0971
N6775 X-0.2978 Y-0.0991
N6780 X-0.2851 Y-0.0999
N6785 X-0.2735 Y-0.0996
N6790 X-0.2632 Y-0.0986
N6795 X-0.2548 Y-0.097
N6800 X-0.2478 Y-0.0951
N6805 X-0.242 Y-0.093
N6810 X-0.2365 Y-0.0906
N6815 X-0.2328 Y-0.0885
N6820 X-0.228 Y-0.0845
N6825 X-0.2248 Y-0.0791
N6830 X-0.2236 Y-0.073
N6835 X-0.2245 Y-0.0668
N6840 X-0.2251 Y-0.0648
N6845 X-0.2263 Y-0.0591
N6850 X-0.2273 Y-0.0535
N6855 X-0.2287 Y-0.0436
N6860 G3 X-0.2298 Y-0.0407 I-0.0078 J-0.0014
N6865 G1 X-0.2309 Y-0.039 Z-0.0893
N6870 X-0.232 Y-0.0374 Z-0.0886
N6875 X-0.2328 Y-0.036 Z-0.0873
N6880 X-0.2335 Y-0.035 Z-0.0857
N6885 X-0.2339 Y-0.0343 Z-0.0838
N6890 X-0.2341 Y-0.0341 Z-0.0817
N6895 G0 Z0.1004
N6900 X-0.5896 Y0.2308
N6905 Z-0.0739
N6910 G1 Z-0.0817 F40.
N6915 Y0.231 Z-0.0838
N6920 X-0.5895 Y0.2318 Z-0.0857
N6925 Y0.2331 Z-0.0873
N6930 X-0.5894 Y0.2347 Z-0.0886
N6935 X-0.5893 Y0.2366 Z-0.0893
N6940 X-0.5892 Y0.2386 Z-0.0896
N6945 G3 X-0.5922 Y0.2393 I-0.0016 J0.0001
N6950 G1 X-0.6076 Y0.1999
N6955 X-0.6096 Y0.1942
N6960 X-0.611 Y0.1884
N6965 X-0.6117 Y0.1824
N6970 X-0.612 Y0.1755
N6975 X-0.6117 Y0.168
N6980 X-0.6106 Y0.1591
N6985 X-0.6081 Y0.1472
N6990 X-0.6045 Y0.1348
N6995 X-0.5981 Y0.1179
N7000 X-0.5879 Y0.0964
N7005 X-0.5754 Y0.0749
N7010 X-0.5618 Y0.0542
N7015 X-0.5472 Y0.0342
N7020 X-0.5317 Y0.0147
N7025 X-0.5155 Y-0.004
N7030 X-0.4984 Y-0.0221
N7035 X-0.4806 Y-0.0393
N7040 X-0.4619 Y-0.0557
N7045 X-0.4422 Y-0.0709
N7050 X-0.4217 Y-0.0849
N7055 X-0.4003 Y-0.0974
N7060 X-0.3785 Y-0.1081
N7065 X-0.3575 Y-0.1164
N7070 X-0.3376 Y-0.1224
N7075 X-0.32 Y-0.1263
N7080 X-0.3037 Y-0.1285
N7085 X-0.2886 Y-0.1293
N7090 X-0.275 Y-0.1289
N7095 X-0.2637 Y-0.1277
N7100 X-0.2535 Y-0.1258
N7105 X-0.2455 Y-0.1236
N7110 X-0.2383 Y-0.121
N7115 X-0.2328 Y-0.1185
N7120 X-0.2276 Y-0.1155
N7125 X-0.2227 Y-0.1121
N7130 X-0.2202 Y-0.1101
N7135 X-0.2164 Y-0.1056
N7140 X-0.2141 Y-0.1
N7145 X-0.2138 Y-0.0941
N7150 X-0.2153 Y-0.0884
N7155 X-0.2224 Y-0.0727
N7160 X-0.2233 Y-0.0704
N7165 X-0.2245 Y-0.0668
N7170 G3 X-0.2261 Y-0.0642 I-0.0074 J-0.0027
N7175 G1 X-0.2274 Y-0.0627 Z-0.0893
N7180 X-0.2287 Y-0.0613 Z-0.0886
N7185 X-0.2298 Y-0.0601 Z-0.0873
N7190 X-0.2307 Y-0.0592 Z-0.0857
N7195 X-0.2312 Y-0.0586 Z-0.0838
N7200 X-0.2314 Y-0.0584 Z-0.0817
N7205 G0 Z0.1004
N7210 X-0.6051 Y0.1913
N7215 Z-0.0739
N7220 G1 Z-0.0817 F40.
N7225 X-0.605 Y0.1916 Z-0.0838
N7230 Y0.1924 Z-0.0857
N7235 X-0.6049 Y0.1936 Z-0.0873
N7240 X-0.6048 Y0.1953 Z-0.0886
N7245 X-0.6047 Y0.1972 Z-0.0893
N7250 X-0.6046 Y0.1992 Z-0.0896
N7255 G3 X-0.6076 Y0.1999 I-0.0016 J0.0001
N7260 G1 X-0.611 Y0.1914
N7265 X-0.612 Y0.1886
N7270 X-0.6185 Y0.1605
N7275 X-0.6223 Y0.1439
N7280 X-0.6233 Y0.138
N7285 X-0.6236 Y0.132
N7290 X-0.6233 Y0.1252
N7295 X-0.6223 Y0.1167
N7300 X-0.6205 Y0.108
N7305 X-0.6171 Y0.0963
N7310 X-0.612 Y0.0829
N7315 X-0.6035 Y0.0649
N7320 X-0.5911 Y0.0434
N7325 X-0.5772 Y0.0229
N7330 X-0.5622 Y0.0031
N7335 X-0.5463 Y-0.016
N7340 X-0.5297 Y-0.0344
N7345 X-0.5122 Y-0.0521
N7350 X-0.494 Y-0.0689
N7355 X-0.4749 Y-0.0848
N7360 X-0.455 Y-0.0996
N7365 X-0.4342 Y-0.1133
N7370 X-0.4127 Y-0.1255
N7375 X-0.3903 Y-0.1363
N7380 X-0.3676 Y-0.1451
N7385 X-0.3462 Y-0.1515
N7390 X-0.3263 Y-0.1558
N7395 X-0.3082 Y-0.1582
N7400 X-0.2917 Y-0.159
N7405 X-0.2764 Y-0.1586
N7410 X-0.2629 Y-0.1571
N7415 X-0.2517 Y-0.1549
N7420 X-0.2417 Y-0.1521
N7425 X-0.2328 Y-0.1489
N7430 X-0.2262 Y-0.1458
N7435 X-0.2199 Y-0.1423
N7440 X-0.2149 Y-0.1389
N7445 X-0.2103 Y-0.1351
N7450 X-0.2082 Y-0.1331
N7455 X-0.2048 Y-0.1285
N7460 X-0.203 Y-0.1232
N7465 X-0.2028 Y-0.1175
N7470 X-0.2045 Y-0.1121
N7475 X-0.2055 Y-0.1098
N7480 X-0.2153 Y-0.0884
N7485 G3 X-0.2172 Y-0.0859 I-0.007 J-0.0035
N7490 G1 X-0.2188 Y-0.0846 Z-0.0893
N7495 X-0.2202 Y-0.0834 Z-0.0886
N7500 X-0.2214 Y-0.0823 Z-0.0873
N7505 X-0.2224 Y-0.0815 Z-0.0857
N7510 X-0.223 Y-0.081 Z-0.0838
N7515 X-0.2232 Y-0.0808 Z-0.0817
N7520 G0 Z0.1004
N7525 X-0.6184 Y0.1358
N7530 Z-0.0739
N7535 G1 Z-0.0817 F40.
N7540 X-0.6185 Y0.1361 Z-0.0838
N7545 Y0.1368 Z-0.0857
N7550 X-0.6186 Y0.1381 Z-0.0873
N7555 X-0.6188 Y0.1397 Z-0.0886
N7560 X-0.619 Y0.1416 Z-0.0893
N7565 X-0.6192 Y0.1436 Z-0.0896
N7570 G3 X-0.6223 Y0.1439 I-0.0016 J-0.0001
N7575 G1 X-0.6287 Y0.1154
N7580 X-0.6319 Y0.1011
N7585 X-0.6329 Y0.0952
N7590 X-0.6333 Y0.0892
N7595 X-0.6332 Y0.0832
N7600 X-0.6325 Y0.0767
N7605 X-0.6309 Y0.0684
N7610 X-0.6282 Y0.0584
N7615 X-0.6242 Y0.0473
N7620 X-0.6175 Y0.0327
N7625 X-0.6071 Y0.0141
N7630 X-0.5933 Y-0.0065
N7635 X-0.5782 Y-0.0262
N7640 X-0.562 Y-0.045
N7645 X-0.5451 Y-0.0631
N7650 X-0.5273 Y-0.0805
N7655 X-0.5088 Y-0.097
N7660 X-0.4894 Y-0.1126
N7665 X-0.4693 Y-0.1271
N7670 X-0.4485 Y-0.1406
N7675 X-0.4268 Y-0.1527
N7680 X-0.4044 Y-0.1635
N7685 X-0.3814 Y-0.1727
N7690 X-0.3583 Y-0.1799
N7695 X-0.3363 Y-0.1848
N7700 X-0.3157 Y-0.1878
N7705 X-0.2964 Y-0.1889
N7710 X-0.2796 Y-0.1886
N7715 X-0.2645 Y-0.1871
N7720 X-0.2506 Y-0.1846
N7725 X-0.2384 Y-0.1813
N7730 X-0.2281 Y-0.1777
N7735 X-0.2191 Y-0.1737
N7740 X-0.2122 Y-0.1699
N7745 X-0.206 Y-0.1658
N7750 X-0.2013 Y-0.1622
N7755 X-0.1969 Y-0.1581
N7760 X-0.1929 Y-0.1536
N7765 X-0.1902 Y-0.1482
N7770 X-0.1893 Y-0.1422
N7775 X-0.1905 Y-0.1363
N7780 X-0.1935 Y-0.1311
N7785 X-0.1971 Y-0.1267
N7790 X-0.1979 Y-0.1254
N7795 X-0.1987 Y-0.1241
N7800 X-0.2045 Y-0.1121
N7805 G3 X-0.2064 Y-0.1097 I-0.007 J-0.0036
N7810 G1 X-0.2079 Y-0.1083 Z-0.0893
N7815 X-0.2094 Y-0.1071 Z-0.0886
N7820 X-0.2106 Y-0.1061 Z-0.0873
N7825 X-0.2116 Y-0.1053 Z-0.0857
N7830 X-0.2122 Y-0.1048 Z-0.0838
N7835 X-0.2124 Y-0.1046 Z-0.0817
N7840 G0 Z0.1004
N7845 X-0.6281 Y0.093
N7850 Z-0.0739
N7855 G1 Z-0.0817 F40.
N7860 Y0.0933 Z-0.0838
N7865 X-0.6282 Y0.0941 Z-0.0857
N7870 X-0.6283 Y0.0953 Z-0.0873
N7875 X-0.6285 Y0.0969 Z-0.0886
N7880 X-0.6286 Y0.0988 Z-0.0893
N7885 X-0.6289 Y0.1008 Z-0.0896
N7890 G3 X-0.6319 Y0.1011 I-0.0016 J-0.0002
N7895 G1 X-0.6325 Y0.0985
N7900 X-0.6335 Y0.0929
N7905 X-0.6373 Y0.0422
N7910 X-0.6374 Y0.0362
N7915 X-0.6371 Y0.0302
N7920 X-0.6361 Y0.0241
N7925 X-0.6343 Y0.0165
N7930 X-0.6313 Y0.0071
N7935 X-0.627 Y-0.0031
N7940 X-0.62 Y-0.0168
N7945 X-0.6096 Y-0.0336
N7950 X-0.5949 Y-0.0535
N7955 X-0.5787 Y-0.0724
N7960 X-0.5616 Y-0.0904
N7965 X-0.5436 Y-0.1075
N7970 X-0.5249 Y-0.1238
N7975 X-0.5054 Y-0.1392
N7980 X-0.4852 Y-0.1536
N7985 X-0.4643 Y-0.1669
N7990 X-0.4427 Y-0.1791
N7995 X-0.4203 Y-0.19
N8000 X-0.3974 Y-0.1994
N8005 X-0.3738 Y-0.2073
N8010 X-0.3501 Y-0.2132
N8015 X-0.3271 Y-0.2171
N8020 X-0.3057 Y-0.2189
N8025 X-0.2859 Y-0.219
N8030 X-0.2676 Y-0.2176
N8035 X-0.2515 Y-0.2151
N8040 X-0.2374 Y-0.2117
N8045 X-0.2248 Y-0.2075
N8050 X-0.2137 Y-0.2029
N8055 X-0.2046 Y-0.1982
N8060 X-0.1966 Y-0.1932
N8065 X-0.1911 Y-0.1892
N8070 X-0.1861 Y-0.1847
N8075 X-0.1819 Y-0.1804
N8080 X-0.1781 Y-0.1758
N8085 X-0.176 Y-0.1725
N8090 X-0.1736 Y-0.1671
N8095 X-0.173 Y-0.1612
N8100 X-0.1743 Y-0.1554
N8105 X-0.1774 Y-0.1504
N8110 X-0.1833 Y-0.1436
N8115 X-0.1935 Y-0.1311
N8120 G3 X-0.1959 Y-0.1292 I-0.0059 J-0.0052
N8125 G1 X-0.1977 Y-0.1283 Z-0.0893
N8130 X-0.1994 Y-0.1275 Z-0.0886
N8135 X-0.2009 Y-0.1268 Z-0.0873
N8140 X-0.202 Y-0.1262 Z-0.0857
N8145 X-0.2027 Y-0.1259 Z-0.0838
N8150 X-0.203 Y-0.1258 Z-0.0817
N8155 G0 Z0.1004
N8160 X-0.6323 Y0.0348
N8165 Z-0.0739
N8170 G1 Z-0.0817 F40.
N8175 X-0.6324 Y0.0351 Z-0.0838
N8180 X-0.6326 Y0.0358 Z-0.0857
N8185 X-0.6329 Y0.037 Z-0.0873
N8190 X-0.6333 Y0.0386 Z-0.0886
N8195 X-0.6337 Y0.0405 Z-0.0893
N8200 X-0.6342 Y0.0424 Z-0.0896
N8205 G3 X-0.6373 Y0.0422 I-0.0015 J-0.0004
N8210 G1 X-0.6403 Y0.0028
N8215 Y-0.0028
N8220 X-0.6394 Y-0.0141
N8225 X-0.6385 Y-0.0216
N8230 X-0.6372 Y-0.0278
N8235 X-0.6349 Y-0.0355
N8240 X-0.6316 Y-0.0442
N8245 X-0.6268 Y-0.0542
N8250 X-0.6194 Y-0.0669
N8255 X-0.6083 Y-0.0829
N8260 X-0.5926 Y-0.1021
N8265 X-0.5754 Y-0.12
N8270 X-0.5572 Y-0.1369
N8275 X-0.5382 Y-0.1529
N8280 X-0.5185 Y-0.168
N8285 X-0.4981 Y-0.1821
N8290 X-0.477 Y-0.1952
N8295 X-0.4553 Y-0.2072
N8300 X-0.4329 Y-0.218
N8305 X-0.41 Y-0.2274
N8310 X-0.3865 Y-0.2354
N8315 X-0.3625 Y-0.2418
N8320 X-0.3381 Y-0.2464
N8325 X-0.3145 Y-0.2489
N8330 X-0.2921 Y-0.2494
N8335 X-0.2714 Y-0.2483
N8340 X-0.2525 Y-0.2457
N8345 X-0.2357 Y-0.242
N8350 X-0.2212 Y-0.2376
N8355 X-0.2081 Y-0.2324
N8360 X-0.1968 Y-0.2269
N8365 X-0.1875 Y-0.2213
N8370 X-0.1795 Y-0.2157
N8375 X-0.1732 Y-0.2103
N8380 X-0.168 Y-0.2052
N8385 X-0.164 Y-0.2006
N8390 X-0.1604 Y-0.1957
N8395 X-0.1573 Y-0.1906
N8400 X-0.1572 Y-0.1904
N8405 X-0.1555 Y-0.1834
N8410 X-0.1566 Y-0.1762
N8415 X-0.1603 Y-0.17
N8420 X-0.1638 Y-0.1661
N8425 X-0.1774 Y-0.1504
N8430 G3 X-0.1799 Y-0.1486 I-0.0058 J-0.0054
N8435 G1 X-0.1818 Y-0.1477 Z-0.0893
N8440 X-0.1835 Y-0.147 Z-0.0886
N8445 X-0.185 Y-0.1463 Z-0.0873
N8450 X-0.1861 Y-0.1458 Z-0.0857
N8455 X-0.1869 Y-0.1454 Z-0.0838
N8460 X-0.1871 Y-0.1453 Z-0.0817
N8465 G0 Z0.1004
N8470 X-0.6334 Y-0.0207
N8475 Z-0.0739
N8480 G1 Z-0.0817 F40.
N8485 X-0.6335 Y-0.0204 Z-0.0838
N8490 X-0.6338 Y-0.0197 Z-0.0857
N8495 X-0.6342 Y-0.0186 Z-0.0873
N8500 X-0.6349 Y-0.017 Z-0.0886
N8505 X-0.6356 Y-0.0153 Z-0.0893
N8510 X-0.6364 Y-0.0134 Z-0.0896
N8515 G3 X-0.6394 Y-0.0141 I-0.0014 J-0.0006
N8520 G1 X-0.6352 Y-0.0704
N8525 X-0.6344 Y-0.0763
N8530 X-0.6329 Y-0.0824
N8535 X-0.6303 Y-0.0898
N8540 X-0.627 Y-0.0972
N8545 X-0.6219 Y-0.1067
N8550 X-0.6146 Y-0.118
N8555 X-0.6035 Y-0.1323
N8560 X-0.5882 Y-0.1493
N8565 X-0.5701 Y-0.1663
N8570 X-0.5509 Y-0.1821
N8575 X-0.5311 Y-0.197
N8580 X-0.5105 Y-0.2109
N8585 X-0.4893 Y-0.2238
N8590 X-0.4675 Y-0.2356
N8595 X-0.445 Y-0.2463
N8600 X-0.4221 Y-0.2557
N8605 X-0.3986 Y-0.2638
N8610 X-0.3747 Y-0.2704
N8615 X-0.3504 Y-0.2754
N8620 X-0.3258 Y-0.2787
N8625 X-0.3015 Y-0.28
N8630 X-0.2784 Y-0.2794
N8635 X-0.2568 Y-0.2771
N8640 X-0.2373 Y-0.2734
N8645 X-0.2195 Y-0.2685
N8650 X-0.2038 Y-0.2628
N8655 X-0.1906 Y-0.2568
N8660 X-0.179 Y-0.2503
N8665 X-0.1689 Y-0.2435
N8670 X-0.1605 Y-0.237
N8675 X-0.1536 Y-0.2305
N8680 X-0.1489 Y-0.2254
N8685 X-0.1449 Y-0.2202
N8690 X-0.1416 Y-0.2151
N8695 X-0.1387 Y-0.2099
N8700 X-0.1372 Y-0.2063
N8705 X-0.1358 Y-0.2001
N8710 X-0.1366 Y-0.1938
N8715 X-0.1395 Y-0.1881
N8720 X-0.1442 Y-0.1838
N8725 X-0.1492 Y-0.1805
N8730 X-0.1549 Y-0.1758
N8735 X-0.1587 Y-0.1718
N8740 X-0.1603 Y-0.17
N8745 G3 X-0.1628 Y-0.1683 I-0.0056 J-0.0055
N8750 G1 X-0.1647 Y-0.1675 Z-0.0893
N8755 X-0.1665 Y-0.1668 Z-0.0886
N8760 X-0.168 Y-0.1661 Z-0.0873
N8765 X-0.1691 Y-0.1657 Z-0.0857
N8770 X-0.1698 Y-0.1654 Z-0.0838
N8775 X-0.1701 Y-0.1652 Z-0.0817
N8780 G0 Z0.1004
N8785 X-0.6291 Y-0.077
N8790 Z-0.0739
N8795 G1 Z-0.0817 F40.
N8800 X-0.6292 Y-0.0767 Z-0.0838
N8805 X-0.6295 Y-0.076 Z-0.0857
N8810 X-0.63 Y-0.0749 Z-0.0873
N8815 X-0.6307 Y-0.0734 Z-0.0886
N8820 X-0.6314 Y-0.0716 Z-0.0893
N8825 X-0.6322 Y-0.0697 Z-0.0896
N8830 G3 X-0.6352 Y-0.0704 I-0.0014 J-0.0006
N8835 G1 X-0.6335 Y-0.0929
N8840 X-0.6325 Y-0.0985
N8845 X-0.6279 Y-0.1192
N8850 X-0.6249 Y-0.1323
N8855 X-0.6233 Y-0.1381
N8860 X-0.6209 Y-0.1439
N8865 X-0.6174 Y-0.151
N8870 X-0.6121 Y-0.1599
N8875 X-0.6054 Y-0.1692
N8880 X-0.5949 Y-0.1816
N8885 X-0.5804 Y-0.1963
N8890 X-0.5615 Y-0.2124
N8895 X-0.5416 Y-0.2272
N8900 X-0.5209 Y-0.2409
N8905 X-0.4995 Y-0.2535
N8910 X-0.4775 Y-0.2651
N8915 X-0.455 Y-0.2755
N8920 X-0.432 Y-0.2848
N8925 X-0.4085 Y-0.2929
N8930 X-0.3846 Y-0.2996
N8935 X-0.3604 Y-0.3048
N8940 X-0.3358 Y-0.3084
N8945 X-0.3111 Y-0.3104
N8950 X-0.2862
N8955 X-0.2625 Y-0.3086
N8960 X-0.2402 Y-0.3051
N8965 X-0.2197 Y-0.3001
N8970 X-0.2014 Y-0.294
N8975 X-0.185 Y-0.2871
N8980 X-0.1708 Y-0.2798
N8985 X-0.1588 Y-0.2723
N8990 X-0.1486 Y-0.2647
N8995 X-0.1401 Y-0.2572
N9000 X-0.1331 Y-0.25
N9005 X-0.1277 Y-0.2434
N9010 X-0.1236 Y-0.2376
N9015 X-0.1203 Y-0.232
N9020 X-0.1177 Y-0.2265
N9025 X-0.1156 Y-0.2209
N9030 X-0.1148 Y-0.2179
N9035 X-0.1142 Y-0.2121
N9040 X-0.1154 Y-0.2065
N9045 X-0.1183 Y-0.2015
N9050 X-0.1226 Y-0.1977
N9055 X-0.1442 Y-0.1838
N9060 G3 X-0.1471 Y-0.1828 I-0.004 J-0.0068
N9065 G1 X-0.1491 Y-0.1825 Z-0.0893
N9070 X-0.151 Y-0.1822 Z-0.0886
N9075 X-0.1526 Y-0.182 Z-0.0873
N9080 X-0.1538 Y-0.1818 Z-0.0857
N9085 X-0.1546 Y-0.1817 Z-0.0838
N9090 X-0.1549 Y-0.1816 Z-0.0817
N9095 G0 Z0.1004
N9100 X-0.6179 Y-0.138
N9105 Z-0.0739
N9110 G1 Z-0.0817 F40.
N9115 X-0.6181 Y-0.1377 Z-0.0838
N9120 X-0.6185 Y-0.1371 Z-0.0857
N9125 X-0.6191 Y-0.136 Z-0.0873
N9130 X-0.62 Y-0.1346 Z-0.0886
N9135 X-0.621 Y-0.133 Z-0.0893
N9140 X-0.622 Y-0.1312 Z-0.0896
N9145 G3 X-0.6249 Y-0.1323 I-0.0013 J-0.0008
N9150 G1 X-0.6159 Y-0.1718
N9155 X-0.6133 Y-0.183
N9160 X-0.6116 Y-0.1888
N9165 X-0.6094 Y-0.1943
N9170 X-0.6062 Y-0.2007
N9175 X-0.6015 Y-0.2082
N9180 X-0.5958 Y-0.2159
N9185 X-0.5871 Y-0.2261
N9190 X-0.5759 Y-0.2371
N9195 X-0.5591 Y-0.2511
N9200 X-0.5389 Y-0.2655
N9205 X-0.5177 Y-0.2785
N9210 X-0.4959 Y-0.2903
N9215 X-0.4735 Y-0.3011
N9220 X-0.4507 Y-0.3108
N9225 X-0.4273 Y-0.3193
N9230 X-0.4036 Y-0.3265
N9235 X-0.3795 Y-0.3325
N9240 X-0.3551 Y-0.337
N9245 X-0.3304 Y-0.3399
N9250 X-0.3056 Y-0.3412
N9255 X-0.2808 Y-0.3408
N9260 X-0.2561 Y-0.3386
N9265 X-0.2321 Y-0.3345
N9270 X-0.2098 Y-0.3289
N9275 X-0.1897 Y-0.322
N9280 X-0.1723 Y-0.3145
N9285 X-0.1569 Y-0.3063
N9290 X-0.1433 Y-0.2976
N9295 X-0.1315 Y-0.2886
N9300 X-0.1219 Y-0.28
N9305 X-0.1141 Y-0.2718
N9310 X-0.1076 Y-0.2638
N9315 X-0.1024 Y-0.2561
N9320 X-0.0988 Y-0.2499
N9325 X-0.0958 Y-0.2435
N9330 X-0.0937 Y-0.2379
N9335 X-0.0921 Y-0.2321
N9340 X-0.0915 Y-0.226
N9345 X-0.093 Y-0.2201
N9350 X-0.0963 Y-0.2149
N9355 X-0.1011 Y-0.2112
N9360 X-0.1042 Y-0.2093
N9365 X-0.1104 Y-0.2055
N9370 X-0.1226 Y-0.1977
N9375 G3 X-0.1255 Y-0.1967 I-0.004 J-0.0068
N9380 G1 X-0.1275 Y-0.1964 Z-0.0893
N9385 X-0.1294 Y-0.1961 Z-0.0886
N9390 X-0.131 Y-0.1959 Z-0.0873
N9395 X-0.1323 Y-0.1957 Z-0.0857
N9400 X-0.133 Y-0.1956 Z-0.0838
N9405 X-0.1333 Y-0.1955 Z-0.0817
N9410 G0 Z0.1004
N9415 X-0.6063 Y-0.1886
N9420 Z-0.0739
N9425 G1 Z-0.0817 F40.
N9430 X-0.6064 Y-0.1884 Z-0.0838
N9435 X-0.6068 Y-0.1877 Z-0.0857
N9440 X-0.6075 Y-0.1867 Z-0.0873
N9445 X-0.6083 Y-0.1853 Z-0.0886
N9450 X-0.6093 Y-0.1836 Z-0.0893
N9455 X-0.6104 Y-0.1819 Z-0.0896
N9460 G3 X-0.6133 Y-0.183 I-0.0013 J-0.0008
N9465 G1 X-0.612 Y-0.1886
N9470 X-0.611 Y-0.1914
N9475 X-0.59 Y-0.245
N9480 X-0.5875 Y-0.2504
N9485 X-0.5845 Y-0.2558
N9490 X-0.5801 Y-0.2622
N9495 X-0.5748 Y-0.2689
N9500 X-0.5672 Y-0.2769
N9505 X-0.5568 Y-0.2864
N9510 X-0.5416 Y-0.298
N9515 X-0.5213 Y-0.3111
N9520 X-0.4995 Y-0.3229
N9525 X-0.4769 Y-0.3333
N9530 X-0.4539 Y-0.3426
N9535 X-0.4305 Y-0.3507
N9540 X-0.4066 Y-0.3577
N9545 X-0.3824 Y-0.3633
N9550 X-0.358 Y-0.3676
N9555 X-0.3333 Y-0.3704
N9560 X-0.3085 Y-0.3718
N9565 X-0.2837 Y-0.3716
N9570 X-0.259 Y-0.3697
N9575 X-0.2344 Y-0.3662
N9580 X-0.2103 Y-0.3608
N9585 X-0.1881 Y-0.3539
N9590 X-0.1679 Y-0.3458
N9595 X-0.1496 Y-0.3367
N9600 X-0.1332 Y-0.3269
N9605 X-0.1192 Y-0.3168
N9610 X-0.1076 Y-0.3071
N9615 X-0.0978 Y-0.2973
N9620 X-0.0896 Y-0.2877
N9625 X-0.0829 Y-0.2785
N9630 X-0.0778 Y-0.2701
N9635 X-0.0742 Y-0.263
N9640 X-0.0715 Y-0.2563
N9645 X-0.0697 Y-0.2506
N9650 X-0.0684 Y-0.2448
N9655 X-0.0677 Y-0.2388
N9660 X-0.0676 Y-0.2368
N9665 X-0.0684 Y-0.2308
N9670 X-0.0711 Y-0.2255
N9675 X-0.0754 Y-0.2213
N9680 X-0.0808 Y-0.2187
N9685 X-0.0873 Y-0.2168
N9690 X-0.0929 Y-0.2149
N9695 X-0.0985 Y-0.2126
N9700 X-0.1011 Y-0.2112
N9705 G3 X-0.1041 Y-0.2104 I-0.0035 J-0.007
N9710 G1 X-0.1061 Y-0.2102 Z-0.0893
N9715 X-0.108 Y-0.2101 Z-0.0886
N9720 X-0.1096 Y-0.21 Z-0.0873
N9725 X-0.1109 Y-0.2099 Z-0.0857
N9730 X-0.1116 Y-0.2098 Z-0.0838
N9735 X-0.1119 Z-0.0817
N9740 G0 Z0.1004
N9745 X-0.5822 Y-0.2495
N9750 Z-0.0739
N9755 G1 Z-0.0817 F40.
N9760 X-0.5824 Y-0.2493 Z-0.0838
N9765 X-0.5829 Y-0.2487 Z-0.0857
N9770 X-0.5837 Y-0.2477 Z-0.0873
N9775 X-0.5848 Y-0.2465 Z-0.0886
N9780 X-0.586 Y-0.245 Z-0.0893
N9785 X-0.5873 Y-0.2434 Z-0.0896
N9790 G3 X-0.59 Y-0.245 I-0.0012 J-0.001
N9795 G1 X-0.5828 Y-0.2631
N9800 X-0.581 Y-0.2675
N9805 X-0.5759 Y-0.2787
N9810 X-0.5733 Y-0.2844
N9815 X-0.5618 Y-0.3043
N9820 X-0.5582 Y-0.3098
N9825 X-0.5543 Y-0.3149
N9830 X-0.5488 Y-0.3211
N9835 X-0.5409 Y-0.3285
N9840 X-0.5314 Y-0.3361
N9845 X-0.5174 Y-0.3456
N9850 X-0.4979 Y-0.3566
N9855 X-0.4754 Y-0.3671
N9860 X-0.4522 Y-0.376
N9865 X-0.4286 Y-0.3836
N9870 X-0.4046 Y-0.39
N9875 X-0.3803 Y-0.3952
N9880 X-0.3558 Y-0.399
N9885 X-0.3311 Y-0.4015
N9890 X-0.3063 Y-0.4026
N9895 X-0.2815 Y-0.4022
N9900 X-0.2567 Y-0.4003
N9905 X-0.2321 Y-0.3968
N9910 X-0.2079 Y-0.3917
N9915 X-0.184 Y-0.3848
N9920 X-0.1616 Y-0.3763
N9925 X-0.1409 Y-0.3665
N9930 X-0.1223 Y-0.3557
N9935 X-0.1061 Y-0.3446
N9940 X-0.0921 Y-0.3332
N9945 X-0.0806 Y-0.3222
N9950 X-0.0708 Y-0.3112
N9955 X-0.0628 Y-0.3006
N9960 X-0.0565 Y-0.2906
N9965 X-0.0518 Y-0.2817
N9970 X-0.0481 Y-0.273
N9975 X-0.0457 Y-0.2661
N9980 X-0.044 Y-0.2593
N9985 X-0.043 Y-0.2534
N9990 X-0.0426 Y-0.2474
N9995 X-0.0427 Y-0.2432
N10000 X-0.0437 Y-0.2376
N10005 X-0.0464 Y-0.2325
N10010 X-0.0506 Y-0.2285
N10015 X-0.0559 Y-0.226
N10020 X-0.0808 Y-0.2187
N10025 G3 X-0.0839 Y-0.2185 I-0.002 J-0.0076
N10030 G1 X-0.0859 Y-0.2188 Z-0.0893
N10035 X-0.0878 Y-0.2191 Z-0.0886
N10040 X-0.0894 Y-0.2193 Z-0.0873
N10045 X-0.0906 Y-0.2195 Z-0.0857
N10050 X-0.0914 Y-0.2196 Z-0.0838
N10055 X-0.0917 Z-0.0817
N10060 G0 Z0.1004
N10065 X-0.5534 Y-0.3077
N10070 Z-0.0739
N10075 G1 Z-0.0817 F40.
N10080 X-0.5537 Y-0.3075 Z-0.0838
N10085 X-0.5542 Y-0.307 Z-0.0857
N10090 X-0.5552 Y-0.3061 Z-0.0873
N10095 X-0.5564 Y-0.305 Z-0.0886
N10100 X-0.5578 Y-0.3038 Z-0.0893
N10105 X-0.5593 Y-0.3024 Z-0.0896
N10110 G3 X-0.5618 Y-0.3043 I-0.001 J-0.0012
N10115 G1 X-0.5343 Y-0.352
N10120 X-0.5308 Y-0.3573
N10125 X-0.5271 Y-0.3621
N10130 X-0.5224 Y-0.3673
N10135 X-0.5158 Y-0.3734
N10140 X-0.5083 Y-0.3794
N10145 X-0.4971 Y-0.3868
N10150 X-0.4832 Y-0.3945
N10155 X-0.4633 Y-0.4036
N10160 X-0.4399 Y-0.412
N10165 X-0.4161 Y-0.4188
N10170 X-0.3918 Y-0.4243
N10175 X-0.3674 Y-0.4285
N10180 X-0.3427 Y-0.4315
N10185 X-0.318 Y-0.4331
N10190 X-0.2931 Y-0.4335
N10195 X-0.2683 Y-0.4323
N10200 X-0.2437 Y-0.4298
N10205 X-0.2192 Y-0.4257
N10210 X-0.195 Y-0.42
N10215 X-0.1713 Y-0.4127
N10220 X-0.1481 Y-0.4037
N10225 X-0.1259 Y-0.393
N10230 X-0.1057 Y-0.3812
N10235 X-0.0878 Y-0.3688
N10240 X-0.0728 Y-0.3564
N10245 X-0.0601 Y-0.3441
N10250 X-0.0491 Y-0.3316
N10255 X-0.0401 Y-0.3195
N10260 X-0.0327 Y-0.3078
N10265 X-0.0273 Y-0.2973
N10270 X-0.0231 Y-0.2875
N10275 X-0.0201 Y-0.2782
N10280 X-0.0182 Y-0.2706
N10285 X-0.0171 Y-0.2634
N10290 X-0.0166 Y-0.2574
N10295 X-0.0167 Y-0.2514
N10300 X-0.017 Y-0.2482
N10305 X-0.0186 Y-0.2424
N10310 X-0.022 Y-0.2373
N10315 X-0.0269 Y-0.2337
N10320 X-0.0327 Y-0.2319
N10325 X-0.0366 Y-0.2313
N10330 X-0.0548 Y-0.2263
N10335 X-0.0559 Y-0.226
N10340 G3 X-0.0589 Y-0.2258 I-0.0019 J-0.0076
N10345 G1 X-0.061 Y-0.2261 Z-0.0893
N10350 X-0.0628 Y-0.2264 Z-0.0886
N10355 X-0.0644 Y-0.2266 Z-0.0873
N10360 X-0.0657 Y-0.2268 Z-0.0857
N10365 X-0.0665 Y-0.2269 Z-0.0838
N10370 X-0.0667 Y-0.227 Z-0.0817
N10375 G0 Z0.1004
N10380 X-0.526 Y-0.3553
N10385 Z-0.0739
N10390 G1 Z-0.0817 F40.
N10395 X-0.5262 Y-0.3551 Z-0.0838
N10400 X-0.5267 Y-0.3546 Z-0.0857
N10405 X-0.5277 Y-0.3537 Z-0.0873
N10410 X-0.5289 Y-0.3527 Z-0.0886
N10415 X-0.5303 Y-0.3514 Z-0.0893
N10420 X-0.5318 Y-0.35 Z-0.0896
N10425 G3 X-0.5343 Y-0.352 I-0.001 J-0.0012
N10430 G1 X-0.531 Y-0.3576
N10435 X-0.5271 Y-0.3632
N10440 X-0.5138 Y-0.3801
N10445 X-0.4927 Y-0.4065
N10450 X-0.4876 Y-0.4123
N10455 X-0.483 Y-0.4168
N10460 X-0.4769 Y-0.4217
N10465 X-0.4698 Y-0.4266
N10470 X-0.4596 Y-0.4326
N10475 X-0.4471 Y-0.4386
N10480 X-0.4291 Y-0.4454
N10485 X-0.4053 Y-0.4524
N10490 X-0.381 Y-0.4575
N10495 X-0.3564 Y-0.4611
N10500 X-0.3317 Y-0.4634
N10505 X-0.3069 Y-0.4644
N10510 X-0.2821 Y-0.4641
N10515 X-0.2573 Y-0.4624
N10520 X-0.2327 Y-0.4593
N10525 X-0.2083 Y-0.4548
N10530 X-0.1842 Y-0.4488
N10535 X-0.1605 Y-0.4414
N10540 X-0.1374 Y-0.4323
N10545 X-0.1149 Y-0.4217
N10550 X-0.0934 Y-0.4095
N10555 X-0.0739 Y-0.3963
N10560 X-0.0567 Y-0.3826
N10565 X-0.0418 Y-0.3684
N10570 X-0.0289 Y-0.3542
N10575 X-0.0185 Y-0.3407
N10580 X-0.0102 Y-0.3278
N10585 X-0.0034 Y-0.3151
N10590 X0.0018 Y-0.3032
N10595 X0.0055 Y-0.2925
N10600 X0.008 Y-0.2828
N10605 X0.0094 Y-0.2748
N10610 X0.0101 Y-0.2673
N10615 X0.0102 Y-0.2613
N10620 X0.0097 Y-0.2554
N10625 X0.0088 Y-0.2494
N10630 X0.0079 Y-0.2462
N10635 X0.0054 Y-0.2408
N10640 X0.0013 Y-0.2364
N10645 X-0.0039 Y-0.2336
N10650 X-0.0099 Y-0.2326
N10655 X-0.0197
N10660 X-0.0253 Y-0.2325
N10665 X-0.031 Y-0.2321
N10670 X-0.0327 Y-0.2319
N10675 G3 X-0.0358 Y-0.2322 I-0.0008 J-0.0078
N10680 G1 X-0.0378 Y-0.2327 Z-0.0893
N10685 X-0.0396 Y-0.2333 Z-0.0886
N10690 X-0.0411 Y-0.2338 Z-0.0873
N10695 X-0.0423 Y-0.2341 Z-0.0857
N10700 X-0.0431 Y-0.2343 Z-0.0838
N10705 X-0.0433 Y-0.2344 Z-0.0817
N10710 G0 Z0.1004
N10715 X-0.484 Y-0.4085
N10720 Z-0.0739
N10725 G1 Z-0.0817 F40.
N10730 X-0.4842 Y-0.4084 Z-0.0838
N10735 X-0.4849 Y-0.408 Z-0.0857
N10740 X-0.486 Y-0.4073 Z-0.0873
N10745 X-0.4873 Y-0.4064 Z-0.0886
N10750 X-0.4889 Y-0.4053 Z-0.0893
N10755 X-0.4906 Y-0.4042 Z-0.0896
N10760 G3 X-0.4927 Y-0.4065 I-0.0009 J-0.0013
N10765 G1 X-0.4702 Y-0.4347
N10770 X-0.4685 Y-0.4364
N10775 X-0.4504 Y-0.4533
N10780 X-0.4477 Y-0.4559
N10785 X-0.4401 Y-0.4622
N10790 X-0.4347 Y-0.4661
N10795 X-0.4274 Y-0.4704
N10800 X-0.4176 Y-0.4752
N10805 X-0.4058 Y-0.4799
N10810 X-0.3892 Y-0.485
N10815 X-0.3669 Y-0.4899
N10820 X-0.3423 Y-0.4932
N10825 X-0.3175 Y-0.4949
N10830 X-0.2927 Y-0.4953
N10835 X-0.2679 Y-0.4943
N10840 X-0.2432 Y-0.4919
N10845 X-0.2187 Y-0.4883
N10850 X-0.1943 Y-0.4833
N10855 X-0.1704 Y-0.4769
N10860 X-0.1468 Y-0.4691
N10865 X-0.1237 Y-0.4598
N10870 X-0.1013 Y-0.4491
N10875 X-0.0797 Y-0.437
N10880 X-0.059 Y-0.4232
N10885 X-0.0401 Y-0.4084
N10890 X-0.0232 Y-0.3928
N10895 X-0.0088 Y-0.3772
N10900 X0.0034 Y-0.3617
N10905 X0.0132 Y-0.3468
N10910 X0.021 Y-0.3327
N10915 X0.0271 Y-0.3192
N10920 X0.0316 Y-0.3065
N10925 X0.0347 Y-0.2952
N10930 X0.0366 Y-0.2851
N10935 X0.0375 Y-0.2757
N10940 X0.0377 Y-0.268
N10945 X0.0373 Y-0.2608
N10950 X0.0365 Y-0.2548
N10955 X0.0351 Y-0.249
N10960 X0.0339 Y-0.2452
N10965 X0.0312 Y-0.2401
N10970 X0.0272 Y-0.2361
N10975 X0.0221 Y-0.2335
N10980 X0.0164 Y-0.2326
N10985 X-0.0099
N10990 G3 X-0.0128 Y-0.2333 I0.0003 J-0.0079
N10995 G1 X-0.0147 Y-0.2341 Z-0.0893
N11000 X-0.0164 Y-0.2349 Z-0.0886
N11005 X-0.0179 Y-0.2356 Z-0.0873
N11010 X-0.0191 Y-0.2361 Z-0.0857
N11015 X-0.0198 Y-0.2364 Z-0.0838
N11020 X-0.02 Y-0.2366 Z-0.0817
N11025 G0 Z0.1004
N11030 X-0.4388 Y-0.4566
N11035 Z-0.0739
N11040 G1 Z-0.0817 F40.
N11045 X-0.439 Y-0.4565 Z-0.0838
N11050 X-0.4397 Y-0.4561 Z-0.0857
N11055 X-0.4409 Y-0.4556 Z-0.0873
N11060 X-0.4423 Y-0.455 Z-0.0886
N11065 X-0.4441 Y-0.4542 Z-0.0893
N11070 X-0.4459 Y-0.4533 Z-0.0896
N11075 G3 X-0.4477 Y-0.4559 I-0.0007 J-0.0014
N11080 G1 X-0.4139 Y-0.4872
N11085 X-0.4079 Y-0.4927
N11090 X-0.4026 Y-0.4974
N11095 X-0.398 Y-0.5011
N11100 X-0.393 Y-0.5045
N11105 X-0.3864 Y-0.5081
N11110 X-0.3779 Y-0.512
N11115 X-0.3681 Y-0.5156
N11120 X-0.354 Y-0.5194
N11125 X-0.3369 Y-0.5226
N11130 X-0.3138 Y-0.5251
N11135 X-0.2889 Y-0.5257
N11140 X-0.2641 Y-0.5248
N11145 X-0.2394 Y-0.5225
N11150 X-0.2149 Y-0.5189
N11155 X-0.1905 Y-0.514
N11160 X-0.1665 Y-0.5078
N11165 X-0.1428 Y-0.5003
N11170 X-0.1196 Y-0.4915
N11175 X-0.0969 Y-0.4814
N11180 X-0.0749 Y-0.4699
N11185 X-0.0538 Y-0.4569
N11190 X-0.0336 Y-0.4425
N11195 X-0.0145 Y-0.4266
N11200 X0.0032 Y-0.4096
N11205 X0.018 Y-0.3926
N11210 X0.0303 Y-0.3761
N11215 X0.0406 Y-0.3597
N11220 X0.0489 Y-0.3438
N11225 X0.0553 Y-0.3285
N11230 X0.06 Y-0.3142
N11235 X0.0631 Y-0.3016
N11240 X0.065 Y-0.2899
N11245 X0.0658 Y-0.2791
N11250 Y-0.2697
N11255 X0.0652 Y-0.2622
N11260 X0.064 Y-0.2553
N11265 X0.0626 Y-0.2495
N11270 X0.0606 Y-0.2438
N11275 X0.0594 Y-0.2412
N11280 X0.0557 Y-0.2358
N11285 X0.0505 Y-0.2321
N11290 X0.0442 Y-0.2304
N11295 X0.0378 Y-0.231
N11300 X0.0366 Y-0.2313
N11305 X0.031 Y-0.2321
N11310 X0.0253 Y-0.2325
N11315 X0.0164 Y-0.2326
N11320 G3 X0.0134 Y-0.2333 I0.0003 J-0.0079
N11325 G1 X0.0116 Y-0.2341 Z-0.0893
N11330 X0.0098 Y-0.2349 Z-0.0886
N11335 X0.0083 Y-0.2356 Z-0.0873
N11340 X0.0072 Y-0.2361 Z-0.0857
N11345 X0.0065 Y-0.2365 Z-0.0838
N11350 X0.0062 Y-0.2366 Z-0.0817
N11355 G0 Z0.1004
N11360 X-0.3937 Y-0.4979
N11365 Z-0.0739
N11370 G1 Z-0.0817 F40.
N11375 X-0.3939 Y-0.4978 Z-0.0838
N11380 X-0.3947 Y-0.4975 Z-0.0857
N11385 X-0.3958 Y-0.497 Z-0.0873
N11390 X-0.3973 Y-0.4963 Z-0.0886
N11395 X-0.3991 Y-0.4956 Z-0.0893
N11400 X-0.4009 Y-0.4948 Z-0.0896
N11405 G3 X-0.4026 Y-0.4974 I-0.0006 J-0.0014
N11410 G1 X-0.397 Y-0.5023
N11415 X-0.3463 Y-0.5369
N11420 X-0.341 Y-0.5401
N11425 X-0.3355 Y-0.5429
N11430 X-0.3284 Y-0.5458
N11435 X-0.3196 Y-0.5486
N11440 X-0.3089 Y-0.5511
N11445 X-0.2944 Y-0.5532
N11450 X-0.2756 Y-0.5545
N11455 X-0.2517 Y-0.5541
N11460 X-0.227 Y-0.5518
N11465 X-0.2025 Y-0.5479
N11470 X-0.1782 Y-0.5427
N11475 X-0.1543 Y-0.5363
N11480 X-0.1306 Y-0.5287
N11485 X-0.1075 Y-0.5198
N11490 X-0.0848 Y-0.5097
N11495 X-0.0628 Y-0.4982
N11500 X-0.0414 Y-0.4855
N11505 X-0.021 Y-0.4714
N11510 X-0.0015 Y-0.4561
N11515 X0.0169 Y-0.4394
N11520 X0.0337 Y-0.4216
N11525 X0.0483 Y-0.4035
N11530 X0.0608 Y-0.3851
N11535 X0.0711 Y-0.367
N11540 X0.0793 Y-0.3494
N11545 X0.0855 Y-0.3327
N11550 X0.0899 Y-0.3171
N11555 X0.0927 Y-0.3031
N11560 X0.0942 Y-0.2903
N11565 X0.0946 Y-0.2785
N11570 X0.0941 Y-0.2683
N11575 X0.093 Y-0.2598
N11580 X0.0916 Y-0.2528
N11585 X0.0897 Y-0.2465
N11590 X0.0876 Y-0.2409
N11595 X0.0849 Y-0.2355
N11600 X0.0828 Y-0.2321
N11605 X0.0788 Y-0.2277
N11610 X0.0737 Y-0.2247
N11615 X0.0679 Y-0.2235
N11620 X0.062 Y-0.2242
N11625 X0.0535 Y-0.2267
N11630 X0.0378 Y-0.231
N11635 G3 X0.0351 Y-0.2325 I0.0024 J-0.0075
N11640 G1 X0.0335 Y-0.2338 Z-0.0893
N11645 X0.0321 Y-0.235 Z-0.0886
N11650 X0.0308 Y-0.2361 Z-0.0873
N11655 X0.0298 Y-0.2369 Z-0.0857
N11660 X0.0292 Y-0.2374 Z-0.0838
N11665 X0.029 Y-0.2375 Z-0.0817
N11670 G0 Z0.1004
N11675 X-0.3374 Y-0.5363
N11680 Z-0.0739
N11685 G1 Z-0.0817 F40.
N11690 X-0.3377 Y-0.5362 Z-0.0838
N11695 X-0.3384 Y-0.536 Z-0.0857
N11700 X-0.3396 Y-0.5356 Z-0.0873
N11705 X-0.3412 Y-0.5352 Z-0.0886
N11710 X-0.343 Y-0.5347 Z-0.0893
N11715 X-0.345 Y-0.5341 Z-0.0896
N11720 G3 X-0.3463 Y-0.5369 I-0.0004 J-0.0015
N11725 G1 X-0.3238 Y-0.5522
N11730 X-0.3197 Y-0.5547
N11735 X-0.3013 Y-0.5638
N11740 X-0.2851 Y-0.5716
N11745 X-0.2796 Y-0.5739
N11750 X-0.273 Y-0.576
N11755 X-0.2643 Y-0.578
N11760 X-0.2538 Y-0.5795
N11765 X-0.2405 Y-0.5804
N11770 X-0.2234 Y-0.5801
N11775 X-0.2005 Y-0.5779
N11780 X-0.1761 Y-0.5736
N11785 X-0.152 Y-0.5677
N11790 X-0.1282 Y-0.5604
N11795 X-0.1048 Y-0.552
N11800 X-0.082 Y-0.5424
N11805 X-0.0596 Y-0.5316
N11810 X-0.0379 Y-0.5196
N11815 X-0.0169 Y-0.5063
N11820 X0.0032 Y-0.4917
N11825 X0.0224 Y-0.476
N11830 X0.0405 Y-0.459
N11835 X0.0574 Y-0.4409
N11840 X0.0729 Y-0.4215
N11845 X0.0865 Y-0.4014
N11850 X0.0978 Y-0.3814
N11855 X0.1069 Y-0.3618
N11860 X0.1137 Y-0.3434
N11865 X0.1184 Y-0.3265
N11870 X0.1216 Y-0.3105
N11875 X0.1233 Y-0.2955
N11880 X0.1237 Y-0.282
N11885 X0.1232 Y-0.2705
N11890 X0.1218 Y-0.2602
N11895 X0.1199 Y-0.251
N11900 X0.1177 Y-0.2436
N11905 X0.115 Y-0.2367
N11910 X0.1124 Y-0.2313
N11915 X0.1094 Y-0.2262
N11920 X0.1075 Y-0.2237
N11925 X0.1035 Y-0.2196
N11930 X0.0985 Y-0.217
N11935 X0.0929 Y-0.216
N11940 X0.0873 Y-0.2168
N11945 X0.062 Y-0.2242
N11950 G3 X0.0593 Y-0.2257 I0.0025 J-0.0075
N11955 G1 X0.0578 Y-0.2271 Z-0.0893
N11960 X0.0563 Y-0.2283 Z-0.0886
N11965 X0.0551 Y-0.2294 Z-0.0873
N11970 X0.0542 Y-0.2302 Z-0.0857
N11975 X0.0536 Y-0.2307 Z-0.0838
N11980 X0.0534 Y-0.2309 Z-0.0817
N11985 G0 Z0.1004
N11990 X-0.2764 Y-0.5696
N11995 Z-0.0739
N12000 G1 Z-0.0817 F40.
N12005 X-0.2766 Z-0.0838
N12010 X-0.2774 Y-0.5695 Z-0.0857
N12015 X-0.2786 Y-0.5693 Z-0.0873
N12020 X-0.2803 Y-0.5691 Z-0.0886
N12025 X-0.2821 Y-0.5689 Z-0.0893
N12030 X-0.2842 Y-0.5686 Z-0.0896
N12035 G3 X-0.2851 Y-0.5716 I-0.0002 J-0.0016
N12040 G1 X-0.25 Y-0.5885
N12045 X-0.245 Y-0.5908
N12050 X-0.2337 Y-0.5955
N12055 X-0.2257 Y-0.5984
N12060 X-0.2198 Y-0.6
N12065 X-0.2122 Y-0.6015
N12070 X-0.2028 Y-0.6024
N12075 X-0.1918 Y-0.6027
N12080 X-0.1768 Y-0.6019
N12085 X-0.158 Y-0.5993
N12090 X-0.1339 Y-0.594
N12095 X-0.1102 Y-0.5867
N12100 X-0.0869 Y-0.5781
N12105 X-0.0642 Y-0.5682
N12110 X-0.0419 Y-0.5571
N12115 X-0.0203 Y-0.5449
N12120 X0.0006 Y-0.5315
N12125 X0.0207 Y-0.517
N12130 X0.04 Y-0.5014
N12135 X0.0583 Y-0.4846
N12140 X0.0755 Y-0.4667
N12145 X0.0915 Y-0.4477
N12150 X0.1061 Y-0.4276
N12155 X0.1191 Y-0.4065
N12160 X0.1299 Y-0.3854
N12165 X0.1384 Y-0.3649
N12170 X0.1448 Y-0.3452
N12175 X0.1493 Y-0.3262
N12180 X0.152 Y-0.3084
N12185 X0.1531 Y-0.2923
N12190 X0.153 Y-0.2781
N12195 X0.1518 Y-0.2653
N12200 X0.1498 Y-0.2536
N12205 X0.1472 Y-0.2435
N12210 X0.1444 Y-0.2352
N12215 X0.1415 Y-0.2284
N12220 X0.1385 Y-0.2229
N12225 X0.1352 Y-0.2178
N12230 X0.1315 Y-0.2131
N12235 X0.1295 Y-0.211
N12240 X0.1246 Y-0.2072
N12245 X0.1186 Y-0.2053
N12250 X0.1124 Y-0.2056
N12255 X0.1066 Y-0.2079
N12260 X0.1011 Y-0.2112
N12265 X0.0985 Y-0.2126
N12270 X0.0929 Y-0.2149
N12275 X0.0873 Y-0.2168
N12280 G3 X0.0847 Y-0.2184 I0.0028 J-0.0074
N12285 G1 X0.0832 Y-0.2198 Z-0.0893
N12290 X0.0818 Y-0.2211 Z-0.0886
N12295 X0.0806 Y-0.2222 Z-0.0873
N12300 X0.0797 Y-0.2231 Z-0.0857
N12305 X0.0792 Y-0.2236 Z-0.0838
N12310 X0.079 Y-0.2238 Z-0.0817
N12315 G0 Z0.1004
N12320 X-0.2251 Y-0.5931
N12325 Z-0.0739
N12330 G1 Z-0.0817 F40.
N12335 X-0.2253 Z-0.0838
N12340 X-0.2261 Z-0.0857
N12345 X-0.2274 Y-0.593 Z-0.0873
N12350 X-0.229 Y-0.5928 Z-0.0886
N12355 X-0.2309 Y-0.5927 Z-0.0893
N12360 X-0.2329 Y-0.5925 Z-0.0896
N12365 G3 X-0.2337 Y-0.5955 I-0.0001 J-0.0016
N12370 G1 X-0.2281 Y-0.5979
N12375 X-0.2224 Y-0.5998
N12380 X-0.1677 Y-0.6166
N12385 X-0.1618 Y-0.6181
N12390 X-0.1559 Y-0.6191
N12395 X-0.1487 Y-0.6198
N12400 X-0.1393
N12405 X-0.1285 Y-0.619
N12410 X-0.114 Y-0.6168
N12415 X-0.0966 Y-0.6126
N12420 X-0.0734 Y-0.6051
N12425 X-0.0505 Y-0.5956
N12430 X-0.0282 Y-0.5846
N12435 X-0.0065 Y-0.5725
N12440 X0.0145 Y-0.5593
N12445 X0.0348 Y-0.545
N12450 X0.0543 Y-0.5296
N12455 X0.0729 Y-0.5132
N12460 X0.0906 Y-0.4958
N12465 X0.1072 Y-0.4773
N12470 X0.1225 Y-0.4578
N12475 X0.1364 Y-0.4373
N12480 X0.1489 Y-0.4158
N12485 X0.1598 Y-0.3935
N12490 X0.1686 Y-0.3711
N12495 X0.1752 Y-0.3493
N12500 X0.1796 Y-0.329
N12505 X0.1821 Y-0.3102
N12510 X0.183 Y-0.2926
N12515 X0.1826 Y-0.2762
N12520 X0.1809 Y-0.2612
N12525 X0.1785 Y-0.2486
N12530 X0.1755 Y-0.2376
N12535 X0.172 Y-0.2278
N12540 X0.1681 Y-0.2195
N12545 X0.1647 Y-0.2134
N12550 X0.1608 Y-0.2076
N12555 X0.1571 Y-0.2029
N12560 X0.153 Y-0.1985
N12565 X0.1498 Y-0.1958
N12570 X0.1448 Y-0.1928
N12575 X0.1391 Y-0.1914
N12580 X0.1333 Y-0.1919
N12585 X0.1279 Y-0.1943
N12590 X0.1098 Y-0.2059
N12595 X0.1066 Y-0.2079
N12600 G3 X0.1044 Y-0.21 I0.0043 J-0.0066
N12605 G1 X0.1033 Y-0.2117 Z-0.0893
N12610 X0.1022 Y-0.2133 Z-0.0886
N12615 X0.1013 Y-0.2146 Z-0.0873
N12620 X0.1006 Y-0.2157 Z-0.0857
N12625 X0.1001 Y-0.2163 Z-0.0838
N12630 X0.1 Y-0.2165 Z-0.0817
N12635 G0 Z0.1004
N12640 X-0.1594 Y-0.6134
N12645 Z-0.0739
N12650 G1 Z-0.0817 F40.
N12655 X-0.1596 Z-0.0838
N12660 X-0.1604 Z-0.0857
N12665 X-0.1617 Y-0.6135 Z-0.0873
N12670 X-0.1633 Z-0.0886
N12675 X-0.1652 Z-0.0893
N12680 X-0.1673 Y-0.6136 Z-0.0896
N12685 G3 X-0.1677 Y-0.6166 I0. J-0.0016
N12690 G1 X-0.1436 Y-0.6241
N12695 X-0.138 Y-0.6251
N12700 X-0.0985 Y-0.631
N12705 X-0.0926 Y-0.6316
N12710 X-0.0857 Y-0.6317
N12715 X-0.0768 Y-0.631
N12720 X-0.0666 Y-0.6294
N12725 X-0.0535 Y-0.6262
N12730 X-0.0375 Y-0.621
N12735 X-0.0165 Y-0.6122
N12740 X0.0055 Y-0.6008
N12745 X0.0268 Y-0.588
N12750 X0.0473 Y-0.574
N12755 X0.0671 Y-0.559
N12760 X0.0861 Y-0.543
N12765 X0.1042 Y-0.526
N12770 X0.1213 Y-0.5081
N12775 X0.1373 Y-0.4891
N12780 X0.1521 Y-0.4692
N12785 X0.1657 Y-0.4484
N12790 X0.1778 Y-0.4267
N12795 X0.1884 Y-0.4043
N12800 X0.1974 Y-0.3811
N12805 X0.2044 Y-0.3579
N12810 X0.2092 Y-0.3355
N12815 X0.2121 Y-0.3143
N12820 X0.2131 Y-0.2943
N12825 X0.2126 Y-0.2765
N12830 X0.2108 Y-0.2603
N12835 X0.208 Y-0.2455
N12840 X0.2043 Y-0.2321
N12845 X0.2003 Y-0.2211
N12850 X0.1959 Y-0.2115
N12855 X0.1912 Y-0.2031
N12860 X0.1868 Y-0.1965
N12865 X0.1822 Y-0.1907
N12870 X0.1781 Y-0.1863
N12875 X0.1737 Y-0.1823
N12880 X0.1704 Y-0.1799
N12885 X0.1654 Y-0.1773
N12890 X0.1597 Y-0.1765
N12895 X0.1542 Y-0.1776
N12900 X0.1492 Y-0.1805
N12905 X0.1454 Y-0.183
N12910 X0.1279 Y-0.1943
N12915 G3 X0.1258 Y-0.1965 I0.0045 J-0.0065
N12920 G1 X0.1247 Y-0.1982 Z-0.0893
N12925 X0.1236 Y-0.1998 Z-0.0886
N12930 X0.1227 Y-0.2012 Z-0.0873
N12935 X0.1221 Y-0.2022 Z-0.0857
N12940 X0.1216 Y-0.2029 Z-0.0838
N12945 X0.1215 Y-0.2031 Z-0.0817
N12950 G0 Z0.1004
N12955 X-0.0908 Y-0.6266
N12960 Z-0.0739
N12965 G1 Z-0.0817 F40.
N12970 X-0.091 Y-0.6267 Z-0.0838
N12975 X-0.0918 Y-0.6268 Z-0.0857
N12980 X-0.093 Y-0.627 Z-0.0873
N12985 X-0.0946 Y-0.6273 Z-0.0886
N12990 X-0.0965 Y-0.6276 Z-0.0893
N12995 X-0.0985 Y-0.6279 Z-0.0896
N13000 G3 Y-0.631 I0.0003 J-0.0015
N13005 G1 X-0.0591 Y-0.637
N13010 X-0.0535 Y-0.6376
N13015 X-0.0422 Y-0.6383
N13020 X-0.0366 Y-0.6387
N13025 X-0.0256 Y-0.6381
N13030 X-0.0175 Y-0.6371
N13035 X-0.0085 Y-0.6351
N13040 X0.0026 Y-0.6318
N13045 X0.0165 Y-0.6264
N13050 X0.0346 Y-0.6176
N13055 X0.056 Y-0.605
N13060 X0.0763 Y-0.5908
N13065 X0.0958 Y-0.5754
N13070 X0.1144 Y-0.559
N13075 X0.1322 Y-0.5416
N13080 X0.1489 Y-0.5233
N13085 X0.1646 Y-0.5041
N13090 X0.1792 Y-0.484
N13095 X0.1926 Y-0.4631
N13100 X0.2047 Y-0.4414
N13105 X0.2154 Y-0.419
N13110 X0.2246 Y-0.396
N13115 X0.2322 Y-0.3723
N13120 X0.2379 Y-0.3483
N13125 X0.2416 Y-0.3248
N13130 X0.2432 Y-0.3027
N13135 X0.2431 Y-0.282
N13140 X0.2414 Y-0.2628
N13145 X0.2385 Y-0.2454
N13150 X0.2347 Y-0.2304
N13155 X0.2301 Y-0.217
N13160 X0.225 Y-0.205
N13165 X0.2195 Y-0.1947
N13170 X0.214 Y-0.1861
N13175 X0.2088 Y-0.1792
N13180 X0.2038 Y-0.1736
N13185 X0.1993 Y-0.1694
N13190 X0.1947 Y-0.1656
N13195 X0.1897 Y-0.1623
N13200 X0.1872 Y-0.161
N13205 X0.1814 Y-0.159
N13210 X0.1752 Y-0.1591
N13215 X0.1694 Y-0.1612
N13220 X0.1647 Y-0.1651
N13225 X0.1605 Y-0.1698
N13230 X0.1587 Y-0.1718
N13235 X0.1549 Y-0.1758
N13240 X0.1492 Y-0.1805
N13245 G3 X0.1474 Y-0.1829 I0.0052 J-0.0059
N13250 G1 X0.1465 Y-0.1847 Z-0.0893
N13255 X0.1457 Y-0.1865 Z-0.0886
N13260 X0.145 Y-0.1879 Z-0.0873
N13265 X0.1444 Y-0.189 Z-0.0857
N13270 X0.1441 Y-0.1898 Z-0.0838
N13275 X0.1439 Y-0.19 Z-0.0817
N13280 G0 Z0.1004
N13285 X-0.0293 Y-0.6336
N13290 Z-0.0739
N13295 G1 Z-0.0817 F40.
N13300 X-0.0295 Z-0.0838
N13305 X-0.0303 Y-0.6338 Z-0.0857
N13310 X-0.0315 Y-0.6341 Z-0.0873
N13315 X-0.0331 Y-0.6346 Z-0.0886
N13320 X-0.0349 Y-0.6351 Z-0.0893
N13325 X-0.0369 Y-0.6356 Z-0.0896
N13330 G3 X-0.0366 Y-0.6387 I0.0004 J-0.0015
N13335 G1 X0.0253
N13340 X0.0331 Y-0.6383
N13345 X0.0395 Y-0.6374
N13350 X0.0462 Y-0.636
N13355 X0.0548 Y-0.6334
N13360 X0.0653 Y-0.6294
N13365 X0.0775 Y-0.6234
N13370 X0.093 Y-0.6143
N13375 X0.1125 Y-0.6006
N13380 X0.1316 Y-0.5848
N13385 X0.1497 Y-0.5677
N13390 X0.1668 Y-0.5497
N13395 X0.1829 Y-0.5308
N13400 X0.1979 Y-0.5111
N13405 X0.2119 Y-0.4906
N13410 X0.2247 Y-0.4693
N13415 X0.2362 Y-0.4473
N13420 X0.2464 Y-0.4247
N13425 X0.2552 Y-0.4015
N13430 X0.2624 Y-0.3777
N13435 X0.268 Y-0.3535
N13440 X0.2718 Y-0.329
N13445 X0.2736 Y-0.3049
N13450 X0.2735 Y-0.282
N13455 X0.2716 Y-0.2606
N13460 X0.2684 Y-0.2415
N13465 X0.2642 Y-0.2247
N13470 X0.259 Y-0.2093
N13475 X0.253 Y-0.1955
N13480 X0.2466 Y-0.1834
N13485 X0.2404 Y-0.1737
N13490 X0.2341 Y-0.1654
N13495 X0.2278 Y-0.1584
N13500 X0.2226 Y-0.1533
N13505 X0.217 Y-0.1488
N13510 X0.2121 Y-0.1455
N13515 X0.2069 Y-0.1425
N13520 X0.2013 Y-0.1401
N13525 X0.1942 Y-0.1392
N13530 X0.1873 Y-0.1411
N13535 X0.1816 Y-0.1455
N13540 X0.1647 Y-0.1651
N13545 G3 X0.1632 Y-0.1679 I0.0061 J-0.0049
N13550 G1 X0.1627 Y-0.1698 Z-0.0893
N13555 X0.1621 Y-0.1716 Z-0.0886
N13560 X0.1617 Y-0.1732 Z-0.0873
N13565 X0.1613 Y-0.1744 Z-0.0857
N13570 X0.1611 Y-0.1752 Z-0.0838
N13575 X0.161 Y-0.1754 Z-0.0817
N13580 G0 Z0.1004
N13585 X0.0324 Y-0.6331
N13590 Z-0.0739
N13595 G1 Z-0.0817 F40.
N13600 X0.0321 Y-0.6332 Z-0.0838
N13605 X0.0314 Y-0.6335 Z-0.0857
N13610 X0.0302 Y-0.6339 Z-0.0873
N13615 X0.0286 Y-0.6344 Z-0.0886
N13620 X0.0268 Y-0.635 Z-0.0893
N13625 X0.0249 Y-0.6356 Z-0.0896
N13630 G3 X0.0253 Y-0.6387 I0.0005 J-0.0015
N13635 G1 X0.0366
N13640 X0.0422 Y-0.6383
N13645 X0.0535 Y-0.6376
N13650 X0.0591 Y-0.637
N13655 X0.0985 Y-0.631
N13660 X0.1044 Y-0.6298
N13665 X0.1111 Y-0.6278
N13670 X0.1196 Y-0.6244
N13675 X0.1284 Y-0.62
N13680 X0.1403 Y-0.6129
N13685 X0.1535 Y-0.6034
N13690 X0.1705 Y-0.589
N13695 X0.1882 Y-0.5715
N13700 X0.2045 Y-0.5528
N13705 X0.2199 Y-0.5333
N13710 X0.2341 Y-0.513
N13715 X0.2473 Y-0.4919
N13720 X0.2593 Y-0.4702
N13725 X0.2701 Y-0.4478
N13730 X0.2795 Y-0.4249
N13735 X0.2876 Y-0.4014
N13740 X0.2942 Y-0.3775
N13745 X0.2992 Y-0.3532
N13750 X0.3026 Y-0.3286
N13755 X0.3042 Y-0.3038
N13760 X0.3038 Y-0.2791
N13765 X0.3017 Y-0.256
N13770 X0.298 Y-0.235
N13775 X0.2931 Y-0.2162
N13780 X0.2872 Y-0.1993
N13785 X0.2805 Y-0.1841
N13790 X0.2733 Y-0.1707
N13795 X0.2657 Y-0.1591
N13800 X0.2585 Y-0.1497
N13805 X0.2513 Y-0.1417
N13810 X0.2442 Y-0.1351
N13815 X0.2376 Y-0.1298
N13820 X0.2326 Y-0.1264
N13825 X0.2269 Y-0.1232
N13830 X0.2214 Y-0.1207
N13835 X0.2185 Y-0.1196
N13840 X0.2126 Y-0.1186
N13845 X0.2066 Y-0.1195
N13850 X0.2013 Y-0.1222
N13855 X0.1972 Y-0.1266
N13860 X0.183 Y-0.1439
N13865 X0.1816 Y-0.1455
N13870 G3 X0.1802 Y-0.1482 I0.0061 J-0.0049
N13875 G1 X0.1797 Y-0.1502 Z-0.0893
N13880 X0.1791 Y-0.152 Z-0.0886
N13885 X0.1787 Y-0.1536 Z-0.0873
N13890 X0.1783 Y-0.1548 Z-0.0857
N13895 X0.1781 Y-0.1555 Z-0.0838
N13900 X0.178 Y-0.1558 Z-0.0817
N13905 G0 Z0.1004
N13910 X0.1047 Y-0.6245
N13915 Z-0.0739
N13920 G1 Z-0.0817 F40.
N13925 X0.1044 Y-0.6246 Z-0.0838
N13930 X0.1037 Y-0.625 Z-0.0857
N13935 X0.1026 Y-0.6256 Z-0.0873
N13940 X0.1012 Y-0.6263 Z-0.0886
N13945 X0.0995 Y-0.6271 Z-0.0893
N13950 X0.0977 Y-0.6281 Z-0.0896
N13955 G3 X0.0985 Y-0.631 I0.0007 J-0.0014
N13960 G1 X0.138 Y-0.6251
N13965 X0.1436 Y-0.6241
N13970 X0.1661 Y-0.6171
N13975 X0.1718 Y-0.6151
N13980 X0.1794 Y-0.6114
N13985 X0.1872 Y-0.6068
N13990 X0.1973 Y-0.5997
N13995 X0.2089 Y-0.5901
N14000 X0.2235 Y-0.5759
N14005 X0.2398 Y-0.5572
N14010 X0.2547 Y-0.5373
N14015 X0.2684 Y-0.5166
N14020 X0.2809 Y-0.4952
N14025 X0.2923 Y-0.4732
N14030 X0.3025 Y-0.4506
N14035 X0.3115 Y-0.4274
N14040 X0.3191 Y-0.4038
N14045 X0.3252 Y-0.3797
N14050 X0.33 Y-0.3553
N14055 X0.3331 Y-0.3307
N14060 X0.3347 Y-0.3059
N14065 X0.3345 Y-0.2811
N14070 X0.3325 Y-0.2564
N14075 X0.3287 Y-0.2334
N14080 X0.3234 Y-0.212
N14085 X0.3169 Y-0.1925
N14090 X0.3094 Y-0.1749
N14095 X0.3015 Y-0.1598
N14100 X0.2932 Y-0.1468
N14105 X0.2846 Y-0.1353
N14110 X0.2759 Y-0.1255
N14115 X0.2679 Y-0.1178
N14120 X0.26 Y-0.1113
N14125 X0.2534 Y-0.1067
N14130 X0.2469 Y-0.103
N14135 X0.2415 Y-0.1004
N14140 X0.2359 Y-0.0983
N14145 X0.2301 Y-0.0967
N14150 X0.2268 Y-0.0961
N14155 X0.2208
N14160 X0.2152 Y-0.098
N14165 X0.2104 Y-0.1016
N14170 X0.207 Y-0.1066
N14175 X0.2055 Y-0.1098
N14180 X0.1987 Y-0.1241
N14185 X0.1979 Y-0.1254
N14190 X0.1972 Y-0.1266
N14195 G3 X0.1961 Y-0.1295 I0.0067 J-0.0042
N14200 G1 X0.1957 Y-0.1315 Z-0.0893
N14205 X0.1954 Y-0.1333 Z-0.0886
N14210 X0.1951 Y-0.1349 Z-0.0873
N14215 X0.1949 Y-0.1362 Z-0.0857
N14220 X0.1948 Y-0.1369 Z-0.0838
N14225 X0.1947 Y-0.1372 Z-0.0817
N14230 G0 Z0.1004
N14235 X0.1712 Y-0.6098
N14240 Z-0.0739
N14245 G1 Z-0.0817 F40.
N14250 X0.171 Y-0.6099 Z-0.0838
N14255 X0.1704 Y-0.6104 Z-0.0857
N14260 X0.1693 Y-0.6111 Z-0.0873
N14265 X0.168 Y-0.612 Z-0.0886
N14270 X0.1665 Y-0.6131 Z-0.0893
N14275 X0.1648 Y-0.6143 Z-0.0896
N14280 G3 X0.1661 Y-0.6171 I0.0009 J-0.0013
N14285 G1 X0.2199 Y-0.6005
N14290 X0.2255 Y-0.5985
N14295 X0.2314 Y-0.5958
N14300 X0.2375 Y-0.5924
N14305 X0.2445 Y-0.5877
N14310 X0.2534 Y-0.5806
N14315 X0.2626 Y-0.572
N14320 X0.2746 Y-0.5588
N14325 X0.2887 Y-0.5405
N14330 X0.3023 Y-0.5197
N14335 X0.3144 Y-0.498
N14340 X0.3253 Y-0.4757
N14345 X0.335 Y-0.4528
N14350 X0.3434 Y-0.4295
N14355 X0.3505 Y-0.4057
N14360 X0.3563 Y-0.3816
N14365 X0.3608 Y-0.3571
N14370 X0.3638 Y-0.3325
N14375 X0.3653 Y-0.3077
N14380 X0.3652 Y-0.2829
N14385 X0.3634 Y-0.2581
N14390 X0.3598 Y-0.2336
N14395 X0.3545 Y-0.2101
N14400 X0.3476 Y-0.1881
N14405 X0.3396 Y-0.1683
N14410 X0.3307 Y-0.1506
N14415 X0.3212 Y-0.1348
N14420 X0.3116 Y-0.1216
N14425 X0.302 Y-0.1103
N14430 X0.2925 Y-0.1008
N14435 X0.2833 Y-0.093
N14440 X0.2749 Y-0.0869
N14445 X0.2668 Y-0.082
N14450 X0.2597 Y-0.0785
N14455 X0.2531 Y-0.0758
N14460 X0.2473 Y-0.074
N14465 X0.2415 Y-0.0727
N14470 X0.2355 Y-0.072
N14475 X0.2352
N14480 X0.2281 Y-0.0731
N14485 X0.2221 Y-0.0769
N14490 X0.2179 Y-0.0827
N14495 X0.207 Y-0.1066
N14500 G3 X0.2064 Y-0.1096 I0.0073 J-0.003
N14505 G1 Y-0.1116 Z-0.0893
N14510 Y-0.1135 Z-0.0886
N14515 Y-0.1152 Z-0.0873
N14520 Y-0.1164 Z-0.0857
N14525 Y-0.1172 Z-0.0838
N14530 Y-0.1175 Z-0.0817
N14535 G0 Z0.1004
N14540 X0.225 Y-0.5932
N14545 Z-0.0739
N14550 G1 Z-0.0817 F40.
N14555 X0.2248 Y-0.5933 Z-0.0838
N14560 X0.2241 Y-0.5938 Z-0.0857
N14565 X0.2231 Y-0.5945 Z-0.0873
N14570 X0.2218 Y-0.5955 Z-0.0886
N14575 X0.2202 Y-0.5966 Z-0.0893
N14580 X0.2186 Y-0.5977 Z-0.0896
N14585 G3 X0.2199 Y-0.6005 I0.0009 J-0.0013
N14590 G1 X0.2225 Y-0.5997
N14595 X0.2281 Y-0.5979
N14600 X0.245 Y-0.5908
N14605 X0.2506 Y-0.5882
N14610 X0.2844 Y-0.5719
N14615 X0.2901 Y-0.5688
N14620 X0.2956 Y-0.5652
N14625 X0.3022 Y-0.5601
N14630 X0.3089 Y-0.554
N14635 X0.3173 Y-0.545
N14640 X0.3264 Y-0.5335
N14645 X0.3376 Y-0.5167
N14650 X0.3497 Y-0.4951
N14655 X0.3601 Y-0.4725
N14660 X0.3691 Y-0.4494
N14665 X0.3769 Y-0.4258
N14670 X0.3834 Y-0.4019
N14675 X0.3886 Y-0.3776
N14680 X0.3925 Y-0.3531
N14685 X0.395 Y-0.3284
N14690 X0.3961 Y-0.3036
N14695 X0.3957 Y-0.2788
N14700 X0.3938 Y-0.254
N14705 X0.3901 Y-0.2295
N14710 X0.3848 Y-0.2052
N14715 X0.3776 Y-0.1816
N14720 X0.369 Y-0.1597
N14725 X0.3593 Y-0.1397
N14730 X0.3487 Y-0.1219
N14735 X0.3379 Y-0.1065
N14740 X0.3272 Y-0.0937
N14745 X0.3164 Y-0.0828
N14750 X0.3057 Y-0.0735
N14755 X0.2954 Y-0.0659
N14760 X0.286 Y-0.0601
N14765 X0.277 Y-0.0555
N14770 X0.2686 Y-0.052
N14775 X0.2625 Y-0.05
N14780 X0.256 Y-0.0485
N14785 X0.2501 Y-0.0476
N14790 X0.2441 Y-0.0472
N14795 X0.2429
N14800 X0.237 Y-0.0485
N14805 X0.2319 Y-0.0516
N14810 X0.228 Y-0.0561
N14815 X0.2258 Y-0.0617
N14820 X0.2251 Y-0.0648
N14825 X0.2233 Y-0.0704
N14830 X0.2224 Y-0.0727
N14835 X0.2179 Y-0.0827
N14840 G3 X0.2173 Y-0.0858 I0.0073 J-0.003
N14845 G1 Y-0.0878 Z-0.0893
N14850 Y-0.0897 Z-0.0886
N14855 Y-0.0913 Z-0.0873
N14860 Y-0.0926 Z-0.0857
N14865 Y-0.0934 Z-0.0838
N14870 Y-0.0936 Z-0.0817
N14875 G0 Z0.1004
N14880 X0.2883 Y-0.5639
N14885 Z-0.0739
N14890 G1 Z-0.0817 F40.
N14895 X0.2881 Y-0.5641 Z-0.0838
N14900 X0.2876 Y-0.5646 Z-0.0857
N14905 X0.2867 Y-0.5655 Z-0.0873
N14910 X0.2855 Y-0.5666 Z-0.0886
N14915 X0.2841 Y-0.5679 Z-0.0893
N14920 X0.2827 Y-0.5694 Z-0.0896
N14925 G3 X0.2844 Y-0.5719 I0.0011 J-0.0011
N14930 G1 X0.3013 Y-0.5638
N14935 X0.3197 Y-0.5547
N14940 X0.3238 Y-0.5522
N14945 X0.345 Y-0.5378
N14950 X0.3502 Y-0.5338
N14955 X0.3554 Y-0.5292
N14960 X0.3613 Y-0.523
N14965 X0.3685 Y-0.5141
N14970 X0.3758 Y-0.5035
N14975 X0.3847 Y-0.4879
N14980 X0.3947 Y-0.4668
N14985 X0.4034 Y-0.4435
N14990 X0.4107 Y-0.4198
N14995 X0.4165 Y-0.3957
N15000 X0.4211 Y-0.3713
N15005 X0.4244 Y-0.3467
N15010 X0.4264 Y-0.3219
N15015 X0.427 Y-0.2971
N15020 X0.4262 Y-0.2723
N15025 X0.4239 Y-0.2476
N15030 X0.4201 Y-0.223
N15035 X0.4147 Y-0.1988
N15040 X0.4076 Y-0.175
N15045 X0.3989 Y-0.1518
N15050 X0.3886 Y-0.1299
N15055 X0.3772 Y-0.1101
N15060 X0.3653 Y-0.0927
N15065 X0.3529 Y-0.0775
N15070 X0.3406 Y-0.0646
N15075 X0.3287 Y-0.054
N15080 X0.317 Y-0.0451
N15085 X0.3054 Y-0.0377
N15090 X0.295 Y-0.0322
N15095 X0.2854 Y-0.028
N15100 X0.2763 Y-0.025
N15105 X0.2696 Y-0.0233
N15110 X0.2628 Y-0.0221
N15115 X0.2568 Y-0.0216
N15120 X0.2508
N15125 X0.2449 Y-0.0222
N15130 X0.244 Y-0.0224
N15135 X0.2388 Y-0.0244
N15140 X0.2344 Y-0.0278
N15145 X0.2312 Y-0.0324
N15150 X0.2295 Y-0.0378
N15155 X0.2273 Y-0.0535
N15160 X0.2263 Y-0.0591
N15165 X0.2258 Y-0.0617
N15170 G3 Y-0.0648 I0.0078 J-0.0014
N15175 G1 X0.2263 Y-0.0668 Z-0.0893
N15180 X0.2267 Y-0.0687 Z-0.0886
N15185 X0.227 Y-0.0703 Z-0.0873
N15190 X0.2273 Y-0.0715 Z-0.0857
N15195 X0.2275 Y-0.0722 Z-0.0838
N15200 Y-0.0725 Z-0.0817
N15205 G0 Z0.1004
N15210 X0.3477 Y-0.5292
N15215 Z-0.0739
N15220 G1 Z-0.0817 F40.
N15225 X0.3475 Y-0.5295 Z-0.0838
N15230 X0.347 Y-0.5301 Z-0.0857
N15235 X0.3463 Y-0.5311 Z-0.0873
N15240 X0.3453 Y-0.5324 Z-0.0886
N15245 X0.3441 Y-0.5339 Z-0.0893
N15250 X0.3429 Y-0.5355 Z-0.0896
N15255 G3 X0.345 Y-0.5378 I0.0012 J-0.001
N15260 G1 X0.3914 Y-0.5062
N15265 X0.3969 Y-0.5019
N15270 X0.4014 Y-0.498
N15275 X0.4062 Y-0.4929
N15280 X0.4119 Y-0.4858
N15285 X0.4175 Y-0.4774
N15290 X0.4241 Y-0.4657
N15295 X0.4311 Y-0.4507
N15300 X0.4388 Y-0.4297
N15305 X0.4455 Y-0.4058
N15310 X0.4505 Y-0.3815
N15315 X0.4542 Y-0.357
N15320 X0.4566 Y-0.3323
N15325 X0.4578 Y-0.3075
N15330 X0.4576 Y-0.2826
N15335 X0.4561 Y-0.2579
N15340 X0.4531 Y-0.2332
N15345 X0.4486 Y-0.2088
N15350 X0.4427 Y-0.1847
N15355 X0.4352 Y-0.161
N15360 X0.4262 Y-0.1379
N15365 X0.4154 Y-0.1155
N15370 X0.4032 Y-0.0943
N15375 X0.39 Y-0.0751
N15380 X0.3763 Y-0.0583
N15385 X0.3627 Y-0.044
N15390 X0.3493 Y-0.0321
N15395 X0.3361 Y-0.0221
N15400 X0.3232 Y-0.0139
N15405 X0.3107 Y-0.0073
N15410 X0.2998 Y-0.0026
N15415 X0.2897 Y0.0008
N15420 X0.2803 Y0.0031
N15425 X0.2717 Y0.0045
N15430 X0.2652 Y0.0051
N15435 X0.2587
N15440 X0.2527 Y0.0047
N15445 X0.2468 Y0.0036
N15450 X0.2464 Y0.0035
N15455 X0.2399 Y0.0002
N15460 X0.2352 Y-0.0053
N15465 X0.233 Y-0.0123
N15470 X0.2321 Y-0.0197
N15475 X0.2295 Y-0.0378
N15480 G3 X0.2298 Y-0.0409 I0.0078 J-0.0008
N15485 G1 X0.2304 Y-0.0428 Z-0.0893
N15490 X0.2309 Y-0.0446 Z-0.0886
N15495 X0.2314 Y-0.0462 Z-0.0873
N15500 X0.2317 Y-0.0474 Z-0.0857
N15505 X0.232 Y-0.0482 Z-0.0838
N15510 Y-0.0484 Z-0.0817
N15515 G0 Z0.1004
N15520 X0.3941 Y-0.4976
N15525 Z-0.0739
N15530 G1 Z-0.0817 F40.
N15535 X0.3939 Y-0.4978 Z-0.0838
N15540 X0.3934 Y-0.4985 Z-0.0857
N15545 X0.3927 Y-0.4994 Z-0.0873
N15550 X0.3917 Y-0.5007 Z-0.0886
N15555 X0.3905 Y-0.5023 Z-0.0893
N15560 X0.3893 Y-0.5039 Z-0.0896
N15565 G3 X0.3914 Y-0.5062 I0.0012 J-0.001
N15570 G1 X0.397 Y-0.5023
N15575 X0.4026 Y-0.4974
N15580 X0.4083 Y-0.4924
N15585 X0.4308 Y-0.4715
N15590 X0.4444 Y-0.4589
N15595 X0.4491 Y-0.4541
N15600 X0.4532 Y-0.4491
N15605 X0.4578 Y-0.4426
N15610 X0.4622 Y-0.4351
N15615 X0.4674 Y-0.4244
N15620 X0.4725 Y-0.4113
N15625 X0.4781 Y-0.3927
N15630 X0.4833 Y-0.3684
N15635 X0.4865 Y-0.3438
N15640 X0.4883 Y-0.319
N15645 X0.4888 Y-0.2942
N15650 X0.4879 Y-0.2694
N15655 X0.4858 Y-0.2447
N15660 X0.4822 Y-0.2201
N15665 X0.4773 Y-0.1958
N15670 X0.471 Y-0.1718
N15675 X0.4632 Y-0.1482
N15680 X0.454 Y-0.1251
N15685 X0.4433 Y-0.1027
N15690 X0.431 Y-0.0812
N15695 X0.4172 Y-0.0605
N15700 X0.4025 Y-0.042
N15705 X0.3874 Y-0.0259
N15710 X0.3722 Y-0.012
N15715 X0.3569 Y-0.0001
N15720 X0.3425 Y0.0093
N15725 X0.3289 Y0.0167
N15730 X0.3158 Y0.0225
N15735 X0.3032 Y0.0269
N15740 X0.2922 Y0.0298
N15745 X0.2821 Y0.0316
N15750 X0.2729 Y0.0325
N15755 X0.2664 Y0.0326
N15760 X0.2598 Y0.0322
N15765 X0.2538 Y0.0313
N15770 X0.248 Y0.03
N15775 X0.2455 Y0.0291
N15780 X0.2401 Y0.0261
N15785 X0.236 Y0.0216
N15790 X0.2337 Y0.0159
N15795 X0.2333 Y0.0098
N15800 X0.2343 Y0.
N15805 X0.233 Y-0.0123
N15810 G3 X0.2334 Y-0.0153 I0.0079 J-0.0006
N15815 G1 X0.234 Y-0.0172 Z-0.0893
N15820 X0.2346 Y-0.019 Z-0.0886
N15825 X0.2352 Y-0.0206 Z-0.0873
N15830 X0.2356 Y-0.0218 Z-0.0857
N15835 X0.2358 Y-0.0225 Z-0.0838
N15840 X0.2359 Y-0.0228 Z-0.0817
N15845 G0 Z0.1004
N15850 X0.4457 Y-0.4501
N15855 Z-0.0739
N15860 G1 Z-0.0817 F40.
N15865 X0.4456 Y-0.4503 Z-0.0838
N15870 X0.4452 Y-0.451 Z-0.0857
N15875 X0.4446 Y-0.4521 Z-0.0873
N15880 X0.4439 Y-0.4536 Z-0.0886
N15885 X0.4429 Y-0.4552 Z-0.0893
N15890 X0.442 Y-0.457 Z-0.0896
N15895 G3 X0.4444 Y-0.4589 I0.0014 J-0.0008
N15900 G1 X0.4589 Y-0.4454
N15905 X0.4685 Y-0.4364
N15910 X0.4702 Y-0.4347
N15915 X0.4913 Y-0.4083
N15920 X0.4957 Y-0.4022
N15925 X0.4991 Y-0.3965
N15930 X0.5029 Y-0.3889
N15935 X0.5069 Y-0.3788
N15940 X0.5108 Y-0.3666
N15945 X0.5146 Y-0.3497
N15950 X0.5178 Y-0.327
N15955 X0.5193 Y-0.3022
N15960 X0.5192 Y-0.2774
N15965 X0.5176 Y-0.2526
N15970 X0.5148 Y-0.2279
N15975 X0.5106 Y-0.2035
N15980 X0.505 Y-0.1793
N15985 X0.4982 Y-0.1554
N15990 X0.49 Y-0.132
N15995 X0.4804 Y-0.1091
N16000 X0.4695 Y-0.0868
N16005 X0.4571 Y-0.0652
N16010 X0.4433 Y-0.0446
N16015 X0.4281 Y-0.025
N16020 X0.4118 Y-0.0072
N16025 X0.3949 Y0.0085
N16030 X0.3781 Y0.0218
N16035 X0.3617 Y0.0328
N16040 X0.346 Y0.0415
N16045 X0.3313 Y0.0483
N16050 X0.3172 Y0.0534
N16055 X0.3038 Y0.0571
N16060 X0.2921 Y0.0593
N16065 X0.2816 Y0.0604
N16070 X0.272 Y0.0607
N16075 X0.2646 Y0.0603
N16080 X0.2575 Y0.0593
N16085 X0.2517 Y0.058
N16090 X0.2459 Y0.0563
N16095 X0.2404 Y0.0539
N16100 X0.2395 Y0.0534
N16105 X0.235 Y0.0501
N16110 X0.2318 Y0.0455
N16115 X0.2301 Y0.0402
N16120 X0.23 Y0.0347
N16125 X0.2321 Y0.0197
N16130 X0.2328 Y0.0141
N16135 X0.2333 Y0.0098
N16140 G3 X0.2343 Y0.0069 I0.0078 J0.0011
N16145 G1 X0.2353 Y0.0052 Z-0.0893
N16150 X0.2363 Y0.0035 Z-0.0886
N16155 X0.2371 Y0.0021 Z-0.0873
N16160 X0.2378 Y0.001 Z-0.0857
N16165 X0.2382 Y0.0004 Z-0.0838
N16170 X0.2383 Y0.0001 Z-0.0817
N16175 G0 Z0.1004
N16180 X0.4914 Y-0.3993
N16185 Z-0.0739
N16190 G1 Z-0.0817 F40.
N16195 X0.4913 Y-0.3996 Z-0.0838
N16200 X0.491 Y-0.4003 Z-0.0857
N16205 X0.4906 Y-0.4015 Z-0.0873
N16210 X0.49 Y-0.403 Z-0.0886
N16215 X0.4893 Y-0.4048 Z-0.0893
N16220 X0.4886 Y-0.4067 Z-0.0896
N16225 G3 X0.4913 Y-0.4083 I0.0015 J-0.0005
N16230 G1 X0.5153 Y-0.3782
N16235 X0.5265 Y-0.3639
N16240 X0.5306 Y-0.3581
N16245 X0.5337 Y-0.3529
N16250 X0.5368 Y-0.3465
N16255 X0.5401 Y-0.3379
N16260 X0.5429 Y-0.3285
N16265 X0.5458 Y-0.3149
N16270 X0.5479 Y-0.2988
N16275 X0.5489 Y-0.2766
N16280 X0.5481 Y-0.2517
N16285 X0.5456 Y-0.2271
N16290 X0.5417 Y-0.2025
N16295 X0.5366 Y-0.1783
N16300 X0.5301 Y-0.1543
N16305 X0.5224 Y-0.1307
N16310 X0.5135 Y-0.1075
N16315 X0.5032 Y-0.0849
N16320 X0.4916 Y-0.063
N16325 X0.4787 Y-0.0418
N16330 X0.4644 Y-0.0215
N16335 X0.4488 Y-0.0022
N16340 X0.4318 Y0.0159
N16345 X0.4136 Y0.0326
N16350 X0.3951 Y0.047
N16355 X0.377 Y0.059
N16360 X0.3599 Y0.0683
N16365 X0.3433 Y0.0757
N16370 X0.3275 Y0.0813
N16375 X0.3126 Y0.0853
N16380 X0.2987 Y0.0878
N16385 X0.2868 Y0.089
N16390 X0.276 Y0.0892
N16395 X0.2662 Y0.0886
N16400 X0.2576 Y0.0874
N16405 X0.2511 Y0.0859
N16410 X0.2449 Y0.084
N16415 X0.2394 Y0.0818
N16420 X0.2357 Y0.0798
N16425 X0.2309 Y0.0763
N16430 X0.2275 Y0.0714
N16435 X0.2259 Y0.0657
N16440 X0.2262 Y0.0597
N16445 X0.2263 Y0.0591
N16450 X0.2273 Y0.0535
N16455 X0.23 Y0.0347
N16460 G3 X0.2311 Y0.0318 I0.0078 J0.0014
N16465 G1 X0.2322 Y0.0301 Z-0.0893
N16470 X0.2332 Y0.0285 Z-0.0886
N16475 X0.2341 Y0.0271 Z-0.0873
N16480 X0.2348 Y0.0261 Z-0.0857
N16485 X0.2352 Y0.0254 Z-0.0838
N16490 X0.2354 Y0.0252 Z-0.0817
N16495 G0 Z0.1004
N16500 X0.5265 Y-0.3549
N16505 Z-0.0739
N16510 G1 Z-0.0817 F40.
N16515 X0.5264 Y-0.3552 Z-0.0838
N16520 X0.5262 Y-0.3559 Z-0.0857
N16525 X0.5257 Y-0.3571 Z-0.0873
N16530 X0.5252 Y-0.3586 Z-0.0886
N16535 X0.5245 Y-0.3604 Z-0.0893
N16540 X0.5238 Y-0.3624 Z-0.0896
N16545 G3 X0.5265 Y-0.3639 I0.0015 J-0.0005
N16550 G1 X0.5271 Y-0.3632
N16555 X0.531 Y-0.3576
N16560 X0.5635 Y-0.3013
N16565 X0.5663 Y-0.2959
N16570 X0.5687 Y-0.2898
N16575 X0.5711 Y-0.2822
N16580 X0.573 Y-0.2735
N16585 X0.5747 Y-0.2613
N16590 X0.5755 Y-0.2472
N16595 X0.5751 Y-0.2276
N16600 X0.5725 Y-0.2029
N16605 X0.5681 Y-0.1784
N16610 X0.5622 Y-0.1543
N16615 X0.555 Y-0.1306
N16620 X0.5467 Y-0.1072
N16625 X0.5371 Y-0.0843
N16630 X0.5262 Y-0.062
N16635 X0.5141 Y-0.0403
N16640 X0.5007 Y-0.0194
N16645 X0.4861 Y0.0007
N16650 X0.4702 Y0.0198
N16655 X0.4532 Y0.0378
N16660 X0.4349 Y0.0546
N16665 X0.4154 Y0.07
N16670 X0.3959 Y0.083
N16675 X0.3766 Y0.0938
N16680 X0.3578 Y0.1024
N16685 X0.3397 Y0.109
N16690 X0.3233 Y0.1135
N16695 X0.3079 Y0.1164
N16700 X0.2935 Y0.1179
N16705 X0.2803 Y0.1183
N16710 X0.269 Y0.1177
N16715 X0.2588 Y0.1163
N16720 X0.2506 Y0.1145
N16725 X0.2433 Y0.1123
N16730 X0.2377 Y0.1101
N16735 X0.2323 Y0.1075
N16740 X0.2272 Y0.1043
N16745 X0.2248 Y0.1025
N16750 X0.2205 Y0.098
N16755 X0.218 Y0.0924
N16760 X0.2175 Y0.0862
N16765 X0.219 Y0.0802
N16770 X0.2224 Y0.0727
N16775 X0.2233 Y0.0704
N16780 X0.2251 Y0.0648
N16785 X0.2262 Y0.0597
N16790 G3 X0.2275 Y0.057 I0.0076 J0.0019
N16795 G1 X0.2287 Y0.0553 Z-0.0893
N16800 X0.2298 Y0.0538 Z-0.0886
N16805 X0.2308 Y0.0525 Z-0.0873
N16810 X0.2316 Y0.0515 Z-0.0857
N16815 X0.232 Y0.0508 Z-0.0838
N16820 X0.2322 Y0.0506 Z-0.0817
N16825 G0 Z0.1004
N16830 X0.5623 Y-0.2924
N16835 Z-0.0739
N16840 G1 Z-0.0817 F40.
N16845 X0.5622 Y-0.2927 Z-0.0838
N16850 X0.562 Y-0.2934 Z-0.0857
N16855 X0.5618 Y-0.2947 Z-0.0873
N16860 X0.5615 Y-0.2963 Z-0.0886
N16865 X0.5611 Y-0.2981 Z-0.0893
N16870 X0.5607 Y-0.3001 Z-0.0896
N16875 G3 X0.5635 Y-0.3013 I0.0015 J-0.0003
N16880 G1 X0.5733 Y-0.2844
N16885 X0.5772 Y-0.2758
N16890 X0.581 Y-0.2675
N16895 X0.5828 Y-0.2631
N16900 X0.5922 Y-0.2393
N16905 X0.5945 Y-0.2324
N16910 X0.5961 Y-0.2261
N16915 X0.5974 Y-0.218
N16920 X0.5983 Y-0.2074
N16925 Y-0.1952
N16930 X0.597 Y-0.1784
N16935 X0.5935 Y-0.1565
N16940 X0.5876 Y-0.1324
N16945 X0.5801 Y-0.1087
N16950 X0.5713 Y-0.0855
N16955 X0.5611 Y-0.0629
N16960 X0.5498 Y-0.0408
N16965 X0.5373 Y-0.0193
N16970 X0.5237 Y0.0014
N16975 X0.5089 Y0.0214
N16980 X0.493 Y0.0404
N16985 X0.4759 Y0.0584
N16990 X0.4577 Y0.0753
N16995 X0.4384 Y0.091
N17000 X0.4181 Y0.1052
N17005 X0.3972 Y0.1174
N17010 X0.3764 Y0.1275
N17015 X0.3564 Y0.1353
N17020 X0.3372 Y0.141
N17025 X0.3191 Y0.1448
N17030 X0.3024 Y0.147
N17035 X0.2875 Y0.1477
N17040 X0.2739 Y0.1473
N17045 X0.2616 Y0.1459
N17050 X0.2511 Y0.1439
N17055 X0.2419 Y0.1413
N17060 X0.2345 Y0.1386
N17065 X0.2279 Y0.1356
N17070 X0.2227 Y0.1326
N17075 X0.2177 Y0.1292
N17080 X0.2131 Y0.1254
N17085 X0.212 Y0.1243
N17090 X0.2088 Y0.1199
N17095 X0.207 Y0.1146
N17100 X0.2068 Y0.1091
N17105 X0.2083 Y0.1037
N17110 X0.219 Y0.0802
N17115 G3 X0.2209 Y0.0778 I0.0071 J0.0035
N17120 G1 X0.2225 Y0.0764 Z-0.0893
N17125 X0.2239 Y0.0752 Z-0.0886
N17130 X0.2251 Y0.0741 Z-0.0873
N17135 X0.226 Y0.0733 Z-0.0857
N17140 X0.2266 Y0.0728 Z-0.0838
N17145 X0.2268 Y0.0726 Z-0.0817
N17150 G0 Z0.1004
N17155 X0.5896 Y-0.2308
N17160 Z-0.0739
N17165 G1 Z-0.0817 F40.
N17170 Y-0.231 Z-0.0838
N17175 X0.5895 Y-0.2318 Z-0.0857
N17180 Y-0.2331 Z-0.0873
N17185 X0.5894 Y-0.2347 Z-0.0886
N17190 X0.5893 Y-0.2366 Z-0.0893
N17195 X0.5892 Y-0.2386 Z-0.0896
N17200 G3 X0.5922 Y-0.2393 I0.0016 J-0.0001
N17205 G1 X0.611 Y-0.1914
N17210 X0.612 Y-0.1886
N17215 X0.6146 Y-0.1774
N17220 X0.6162 Y-0.1684
N17225 X0.617 Y-0.1601
N17230 X0.6172 Y-0.1513
N17235 X0.6164 Y-0.1393
N17240 X0.6143 Y-0.1249
N17245 X0.6099 Y-0.1056
N17250 X0.6025 Y-0.082
N17255 X0.5932 Y-0.0589
N17260 X0.5825 Y-0.0365
N17265 X0.5707 Y-0.0147
N17270 X0.5576 Y0.0064
N17275 X0.5435 Y0.0268
N17280 X0.5283 Y0.0464
N17285 X0.512 Y0.0652
N17290 X0.4947 Y0.083
N17295 X0.4764 Y0.0997
N17300 X0.4571 Y0.1153
N17305 X0.4367 Y0.1295
N17310 X0.4154 Y0.1423
N17315 X0.3933 Y0.1534
N17320 X0.3713 Y0.1623
N17325 X0.3499 Y0.169
N17330 X0.3294 Y0.1736
N17335 X0.3104 Y0.1764
N17340 X0.2931 Y0.1774
N17345 X0.2777 Y0.1772
N17350 X0.2634 Y0.1758
N17355 X0.2505 Y0.1735
N17360 X0.2396 Y0.1706
N17365 X0.23 Y0.1672
N17370 X0.2215 Y0.1634
N17375 X0.2153 Y0.16
N17380 X0.2095 Y0.1562
N17385 X0.2048 Y0.1526
N17390 X0.2005 Y0.1485
N17395 X0.1967 Y0.1435
N17400 X0.195 Y0.1374
N17405 X0.1954 Y0.1312
N17410 X0.1979 Y0.1254
N17415 X0.1987 Y0.1241
N17420 X0.2055 Y0.1098
N17425 X0.2083 Y0.1037
N17430 G3 X0.2102 Y0.1013 I0.007 J0.0035
N17435 G1 X0.2118 Y0.0999 Z-0.0893
N17440 X0.2132 Y0.0987 Z-0.0886
N17445 X0.2144 Y0.0976 Z-0.0873
N17450 X0.2154 Y0.0968 Z-0.0857
N17455 X0.216 Y0.0963 Z-0.0838
N17460 X0.2162 Y0.0961 Z-0.0817
N17465 G0 Z0.1004
N17470 X0.6108 Y-0.1693
N17475 Z-0.0739
N17480 G1 Z-0.0817 F40.
N17485 Y-0.1695 Z-0.0838
N17490 X0.6109 Y-0.1703 Z-0.0857
N17495 X0.611 Y-0.1716 Z-0.0873
N17500 X0.6111 Y-0.1732 Z-0.0886
N17505 X0.6113 Y-0.1751 Z-0.0893
N17510 X0.6115 Y-0.1771 Z-0.0896
N17515 G3 X0.6146 Y-0.1774 I0.0016 J0.0001
N17520 G1 X0.6223 Y-0.1436
N17525 X0.6287 Y-0.1154
N17530 X0.6298 Y-0.1095
N17535 X0.6302 Y-0.1032
N17540 Y-0.0959
N17545 X0.6294 Y-0.0863
N17550 X0.6275 Y-0.0751
N17555 X0.6239 Y-0.0606
N17560 X0.618 Y-0.0431
N17565 X0.6081 Y-0.0203
N17570 X0.5965 Y0.0016
N17575 X0.5836 Y0.0228
N17580 X0.5696 Y0.0433
N17585 X0.5545 Y0.063
N17590 X0.5384 Y0.082
N17595 X0.5214 Y0.1
N17600 X0.5033 Y0.1171
N17605 X0.4844 Y0.1331
N17610 X0.4645 Y0.148
N17615 X0.4437 Y0.1615
N17620 X0.422 Y0.1736
N17625 X0.3995 Y0.1841
N17630 X0.3763 Y0.1929
N17635 X0.353 Y0.1997
N17640 X0.331 Y0.2042
N17645 X0.3111 Y0.2067
N17650 X0.2923 Y0.2075
N17655 X0.2747 Y0.2069
N17660 X0.2587 Y0.205
N17665 X0.2441 Y0.2021
N17670 X0.2318 Y0.1986
N17675 X0.221 Y0.1945
N17680 X0.2116 Y0.1901
N17685 X0.2042 Y0.1859
N17690 X0.1977 Y0.1815
N17695 X0.193 Y0.1777
N17700 X0.1887 Y0.1735
N17705 X0.1848 Y0.169
N17710 X0.1826 Y0.166
N17715 X0.1799 Y0.1606
N17720 X0.1791 Y0.1547
N17725 X0.1803 Y0.1488
N17730 X0.1833 Y0.1436
N17735 X0.1971 Y0.1267
N17740 X0.1979 Y0.1254
N17745 G3 X0.2002 Y0.1234 I0.0064 J0.0047
N17750 G1 X0.202 Y0.1223 Z-0.0893
N17755 X0.2036 Y0.1213 Z-0.0886
N17760 X0.205 Y0.1205 Z-0.0873
N17765 X0.206 Y0.1198 Z-0.0857
N17770 X0.2067 Y0.1194 Z-0.0838
N17775 X0.2069 Y0.1193 Z-0.0817
N17780 G0 Z0.1004
N17785 X0.6249 Y-0.1074
N17790 Z-0.0739
N17795 G1 Z-0.0817 F40.
N17800 Y-0.1076 Z-0.0838
N17805 X0.625 Y-0.1084 Z-0.0857
N17810 X0.6251 Y-0.1096 Z-0.0873
N17815 X0.6253 Y-0.1113 Z-0.0886
N17820 X0.6255 Y-0.1132 Z-0.0893
N17825 X0.6257 Y-0.1152 Z-0.0896
N17830 G3 X0.6287 Y-0.1154 I0.0016 J0.0001
N17835 G1 X0.6325 Y-0.0985
N17840 X0.6335 Y-0.0929
N17845 X0.6369 Y-0.0479
N17850 X0.6371 Y-0.0405
N17855 X0.6367 Y-0.0342
N17860 X0.6356 Y-0.0263
N17865 X0.6334 Y-0.0163
N17870 X0.63 Y-0.0051
N17875 X0.6241 Y0.0099
N17880 X0.6148 Y0.0288
N17885 X0.602 Y0.0501
N17890 X0.5878 Y0.0705
N17895 X0.5724 Y0.0899
N17900 X0.556 Y0.1085
N17905 X0.5386 Y0.1263
N17910 X0.5204 Y0.1431
N17915 X0.5013 Y0.159
N17920 X0.4813 Y0.1737
N17925 X0.4604 Y0.1872
N17930 X0.4388 Y0.1994
N17935 X0.4164 Y0.2101
N17940 X0.3934 Y0.2193
N17945 X0.3697 Y0.2269
N17950 X0.3463 Y0.2325
N17955 X0.3237 Y0.236
N17960 X0.3021 Y0.2376
N17965 X0.2817 Y0.2375
N17970 X0.2627 Y0.2358
N17975 X0.2456 Y0.2329
N17980 X0.2309 Y0.2292
N17985 X0.2179 Y0.2247
N17990 X0.2063 Y0.2197
N17995 X0.1966 Y0.2145
N18000 X0.1885 Y0.2093
N18005 X0.1818 Y0.2042
N18010 X0.1764 Y0.1994
N18015 X0.172 Y0.1948
N18020 X0.1682 Y0.1902
N18025 X0.1649 Y0.1852
N18030 X0.1642 Y0.1837
N18035 X0.1623 Y0.1785
N18040 X0.1621 Y0.173
N18045 X0.1635 Y0.1677
N18050 X0.1665 Y0.163
N18055 X0.183 Y0.1439
N18060 X0.1833 Y0.1436
N18065 G3 X0.1857 Y0.1418 I0.0059 J0.0052
N18070 G1 X0.1875 Y0.1409 Z-0.0893
N18075 X0.1892 Y0.14 Z-0.0886
N18080 X0.1907 Y0.1393 Z-0.0873
N18085 X0.1918 Y0.1387 Z-0.0857
N18090 X0.1925 Y0.1384 Z-0.0838
N18095 X0.1928 Y0.1383 Z-0.0817
N18100 G0 Z0.1004
N18105 X0.6319 Y-0.0404
N18110 Z-0.0739
N18115 G1 Z-0.0817 F40.
N18120 Y-0.0407 Z-0.0838
N18125 X0.6321 Y-0.0415 Z-0.0857
N18130 X0.6324 Y-0.0427 Z-0.0873
N18135 X0.6328 Y-0.0443 Z-0.0886
N18140 X0.6333 Y-0.0461 Z-0.0893
N18145 X0.6338 Y-0.0481 Z-0.0896
N18150 G3 X0.6369 Y-0.0479 I0.0015 J0.0004
N18155 G1 X0.6403 Y-0.0028
N18160 Y0.0028
N18165 X0.6392 Y0.0175
N18170 X0.6379 Y0.0279
N18175 X0.6371 Y0.0338
N18180 X0.6358 Y0.0397
N18185 X0.6342 Y0.0455
N18190 X0.6323 Y0.0511
N18195 X0.6301 Y0.0567
N18200 X0.6277 Y0.0622
N18205 X0.625 Y0.0676
N18210 X0.6222 Y0.0729
N18215 X0.6192 Y0.0781
N18220 X0.6161 Y0.0832
N18225 X0.6129 Y0.0883
N18230 X0.6096 Y0.0933
N18235 X0.6061 Y0.0982
N18240 X0.6026 Y0.103
N18245 X0.5989 Y0.1078
N18250 X0.5952 Y0.1125
N18255 X0.5914 Y0.1172
N18260 X0.5876 Y0.1218
N18265 X0.5837 Y0.1263
N18270 X0.5797 Y0.1308
N18275 X0.5756 Y0.1352
N18280 X0.5715 Y0.1396
N18285 X0.5673 Y0.1439
N18290 X0.5631 Y0.1482
N18295 X0.5588 Y0.1524
N18300 X0.5545 Y0.1565
N18305 X0.5501 Y0.1606
N18310 X0.5457 Y0.1646
N18315 X0.5412 Y0.1686
N18320 X0.5366 Y0.1725
N18325 X0.532 Y0.1764
N18330 X0.5274 Y0.1802
N18335 X0.5227 Y0.1839
N18340 X0.5179 Y0.1876
N18345 X0.5131 Y0.1912
N18350 X0.5083 Y0.1948
N18355 X0.5034 Y0.1983
N18360 X0.4985 Y0.2017
N18365 X0.4935 Y0.205
N18370 X0.4885 Y0.2083
N18375 X0.4834 Y0.2115
N18380 X0.4783 Y0.2147
N18385 X0.4732 Y0.2177
N18390 X0.468 Y0.2207
N18395 X0.4627 Y0.2237
N18400 X0.4575 Y0.2265
N18405 X0.4521 Y0.2293
N18410 X0.4468 Y0.232
N18415 X0.4414 Y0.2346
N18420 X0.436 Y0.2372
N18425 X0.4305 Y0.2396
N18430 X0.425 Y0.242
N18435 X0.4194 Y0.2443
N18440 X0.4139 Y0.2465
N18445 X0.4082 Y0.2486
N18450 X0.4026 Y0.2507
N18455 X0.3969 Y0.2526
N18460 X0.3912 Y0.2544
N18465 X0.3855 Y0.2562
N18470 X0.3797 Y0.2579
N18475 X0.3739 Y0.2594
N18480 X0.3681 Y0.2609
N18485 X0.3623 Y0.2622
N18490 X0.3564 Y0.2635
N18495 X0.3505 Y0.2646
N18500 X0.3446 Y0.2657
N18505 X0.3387 Y0.2666
N18510 X0.3327 Y0.2674
N18515 X0.3268 Y0.2681
N18520 X0.3208 Y0.2687
N18525 X0.3148 Y0.2692
N18530 X0.3088 Y0.2695
N18535 X0.3028 Y0.2697
N18540 X0.2968 Y0.2698
N18545 X0.2908
N18550 X0.2848 Y0.2697
N18555 X0.2788 Y0.2694
N18560 X0.2728 Y0.269
N18565 X0.2669 Y0.2684
N18570 X0.2609 Y0.2677
N18575 X0.255 Y0.2669
N18580 X0.249 Y0.2659
N18585 X0.2431 Y0.2648
N18590 X0.2373 Y0.2636
N18595 X0.2315 Y0.2621
N18600 X0.2257 Y0.2605
N18605 X0.2199 Y0.2588
N18610 X0.2143 Y0.2568
N18615 X0.2086 Y0.2548
N18620 X0.2031 Y0.2525
N18625 X0.1976 Y0.2501
N18630 X0.1922 Y0.2474
N18635 X0.1869 Y0.2446
N18640 X0.1817 Y0.2416
N18645 X0.1767 Y0.2383
N18650 X0.1718 Y0.2349
N18655 X0.167 Y0.2312
N18660 X0.1624 Y0.2273
N18665 X0.1581 Y0.2232
N18670 X0.1539 Y0.2189
N18675 X0.1501 Y0.2142
N18680 X0.1467 Y0.2093
N18685 X0.1437 Y0.2041
N18690 X0.143 Y0.2026
N18695 X0.1414 Y0.1966
N18700 X0.142 Y0.1904
N18705 X0.1448 Y0.1848
N18710 X0.1492 Y0.1805
N18715 X0.1549 Y0.1758
N18720 X0.1587 Y0.1718
N18725 X0.1605 Y0.1698
N18730 X0.1638 Y0.1661
N18735 X0.1665 Y0.163
N18740 G3 X0.169 Y0.1612 I0.0058 J0.0054
N18745 G1 X0.1708 Y0.1604 Z-0.0893
N18750 X0.1726 Y0.1596 Z-0.0886
N18755 X0.174 Y0.1589 Z-0.0873
N18760 X0.1752 Y0.1584 Z-0.0857
N18765 X0.1759 Y0.1581 Z-0.0838
N18770 X0.1761 Y0.158 Z-0.0817
N18775 G0 Z0.1004
N18780 X0.6331 Y0.0241
N18785 Z-0.0739
N18790 G1 Z-0.0817 F40.
N18795 X0.6332 Y0.0239 Z-0.0838
N18800 X0.6335 Y0.0231 Z-0.0857
N18805 X0.634 Y0.022 Z-0.0873
N18810 X0.6346 Y0.0205 Z-0.0886
N18815 X0.6353 Y0.0187 Z-0.0893
N18820 X0.6361 Y0.0168 Z-0.0896
N18825 G3 X0.6392 Y0.0175 I0.0014 J0.0006
N18830 G1 X0.6343 Y0.0817
N18835 X0.6335 Y0.0882
N18840 X0.6323 Y0.0941
N18845 X0.6303 Y0.1009
N18850 X0.6272 Y0.109
N18855 X0.6226 Y0.1186
N18860 X0.6158 Y0.1303
N18865 X0.6059 Y0.1446
N18870 X0.5914 Y0.1622
N18875 X0.5742 Y0.18
N18880 X0.5558 Y0.1967
N18885 X0.5365 Y0.2123
N18890 X0.5164 Y0.2269
N18895 X0.4956 Y0.2404
N18900 X0.474 Y0.2527
N18905 X0.4518 Y0.2639
N18910 X0.4291 Y0.2737
N18915 X0.4057 Y0.2822
N18920 X0.3819 Y0.2892
N18925 X0.3577 Y0.2946
N18930 X0.3332 Y0.2983
N18935 X0.3084 Y0.3003
N18940 X0.284
N18945 X0.2608 Y0.2985
N18950 X0.2547 Y0.2975
N18955 X0.2486 Y0.2964
N18960 X0.2425 Y0.2952
N18965 X0.2363 Y0.2961
N18970 X0.2309 Y0.299
N18975 X0.2266 Y0.3035
N18980 X0.2242 Y0.3092
N18985 X0.2225 Y0.334
N18990 X0.2275 Y0.3583
N18995 X0.233 Y0.3825
N19000 X0.2373 Y0.407
N19005 X0.2396 Y0.4305
N19010 X0.24 Y0.4532
N19015 X0.2386 Y0.4754
N19020 X0.2355 Y0.4971
N19025 X0.2307 Y0.5184
N19030 X0.2242 Y0.5392
N19035 X0.2161 Y0.5593
N19040 X0.2064 Y0.5786
N19045 X0.1951 Y0.5972
N19050 X0.1885 Y0.6063
N19055 X0.1859 Y0.6093
N19060 X0.1827 Y0.6116
N19065 X0.179 Y0.6131
N19070 X0.1436 Y0.6241
N19075 X0.138 Y0.6251
N19080 X0.1248 Y0.6271
N19085 G3 X0.1218 Y0.6268 I-0.0009 J-0.0078
N19090 G1 X0.1198 Y0.6263 Z-0.0893
N19095 X0.118 Y0.6257 Z-0.0886
N19100 X0.1164 Y0.6253 Z-0.0873
N19105 X0.1152 Y0.6249 Z-0.0857
N19110 X0.1145 Y0.6247 Z-0.0838
N19115 X0.1142 Z-0.0817
N19120 G0 Z0.1004
N19125 X0.0449 Y0.2348
N19130 Z-0.0739
N19135 G1 Z-0.0817 F40.
N19140 X0.0446 Z-0.0838
N19145 X0.0438 Z-0.0857
N19150 X0.0426 Y0.2347 Z-0.0873
N19155 X0.0409 Y0.2346 Z-0.0886
N19160 X0.039 Y0.2345 Z-0.0893
N19165 X0.037 Y0.2344 Z-0.0896
N19170 G3 X0.0366 Y0.2313 I0.0001 J-0.0016
N19175 G1 X0.0535 Y0.2267
N19180 X0.0873 Y0.2168
N19185 X0.0929 Y0.2149
N19190 X0.0985 Y0.2126
N19195 X0.1011 Y0.2112
N19200 X0.1042 Y0.2093
N19205 X0.1104 Y0.2055
N19210 X0.1454 Y0.183
N19215 X0.1492 Y0.1805
N19220 G3 X0.1521 Y0.1794 I0.0042 J0.0067
N19225 G1 X0.1541 Y0.179 Z-0.0893
N19230 X0.156 Y0.1787 Z-0.0886
N19235 X0.1576 Y0.1785 Z-0.0873
N19240 X0.1588 Y0.1783 Z-0.0857
N19245 X0.1596 Y0.1781 Z-0.0838
N19250 X0.1599 Z-0.0817
N19255 G0 Z0.1004
N19260 X0.6283 Y0.0883
N19265 Z-0.0739
N19270 G1 Z-0.0817 F40.
N19275 X0.6284 Y0.088 Z-0.0838
N19280 X0.6287 Y0.0873 Z-0.0857
N19285 X0.6292 Y0.0861 Z-0.0873
N19290 X0.6298 Y0.0846 Z-0.0886
N19295 X0.6305 Y0.0829 Z-0.0893
N19300 X0.6313 Y0.081 Z-0.0896
N19305 G3 X0.6343 Y0.0817 I0.0014 J0.0006
N19310 G1 X0.6335 Y0.0929
N19315 X0.6325 Y0.0985
N19320 X0.6279 Y0.1192
N19325 X0.6203 Y0.1523
N19330 X0.6187 Y0.1581
N19335 X0.6164 Y0.1644
N19340 X0.6128 Y0.1719
N19345 X0.6083 Y0.1798
N19350 X0.6012 Y0.1901
N19355 X0.592 Y0.2016
N19360 X0.578 Y0.2163
N19365 X0.5595 Y0.2329
N19370 X0.5398 Y0.248
N19375 X0.5193 Y0.2619
N19380 X0.498 Y0.2747
N19385 X0.4761 Y0.2865
N19390 X0.4536 Y0.297
N19395 X0.4306 Y0.3062
N19400 X0.4071 Y0.3141
N19405 X0.3831 Y0.3206
N19410 X0.3588 Y0.3256
N19415 X0.3342 Y0.329
N19420 X0.3094 Y0.3308
N19425 X0.3032
N19430 X0.297
N19435 X0.2912 Y0.3328
N19440 X0.2863 Y0.3366
N19445 X0.2793 Y0.3469
N19450 X0.2709 Y0.3702
N19455 X0.2698 Y0.395
N19460 X0.2707 Y0.4199
N19465 X0.2711 Y0.4447
N19470 X0.27 Y0.4695
N19475 X0.2671 Y0.4941
N19480 X0.2622 Y0.5183
N19485 X0.2555 Y0.5417
N19490 X0.247 Y0.5645
N19495 X0.2368 Y0.5864
N19500 X0.2342 Y0.5909
N19505 X0.2315 Y0.5945
N19510 X0.228 Y0.5973
N19515 X0.224 Y0.5992
N19520 X0.2224 Y0.5998
N19525 X0.179 Y0.6131
N19530 G3 X0.176 Y0.6133 I-0.0021 J-0.0076
N19535 G1 X0.174 Y0.6131 Z-0.0893
N19540 X0.1721 Y0.6128 Z-0.0886
N19545 X0.1705 Y0.6126 Z-0.0873
N19550 X0.1692 Y0.6125 Z-0.0857
N19555 X0.1684 Y0.6124 Z-0.0838
N19560 X0.1682 Y0.6123 Z-0.0817
N19565 G0 Z0.1004
N19570 X0.6134 Y0.158
N19575 Z-0.0739
N19580 G1 Z-0.0817 F40.
N19585 X0.6135 Y0.1577 Z-0.0838
N19590 X0.6139 Y0.1571 Z-0.0857
N19595 X0.6146 Y0.156 Z-0.0873
N19600 X0.6154 Y0.1546 Z-0.0886
N19605 X0.6164 Y0.153 Z-0.0893
N19610 X0.6174 Y0.1512 Z-0.0896
N19615 G3 X0.6203 Y0.1523 I0.0013 J0.0008
N19620 G1 X0.6146 Y0.1774
N19625 X0.612 Y0.1886
N19630 X0.611 Y0.1914
N19635 X0.601 Y0.2168
N19640 X0.5975 Y0.2247
N19645 X0.5941 Y0.2307
N19650 X0.5894 Y0.2379
N19655 X0.5824 Y0.2468
N19660 X0.5736 Y0.2563
N19665 X0.5604 Y0.2685
N19670 X0.542 Y0.2829
N19675 X0.5213 Y0.2966
N19680 X0.4998 Y0.3089
N19685 X0.4776 Y0.3201
N19690 X0.4548 Y0.33
N19695 X0.4315 Y0.3387
N19700 X0.4078 Y0.346
N19705 X0.3838 Y0.352
N19710 X0.3594 Y0.3567
N19715 X0.3471 Y0.3582
N19720 X0.341 Y0.3596
N19725 X0.3354 Y0.3623
N19730 X0.3255 Y0.3698
N19735 X0.3183 Y0.3799
N19740 X0.3083 Y0.4026
N19745 X0.3047 Y0.4272
N19750 X0.3027 Y0.4519
N19755 X0.3005 Y0.4767
N19760 X0.297 Y0.5012
N19765 X0.2919 Y0.5255
N19770 X0.2851 Y0.5494
N19775 X0.2779 Y0.5693
N19780 X0.2757 Y0.5734
N19785 X0.2726 Y0.5769
N19790 X0.2686 Y0.5795
N19795 X0.25 Y0.5885
N19800 X0.245 Y0.5908
N19805 X0.2281 Y0.5979
N19810 X0.224 Y0.5992
N19815 G3 X0.2209 Y0.5995 I-0.0022 J-0.0076
N19820 G1 X0.2189 Y0.5993 Z-0.0893
N19825 X0.217 Y0.5991 Z-0.0886
N19830 X0.2154 Y0.5989 Z-0.0873
