%
(1001)
(2MM END MILL 5 MINUTES 10 X 6.7 .08 MATERIAL)
(T1  D=0.0787 CR=0. - ZMIN=-0.0613 - FLAT END MILL)
N10 G90 G94 G17 G91.1
N15 G20
N20 G53 G0 Z0.
(BORE1)
N25 M9
N30 T1 M6
N35 S12000 M3
N40 G54
N45 M8
N55 G0 X-4.6422 Y-1.972
N60 G43 Z0.6313 H1
N65 G0 Z0.1113
N70 G1 Z0.0391 F5.
N75 Y-1.9723 Z0.0371
N80 X-4.6423 Y-1.9731 Z0.0352
N85 X-4.6424 Y-1.9743 Z0.0336
N90 X-4.6425 Y-1.9759 Z0.0323
N95 X-4.6427 Y-1.9778 Z0.0315
N100 X-4.6429 Y-1.9798 Z0.0312
N105 X-4.6433 Y-1.9838
N110 G3 X-4.6362 Y-1.9923 I0.0078 J-0.0007
N115 X-4.6318 Y-1.9463 Z0.0116 I0.0022 J0.023
N120 X-4.6362 Y-1.9923 Z-0.0081 I-0.0022 J-0.023
N125 X-4.6318 Y-1.9463 Z-0.0278 I0.0022 J0.023
N130 X-4.6362 Y-1.9923 Z-0.0475 I-0.0022 J-0.023
N135 X-4.6141 Y-1.9576 Z-0.0613 I0.0022 J0.023
N140 X-4.6539 Y-1.981 I-0.0199 J-0.0117
N145 X-4.6141 Y-1.9576 I0.0199 J0.0117
N150 X-4.6248 Y-1.9548 I-0.0068 J-0.004
N155 G1 X-4.6282 Y-1.9568
N160 X-4.63 Y-1.9578 Z-0.061
N165 X-4.6316 Y-1.9588 Z-0.0602
N170 X-4.633 Y-1.9596 Z-0.0589
N175 X-4.6341 Y-1.9602 Z-0.0573
N180 X-4.6348 Y-1.9606 Z-0.0554
N185 X-4.635 Y-1.9608 Z-0.0534
N190 G0 Z0.2313
N195 X-3.9728 Y-2.2549
N200 Z0.1113
N205 G1 Z0.0391 F5.
N210 X-3.9729 Y-2.2552 Z0.0371
N215 Y-2.2559 Z0.0352
N220 X-3.9731 Y-2.2572 Z0.0336
N225 X-3.9732 Y-2.2588 Z0.0323
N230 X-3.9734 Y-2.2607 Z0.0315
N235 X-3.9736 Y-2.2627 Z0.0312
N240 X-3.9739 Y-2.2667
N245 G3 X-3.9668 Y-2.2752 I0.0078 J-0.0007
N250 X-3.945 Y-2.0425 Z0.0116 I0.0109 J0.1164
N255 X-3.9668 Y-2.2752 Z-0.0081 I-0.0109 J-0.1164
N260 X-3.945 Y-2.0425 Z-0.0278 I0.0109 J0.1164
N265 X-3.9668 Y-2.2752 Z-0.0475 I-0.0109 J-0.1164
N270 X-3.8552 Y-2.0996 Z-0.0613 I0.0109 J0.1164
N275 X-4.0567 Y-2.2181 I-0.1007 J-0.0593
N280 X-3.8552 Y-2.0996 I0.1007 J0.0593
N285 X-3.866 Y-2.0968 I-0.0068 J-0.004
N290 G1 X-3.8694 Y-2.0988
N295 X-3.8711 Y-2.0998 Z-0.061
N300 X-3.8728 Y-2.1008 Z-0.0602
N305 X-3.8742 Y-2.1016 Z-0.0589
N310 X-3.8752 Y-2.1023 Z-0.0573
N315 X-3.8759 Y-2.1027 Z-0.0554
N320 X-3.8762 Y-2.1028 Z-0.0534
N325 G0 Z0.2313
N330 X-1.0226 Y-2.8636
N335 Z0.1113
N340 G1 Z0.0391 F5.
N345 X-1.0227 Y-2.8639 Z0.0371
N350 Y-2.8647 Z0.0352
N355 X-1.0228 Y-2.8659 Z0.0336
N360 X-1.023 Y-2.8675 Z0.0323
N365 X-1.0232 Y-2.8694 Z0.0315
N370 X-1.0234 Y-2.8714 Z0.0312
N375 X-1.0237 Y-2.8754
N380 G3 X-1.0166 Y-2.8839 I0.0078 J-0.0007
N385 X-1.0123 Y-2.8379 Z0.0116 I0.0022 J0.023
N390 X-1.0166 Y-2.8839 Z-0.0081 I-0.0022 J-0.023
N395 X-1.0123 Y-2.8379 Z-0.0278 I0.0022 J0.023
N400 X-1.0166 Y-2.8839 Z-0.0475 I-0.0022 J-0.023
N405 X-0.9945 Y-2.8492 Z-0.0613 I0.0022 J0.023
N410 X-1.0344 Y-2.8726 I-0.0199 J-0.0117
N415 X-0.9945 Y-2.8492 I0.0199 J0.0117
N420 X-1.0053 Y-2.8464 I-0.0068 J-0.004
N425 G1 X-1.0087 Y-2.8484
N430 X-1.0105 Y-2.8494 Z-0.061
N435 X-1.0121 Y-2.8504 Z-0.0602
N440 X-1.0135 Y-2.8512 Z-0.0589
N445 X-1.0146 Y-2.8518 Z-0.0573
N450 X-1.0153 Y-2.8522 Z-0.0554
N455 X-1.0155 Y-2.8524 Z-0.0534
N460 G0 Z0.2313
N465 X-0.7555 Y-1.7919
N470 Z0.1113
N475 G1 Z0.0391 F5.
N480 Y-1.7922 Z0.0371
N485 X-0.7556 Y-1.7929 Z0.0352
N490 X-0.7557 Y-1.7942 Z0.0336
N495 X-0.7558 Y-1.7958 Z0.0323
N500 X-0.756 Y-1.7977 Z0.0315
N505 X-0.7562 Y-1.7997 Z0.0312
N510 X-0.7566 Y-1.8036
N515 G3 X-0.7494 Y-1.8122 I0.0078 J-0.0007
N520 X-0.7451 Y-1.7662 Z0.0116 I0.0022 J0.023
N525 X-0.7494 Y-1.8122 Z-0.0081 I-0.0022 J-0.023
N530 X-0.7451 Y-1.7662 Z-0.0278 I0.0022 J0.023
N535 X-0.7494 Y-1.8122 Z-0.0475 I-0.0022 J-0.023
N540 X-0.7274 Y-1.7775 Z-0.0613 I0.0022 J0.023
N545 X-0.7672 Y-1.8009 I-0.0199 J-0.0117
N550 X-0.7274 Y-1.7775 I0.0199 J0.0117
N555 X-0.7381 Y-1.7747 I-0.0068 J-0.004
N560 G1 X-0.7415 Y-1.7767
N565 X-0.7433 Y-1.7777 Z-0.061
N570 X-0.7449 Y-1.7787 Z-0.0602
N575 X-0.7463 Y-1.7795 Z-0.0589
N580 X-0.7474 Y-1.7801 Z-0.0573
N585 X-0.7481 Y-1.7805 Z-0.0554
N590 X-0.7483 Y-1.7807 Z-0.0534
N595 G0 Z0.2313
N600 X-1.9286 Y-1.77
N605 Z0.1113
N610 G1 Z0.0391 F5.
N615 Y-1.7703 Z0.0371
N620 X-1.9287 Y-1.7711 Z0.0352
N625 X-1.9288 Y-1.7723 Z0.0336
N630 X-1.929 Y-1.774 Z0.0323
N635 X-1.9291 Y-1.7758 Z0.0315
N640 X-1.9293 Y-1.7779 Z0.0312
N645 X-1.9297 Y-1.7818
N650 G3 X-1.9226 Y-1.7904 I0.0078 J-0.0007
N655 X-1.9008 Y-1.5576 Z0.0116 I0.0109 J0.1164
N660 X-1.9226 Y-1.7904 Z-0.0081 I-0.0109 J-0.1164
N665 X-1.9008 Y-1.5576 Z-0.0278 I0.0109 J0.1164
N670 X-1.9226 Y-1.7904 Z-0.0475 I-0.0109 J-0.1164
N675 X-1.8109 Y-1.6147 Z-0.0613 I0.0109 J0.1164
N680 X-2.0124 Y-1.7333 I-0.1007 J-0.0593
N685 X-1.8109 Y-1.6147 I0.1007 J0.0593
N690 X-1.8217 Y-1.6119 I-0.0068 J-0.004
N695 G1 X-1.8251 Y-1.6139
N700 X-1.8269 Y-1.615 Z-0.061
N705 X-1.8285 Y-1.6159 Z-0.0602
N710 X-1.8299 Y-1.6168 Z-0.0589
N715 X-1.831 Y-1.6174 Z-0.0573
N720 X-1.8317 Y-1.6178 Z-0.0554
N725 X-1.8319 Y-1.6179 Z-0.0534
N730 G0 Z0.2313
N735 X-0.651 Y-0.6768
N740 Z0.1113
N745 G1 Z0.0391 F5.
N750 Y-0.677 Z0.0371
N755 X-0.6511 Y-0.6778 Z0.0352
N760 X-0.6512 Y-0.6791 Z0.0336
N765 X-0.6513 Y-0.6807 Z0.0323
N770 X-0.6515 Y-0.6826 Z0.0315
N775 X-0.6517 Y-0.6846 Z0.0312
N780 X-0.6521 Y-0.6885
N785 G3 X-0.645 Y-0.6971 I0.0078 J-0.0007
N790 X-0.6407 Y-0.651 Z0.0116 I0.0022 J0.023
N795 X-0.645 Y-0.6971 Z-0.0081 I-0.0022 J-0.023
N800 X-0.6407 Y-0.651 Z-0.0278 I0.0022 J0.023
N805 X-0.645 Y-0.6971 Z-0.0475 I-0.0022 J-0.023
N810 X-0.6229 Y-0.6623 Z-0.0613 I0.0022 J0.023
N815 X-0.6628 Y-0.6858 I-0.0199 J-0.0117
N820 X-0.6229 Y-0.6623 I0.0199 J0.0117
N825 X-0.6337 Y-0.6596 I-0.0068 J-0.004
N830 G1 X-0.6371 Y-0.6615
N835 X-0.6388 Y-0.6626 Z-0.061
N840 X-0.6404 Y-0.6635 Z-0.0602
N845 X-0.6418 Y-0.6644 Z-0.0589
N850 X-0.6429 Y-0.665 Z-0.0573
N855 X-0.6436 Y-0.6654 Z-0.0554
N860 X-0.6438 Y-0.6655 Z-0.0534
N865 G0 Z0.2313
N870 X-1.7459 Y-0.1143
N875 Z0.1113
N880 G1 Z0.0391 F5.
N885 Y-0.1145 Z0.0371
N890 X-1.746 Y-0.1153 Z0.0352
N895 X-1.7461 Y-0.1165 Z0.0336
N900 X-1.7463 Y-0.1182 Z0.0323
N905 X-1.7464 Y-0.1201 Z0.0315
N910 X-1.7466 Y-0.1221 Z0.0312
N915 X-1.747 Y-0.126
N920 G3 X-1.7399 Y-0.1346 I0.0078 J-0.0007
N925 X-1.7356 Y-0.0885 Z0.0116 I0.0022 J0.023
N930 X-1.7399 Y-0.1346 Z-0.0081 I-0.0022 J-0.023
N935 X-1.7356 Y-0.0885 Z-0.0278 I0.0022 J0.023
N940 X-1.7399 Y-0.1346 Z-0.0475 I-0.0022 J-0.023
N945 X-1.7178 Y-0.0998 Z-0.0613 I0.0022 J0.023
N950 X-1.7577 Y-0.1233 I-0.0199 J-0.0117
N955 X-1.7178 Y-0.0998 I0.0199 J0.0117
N960 X-1.7286 Y-0.097 I-0.0068 J-0.004
N965 G1 X-1.732 Y-0.099
N970 X-1.7337 Y-0.1001 Z-0.061
N975 X-1.7354 Y-0.101 Z-0.0602
N980 X-1.7368 Y-0.1019 Z-0.0589
N985 X-1.7379 Y-0.1025 Z-0.0573
N990 X-1.7385 Y-0.1029 Z-0.0554
N995 X-1.7388 Y-0.103 Z-0.0534
N1000 G0 Z0.2313
N1005 X1.8528 Y2.8746
N1010 Z0.1113
N1015 G1 Z0.0391 F5.
N1020 Y2.8743 Z0.0371
N1025 X1.8527 Y2.8736 Z0.0352
N1030 X1.8526 Y2.8723 Z0.0336
N1035 X1.8524 Y2.8707 Z0.0323
N1040 X1.8522 Y2.8688 Z0.0315
N1045 X1.8521 Y2.8668 Z0.0312
N1050 X1.8517 Y2.8628
N1055 G3 X1.8588 Y2.8543 I0.0078 J-0.0007
N1060 X1.8631 Y2.9003 Z0.0116 I0.0022 J0.023
N1065 X1.8588 Y2.8543 Z-0.0081 I-0.0022 J-0.023
N1070 X1.8631 Y2.9003 Z-0.0278 I0.0022 J0.023
N1075 X1.8588 Y2.8543 Z-0.0475 I-0.0022 J-0.023
N1080 X1.8809 Y2.889 Z-0.0613 I0.0022 J0.023
N1085 X1.841 Y2.8656 I-0.0199 J-0.0117
N1090 X1.8809 Y2.889 I0.0199 J0.0117
N1095 X1.8701 Y2.8918 I-0.0068 J-0.004
N1100 G1 X1.8667 Y2.8898
N1105 X1.865 Y2.8888 Z-0.061
N1110 X1.8633 Y2.8878 Z-0.0602
N1115 X1.8619 Y2.887 Z-0.0589
N1120 X1.8608 Y2.8864 Z-0.0573
N1125 X1.8602 Y2.886 Z-0.0554
N1130 X1.8599 Y2.8858 Z-0.0534
N1135 G0 Z0.2313
N1140 X3.1393 Y2.2598
N1145 Z0.1113
N1150 G1 Z0.0391 F5.
N1155 X3.1392 Y2.2596 Z0.0371
N1160 Y2.2588 Z0.0352
N1165 X3.139 Y2.2575 Z0.0336
N1170 X3.1389 Y2.2559 Z0.0323
N1175 X3.1387 Y2.254 Z0.0315
N1180 X3.1385 Y2.252 Z0.0312
N1185 X3.1382 Y2.2481
N1190 G3 X3.1453 Y2.2395 I0.0078 J-0.0007
N1195 X3.1496 Y2.2856 Z0.0116 I0.0022 J0.023
N1200 X3.1453 Y2.2395 Z-0.0081 I-0.0022 J-0.023
N1205 X3.1496 Y2.2856 Z-0.0278 I0.0022 J0.023
N1210 X3.1453 Y2.2395 Z-0.0475 I-0.0022 J-0.023
N1215 X3.1674 Y2.2743 Z-0.0613 I0.0022 J0.023
N1220 X3.1275 Y2.2508 I-0.0199 J-0.0117
N1225 X3.1674 Y2.2743 I0.0199 J0.0117
N1230 X3.1566 Y2.277 I-0.0068 J-0.004
N1235 G1 X3.1532 Y2.2751
N1240 X3.1514 Y2.274 Z-0.061
N1245 X3.1498 Y2.2731 Z-0.0602
N1250 X3.1484 Y2.2722 Z-0.0589
N1255 X3.1473 Y2.2716 Z-0.0573
N1260 X3.1466 Y2.2712 Z-0.0554
N1265 X3.1464 Y2.2711 Z-0.0534
N1270 G0 Z0.2313
N1275 X4.145 Y2.7417
N1280 Z0.1113
N1285 G1 Z0.0391 F5.
N1290 X4.1449 Y2.7414 Z0.0371
N1295 Y2.7406 Z0.0352
N1300 X4.1448 Y2.7394 Z0.0336
N1305 X4.1446 Y2.7378 Z0.0323
N1310 X4.1444 Y2.7359 Z0.0315
N1315 X4.1442 Y2.7338 Z0.0312
N1320 X4.1439 Y2.7299
N1325 G3 X4.151 Y2.7214 I0.0078 J-0.0007
N1330 X4.1553 Y2.7674 Z0.0116 I0.0022 J0.023
N1335 X4.151 Y2.7214 Z-0.0081 I-0.0022 J-0.023
N1340 X4.1553 Y2.7674 Z-0.0278 I0.0022 J0.023
N1345 X4.151 Y2.7214 Z-0.0475 I-0.0022 J-0.023
N1350 X4.1731 Y2.7561 Z-0.0613 I0.0022 J0.023
N1355 X4.1332 Y2.7327 I-0.0199 J-0.0117
N1360 X4.1731 Y2.7561 I0.0199 J0.0117
N1365 X4.1623 Y2.7589 I-0.0068 J-0.004
N1370 G1 X4.1589 Y2.7569
N1375 X4.1571 Y2.7559 Z-0.061
N1380 X4.1555 Y2.7549 Z-0.0602
N1385 X4.1541 Y2.7541 Z-0.0589
N1390 X4.153 Y2.7534 Z-0.0573
N1395 X4.1523 Y2.753 Z-0.0554
N1400 X4.1521 Y2.7529 Z-0.0534
N1405 G0 Z0.2313
N1410 X3.9562 Y0.7268
N1415 Z0.1113
N1420 G1 Z0.0391 F5.
N1425 Y0.7266 Z0.0371
N1430 X3.9561 Y0.7258 Z0.0352
N1435 X3.956 Y0.7245 Z0.0336
N1440 X3.9558 Y0.7229 Z0.0323
N1445 X3.9556 Y0.721 Z0.0315
N1450 X3.9555 Y0.719 Z0.0312
N1455 X3.9551 Y0.7151
N1460 G3 X3.9622 Y0.7065 I0.0078 J-0.0007
N1465 X3.9665 Y0.7526 Z0.0116 I0.0022 J0.023
N1470 X3.9622 Y0.7065 Z-0.0081 I-0.0022 J-0.023
N1475 X3.9665 Y0.7526 Z-0.0278 I0.0022 J0.023
N1480 X3.9622 Y0.7065 Z-0.0475 I-0.0022 J-0.023
N1485 X3.9843 Y0.7413 Z-0.0613 I0.0022 J0.023
N1490 X3.9444 Y0.7178 I-0.0199 J-0.0117
N1495 X3.9843 Y0.7413 I0.0199 J0.0117
N1500 X3.9735 Y0.7441 I-0.0068 J-0.004
N1505 G1 X3.9701 Y0.7421
N1510 X3.9684 Y0.741 Z-0.061
N1515 X3.9667 Y0.7401 Z-0.0602
N1520 X3.9653 Y0.7392 Z-0.0589
N1525 X3.9642 Y0.7386 Z-0.0573
N1530 X3.9636 Y0.7382 Z-0.0554
N1535 X3.9633 Y0.7381 Z-0.0534
N1540 G0 Z0.2313
N1545 X2.8687 Y-0.6275
N1550 Z0.1113
N1555 G1 Z0.0391 F5.
N1560 Y-0.6278 Z0.0371
N1565 X2.8686 Y-0.6286 Z0.0352
N1570 X2.8685 Y-0.6298 Z0.0336
N1575 X2.8684 Y-0.6314 Z0.0323
N1580 X2.8682 Y-0.6333 Z0.0315
N1585 X2.868 Y-0.6354 Z0.0312
N1590 X2.8676 Y-0.6393
N1595 G3 X2.8747 Y-0.6479 I0.0078 J-0.0007
N1600 X2.8791 Y-0.6018 Z0.0116 I0.0022 J0.023
N1605 X2.8747 Y-0.6479 Z-0.0081 I-0.0022 J-0.023
N1610 X2.8791 Y-0.6018 Z-0.0278 I0.0022 J0.023
N1615 X2.8747 Y-0.6479 Z-0.0475 I-0.0022 J-0.023
N1620 X2.8968 Y-0.6131 Z-0.0613 I0.0022 J0.023
N1625 X2.857 Y-0.6366 I-0.0199 J-0.0117
N1630 X2.8968 Y-0.6131 I0.0199 J0.0117
N1635 X2.8861 Y-0.6103 I-0.0068 J-0.004
N1640 G1 X2.8827 Y-0.6123
N1645 X2.8809 Y-0.6133 Z-0.061
N1650 X2.8793 Y-0.6143 Z-0.0602
N1655 X2.8779 Y-0.6151 Z-0.0589
N1660 X2.8768 Y-0.6158 Z-0.0573
N1665 X2.8761 Y-0.6162 Z-0.0554
N1670 X2.8759 Y-0.6163 Z-0.0534
N1675 G0 Z0.2313
N1680 X4.3832 Y-2.8636
N1685 Z0.1113
N1690 G1 Z0.0391 F5.
N1695 Y-2.8639 Z0.0371
N1700 X4.3831 Y-2.8647 Z0.0352
N1705 X4.383 Y-2.8659 Z0.0336
N1710 X4.3828 Y-2.8675 Z0.0323
N1715 X4.3827 Y-2.8694 Z0.0315
N1720 X4.3825 Y-2.8714 Z0.0312
N1725 X4.3821 Y-2.8754
N1730 G3 X4.3892 Y-2.8839 I0.0078 J-0.0007
N1735 X4.3935 Y-2.8379 Z0.0116 I0.0022 J0.023
N1740 X4.3892 Y-2.8839 Z-0.0081 I-0.0022 J-0.023
N1745 X4.3935 Y-2.8379 Z-0.0278 I0.0022 J0.023
N1750 X4.3892 Y-2.8839 Z-0.0475 I-0.0022 J-0.023
N1755 X4.4113 Y-2.8492 Z-0.0613 I0.0022 J0.023
N1760 X4.3714 Y-2.8726 I-0.0199 J-0.0117
N1765 X4.4113 Y-2.8492 I0.0199 J0.0117
N1770 X4.4005 Y-2.8464 I-0.0068 J-0.004
N1775 G1 X4.3971 Y-2.8484
N1780 X4.3954 Y-2.8494 Z-0.061
N1785 X4.3937 Y-2.8504 Z-0.0602
N1790 X4.3923 Y-2.8512 Z-0.0589
N1795 X4.3913 Y-2.8518 Z-0.0573
N1800 X4.3906 Y-2.8522 Z-0.0554
N1805 X4.3904 Y-2.8524 Z-0.0534
N1810 G0 Z0.6313
(2D CONTOUR1)
N1820 M8
N1825 G0 X4.8897 Y-2.3518
N1830 Z0.3312
N1835 Z0.1313
N1840 G1 Z0.0706 F20.
N1845 Z0.0091 F2.
N1850 X4.8894 Y-2.3519 Z0.0071
N1855 X4.8886 Y-2.3521 Z0.0052
N1860 X4.8874 Y-2.3524 Z0.0036
N1865 X4.8858 Y-2.3528 Z0.0023
N1870 X4.884 Y-2.3533 Z0.0015
N1875 X4.882 Y-2.3538 Z0.0013
N1880 X4.8744 Y-2.3557 F20.
N1885 G3 X4.8687 Y-2.3653 I0.0019 J-0.0076
N1890 G1 X4.8689 Y-2.3663
N1895 G2 X4.8349 Y-2.8366 I-0.7366 J-0.1832
N1900 X4.7291 Y-3.0067 I-0.5925 J0.2507
N1905 X4.557 Y-3.1298 I-0.3503 J0.3079
N1910 X4.323 Y-3.1545 I-0.1638 J0.4304
N1915 X4.1382 Y-3.1048 I0.102 J0.7465
N1920 X3.9693 Y-3.0263 I0.525 J1.3516
N1925 X3.7689 Y-2.9105 I1.6891 J3.1533
N1930 G1 X3.5584 Y-2.779
N1935 X3.3478 Y-2.6477
N1940 G3 X2.7984 Y-2.3381 I-4.3375 J-7.0559
N1945 X2.466 Y-2.1863 I-1.981 J-3.8957
N1950 X2.2168 Y-2.1035 I-0.7914 J-1.9666
N1955 X1.6233 Y-2.0898 I-0.3258 J-1.2509
N1960 X1.2781 Y-2.1963 I0.3804 J-1.846
N1965 X0.9405 Y-2.3545 I1.3255 J-3.2672
N1970 X0.5626 Y-2.5614 I7.0428 J-13.3127
N1975 G2 X0.1879 Y-2.7593 I-4.0311 J7.1773
N1980 X-0.7422 Y-3.0887 I-1.8965 J3.8775
N1985 X-1.4533 Y-3.2124 I-1.4116 J6.0076
N1990 X-2.941 Y-3.2523 I-0.9594 J8.0356
N1995 X-3.5013 Y-3.1869 I0.411 J5.9546
N2000 X-3.973 Y-3.0763 I0.6333 J3.7642
N2005 X-4.3068 Y-2.9438 I0.6933 J2.2338
N2010 X-4.5505 Y-2.791 I0.6597 J1.3226
N2015 X-4.7522 Y-2.5788 I0.6118 J0.7835
N2020 X-4.8902 Y-2.0877 I0.6586 J0.4501
N2025 X-4.8192 Y-1.7539 I1.0248 J-0.0437
N2030 X-4.5417 Y-1.3277 I1.1021 J-0.4141
N2035 X-4.3498 Y-1.1896 I0.5855 J-0.6114
N2040 X-4.0286 Y-1.1207 I0.2937 J-0.5852
N2045 X-3.8653 Y-1.137 I-0.0306 J-1.1323
N2050 G1 X-3.8185 Y-1.1446
N2055 G3 X-3.5717 Y-1.1867 I1.1127 J5.7873
N2060 X-3.2761 Y-1.1975 I0.2 J1.4251
N2065 X-2.8351 Y-1.0699 I-0.0831 J1.1136
N2070 X-2.572 Y-0.8586 I-0.4528 J0.8333
N2075 X-2.42 Y-0.6097 I-0.745 J0.6255
N2080 G1 X-2.3992 Y-0.5614
N2085 G2 X-2.322 Y-0.3673 I13.1464 J-5.1166
N2090 X-2.19 Y-0.125 I1.1919 J-0.4923
N2095 X-1.7756 Y0.252 I1.0861 J-0.7774
N2100 X-1.4732 Y0.3841 I0.8765 J-1.5942
N2105 X-1.1001 Y0.4944 I1.4115 J-4.0887
N2110 X-0.5018 Y0.628 I2.7944 J-11.1126
N2115 G3 X-0.1066 Y0.7104 I-7.0725 J34.908
N2120 X0.1519 Y0.7777 I-0.6451 J3.0093
N2125 X0.3583 Y0.8649 I-0.3476 J1.1103
N2130 X0.6177 Y1.0777 I-0.5009 J0.875
N2135 X0.7771 Y1.2847 I-1.2569 J1.1333
N2140 X0.9619 Y1.6025 I-2.5293 J1.6831
N2145 X1.2284 Y2.2288 I-4.5017 J2.2852
N2150 X1.3314 Y2.5392 I-7.2268 J2.571
N2155 G2 X1.4282 Y2.8342 I6.536 J-1.9817
N2160 X1.4611 Y2.9136 I1.7959 J-0.6972
N2165 X1.5541 Y3.0687 I0.631 J-0.2728
N2170 X1.8745 Y3.2601 I0.434 J-0.3628
N2175 X2.0406 Y3.2666 I0.1065 J-0.5953
N2180 G1 X4.0776 Y3.0758
N2185 G2 X4.4741 Y2.5973 I-0.041 J-0.4375
N2190 G1 X4.2947 Y0.6819
N2195 G3 X4.2739 Y-0.3024 I10.7948 J-0.7198
N2200 X4.3153 Y-0.8778 I6.3478 J0.1677
N2205 X4.3827 Y-1.2479 I3.3804 J0.4245
N2210 X4.5952 Y-1.792 I2.1883 J0.541
N2215 X4.7079 Y-1.9932 I7.7554 J4.2103
N2220 G2 X4.8111 Y-2.1957 I-1.9493 J-1.1215
N2225 X4.8688 Y-2.3652 I-0.9836 J-0.4293
N2230 G1 X4.8695 Y-2.3671
N2235 X4.8707 Y-2.3688
N2240 X4.8723 Y-2.37
N2245 X4.8742 Y-2.3709
N2250 X4.8762 Y-2.3712
N2255 X4.8782 Y-2.371
N2260 X4.8859 Y-2.369
N2265 X4.8879 Y-2.3685 Z0.0015
N2270 X4.8897 Y-2.3681 Z0.0023
N2275 X4.8913 Y-2.3677 Z0.0036
N2280 X4.8925 Y-2.3674 Z0.0052
N2285 X4.8933 Y-2.3672 Z0.0071
N2290 X4.8935 Y-2.3671 Z0.0091
N2295 G0 Z0.1313
N2300 X3.4321 Y-0.0269
N2305 G1 Z0.0706 F20.
N2310 Z0.0091 F2.
N2315 X3.4324 Z0.0071
N2320 X3.4332 Y-0.027 Z0.0052
N2325 X3.4344 Y-0.0271 Z0.0036
N2330 X3.436 Y-0.0273 Z0.0023
N2335 X3.4379 Y-0.0274 Z0.0015
N2340 X3.44 Y-0.0276 Z0.0012
N2345 X3.4478 Y-0.0284 Z0.0013 F20.
N2350 G3 X3.4564 Y-0.0213 I0.0007 J0.0078
N2355 G1 X3.6364 Y1.9003
N2360 G3 X3.4734 Y2.097 I-0.1798 J0.0168
N2365 G1 X2.7964 Y2.1605
N2370 G3 X2.5997 Y1.9975 I-0.0168 J-0.1798
N2375 G1 X2.3879 Y-0.2626
N2380 G3 X2.5509 Y-0.4593 I0.1798 J-0.0169
N2385 G1 X3.228 Y-0.5228
N2390 G3 X3.4246 Y-0.3598 I0.0168 J0.1798
N2395 G1 X3.4564 Y-0.0213
N2400 G3 X3.4493 Y-0.0127 I-0.0078 J0.0007
N2405 G1 X3.4414 Y-0.0119
N2410 X3.4394 Y-0.0118 Z0.0015
N2415 X3.4375 Y-0.0116 Z0.0023
N2420 X3.4359 Y-0.0114 Z0.0036
N2425 X3.4346 Y-0.0113 Z0.0052
N2430 X3.4338 Y-0.0112 Z0.0071
N2435 X3.4336 Z0.0091
N2440 G0 Z0.1313
N2445 X-0.621 Y-1.1059
N2450 G1 Z0.0706 F20.
N2455 Z0.0091 F2.
N2460 X-0.6207 Z0.0071
N2465 X-0.6199 Y-1.106 Z0.0052
N2470 X-0.6187 Y-1.1061 Z0.0036
N2475 X-0.6171 Y-1.1062 Z0.0023
N2480 X-0.6152 Y-1.1064 Z0.0015
N2485 X-0.6132 Y-1.1066 Z0.0013
N2490 X-0.6053 Y-1.1073 F20.
N2495 G3 X-0.5967 Y-1.1002 I0.0007 J0.0078
N2500 G1 X-0.5887 Y-1.015
N2505 X-0.7593 Y-0.999
N2510 X-0.8014 Y-1.4483
N2515 X-0.6308 Y-1.4643
N2520 X-0.5967 Y-1.1002
N2525 G3 X-0.6038 Y-1.0917 I-0.0078 J0.0007
N2530 G1 X-0.6117 Y-1.0909
N2535 X-0.6137 Y-1.0907 Z0.0015
N2540 X-0.6156 Y-1.0906 Z0.0023
N2545 X-0.6172 Y-1.0904 Z0.0036
N2550 X-0.6185 Y-1.0903 Z0.0052
N2555 X-0.6193 Y-1.0902 Z0.0071
N2560 X-0.6195 Z0.0091
N2565 G0 Z0.3312
N2570 X4.8897 Y-2.3518
N2575 Z0.1313
N2580 G1 Z0.0706 F20.
N2585 Z-0.0534 F2.
N2590 X4.8894 Y-2.3519 Z-0.0554
N2595 X4.8886 Y-2.3521 Z-0.0573
N2600 X4.8874 Y-2.3524 Z-0.0589
N2605 X4.8858 Y-2.3528 Z-0.0602
N2610 X4.884 Y-2.3533 Z-0.061
N2615 X4.882 Y-2.3538 Z-0.0613
N2620 X4.8744 Y-2.3557 F20.
N2625 G3 X4.8687 Y-2.3653 I0.0019 J-0.0076
N2630 G1 X4.8689 Y-2.3663
N2635 G2 X4.8349 Y-2.8366 I-0.7366 J-0.1832
N2640 X4.7291 Y-3.0067 I-0.5925 J0.2507
N2645 X4.557 Y-3.1298 I-0.3503 J0.3079
N2650 X4.323 Y-3.1545 I-0.1638 J0.4304
N2655 X4.1382 Y-3.1048 I0.102 J0.7465
N2660 X3.9693 Y-3.0263 I0.525 J1.3516
N2665 X3.7689 Y-2.9105 I1.6891 J3.1533
N2670 G1 X3.5584 Y-2.779
N2675 X3.3478 Y-2.6477
N2680 G3 X2.7984 Y-2.3381 I-4.3375 J-7.0559
N2685 X2.466 Y-2.1863 I-1.981 J-3.8957
N2690 X2.2168 Y-2.1035 I-0.7914 J-1.9666
N2695 X1.6233 Y-2.0898 I-0.3258 J-1.2509
N2700 X1.2781 Y-2.1963 I0.3804 J-1.846
N2705 X0.9405 Y-2.3545 I1.3255 J-3.2672
N2710 X0.5626 Y-2.5614 I7.0428 J-13.3127
N2715 G2 X0.1879 Y-2.7593 I-4.0311 J7.1773
N2720 X-0.7422 Y-3.0887 I-1.8965 J3.8775
N2725 X-1.4533 Y-3.2124 I-1.4116 J6.0076
N2730 X-2.941 Y-3.2523 I-0.9594 J8.0356
N2735 X-3.5013 Y-3.1869 I0.411 J5.9546
N2740 X-3.973 Y-3.0763 I0.6333 J3.7642
N2745 X-4.3068 Y-2.9438 I0.6933 J2.2338
N2750 X-4.5505 Y-2.791 I0.6597 J1.3226
N2755 X-4.7522 Y-2.5788 I0.6118 J0.7835
N2760 X-4.8902 Y-2.0877 I0.6586 J0.4501
N2765 X-4.8192 Y-1.7539 I1.0248 J-0.0437
N2770 X-4.5417 Y-1.3277 I1.1021 J-0.4141
N2775 X-4.3498 Y-1.1896 I0.5855 J-0.6114
N2780 X-4.0286 Y-1.1207 I0.2937 J-0.5852
N2785 X-3.8653 Y-1.137 I-0.0306 J-1.1323
N2790 G1 X-3.8185 Y-1.1446
N2795 G3 X-3.5717 Y-1.1867 I1.1127 J5.7873
N2800 X-3.2761 Y-1.1975 I0.2 J1.4251
N2805 X-2.8351 Y-1.0699 I-0.0831 J1.1136
N2810 X-2.572 Y-0.8586 I-0.4528 J0.8333
N2815 X-2.42 Y-0.6097 I-0.745 J0.6255
N2820 G1 X-2.3992 Y-0.5614
N2825 G2 X-2.322 Y-0.3673 I13.1464 J-5.1166
N2830 X-2.19 Y-0.125 I1.1919 J-0.4923
N2835 X-1.7756 Y0.252 I1.0861 J-0.7774
N2840 X-1.4732 Y0.3841 I0.8765 J-1.5942
N2845 X-1.1001 Y0.4944 I1.4115 J-4.0887
N2850 X-0.5018 Y0.628 I2.7944 J-11.1126
N2855 G3 X-0.1066 Y0.7104 I-7.0725 J34.908
N2860 X0.1519 Y0.7777 I-0.6451 J3.0093
N2865 X0.3583 Y0.8649 I-0.3476 J1.1103
N2870 X0.6177 Y1.0777 I-0.5009 J0.875
N2875 X0.7771 Y1.2847 I-1.2569 J1.1333
N2880 X0.9619 Y1.6025 I-2.5293 J1.6831
N2885 X1.2284 Y2.2288 I-4.5017 J2.2852
N2890 X1.3314 Y2.5392 I-7.2268 J2.571
N2895 G2 X1.4282 Y2.8342 I6.536 J-1.9817
N2900 X1.4611 Y2.9136 I1.7959 J-0.6972
N2905 X1.5541 Y3.0687 I0.631 J-0.2728
N2910 X1.8745 Y3.2601 I0.434 J-0.3628
N2915 X2.0406 Y3.2666 I0.1065 J-0.5953
N2920 G1 X4.0776 Y3.0758
N2925 G2 X4.4741 Y2.5973 I-0.041 J-0.4375
N2930 G1 X4.2947 Y0.6819
N2935 G3 X4.2739 Y-0.3024 I10.7948 J-0.7198
N2940 X4.3153 Y-0.8778 I6.3478 J0.1677
N2945 X4.3827 Y-1.2479 I3.3804 J0.4245
N2950 X4.5952 Y-1.792 I2.1883 J0.541
N2955 X4.7079 Y-1.9932 I7.7554 J4.2103
N2960 G2 X4.8111 Y-2.1957 I-1.9493 J-1.1215
N2965 X4.8688 Y-2.3652 I-0.9836 J-0.4293
N2970 G1 X4.8695 Y-2.3671
N2975 X4.8707 Y-2.3688
N2980 X4.8723 Y-2.37
N2985 X4.8742 Y-2.3709
N2990 X4.8762 Y-2.3712
N2995 X4.8782 Y-2.371
N3000 X4.8859 Y-2.369
N3005 X4.8879 Y-2.3685 Z-0.061
N3010 X4.8897 Y-2.3681 Z-0.0602
N3015 X4.8913 Y-2.3677 Z-0.0589
N3020 X4.8925 Y-2.3674 Z-0.0573
N3025 X4.8933 Y-2.3672 Z-0.0554
N3030 X4.8935 Y-2.3671 Z-0.0534
N3035 G0 Z0.3312
N3045 M9
N3050 G53 Z0.
N3055 M30
%
