%
(1001)
(2MM END MILL 5 MINUTES 10 X 6.7 .08 MATERIAL)
(T1  D=0.0787 CR=0. - ZMIN=-0.0513 - FLAT END MILL)
N10 G90 G94 G17 G91.1
N15 G20
N20 G53 G0 Z0.
(BORE1)
N25 M9
N30 T1 M6
N35 S12000 M3
N40 G54
N45 M8
N55 G0 X-4.6422 Y-1.972
N60 G43 Z0.6313 H1
N65 G0 Z0.1113
N70 G1 Z0.0391 F5.
N75 Y-1.9723 Z0.0371
N80 X-4.6423 Y-1.9731 Z0.0352
N85 X-4.6424 Y-1.9743 Z0.0336
N90 X-4.6425 Y-1.9759 Z0.0323
N95 X-4.6427 Y-1.9778 Z0.0315
N100 X-4.6429 Y-1.9798 Z0.0312
N105 X-4.6433 Y-1.9838
N110 G3 X-4.6362 Y-1.9923 I0.0078 J-0.0007
N115 X-4.6318 Y-1.9463 Z0.0116 I0.0022 J0.023
N120 X-4.6362 Y-1.9923 Z-0.0081 I-0.0022 J-0.023
N125 X-4.6318 Y-1.9463 Z-0.0278 I0.0022 J0.023
N130 X-4.6362 Y-1.9923 Z-0.0475 I-0.0022 J-0.023
N135 X-4.6228 Y-1.9895 Z-0.0512 I0.0022 J0.023
N140 X-4.6452 Y-1.9491 I-0.0112 J0.0202
N145 X-4.6228 Y-1.9895 I0.0112 J-0.0202
N150 X-4.6197 Y-1.9788 I-0.0038 J0.0069
N155 G1 X-4.6216 Y-1.9754
N160 X-4.6226 Y-1.9736 Z-0.051
N165 X-4.6235 Y-1.9719 Z-0.0502
N170 X-4.6243 Y-1.9705 Z-0.0489
N175 X-4.6249 Y-1.9694 Z-0.0473
N180 X-4.6253 Y-1.9687 Z-0.0454
N185 X-4.6254 Y-1.9685 Z-0.0434
N190 G0 Z0.2313
N195 X-3.9728 Y-2.2549
N200 Z0.1113
N205 G1 Z0.0391 F5.
N210 X-3.9729 Y-2.2552 Z0.0371
N215 Y-2.2559 Z0.0352
N220 X-3.9731 Y-2.2572 Z0.0336
N225 X-3.9732 Y-2.2588 Z0.0323
N230 X-3.9734 Y-2.2607 Z0.0315
N235 X-3.9736 Y-2.2627 Z0.0312
N240 X-3.9739 Y-2.2667
N245 G3 X-3.9668 Y-2.2752 I0.0078 J-0.0007
N250 X-3.945 Y-2.0425 Z0.0116 I0.0109 J0.1164
N255 X-3.9668 Y-2.2752 Z-0.0081 I-0.0109 J-0.1164
N260 X-3.945 Y-2.0425 Z-0.0278 I0.0109 J0.1164
N265 X-3.9668 Y-2.2752 Z-0.0475 I-0.0109 J-0.1164
N270 X-3.8992 Y-2.2611 Z-0.0512 I0.0109 J0.1164
N275 X-4.0126 Y-2.0567 I-0.0567 J0.1022
N280 X-3.8992 Y-2.2611 I0.0567 J-0.1022
N285 X-3.8962 Y-2.2504 I-0.0038 J0.0069
N290 G1 X-3.8981 Y-2.2469
N295 X-3.8991 Y-2.2451 Z-0.051
N300 X-3.9 Y-2.2435 Z-0.0502
N305 X-3.9008 Y-2.242 Z-0.0489
N310 X-3.9014 Y-2.2409 Z-0.0473
N315 X-3.9018 Y-2.2403 Z-0.0454
N320 X-3.9019 Y-2.24 Z-0.0434
N325 G0 Z0.2313
N330 X-1.0226 Y-2.8636
N335 Z0.1113
N340 G1 Z0.0391 F5.
N345 X-1.0227 Y-2.8639 Z0.0371
N350 Y-2.8647 Z0.0352
N355 X-1.0228 Y-2.8659 Z0.0336
N360 X-1.023 Y-2.8675 Z0.0323
N365 X-1.0232 Y-2.8694 Z0.0315
N370 X-1.0234 Y-2.8714 Z0.0312
N375 X-1.0237 Y-2.8754
N380 G3 X-1.0166 Y-2.8839 I0.0078 J-0.0007
N385 X-1.0123 Y-2.8379 Z0.0116 I0.0022 J0.023
N390 X-1.0166 Y-2.8839 Z-0.0081 I-0.0022 J-0.023
N395 X-1.0123 Y-2.8379 Z-0.0278 I0.0022 J0.023
N400 X-1.0166 Y-2.8839 Z-0.0475 I-0.0022 J-0.023
N405 X-1.0032 Y-2.8811 Z-0.0512 I0.0022 J0.023
N410 X-1.0257 Y-2.8407 I-0.0112 J0.0202
N415 X-1.0032 Y-2.8811 I0.0112 J-0.0202
N420 X-1.0002 Y-2.8704 I-0.0038 J0.0069
N425 G1 X-1.0021 Y-2.867
N430 X-1.0031 Y-2.8652 Z-0.051
N435 X-1.004 Y-2.8635 Z-0.0502
N440 X-1.0048 Y-2.8621 Z-0.0489
N445 X-1.0054 Y-2.861 Z-0.0473
N450 X-1.0058 Y-2.8603 Z-0.0454
N455 X-1.0059 Y-2.8601 Z-0.0434
N460 G0 Z0.2313
N465 X-0.7555 Y-1.7919
N470 Z0.1113
N475 G1 Z0.0391 F5.
N480 Y-1.7922 Z0.0371
N485 X-0.7556 Y-1.7929 Z0.0352
N490 X-0.7557 Y-1.7942 Z0.0336
N495 X-0.7558 Y-1.7958 Z0.0323
N500 X-0.756 Y-1.7977 Z0.0315
N505 X-0.7562 Y-1.7997 Z0.0312
N510 X-0.7566 Y-1.8036
N515 G3 X-0.7494 Y-1.8122 I0.0078 J-0.0007
N520 X-0.7451 Y-1.7662 Z0.0116 I0.0022 J0.023
N525 X-0.7494 Y-1.8122 Z-0.0081 I-0.0022 J-0.023
N530 X-0.7451 Y-1.7662 Z-0.0278 I0.0022 J0.023
N535 X-0.7494 Y-1.8122 Z-0.0475 I-0.0022 J-0.023
N540 X-0.7361 Y-1.8094 Z-0.0512 I0.0022 J0.023
N545 X-0.7585 Y-1.769 I-0.0112 J0.0202
N550 X-0.7361 Y-1.8094 I0.0112 J-0.0202
N555 X-0.733 Y-1.7987 I-0.0038 J0.0069
N560 G1 X-0.7349 Y-1.7953
N565 X-0.7359 Y-1.7935 Z-0.051
N570 X-0.7368 Y-1.7918 Z-0.0502
N575 X-0.7376 Y-1.7904 Z-0.0489
N580 X-0.7382 Y-1.7893 Z-0.0473
N585 X-0.7386 Y-1.7886 Z-0.0454
N590 X-0.7387 Y-1.7884 Z-0.0434
N595 G0 Z0.2313
N600 X-1.9286 Y-1.77
N605 Z0.1113
N610 G1 Z0.0391 F5.
N615 Y-1.7703 Z0.0371
N620 X-1.9287 Y-1.7711 Z0.0352
N625 X-1.9288 Y-1.7723 Z0.0336
N630 X-1.929 Y-1.774 Z0.0323
N635 X-1.9291 Y-1.7758 Z0.0315
N640 X-1.9293 Y-1.7779 Z0.0312
N645 X-1.9297 Y-1.7818
N650 G3 X-1.9226 Y-1.7904 I0.0078 J-0.0007
N655 X-1.9008 Y-1.5576 Z0.0116 I0.0109 J0.1164
N660 X-1.9226 Y-1.7904 Z-0.0081 I-0.0109 J-0.1164
N665 X-1.9008 Y-1.5576 Z-0.0278 I0.0109 J0.1164
N670 X-1.9226 Y-1.7904 Z-0.0475 I-0.0109 J-0.1164
N675 X-1.855 Y-1.7762 Z-0.0512 I0.0109 J0.1164
N680 X-1.9684 Y-1.5718 I-0.0567 J0.1022
N685 X-1.855 Y-1.7762 I0.0567 J-0.1022
N690 X-1.8519 Y-1.7655 I-0.0038 J0.0069
N695 G1 X-1.8538 Y-1.7621
N700 X-1.8548 Y-1.7603 Z-0.051
N705 X-1.8557 Y-1.7586 Z-0.0502
N710 X-1.8565 Y-1.7572 Z-0.0489
N715 X-1.8571 Y-1.7561 Z-0.0473
N720 X-1.8575 Y-1.7554 Z-0.0454
N725 X-1.8576 Y-1.7552 Z-0.0434
N730 G0 Z0.2313
N735 X-0.651 Y-0.6768
N740 Z0.1113
N745 G1 Z0.0391 F5.
N750 Y-0.677 Z0.0371
N755 X-0.6511 Y-0.6778 Z0.0352
N760 X-0.6512 Y-0.6791 Z0.0336
N765 X-0.6513 Y-0.6807 Z0.0323
N770 X-0.6515 Y-0.6826 Z0.0315
N775 X-0.6517 Y-0.6846 Z0.0312
N780 X-0.6521 Y-0.6885
N785 G3 X-0.645 Y-0.6971 I0.0078 J-0.0007
N790 X-0.6407 Y-0.651 Z0.0116 I0.0022 J0.023
N795 X-0.645 Y-0.6971 Z-0.0081 I-0.0022 J-0.023
N800 X-0.6407 Y-0.651 Z-0.0278 I0.0022 J0.023
N805 X-0.645 Y-0.6971 Z-0.0475 I-0.0022 J-0.023
N810 X-0.6316 Y-0.6943 Z-0.0512 I0.0022 J0.023
N815 X-0.654 Y-0.6538 I-0.0112 J0.0202
N820 X-0.6316 Y-0.6943 I0.0112 J-0.0202
N825 X-0.6285 Y-0.6836 I-0.0038 J0.0069
N830 G1 X-0.6304 Y-0.6802
N835 X-0.6314 Y-0.6784 Z-0.051
N840 X-0.6323 Y-0.6767 Z-0.0502
N845 X-0.6331 Y-0.6753 Z-0.0489
N850 X-0.6337 Y-0.6742 Z-0.0473
N855 X-0.6341 Y-0.6735 Z-0.0454
N860 X-0.6343 Y-0.6733 Z-0.0434
N865 G0 Z0.2313
N870 X-1.7459 Y-0.1143
N875 Z0.1113
N880 G1 Z0.0391 F5.
N885 Y-0.1145 Z0.0371
N890 X-1.746 Y-0.1153 Z0.0352
N895 X-1.7461 Y-0.1165 Z0.0336
N900 X-1.7463 Y-0.1182 Z0.0323
N905 X-1.7464 Y-0.1201 Z0.0315
N910 X-1.7466 Y-0.1221 Z0.0312
N915 X-1.747 Y-0.126
N920 G3 X-1.7399 Y-0.1346 I0.0078 J-0.0007
N925 X-1.7356 Y-0.0885 Z0.0116 I0.0022 J0.023
N930 X-1.7399 Y-0.1346 Z-0.0081 I-0.0022 J-0.023
N935 X-1.7356 Y-0.0885 Z-0.0278 I0.0022 J0.023
N940 X-1.7399 Y-0.1346 Z-0.0475 I-0.0022 J-0.023
N945 X-1.7265 Y-0.1318 Z-0.0512 I0.0022 J0.023
N950 X-1.749 Y-0.0913 I-0.0112 J0.0202
N955 X-1.7265 Y-0.1318 I0.0112 J-0.0202
N960 X-1.7235 Y-0.1211 I-0.0038 J0.0069
N965 G1 X-1.7254 Y-0.1176
N970 X-1.7264 Y-0.1159 Z-0.051
N975 X-1.7273 Y-0.1142 Z-0.0502
N980 X-1.7281 Y-0.1128 Z-0.0489
N985 X-1.7287 Y-0.1117 Z-0.0473
N990 X-1.7291 Y-0.111 Z-0.0454
N995 X-1.7292 Y-0.1107 Z-0.0434
N1000 G0 Z0.2313
N1005 X1.8528 Y2.8746
N1010 Z0.1113
N1015 G1 Z0.0391 F5.
N1020 Y2.8743 Z0.0371
N1025 X1.8527 Y2.8736 Z0.0352
N1030 X1.8526 Y2.8723 Z0.0336
N1035 X1.8524 Y2.8707 Z0.0323
N1040 X1.8522 Y2.8688 Z0.0315
N1045 X1.8521 Y2.8668 Z0.0312
N1050 X1.8517 Y2.8628
N1055 G3 X1.8588 Y2.8543 I0.0078 J-0.0007
N1060 X1.8631 Y2.9003 Z0.0116 I0.0022 J0.023
N1065 X1.8588 Y2.8543 Z-0.0081 I-0.0022 J-0.023
N1070 X1.8631 Y2.9003 Z-0.0278 I0.0022 J0.023
N1075 X1.8588 Y2.8543 Z-0.0475 I-0.0022 J-0.023
N1080 X1.8722 Y2.8571 Z-0.0512 I0.0022 J0.023
N1085 X1.8497 Y2.8975 I-0.0112 J0.0202
N1090 X1.8722 Y2.8571 I0.0112 J-0.0202
N1095 X1.8752 Y2.8678 I-0.0038 J0.0069
N1100 G1 X1.8733 Y2.8712
N1105 X1.8723 Y2.873 Z-0.051
N1110 X1.8714 Y2.8747 Z-0.0502
N1115 X1.8706 Y2.8761 Z-0.0489
N1120 X1.87 Y2.8772 Z-0.0473
N1125 X1.8696 Y2.8779 Z-0.0454
N1130 X1.8695 Y2.8781 Z-0.0434
N1135 G0 Z0.2313
N1140 X3.1393 Y2.2598
N1145 Z0.1113
N1150 G1 Z0.0391 F5.
N1155 X3.1392 Y2.2596 Z0.0371
N1160 Y2.2588 Z0.0352
N1165 X3.139 Y2.2575 Z0.0336
N1170 X3.1389 Y2.2559 Z0.0323
N1175 X3.1387 Y2.254 Z0.0315
N1180 X3.1385 Y2.252 Z0.0312
N1185 X3.1382 Y2.2481
N1190 G3 X3.1453 Y2.2395 I0.0078 J-0.0007
N1195 X3.1496 Y2.2856 Z0.0116 I0.0022 J0.023
N1200 X3.1453 Y2.2395 Z-0.0081 I-0.0022 J-0.023
N1205 X3.1496 Y2.2856 Z-0.0278 I0.0022 J0.023
N1210 X3.1453 Y2.2395 Z-0.0475 I-0.0022 J-0.023
N1215 X3.1586 Y2.2423 Z-0.0512 I0.0022 J0.023
N1220 X3.1362 Y2.2827 I-0.0112 J0.0202
N1225 X3.1586 Y2.2423 I0.0112 J-0.0202
N1230 X3.1617 Y2.253 I-0.0038 J0.0069
N1235 G1 X3.1598 Y2.2564
N1240 X3.1588 Y2.2582 Z-0.051
N1245 X3.1579 Y2.2599 Z-0.0502
N1250 X3.1571 Y2.2613 Z-0.0489
N1255 X3.1565 Y2.2624 Z-0.0473
N1260 X3.1561 Y2.2631 Z-0.0454
N1265 X3.156 Y2.2633 Z-0.0434
N1270 G0 Z0.2313
N1275 X4.145 Y2.7417
N1280 Z0.1113
N1285 G1 Z0.0391 F5.
N1290 X4.1449 Y2.7414 Z0.0371
N1295 Y2.7406 Z0.0352
N1300 X4.1448 Y2.7394 Z0.0336
N1305 X4.1446 Y2.7378 Z0.0323
N1310 X4.1444 Y2.7359 Z0.0315
N1315 X4.1442 Y2.7338 Z0.0312
N1320 X4.1439 Y2.7299
N1325 G3 X4.151 Y2.7214 I0.0078 J-0.0007
N1330 X4.1553 Y2.7674 Z0.0116 I0.0022 J0.023
N1335 X4.151 Y2.7214 Z-0.0081 I-0.0022 J-0.023
N1340 X4.1553 Y2.7674 Z-0.0278 I0.0022 J0.023
N1345 X4.151 Y2.7214 Z-0.0475 I-0.0022 J-0.023
N1350 X4.1644 Y2.7242 Z-0.0512 I0.0022 J0.023
N1355 X4.1419 Y2.7646 I-0.0112 J0.0202
N1360 X4.1644 Y2.7242 I0.0112 J-0.0202
N1365 X4.1674 Y2.7349 I-0.0038 J0.0069
N1370 G1 X4.1655 Y2.7383
N1375 X4.1645 Y2.7401 Z-0.051
N1380 X4.1636 Y2.7417 Z-0.0502
N1385 X4.1628 Y2.7432 Z-0.0489
N1390 X4.1622 Y2.7443 Z-0.0473
N1395 X4.1618 Y2.745 Z-0.0454
N1400 X4.1617 Y2.7452 Z-0.0434
N1405 G0 Z0.2313
N1410 X3.9562 Y0.7268
N1415 Z0.1113
N1420 G1 Z0.0391 F5.
N1425 Y0.7266 Z0.0371
N1430 X3.9561 Y0.7258 Z0.0352
N1435 X3.956 Y0.7245 Z0.0336
N1440 X3.9558 Y0.7229 Z0.0323
N1445 X3.9556 Y0.721 Z0.0315
N1450 X3.9555 Y0.719 Z0.0312
N1455 X3.9551 Y0.7151
N1460 G3 X3.9622 Y0.7065 I0.0078 J-0.0007
N1465 X3.9665 Y0.7526 Z0.0116 I0.0022 J0.023
N1470 X3.9622 Y0.7065 Z-0.0081 I-0.0022 J-0.023
N1475 X3.9665 Y0.7526 Z-0.0278 I0.0022 J0.023
N1480 X3.9622 Y0.7065 Z-0.0475 I-0.0022 J-0.023
N1485 X3.9756 Y0.7093 Z-0.0512 I0.0022 J0.023
N1490 X3.9531 Y0.7498 I-0.0112 J0.0202
N1495 X3.9756 Y0.7093 I0.0112 J-0.0202
N1500 X3.9786 Y0.72 I-0.0038 J0.0069
N1505 G1 X3.9767 Y0.7235
N1510 X3.9757 Y0.7252 Z-0.051
N1515 X3.9748 Y0.7269 Z-0.0502
N1520 X3.974 Y0.7283 Z-0.0489
N1525 X3.9734 Y0.7294 Z-0.0473
N1530 X3.973 Y0.7301 Z-0.0454
N1535 X3.9729 Y0.7303 Z-0.0434
N1540 G0 Z0.2313
N1545 X2.8687 Y-0.6275
N1550 Z0.1113
N1555 G1 Z0.0391 F5.
N1560 Y-0.6278 Z0.0371
N1565 X2.8686 Y-0.6286 Z0.0352
N1570 X2.8685 Y-0.6298 Z0.0336
N1575 X2.8684 Y-0.6314 Z0.0323
N1580 X2.8682 Y-0.6333 Z0.0315
N1585 X2.868 Y-0.6354 Z0.0312
N1590 X2.8676 Y-0.6393
N1595 G3 X2.8747 Y-0.6479 I0.0078 J-0.0007
N1600 X2.8791 Y-0.6018 Z0.0116 I0.0022 J0.023
N1605 X2.8747 Y-0.6479 Z-0.0081 I-0.0022 J-0.023
N1610 X2.8791 Y-0.6018 Z-0.0278 I0.0022 J0.023
N1615 X2.8747 Y-0.6479 Z-0.0475 I-0.0022 J-0.023
N1620 X2.8881 Y-0.6451 Z-0.0512 I0.0022 J0.023
N1625 X2.8657 Y-0.6046 I-0.0112 J0.0202
N1630 X2.8881 Y-0.6451 I0.0112 J-0.0202
N1635 X2.8912 Y-0.6343 I-0.0038 J0.0069
N1640 G1 X2.8893 Y-0.6309
N1645 X2.8883 Y-0.6291 Z-0.051
N1650 X2.8874 Y-0.6275 Z-0.0502
N1655 X2.8866 Y-0.626 Z-0.0489
N1660 X2.886 Y-0.6249 Z-0.0473
N1665 X2.8856 Y-0.6243 Z-0.0454
N1670 X2.8855 Y-0.624 Z-0.0434
N1675 G0 Z0.2313
N1680 X4.3832 Y-2.8636
N1685 Z0.1113
N1690 G1 Z0.0391 F5.
N1695 Y-2.8639 Z0.0371
N1700 X4.3831 Y-2.8647 Z0.0352
N1705 X4.383 Y-2.8659 Z0.0336
N1710 X4.3828 Y-2.8675 Z0.0323
N1715 X4.3827 Y-2.8694 Z0.0315
N1720 X4.3825 Y-2.8714 Z0.0312
N1725 X4.3821 Y-2.8754
N1730 G3 X4.3892 Y-2.8839 I0.0078 J-0.0007
N1735 X4.3935 Y-2.8379 Z0.0116 I0.0022 J0.023
N1740 X4.3892 Y-2.8839 Z-0.0081 I-0.0022 J-0.023
N1745 X4.3935 Y-2.8379 Z-0.0278 I0.0022 J0.023
N1750 X4.3892 Y-2.8839 Z-0.0475 I-0.0022 J-0.023
N1755 X4.4026 Y-2.8811 Z-0.0512 I0.0022 J0.023
N1760 X4.3802 Y-2.8407 I-0.0112 J0.0202
N1765 X4.4026 Y-2.8811 I0.0112 J-0.0202
N1770 X4.4057 Y-2.8704 I-0.0038 J0.0069
N1775 G1 X4.4038 Y-2.867
N1780 X4.4028 Y-2.8652 Z-0.051
N1785 X4.4018 Y-2.8635 Z-0.0502
N1790 X4.4011 Y-2.8621 Z-0.0489
N1795 X4.4004 Y-2.861 Z-0.0473
N1800 X4.4001 Y-2.8603 Z-0.0454
N1805 X4.3999 Y-2.8601 Z-0.0434
N1810 G0 Z0.6313
(2D CONTOUR1)
N1820 M8
N1825 G0 X4.8897 Y-2.3518
N1830 Z0.3312
N1835 Z0.1313
N1840 G1 Z0.0706 F20.
N1845 Z0.0191 F2.
N1850 X4.8894 Y-2.3519 Z0.0171
N1855 X4.8886 Y-2.3521 Z0.0152
N1860 X4.8874 Y-2.3524 Z0.0136
N1865 X4.8858 Y-2.3528 Z0.0123
N1870 X4.884 Y-2.3533 Z0.0115
N1875 X4.882 Y-2.3538 Z0.0113
N1880 X4.8744 Y-2.3557 F20.
N1885 G3 X4.8687 Y-2.3653 I0.0019 J-0.0076
N1890 G1 X4.8689 Y-2.3663
N1895 G2 X4.8349 Y-2.8366 I-0.7366 J-0.1832
N1900 X4.7291 Y-3.0067 I-0.5925 J0.2507
N1905 X4.557 Y-3.1298 I-0.3503 J0.3079
N1910 X4.323 Y-3.1545 I-0.1638 J0.4304
N1915 X4.1382 Y-3.1048 I0.102 J0.7465
N1920 X3.9693 Y-3.0263 I0.525 J1.3516
N1925 X3.7689 Y-2.9105 I1.6891 J3.1533
N1930 G1 X3.5584 Y-2.779
N1935 X3.3478 Y-2.6477
N1940 G3 X2.7984 Y-2.3381 I-4.3375 J-7.0559
N1945 X2.466 Y-2.1863 I-1.981 J-3.8957
N1950 X2.2168 Y-2.1035 I-0.7914 J-1.9666
N1955 X1.6233 Y-2.0898 I-0.3258 J-1.2509
N1960 X1.2781 Y-2.1963 I0.3804 J-1.846
N1965 X0.9405 Y-2.3545 I1.3255 J-3.2672
N1970 X0.5626 Y-2.5614 I7.0428 J-13.3127
N1975 G2 X0.1879 Y-2.7593 I-4.0311 J7.1773
N1980 X-0.7422 Y-3.0887 I-1.8965 J3.8775
N1985 X-1.4533 Y-3.2124 I-1.4116 J6.0076
N1990 X-2.941 Y-3.2523 I-0.9594 J8.0356
N1995 X-3.5013 Y-3.1869 I0.411 J5.9546
N2000 X-3.973 Y-3.0763 I0.6333 J3.7642
N2005 X-4.3068 Y-2.9438 I0.6933 J2.2338
N2010 X-4.5505 Y-2.791 I0.6597 J1.3226
N2015 X-4.7522 Y-2.5788 I0.6118 J0.7835
N2020 X-4.8902 Y-2.0877 I0.6586 J0.4501
N2025 X-4.8192 Y-1.7539 I1.0248 J-0.0437
N2030 X-4.5417 Y-1.3277 I1.1021 J-0.4141
N2035 X-4.3498 Y-1.1896 I0.5855 J-0.6114
N2040 X-4.0286 Y-1.1207 I0.2937 J-0.5852
N2045 X-3.8653 Y-1.137 I-0.0306 J-1.1323
N2050 G1 X-3.8185 Y-1.1446
N2055 G3 X-3.5717 Y-1.1867 I1.1127 J5.7873
N2060 X-3.2761 Y-1.1975 I0.2 J1.4251
N2065 X-2.8351 Y-1.0699 I-0.0831 J1.1136
N2070 X-2.572 Y-0.8586 I-0.4528 J0.8333
N2075 X-2.42 Y-0.6097 I-0.745 J0.6255
N2080 G1 X-2.3992 Y-0.5614
N2085 G2 X-2.322 Y-0.3673 I13.1464 J-5.1166
N2090 X-2.19 Y-0.125 I1.1919 J-0.4923
N2095 X-1.7756 Y0.252 I1.0861 J-0.7774
N2100 X-1.4732 Y0.3841 I0.8765 J-1.5942
N2105 X-1.1001 Y0.4944 I1.4115 J-4.0887
N2110 X-0.5018 Y0.628 I2.7944 J-11.1126
N2115 G3 X-0.1066 Y0.7104 I-7.0725 J34.908
N2120 X0.1519 Y0.7777 I-0.6451 J3.0093
N2125 X0.3583 Y0.8649 I-0.3476 J1.1103
N2130 X0.6177 Y1.0777 I-0.5009 J0.875
N2135 X0.7771 Y1.2847 I-1.2569 J1.1333
N2140 X0.9619 Y1.6025 I-2.5293 J1.6831
N2145 X1.2284 Y2.2288 I-4.5017 J2.2852
N2150 X1.3314 Y2.5392 I-7.2268 J2.571
N2155 G2 X1.4282 Y2.8342 I6.536 J-1.9817
N2160 X1.4611 Y2.9136 I1.7959 J-0.6972
N2165 X1.5541 Y3.0687 I0.631 J-0.2728
N2170 X1.8745 Y3.2601 I0.434 J-0.3628
N2175 X2.0406 Y3.2666 I0.1065 J-0.5953
N2180 G1 X4.0776 Y3.0758
N2185 G2 X4.4741 Y2.5973 I-0.041 J-0.4375
N2190 G1 X4.2947 Y0.6819
N2195 G3 X4.2739 Y-0.3024 I10.7948 J-0.7198
N2200 X4.3153 Y-0.8778 I6.3478 J0.1677
N2205 X4.3827 Y-1.2479 I3.3804 J0.4245
N2210 X4.5952 Y-1.792 I2.1883 J0.541
N2215 X4.7079 Y-1.9932 I7.7554 J4.2103
N2220 G2 X4.8111 Y-2.1957 I-1.9493 J-1.1215
N2225 X4.8688 Y-2.3652 I-0.9836 J-0.4293
N2230 G1 X4.8695 Y-2.3671
N2235 X4.8707 Y-2.3688
N2240 X4.8723 Y-2.37
N2245 X4.8742 Y-2.3709
N2250 X4.8762 Y-2.3712
N2255 X4.8782 Y-2.371
N2260 X4.8859 Y-2.369
N2265 X4.8879 Y-2.3685 Z0.0115
N2270 X4.8897 Y-2.3681 Z0.0123
N2275 X4.8913 Y-2.3677 Z0.0136
N2280 X4.8925 Y-2.3674 Z0.0152
N2285 X4.8933 Y-2.3672 Z0.0171
N2290 X4.8935 Y-2.3671 Z0.0191
N2295 G0 Z0.1313
N2300 X3.4321 Y-0.0269
N2305 G1 Z0.0706 F20.
N2310 Z0.0191 F2.
N2315 X3.4324 Z0.0171
N2320 X3.4332 Y-0.027 Z0.0152
N2325 X3.4344 Y-0.0271 Z0.0136
N2330 X3.436 Y-0.0273 Z0.0123
N2335 X3.4379 Y-0.0274 Z0.0115
N2340 X3.44 Y-0.0276 Z0.0112
N2345 X3.4478 Y-0.0284 Z0.0113 F20.
N2350 G3 X3.4564 Y-0.0213 I0.0007 J0.0078
N2355 G1 X3.6364 Y1.9003
N2360 G3 X3.4734 Y2.097 I-0.1798 J0.0168
N2365 G1 X2.7964 Y2.1605
N2370 G3 X2.5997 Y1.9975 I-0.0168 J-0.1798
N2375 G1 X2.3879 Y-0.2626
N2380 G3 X2.5509 Y-0.4593 I0.1798 J-0.0169
N2385 G1 X3.228 Y-0.5228
N2390 G3 X3.4246 Y-0.3598 I0.0168 J0.1798
N2395 G1 X3.4564 Y-0.0213
N2400 G3 X3.4493 Y-0.0127 I-0.0078 J0.0007
N2405 G1 X3.4414 Y-0.0119
N2410 X3.4394 Y-0.0118 Z0.0115
N2415 X3.4375 Y-0.0116 Z0.0123
N2420 X3.4359 Y-0.0114 Z0.0136
N2425 X3.4346 Y-0.0113 Z0.0152
N2430 X3.4338 Y-0.0112 Z0.0171
N2435 X3.4336 Z0.0191
N2440 G0 Z0.1313
N2445 X-0.621 Y-1.1059
N2450 G1 Z0.0706 F20.
N2455 Z0.0191 F2.
N2460 X-0.6207 Z0.0171
N2465 X-0.6199 Y-1.106 Z0.0152
N2470 X-0.6187 Y-1.1061 Z0.0136
N2475 X-0.6171 Y-1.1062 Z0.0123
N2480 X-0.6152 Y-1.1064 Z0.0115
N2485 X-0.6132 Y-1.1066 Z0.0113
N2490 X-0.6053 Y-1.1073 F20.
N2495 G3 X-0.5967 Y-1.1002 I0.0007 J0.0078
N2500 G1 X-0.5887 Y-1.015
N2505 X-0.7593 Y-0.999
N2510 X-0.8014 Y-1.4483
N2515 X-0.6308 Y-1.4643
N2520 X-0.5967 Y-1.1002
N2525 G3 X-0.6038 Y-1.0917 I-0.0078 J0.0007
N2530 G1 X-0.6117 Y-1.0909
N2535 X-0.6137 Y-1.0907 Z0.0115
N2540 X-0.6156 Y-1.0906 Z0.0123
N2545 X-0.6172 Y-1.0904 Z0.0136
N2550 X-0.6185 Y-1.0903 Z0.0152
N2555 X-0.6193 Y-1.0902 Z0.0171
N2560 X-0.6195 Z0.0191
N2565 G0 Z0.3312
N2575 M9
N2580 G53 Z0.
N2585 M30
%
