%
(1001)
(2MM END MILL 5 MINUTES 10 X 6.7 .08 MATERIAL)
(T1  D=0.0787 CR=0. - ZMIN=-0.0613 - FLAT END MILL)
N10 G90 G94 G17 G91.1
N15 G20
N20 G53 G0 Z0.
(2D CONTOUR1)
N25 M9
N30 T1 M6
N35 S12000 M3
N40 G54
N45 M8
N55 G0 X4.8897 Y-2.3518
N60 G43 Z0.3312 H1
N65 G0 Z0.1313
N70 G1 Z0.0706 F20.
N75 Z0.0091 F2.
N80 X4.8894 Y-2.3519 Z0.0071
N85 X4.8886 Y-2.3521 Z0.0052
N90 X4.8874 Y-2.3524 Z0.0036
N95 X4.8858 Y-2.3528 Z0.0023
N100 X4.884 Y-2.3533 Z0.0015
N105 X4.882 Y-2.3538 Z0.0013
N110 X4.8744 Y-2.3557 F20.
N115 G3 X4.8687 Y-2.3653 I0.0019 J-0.0076
N120 G1 X4.8689 Y-2.3663
N125 G2 X4.8349 Y-2.8366 I-0.7366 J-0.1832
N130 X4.7291 Y-3.0067 I-0.5925 J0.2507
N135 X4.557 Y-3.1298 I-0.3503 J0.3079
N140 X4.323 Y-3.1545 I-0.1638 J0.4304
N145 X4.1382 Y-3.1048 I0.102 J0.7465
N150 X3.9693 Y-3.0263 I0.525 J1.3516
N155 X3.7689 Y-2.9105 I1.6891 J3.1533
N160 G1 X3.5584 Y-2.779
N165 X3.3478 Y-2.6477
N170 G3 X2.7984 Y-2.3381 I-4.3375 J-7.0559
N175 X2.466 Y-2.1863 I-1.981 J-3.8957
N180 X2.2168 Y-2.1035 I-0.7914 J-1.9666
N185 X1.6233 Y-2.0898 I-0.3258 J-1.2509
N190 X1.2781 Y-2.1963 I0.3804 J-1.846
N195 X0.9405 Y-2.3545 I1.3255 J-3.2672
N200 X0.5626 Y-2.5614 I7.0428 J-13.3127
N205 G2 X0.1879 Y-2.7593 I-4.0311 J7.1773
N210 X-0.7422 Y-3.0887 I-1.8965 J3.8775
N215 X-1.4533 Y-3.2124 I-1.4116 J6.0076
N220 X-2.941 Y-3.2523 I-0.9594 J8.0356
N225 X-3.5013 Y-3.1869 I0.411 J5.9546
N230 X-3.973 Y-3.0763 I0.6333 J3.7642
N235 X-4.3068 Y-2.9438 I0.6933 J2.2338
N240 X-4.5505 Y-2.791 I0.6597 J1.3226
N245 X-4.7522 Y-2.5788 I0.6118 J0.7835
N250 X-4.8902 Y-2.0877 I0.6586 J0.4501
N255 X-4.8192 Y-1.7539 I1.0248 J-0.0437
N260 X-4.5417 Y-1.3277 I1.1021 J-0.4141
N265 X-4.3498 Y-1.1896 I0.5855 J-0.6114
N270 X-4.0286 Y-1.1207 I0.2937 J-0.5852
N275 X-3.8653 Y-1.137 I-0.0306 J-1.1323
N280 G1 X-3.8185 Y-1.1446
N285 G3 X-3.5717 Y-1.1867 I1.1127 J5.7873
N290 X-3.2761 Y-1.1975 I0.2 J1.4251
N295 X-2.8351 Y-1.0699 I-0.0831 J1.1136
N300 X-2.572 Y-0.8586 I-0.4528 J0.8333
N305 X-2.42 Y-0.6097 I-0.745 J0.6255
N310 G1 X-2.3992 Y-0.5614
N315 G2 X-2.322 Y-0.3673 I13.1464 J-5.1166
N320 X-2.19 Y-0.125 I1.1919 J-0.4923
N325 X-1.7756 Y0.252 I1.0861 J-0.7774
N330 X-1.4732 Y0.3841 I0.8765 J-1.5942
N335 X-1.1001 Y0.4944 I1.4115 J-4.0887
N340 X-0.5018 Y0.628 I2.7944 J-11.1126
N345 G3 X-0.1066 Y0.7104 I-7.0725 J34.908
N350 X0.1519 Y0.7777 I-0.6451 J3.0093
N355 X0.3583 Y0.8649 I-0.3476 J1.1103
N360 X0.6177 Y1.0777 I-0.5009 J0.875
N365 X0.7771 Y1.2847 I-1.2569 J1.1333
N370 X0.9619 Y1.6025 I-2.5293 J1.6831
N375 X1.2284 Y2.2288 I-4.5017 J2.2852
N380 X1.3314 Y2.5392 I-7.2268 J2.571
N385 G2 X1.4282 Y2.8342 I6.536 J-1.9817
N390 X1.4611 Y2.9136 I1.7959 J-0.6972
N395 X1.5541 Y3.0687 I0.631 J-0.2728
N400 X1.8745 Y3.2601 I0.434 J-0.3628
N405 X2.0406 Y3.2666 I0.1065 J-0.5953
N410 G1 X4.0776 Y3.0758
N415 G2 X4.4741 Y2.5973 I-0.041 J-0.4375
N420 G1 X4.2947 Y0.6819
N425 G3 X4.2739 Y-0.3024 I10.7948 J-0.7198
N430 X4.3153 Y-0.8778 I6.3478 J0.1677
N435 X4.3827 Y-1.2479 I3.3804 J0.4245
N440 X4.5952 Y-1.792 I2.1883 J0.541
N445 X4.7079 Y-1.9932 I7.7554 J4.2103
N450 G2 X4.8111 Y-2.1957 I-1.9493 J-1.1215
N455 X4.8688 Y-2.3652 I-0.9836 J-0.4293
N460 G1 X4.8695 Y-2.3671
N465 X4.8707 Y-2.3688
N470 X4.8723 Y-2.37
N475 X4.8742 Y-2.3709
N480 X4.8762 Y-2.3712
N485 X4.8782 Y-2.371
N490 X4.8859 Y-2.369
N495 X4.8879 Y-2.3685 Z0.0015
N500 X4.8897 Y-2.3681 Z0.0023
N505 X4.8913 Y-2.3677 Z0.0036
N510 X4.8925 Y-2.3674 Z0.0052
N515 X4.8933 Y-2.3672 Z0.0071
N520 X4.8935 Y-2.3671 Z0.0091
N525 G0 Z0.1313
N530 X3.4321 Y-0.0269
N535 G1 Z0.0706 F20.
N540 Z0.0091 F2.
N545 X3.4324 Z0.0071
N550 X3.4332 Y-0.027 Z0.0052
N555 X3.4344 Y-0.0271 Z0.0036
N560 X3.436 Y-0.0273 Z0.0023
N565 X3.4379 Y-0.0274 Z0.0015
N570 X3.44 Y-0.0276 Z0.0012
N575 X3.4478 Y-0.0284 Z0.0013 F20.
N580 G3 X3.4564 Y-0.0213 I0.0007 J0.0078
N585 G1 X3.6364 Y1.9003
N590 G3 X3.4734 Y2.097 I-0.1798 J0.0168
N595 G1 X2.7964 Y2.1605
N600 G3 X2.5997 Y1.9975 I-0.0168 J-0.1798
N605 G1 X2.3879 Y-0.2626
N610 G3 X2.5509 Y-0.4593 I0.1798 J-0.0169
N615 G1 X3.228 Y-0.5228
N620 G3 X3.4246 Y-0.3598 I0.0168 J0.1798
N625 G1 X3.4564 Y-0.0213
N630 G3 X3.4493 Y-0.0127 I-0.0078 J0.0007
N635 G1 X3.4414 Y-0.0119
N640 X3.4394 Y-0.0118 Z0.0015
N645 X3.4375 Y-0.0116 Z0.0023
N650 X3.4359 Y-0.0114 Z0.0036
N655 X3.4346 Y-0.0113 Z0.0052
N660 X3.4338 Y-0.0112 Z0.0071
N665 X3.4336 Z0.0091
N670 G0 Z0.1313
N675 X-0.621 Y-1.1059
N680 G1 Z0.0706 F20.
N685 Z0.0091 F2.
N690 X-0.6207 Z0.0071
N695 X-0.6199 Y-1.106 Z0.0052
N700 X-0.6187 Y-1.1061 Z0.0036
N705 X-0.6171 Y-1.1062 Z0.0023
N710 X-0.6152 Y-1.1064 Z0.0015
N715 X-0.6132 Y-1.1066 Z0.0013
N720 X-0.6053 Y-1.1073 F20.
N725 G3 X-0.5967 Y-1.1002 I0.0007 J0.0078
N730 G1 X-0.5887 Y-1.015
N735 X-0.7593 Y-0.999
N740 X-0.8014 Y-1.4483
N745 X-0.6308 Y-1.4643
N750 X-0.5967 Y-1.1002
N755 G3 X-0.6038 Y-1.0917 I-0.0078 J0.0007
N760 G1 X-0.6117 Y-1.0909
N765 X-0.6137 Y-1.0907 Z0.0015
N770 X-0.6156 Y-1.0906 Z0.0023
N775 X-0.6172 Y-1.0904 Z0.0036
N780 X-0.6185 Y-1.0903 Z0.0052
N785 X-0.6193 Y-1.0902 Z0.0071
N790 X-0.6195 Z0.0091
N795 G0 Z0.3312
N800 X4.8897 Y-2.3518
N805 Z0.1313
N810 G1 Z0.0706 F20.
N815 Z-0.0534 F2.
N820 X4.8894 Y-2.3519 Z-0.0554
N825 X4.8886 Y-2.3521 Z-0.0573
N830 X4.8874 Y-2.3524 Z-0.0589
N835 X4.8858 Y-2.3528 Z-0.0602
N840 X4.884 Y-2.3533 Z-0.061
N845 X4.882 Y-2.3538 Z-0.0613
N850 X4.8744 Y-2.3557 F20.
N855 G3 X4.8687 Y-2.3653 I0.0019 J-0.0076
N860 G1 X4.8689 Y-2.3663
N865 G2 X4.8349 Y-2.8366 I-0.7366 J-0.1832
N870 X4.7291 Y-3.0067 I-0.5925 J0.2507
N875 X4.557 Y-3.1298 I-0.3503 J0.3079
N880 X4.323 Y-3.1545 I-0.1638 J0.4304
N885 X4.1382 Y-3.1048 I0.102 J0.7465
N890 X3.9693 Y-3.0263 I0.525 J1.3516
N895 X3.7689 Y-2.9105 I1.6891 J3.1533
N900 G1 X3.5584 Y-2.779
N905 X3.3478 Y-2.6477
N910 G3 X2.7984 Y-2.3381 I-4.3375 J-7.0559
N915 X2.466 Y-2.1863 I-1.981 J-3.8957
N920 X2.2168 Y-2.1035 I-0.7914 J-1.9666
N925 X1.6233 Y-2.0898 I-0.3258 J-1.2509
N930 X1.2781 Y-2.1963 I0.3804 J-1.846
N935 X0.9405 Y-2.3545 I1.3255 J-3.2672
N940 X0.5626 Y-2.5614 I7.0428 J-13.3127
N945 G2 X0.1879 Y-2.7593 I-4.0311 J7.1773
N950 X-0.7422 Y-3.0887 I-1.8965 J3.8775
N955 X-1.4533 Y-3.2124 I-1.4116 J6.0076
N960 X-2.941 Y-3.2523 I-0.9594 J8.0356
N965 X-3.5013 Y-3.1869 I0.411 J5.9546
N970 X-3.973 Y-3.0763 I0.6333 J3.7642
N975 X-4.3068 Y-2.9438 I0.6933 J2.2338
N980 X-4.5505 Y-2.791 I0.6597 J1.3226
N985 X-4.7522 Y-2.5788 I0.6118 J0.7835
N990 X-4.8902 Y-2.0877 I0.6586 J0.4501
N995 X-4.8192 Y-1.7539 I1.0248 J-0.0437
N1000 X-4.5417 Y-1.3277 I1.1021 J-0.4141
N1005 X-4.3498 Y-1.1896 I0.5855 J-0.6114
N1010 X-4.0286 Y-1.1207 I0.2937 J-0.5852
N1015 X-3.8653 Y-1.137 I-0.0306 J-1.1323
N1020 G1 X-3.8185 Y-1.1446
N1025 G3 X-3.5717 Y-1.1867 I1.1127 J5.7873
N1030 X-3.2761 Y-1.1975 I0.2 J1.4251
N1035 X-2.8351 Y-1.0699 I-0.0831 J1.1136
N1040 X-2.572 Y-0.8586 I-0.4528 J0.8333
N1045 X-2.42 Y-0.6097 I-0.745 J0.6255
N1050 G1 X-2.3992 Y-0.5614
N1055 G2 X-2.322 Y-0.3673 I13.1464 J-5.1166
N1060 X-2.19 Y-0.125 I1.1919 J-0.4923
N1065 X-1.7756 Y0.252 I1.0861 J-0.7774
N1070 X-1.4732 Y0.3841 I0.8765 J-1.5942
N1075 X-1.1001 Y0.4944 I1.4115 J-4.0887
N1080 X-0.5018 Y0.628 I2.7944 J-11.1126
N1085 G3 X-0.1066 Y0.7104 I-7.0725 J34.908
N1090 X0.1519 Y0.7777 I-0.6451 J3.0093
N1095 X0.3583 Y0.8649 I-0.3476 J1.1103
N1100 X0.6177 Y1.0777 I-0.5009 J0.875
N1105 X0.7771 Y1.2847 I-1.2569 J1.1333
N1110 X0.9619 Y1.6025 I-2.5293 J1.6831
N1115 X1.2284 Y2.2288 I-4.5017 J2.2852
N1120 X1.3314 Y2.5392 I-7.2268 J2.571
N1125 G2 X1.4282 Y2.8342 I6.536 J-1.9817
N1130 X1.4611 Y2.9136 I1.7959 J-0.6972
N1135 X1.5541 Y3.0687 I0.631 J-0.2728
N1140 X1.8745 Y3.2601 I0.434 J-0.3628
N1145 X2.0406 Y3.2666 I0.1065 J-0.5953
N1150 G1 X4.0776 Y3.0758
N1155 G2 X4.4741 Y2.5973 I-0.041 J-0.4375
N1160 G1 X4.2947 Y0.6819
N1165 G3 X4.2739 Y-0.3024 I10.7948 J-0.7198
N1170 X4.3153 Y-0.8778 I6.3478 J0.1677
N1175 X4.3827 Y-1.2479 I3.3804 J0.4245
N1180 X4.5952 Y-1.792 I2.1883 J0.541
N1185 X4.7079 Y-1.9932 I7.7554 J4.2103
N1190 G2 X4.8111 Y-2.1957 I-1.9493 J-1.1215
N1195 X4.8688 Y-2.3652 I-0.9836 J-0.4293
N1200 G1 X4.8695 Y-2.3671
N1205 X4.8707 Y-2.3688
N1210 X4.8723 Y-2.37
N1215 X4.8742 Y-2.3709
N1220 X4.8762 Y-2.3712
N1225 X4.8782 Y-2.371
N1230 X4.8859 Y-2.369
N1235 X4.8879 Y-2.3685 Z-0.061
N1240 X4.8897 Y-2.3681 Z-0.0602
N1245 X4.8913 Y-2.3677 Z-0.0589
N1250 X4.8925 Y-2.3674 Z-0.0573
N1255 X4.8933 Y-2.3672 Z-0.0554
N1260 X4.8935 Y-2.3671 Z-0.0534
N1265 G0 Z0.1313
N1270 X3.4321 Y-0.0269
N1275 G1 Z0.0706 F20.
N1280 Z-0.0534 F2.
N1285 X3.4324 Z-0.0554
N1290 X3.4332 Y-0.027 Z-0.0573
N1295 X3.4344 Y-0.0271 Z-0.0589
N1300 X3.436 Y-0.0273 Z-0.0602
N1305 X3.4379 Y-0.0274 Z-0.061
N1310 X3.44 Y-0.0276 Z-0.0613
N1315 X3.4478 Y-0.0284 F20.
N1320 G3 X3.4564 Y-0.0213 I0.0007 J0.0078
N1325 G1 X3.6364 Y1.9003
N1330 G3 X3.4734 Y2.097 I-0.1798 J0.0168
N1335 G1 X2.7964 Y2.1605
N1340 G3 X2.5997 Y1.9975 I-0.0168 J-0.1798
N1345 G1 X2.3879 Y-0.2626
N1350 G3 X2.5509 Y-0.4593 I0.1798 J-0.0169
N1355 G1 X3.228 Y-0.5228
N1360 G3 X3.4246 Y-0.3598 I0.0168 J0.1798
N1365 G1 X3.4564 Y-0.0213
N1370 G3 X3.4493 Y-0.0127 I-0.0078 J0.0007
N1375 G1 X3.4414 Y-0.0119
N1380 X3.4394 Y-0.0118 Z-0.061
N1385 X3.4375 Y-0.0116 Z-0.0602
N1390 X3.4359 Y-0.0114 Z-0.0589
N1395 X3.4346 Y-0.0113 Z-0.0573
N1400 X3.4338 Y-0.0112 Z-0.0554
N1405 X3.4336 Z-0.0534
N1410 G0 Z0.1313
N1415 X-0.621 Y-1.1059
N1420 G1 Z0.0706 F20.
N1425 Z-0.0534 F2.
N1430 X-0.6207 Z-0.0554
N1435 X-0.6199 Y-1.106 Z-0.0573
N1440 X-0.6187 Y-1.1061 Z-0.0589
N1445 X-0.6171 Y-1.1062 Z-0.0602
N1450 X-0.6152 Y-1.1064 Z-0.061
N1455 X-0.6132 Y-1.1066 Z-0.0613
N1460 X-0.6053 Y-1.1073 F20.
N1465 G3 X-0.5967 Y-1.1002 I0.0007 J0.0078
N1470 G1 X-0.5887 Y-1.015
N1475 X-0.7593 Y-0.999
N1480 X-0.8014 Y-1.4483
N1485 X-0.6308 Y-1.4643
N1490 X-0.5967 Y-1.1002
N1495 G3 X-0.6038 Y-1.0917 I-0.0078 J0.0007
N1500 G1 X-0.6117 Y-1.0909
N1505 X-0.6137 Y-1.0907 Z-0.061
N1510 X-0.6156 Y-1.0906 Z-0.0602
N1515 X-0.6172 Y-1.0904 Z-0.0589
N1520 X-0.6185 Y-1.0903 Z-0.0573
N1525 X-0.6193 Y-1.0902 Z-0.0554
N1530 X-0.6195 Z-0.0534
N1535 G0 Z0.3312
N1545 M9
N1550 G53 Z0.
N1555 M30
%
