%
(AUX_SPINDLE_BRACKET)
(AUX_SPINDLE_BRACKET)
(T1  D=0.75 CR=0. - ZMIN=-1.01 - FLAT END MILL)
N10 G90 G94 G17 G91.1
N15 G20
N20 G53 G0 Z0.
(2D CONTOUR1)
N25 M9
N30 T1 M6
N35 S840 M3
N40 G54
N45 M8
N55 G0 X8.6044 Y0.4093
N60 G43 Z0.6 H1
N65 G0 Z0.2894
N70 G1 Z-0.175 F28.221
N75 X8.6043 Y0.4096 Z-0.1815
N80 X8.6041 Y0.4104 Z-0.188
N85 X8.6037 Y0.4118 Z-0.1944
N90 X8.6032 Y0.4137 Z-0.2007
N95 X8.6026 Y0.4161 Z-0.2067
N100 X8.6018 Y0.419 Z-0.2125
N105 X8.6009 Y0.4224 Z-0.218
N110 X8.5998 Y0.4262 Z-0.2232
N115 X8.5987 Y0.4305 Z-0.228
N120 X8.5974 Y0.4351 Z-0.2325
N125 X8.596 Y0.4402 Z-0.2364
N130 X8.5946 Y0.4455 Z-0.24
N135 X8.5931 Y0.4511 Z-0.243
N140 X8.5915 Y0.4569 Z-0.2455
N145 X8.5899 Y0.4629 Z-0.2474
N150 X8.5882 Y0.4691 Z-0.2489
N155 X8.5865 Y0.4754 Z-0.2497
N160 X8.5848 Y0.4817 Z-0.25
N165 X8.5651 Y0.5541
N170 G3 X8.4731 Y0.6068 I-0.0724 J-0.0196
N175 G2 X8.375 Y0.5937 I-0.0981 J0.3619
N180 G1 X7.8405
N185 G2 X6.5 Y-0.0312 I-1.3405 J1.125
N190 G1 X4.1057
N195 G2 X3.7144 Y-0.3223 I-1.6056 J1.75
N200 X3.5227 Y-0.375 I-0.1918 J0.3223
N205 G1 X1.4773
N210 G2 X1.2856 Y-0.3223 I0. J0.375
N215 X0.4084 Y0.5937 I1.2144 J2.041
N220 G1 X0.
N225 G2 X-0.375 Y0.9687 I0. J0.375
N230 G1 Y2.4687
N235 G2 X0. Y2.8437 I0.375 J0.
N240 G1 X0.4083
N245 G2 X1.2856 Y3.7598 I2.0917 J-1.125
N250 X1.4773 Y3.8125 I0.1918 J-0.3223
N255 G1 X3.5227
N260 G2 X3.7144 Y3.7598 I0. J-0.375
N265 X4.1057 Y3.4687 I-1.2145 J-2.041
N270 G1 X6.5
N275 G2 X7.8405 Y2.8437 I0. J-1.75
N280 G1 X8.375
N285 G2 X8.75 Y2.4687 I0. J-0.375
N290 G1 Y0.9687
N295 G2 X8.4731 Y0.6068 I-0.375 J0.
N300 G3 X8.4204 Y0.5148 I0.0196 J-0.0724
N305 G1 X8.44 Y0.4424
N310 X8.4417 Y0.4361 Z-0.2497
N315 X8.4434 Y0.4298 Z-0.2489
N320 X8.4451 Y0.4237 Z-0.2474
N325 X8.4467 Y0.4177 Z-0.2455
N330 X8.4483 Y0.4118 Z-0.243
N335 X8.4498 Y0.4062 Z-0.24
N340 X8.4513 Y0.4009 Z-0.2364
N345 X8.4526 Y0.3959 Z-0.2325
N350 X8.4539 Y0.3912 Z-0.228
N355 X8.455 Y0.387 Z-0.2232
N360 X8.4561 Y0.3831 Z-0.218
N365 X8.457 Y0.3797 Z-0.2125
N370 X8.4578 Y0.3768 Z-0.2067
N375 X8.4584 Y0.3744 Z-0.2007
N380 X8.459 Y0.3725 Z-0.1944
N385 X8.4593 Y0.3711 Z-0.188
N390 X8.4596 Y0.3703 Z-0.1815
N395 Y0.37 Z-0.175
N400 X8.6044 Y0.4093
N405 Z-0.425
N410 X8.6043 Y0.4096 Z-0.4315
N415 X8.6041 Y0.4104 Z-0.438
N420 X8.6037 Y0.4118 Z-0.4444
N425 X8.6032 Y0.4137 Z-0.4507
N430 X8.6026 Y0.4161 Z-0.4567
N435 X8.6018 Y0.419 Z-0.4625
N440 X8.6009 Y0.4224 Z-0.468
N445 X8.5998 Y0.4262 Z-0.4732
N450 X8.5987 Y0.4305 Z-0.478
N455 X8.5974 Y0.4351 Z-0.4825
N460 X8.596 Y0.4402 Z-0.4864
N465 X8.5946 Y0.4455 Z-0.49
N470 X8.5931 Y0.4511 Z-0.493
N475 X8.5915 Y0.4569 Z-0.4955
N480 X8.5899 Y0.4629 Z-0.4974
N485 X8.5882 Y0.4691 Z-0.4989
N490 X8.5865 Y0.4754 Z-0.4997
N495 X8.5848 Y0.4817 Z-0.5
N500 X8.5651 Y0.5541
N505 G3 X8.4731 Y0.6068 I-0.0724 J-0.0196
N510 G2 X8.375 Y0.5937 I-0.0981 J0.3619
N515 G1 X7.8405
N520 G2 X6.5 Y-0.0312 I-1.3405 J1.125
N525 G1 X4.1057
N530 G2 X3.7144 Y-0.3223 I-1.6056 J1.75
N535 X3.5227 Y-0.375 I-0.1918 J0.3223
N540 G1 X1.4773
N545 G2 X1.2856 Y-0.3223 I0. J0.375
N550 X0.4084 Y0.5937 I1.2144 J2.041
N555 G1 X0.
N560 G2 X-0.375 Y0.9687 I0. J0.375
N565 G1 Y2.4687
N570 G2 X0. Y2.8437 I0.375 J0.
N575 G1 X0.4083
N580 G2 X1.2856 Y3.7598 I2.0917 J-1.125
N585 X1.4773 Y3.8125 I0.1918 J-0.3223
N590 G1 X3.5227
N595 G2 X3.7144 Y3.7598 I0. J-0.375
N600 X4.1057 Y3.4687 I-1.2145 J-2.041
N605 G1 X6.5
N610 G2 X7.8405 Y2.8437 I0. J-1.75
N615 G1 X8.375
N620 G2 X8.75 Y2.4687 I0. J-0.375
N625 G1 Y0.9687
N630 G2 X8.4731 Y0.6068 I-0.375 J0.
N635 G3 X8.4204 Y0.5148 I0.0196 J-0.0724
N640 G1 X8.44 Y0.4424
N645 X8.4417 Y0.4361 Z-0.4997
N650 X8.4434 Y0.4298 Z-0.4989
N655 X8.4451 Y0.4237 Z-0.4974
N660 X8.4467 Y0.4177 Z-0.4955
N665 X8.4483 Y0.4118 Z-0.493
N670 X8.4498 Y0.4062 Z-0.49
N675 X8.4513 Y0.4009 Z-0.4864
N680 X8.4526 Y0.3959 Z-0.4825
N685 X8.4539 Y0.3912 Z-0.478
N690 X8.455 Y0.387 Z-0.4732
N695 X8.4561 Y0.3831 Z-0.468
N700 X8.457 Y0.3797 Z-0.4625
N705 X8.4578 Y0.3768 Z-0.4567
N710 X8.4584 Y0.3744 Z-0.4507
N715 X8.459 Y0.3725 Z-0.4444
N720 X8.4593 Y0.3711 Z-0.438
N725 X8.4596 Y0.3703 Z-0.4315
N730 Y0.37 Z-0.425
N735 X8.6044 Y0.4093
N740 Z-0.675
N745 X8.6043 Y0.4096 Z-0.6815
N750 X8.6041 Y0.4104 Z-0.688
N755 X8.6037 Y0.4118 Z-0.6944
N760 X8.6032 Y0.4137 Z-0.7007
N765 X8.6026 Y0.4161 Z-0.7067
N770 X8.6018 Y0.419 Z-0.7125
N775 X8.6009 Y0.4224 Z-0.718
N780 X8.5998 Y0.4262 Z-0.7232
N785 X8.5987 Y0.4305 Z-0.728
N790 X8.5974 Y0.4351 Z-0.7325
N795 X8.596 Y0.4402 Z-0.7364
N800 X8.5946 Y0.4455 Z-0.74
N805 X8.5931 Y0.4511 Z-0.743
N810 X8.5915 Y0.4569 Z-0.7455
N815 X8.5899 Y0.4629 Z-0.7474
N820 X8.5882 Y0.4691 Z-0.7489
N825 X8.5865 Y0.4754 Z-0.7497
N830 X8.5848 Y0.4817 Z-0.75
N835 X8.5651 Y0.5541
N840 G3 X8.4731 Y0.6068 I-0.0724 J-0.0196
N845 G2 X8.375 Y0.5937 I-0.0981 J0.3619
N850 G1 X7.8405
N855 G2 X6.5 Y-0.0312 I-1.3405 J1.125
N860 G1 X4.1057
N865 G2 X3.7144 Y-0.3223 I-1.6056 J1.75
N870 X3.5227 Y-0.375 I-0.1918 J0.3223
N875 G1 X1.4773
N880 G2 X1.2856 Y-0.3223 I0. J0.375
N885 X0.4084 Y0.5937 I1.2144 J2.041
N890 G1 X0.
N895 G2 X-0.375 Y0.9687 I0. J0.375
N900 G1 Y2.4687
N905 G2 X0. Y2.8437 I0.375 J0.
N910 G1 X0.4083
N915 G2 X1.2856 Y3.7598 I2.0917 J-1.125
N920 X1.4773 Y3.8125 I0.1918 J-0.3223
N925 G1 X3.5227
N930 G2 X3.7144 Y3.7598 I0. J-0.375
N935 X4.1057 Y3.4687 I-1.2145 J-2.041
N940 G1 X6.5
N945 G2 X7.8405 Y2.8437 I0. J-1.75
N950 G1 X8.375
N955 G2 X8.75 Y2.4687 I0. J-0.375
N960 G1 Y0.9687
N965 G2 X8.4731 Y0.6068 I-0.375 J0.
N970 G3 X8.4204 Y0.5148 I0.0196 J-0.0724
N975 G1 X8.44 Y0.4424
N980 X8.4417 Y0.4361 Z-0.7497
N985 X8.4434 Y0.4298 Z-0.7489
N990 X8.4451 Y0.4237 Z-0.7474
N995 X8.4467 Y0.4177 Z-0.7455
N1000 X8.4483 Y0.4118 Z-0.743
N1005 X8.4498 Y0.4062 Z-0.74
N1010 X8.4513 Y0.4009 Z-0.7364
N1015 X8.4526 Y0.3959 Z-0.7325
N1020 X8.4539 Y0.3912 Z-0.728
N1025 X8.455 Y0.387 Z-0.7232
N1030 X8.4561 Y0.3831 Z-0.718
N1035 X8.457 Y0.3797 Z-0.7125
N1040 X8.4578 Y0.3768 Z-0.7067
N1045 X8.4584 Y0.3744 Z-0.7007
N1050 X8.459 Y0.3725 Z-0.6944
N1055 X8.4593 Y0.3711 Z-0.688
N1060 X8.4596 Y0.3703 Z-0.6815
N1065 Y0.37 Z-0.675
N1070 X8.6044 Y0.4093
N1075 Z-0.805
N1080 X8.6043 Y0.4096 Z-0.8115
N1085 X8.6041 Y0.4104 Z-0.818
N1090 X8.6037 Y0.4118 Z-0.8244
N1095 X8.6032 Y0.4137 Z-0.8307
N1100 X8.6026 Y0.4161 Z-0.8367
N1105 X8.6018 Y0.419 Z-0.8425
N1110 X8.6009 Y0.4224 Z-0.848
N1115 X8.5998 Y0.4262 Z-0.8532
N1120 X8.5987 Y0.4305 Z-0.858
N1125 X8.5974 Y0.4351 Z-0.8625
N1130 X8.596 Y0.4402 Z-0.8664
N1135 X8.5946 Y0.4455 Z-0.87
N1140 X8.5931 Y0.4511 Z-0.873
N1145 X8.5915 Y0.4569 Z-0.8755
N1150 X8.5899 Y0.4629 Z-0.8774
N1155 X8.5882 Y0.4691 Z-0.8789
N1160 X8.5865 Y0.4754 Z-0.8797
N1165 X8.5848 Y0.4817 Z-0.88
N1170 X8.5651 Y0.5541
N1175 G3 X8.4731 Y0.6068 I-0.0724 J-0.0196
N1180 G2 X8.375 Y0.5937 I-0.0981 J0.3619
N1185 G1 X7.8405
N1190 G2 X6.5 Y-0.0312 I-1.3405 J1.125
N1195 G1 X4.1057
N1200 G2 X3.7144 Y-0.3223 I-1.6056 J1.75
N1205 X3.5227 Y-0.375 I-0.1918 J0.3223
N1210 G1 X1.4773
N1215 G2 X1.2856 Y-0.3223 I0. J0.375
N1220 X0.4084 Y0.5937 I1.2144 J2.041
N1225 G1 X0.
N1230 G2 X-0.375 Y0.9687 I0. J0.375
N1235 G1 Y1.0114
N1240 Z-0.81
N1245 Y2.4687
N1250 G2 X-0.3726 Y2.5114 I0.375 J0.
N1255 G1 Z-0.88
N1260 G2 X0. Y2.8437 I0.3726 J-0.0427
N1265 G1 X0.4083
N1270 G2 X1.2856 Y3.7598 I2.0917 J-1.125
N1275 X1.4773 Y3.8125 I0.1918 J-0.3223
N1280 G1 X3.5227
N1285 G2 X3.7144 Y3.7598 I0. J-0.375
N1290 X4.1057 Y3.4687 I-1.2145 J-2.041
N1295 G1 X6.5
N1300 G2 X7.8405 Y2.8437 I0. J-1.75
N1305 G1 X8.375
N1310 G2 X8.7499 Y2.4757 I0. J-0.375
N1315 G1 Z-0.81
N1320 X8.75 Y2.4734
N1325 Y2.4711
N1330 Y2.4687
N1335 Y0.9757
N1340 Z-0.88
N1345 Y0.9687
N1350 G2 X8.4731 Y0.6068 I-0.375 J0.
N1355 G3 X8.4204 Y0.5148 I0.0196 J-0.0724
N1360 G1 X8.44 Y0.4424
N1365 X8.4417 Y0.4361 Z-0.8797
N1370 X8.4434 Y0.4298 Z-0.8789
N1375 X8.4451 Y0.4237 Z-0.8774
N1380 X8.4467 Y0.4177 Z-0.8755
N1385 X8.4483 Y0.4118 Z-0.873
N1390 X8.4498 Y0.4062 Z-0.87
N1395 X8.4513 Y0.4009 Z-0.8664
N1400 X8.4526 Y0.3959 Z-0.8625
N1405 X8.4539 Y0.3912 Z-0.858
N1410 X8.455 Y0.387 Z-0.8532
N1415 X8.4561 Y0.3831 Z-0.848
N1420 X8.457 Y0.3797 Z-0.8425
N1425 X8.4578 Y0.3768 Z-0.8367
N1430 X8.4584 Y0.3744 Z-0.8307
N1435 X8.459 Y0.3725 Z-0.8244
N1440 X8.4593 Y0.3711 Z-0.818
N1445 X8.4596 Y0.3703 Z-0.8115
N1450 Y0.37 Z-0.805
N1455 X8.6044 Y0.4093
N1460 Z-0.935
N1465 X8.6043 Y0.4096 Z-0.9415
N1470 X8.6041 Y0.4104 Z-0.948
N1475 X8.6037 Y0.4118 Z-0.9544
N1480 X8.6032 Y0.4137 Z-0.9607
N1485 X8.6026 Y0.4161 Z-0.9667
N1490 X8.6018 Y0.419 Z-0.9725
N1495 X8.6009 Y0.4224 Z-0.978
N1500 X8.5998 Y0.4262 Z-0.9832
N1505 X8.5987 Y0.4305 Z-0.988
N1510 X8.5974 Y0.4351 Z-0.9925
N1515 X8.596 Y0.4402 Z-0.9964
N1520 X8.5946 Y0.4455 Z-1.
N1525 X8.5931 Y0.4511 Z-1.003
N1530 X8.5915 Y0.4569 Z-1.0055
N1535 X8.5899 Y0.4629 Z-1.0074
N1540 X8.5882 Y0.4691 Z-1.0089
N1545 X8.5865 Y0.4754 Z-1.0097
N1550 X8.5848 Y0.4817 Z-1.01
N1555 X8.5651 Y0.5541
N1560 G3 X8.4731 Y0.6068 I-0.0724 J-0.0196
N1565 G2 X8.375 Y0.5937 I-0.0981 J0.3619
N1570 G1 X7.8405
N1575 G2 X6.5 Y-0.0312 I-1.3405 J1.125
N1580 G1 X4.1057
N1585 G2 X3.7144 Y-0.3223 I-1.6056 J1.75
N1590 X3.5227 Y-0.375 I-0.1918 J0.3223
N1595 G1 X1.4773
N1600 G2 X1.2856 Y-0.3223 I0. J0.375
N1605 X0.4084 Y0.5937 I1.2144 J2.041
N1610 G1 X0.
N1615 G2 X-0.375 Y0.9687 I0. J0.375
N1620 G1 Y1.0114
N1625 Z-0.81
N1630 Y2.4687
N1635 G2 X-0.3726 Y2.5114 I0.375 J0.
N1640 G1 Z-1.01
N1645 G2 X0. Y2.8437 I0.3726 J-0.0427
N1650 G1 X0.4083
N1655 G2 X1.2856 Y3.7598 I2.0917 J-1.125
N1660 X1.4773 Y3.8125 I0.1918 J-0.3223
N1665 G1 X3.5227
N1670 G2 X3.7144 Y3.7598 I0. J-0.375
N1675 X4.1057 Y3.4687 I-1.2145 J-2.041
N1680 G1 X6.5
N1685 G2 X7.8405 Y2.8437 I0. J-1.75
N1690 G1 X8.375
N1695 G2 X8.7499 Y2.4757 I0. J-0.375
N1700 G1 Z-0.81
N1705 X8.75 Y2.4734
N1710 Y2.4711
N1715 Y2.4687
N1720 Y0.9757
N1725 Z-1.01
N1730 Y0.9687
N1735 G2 X8.4731 Y0.6068 I-0.375 J0.
N1740 G3 X8.4204 Y0.5148 I0.0196 J-0.0724
N1745 G1 X8.44 Y0.4424
N1750 X8.4417 Y0.4361 Z-1.0097
N1755 X8.4434 Y0.4298 Z-1.0089
N1760 X8.4451 Y0.4237 Z-1.0074
N1765 X8.4467 Y0.4177 Z-1.0055
N1770 X8.4483 Y0.4118 Z-1.003
N1775 X8.4498 Y0.4062 Z-1.
N1780 X8.4513 Y0.4009 Z-0.9964
N1785 X8.4526 Y0.3959 Z-0.9925
N1790 X8.4539 Y0.3912 Z-0.988
N1795 X8.455 Y0.387 Z-0.9832
N1800 X8.4561 Y0.3831 Z-0.978
N1805 X8.457 Y0.3797 Z-0.9725
N1810 X8.4578 Y0.3768 Z-0.9667
N1815 X8.4584 Y0.3744 Z-0.9607
N1820 X8.459 Y0.3725 Z-0.9544
N1825 X8.4593 Y0.3711 Z-0.948
N1830 X8.4596 Y0.3703 Z-0.9415
N1835 Y0.37 Z-0.935
N1840 G0 Z0.6
(2D POCKET1)
N1850 M9
N1855 G0 X2.7837 Y1.6674
N1860 Z0.6
N1865 Z0.2
N1870 G1 Z0.175 F28.221
N1875 Y1.6673 Z0.1702
N1880 X2.7838 Y1.6668 Z0.1654
N1885 X2.7839 Y1.6661 Z0.1606
N1890 X2.7841 Y1.665 Z0.156
N1895 X2.7843 Y1.6637 Z0.1514
N1900 X2.7845 Y1.662 Z0.1469
N1905 X2.7849 Y1.6601 Z0.1425
N1910 X2.7852 Y1.6579 Z0.1382
N1915 X2.7857 Y1.6555 Z0.1341
N1920 X2.7862 Y1.6528 Z0.1302
N1925 X2.7867 Y1.6499 Z0.1264
N1930 X2.7874 Y1.6467 Z0.1229
N1935 X2.7877 Y1.645 Z0.1212
N1940 X2.7881 Y1.6433 Z0.1195
N1945 X2.7885 Y1.6416 Z0.118
N1950 X2.7889 Y1.6398 Z0.1164
N1955 X2.7893 Y1.6379 Z0.115
N1960 X2.7897 Y1.636 Z0.1135
N1965 X2.7902 Y1.6341 Z0.1122
N1970 X2.7907 Y1.6321 Z0.1109
N1975 X2.7912 Y1.6301 Z0.1097
N1980 X2.7917 Y1.6281 Z0.1085
N1985 X2.7923 Y1.626 Z0.1075
N1990 X2.7929 Y1.6239 Z0.1064
N1995 X2.7935 Y1.6218 Z0.1055
N2000 X2.7941 Y1.6196 Z0.1046
N2005 X2.7947 Y1.6175 Z0.1039
N2010 X2.7954 Y1.6153 Z0.1031
N2015 X2.796 Y1.6131 Z0.1025
N2020 X2.7967 Y1.6109 Z0.1019
N2025 X2.7975 Y1.6086 Z0.1014
N2030 X2.7982 Y1.6064 Z0.1009
N2035 X2.7989 Y1.6041 Z0.1006
N2040 X2.7997 Y1.6019 Z0.1003
N2045 X2.8005 Y1.5996 Z0.1002
N2050 X2.8013 Y1.5974 Z0.1
N2055 G3 X3.4712 Y1.8401 Z0.0609 I0.3349 J0.1214
N2060 X2.8013 Y1.5974 Z0.0218 I-0.3349 J-0.1214
N2065 X3.4712 Y1.8401 Z-0.0172 I0.3349 J0.1214
N2070 X2.8013 Y1.5974 Z-0.0563 I-0.3349 J-0.1214
N2075 X3.4712 Y1.8401 Z-0.0954 I0.3349 J0.1214
N2080 X2.8013 Y1.5974 Z-0.1345 I-0.3349 J-0.1214
N2085 X3.4712 Y1.8401 Z-0.1736 I0.3349 J0.1214
N2090 X2.8013 Y1.5974 Z-0.2127 I-0.3349 J-0.1214
N2095 X3.4712 Y1.8401 Z-0.2517 I0.3349 J0.1214
N2100 X2.8013 Y1.5974 Z-0.2908 I-0.3349 J-0.1214
N2105 X3.4712 Y1.8401 Z-0.3299 I0.3349 J0.1214
N2110 X2.8013 Y1.5974 Z-0.369 I-0.3349 J-0.1214
N2115 X3.4712 Y1.8401 Z-0.4081 I0.3349 J0.1214
N2120 X2.8013 Y1.5974 Z-0.4472 I-0.3349 J-0.1214
N2125 X3.4712 Y1.8401 Z-0.4862 I0.3349 J0.1214
N2130 X2.8013 Y1.5974 Z-0.5253 I-0.3349 J-0.1214
N2135 X3.4712 Y1.8401 Z-0.5644 I0.3349 J0.1214
N2140 X2.8013 Y1.5974 Z-0.6035 I-0.3349 J-0.1214
N2145 X3.4712 Y1.8401 Z-0.6426 I0.3349 J0.1214
N2150 X2.8013 Y1.5974 Z-0.6817 I-0.3349 J-0.1214
N2155 X3.4712 Y1.8401 Z-0.7207 I0.3349 J0.1214
N2160 X2.8013 Y1.5974 Z-0.7598 I-0.3349 J-0.1214
N2165 X3.4712 Y1.8401 Z-0.7989 I0.3349 J0.1214
N2170 X2.8013 Y1.5974 Z-0.838 I-0.3349 J-0.1214
N2175 X3.4712 Y1.8401 Z-0.8771 I0.3349 J0.1214
N2180 X2.8013 Y1.5974 Z-0.9162 I-0.3349 J-0.1214
N2185 X3.4712 Y1.8401 Z-0.9552 I0.3349 J0.1214
N2190 X2.78 Y1.7187 Z-0.99 I-0.3349 J-0.1214
N2195 X2.9325 I0.0763 J0.
N2200 X2.0675 I-0.4325 J0.
N2205 X3.645 I0.7888 J0.
N2210 X1.355 I-1.145 J0.
N2215 X3.645 I1.145 J0.
N2220 G1 X3.6449 Y1.7235 Z-0.9899
N2225 X3.6444 Y1.7281 Z-0.9894
N2230 X3.6437 Y1.7327 Z-0.9887
N2235 X3.6427 Y1.7372 Z-0.9876
N2240 X3.6414 Y1.7416 Z-0.9863
N2245 X3.64 Y1.7457 Z-0.9847
N2250 X3.6383 Y1.7497 Z-0.9829
N2255 X3.6365 Y1.7535 Z-0.9807
N2260 X3.6345 Y1.757 Z-0.9783
N2265 X3.6324 Y1.7603 Z-0.9757
N2270 X3.6303 Y1.7634 Z-0.9728
N2275 X3.6281 Y1.7662 Z-0.9697
N2280 X3.6259 Y1.7687 Z-0.9663
N2285 X3.6238 Y1.771 Z-0.9628
N2290 X3.6218 Y1.773 Z-0.9591
N2295 X3.6198 Y1.7748 Z-0.9552
N2300 X3.618 Y1.7764 Z-0.9511
N2305 X3.6163 Y1.7777 Z-0.9469
N2310 X3.6149 Y1.7789 Z-0.9426
N2315 X3.6136 Y1.7798 Z-0.9382
N2320 X3.6125 Y1.7806 Z-0.9337
N2325 X3.6116 Y1.7811 Z-0.9291
N2330 X3.611 Y1.7815 Z-0.9244
N2335 X3.6106 Y1.7818 Z-0.9197
N2340 X3.6105 Y1.7819 Z-0.915
N2345 G0 Z0.2
N2350 X7.1261 Y1.7701
N2355 G1 Z0.175 F28.221
N2360 Y1.7702 Z0.1702
N2365 X7.126 Y1.7707 Z0.1654
N2370 X7.1259 Y1.7714 Z0.1606
N2375 X7.1258 Y1.7725 Z0.156
N2380 X7.1255 Y1.7738 Z0.1514
N2385 X7.1253 Y1.7755 Z0.1469
N2390 X7.125 Y1.7774 Z0.1425
N2395 X7.1246 Y1.7796 Z0.1382
N2400 X7.1242 Y1.782 Z0.1341
N2405 X7.1237 Y1.7847 Z0.1302
N2410 X7.1231 Y1.7876 Z0.1264
N2415 X7.1225 Y1.7908 Z0.1229
N2420 X7.1221 Y1.7925 Z0.1212
N2425 X7.1218 Y1.7942 Z0.1195
N2430 X7.1214 Y1.7959 Z0.118
N2435 X7.121 Y1.7977 Z0.1164
N2440 X7.1205 Y1.7996 Z0.115
N2445 X7.1201 Y1.8015 Z0.1135
N2450 X7.1196 Y1.8034 Z0.1122
N2455 X7.1191 Y1.8054 Z0.1109
N2460 X7.1186 Y1.8074 Z0.1097
N2465 X7.1181 Y1.8094 Z0.1085
N2470 X7.1175 Y1.8115 Z0.1075
N2475 X7.117 Y1.8136 Z0.1064
N2480 X7.1164 Y1.8157 Z0.1055
N2485 X7.1158 Y1.8179 Z0.1046
N2490 X7.1151 Y1.82 Z0.1039
N2495 X7.1145 Y1.8222 Z0.1031
N2500 X7.1138 Y1.8244 Z0.1025
N2505 X7.1131 Y1.8266 Z0.1019
N2510 X7.1124 Y1.8289 Z0.1014
N2515 X7.1116 Y1.8311 Z0.1009
N2520 X7.1109 Y1.8334 Z0.1006
N2525 X7.1101 Y1.8356 Z0.1003
N2530 X7.1093 Y1.8379 Z0.1002
N2535 X7.1085 Y1.8401 Z0.1
N2540 G3 X6.4386 Y1.5974 Z0.0609 I-0.3349 J-0.1214
N2545 X7.1085 Y1.8401 Z0.0218 I0.3349 J0.1214
N2550 X6.4386 Y1.5974 Z-0.0172 I-0.3349 J-0.1214
N2555 X7.1085 Y1.8401 Z-0.0563 I0.3349 J0.1214
N2560 X6.4386 Y1.5974 Z-0.0954 I-0.3349 J-0.1214
N2565 X7.1085 Y1.8401 Z-0.1345 I0.3349 J0.1214
N2570 X6.4386 Y1.5974 Z-0.1736 I-0.3349 J-0.1214
N2575 X7.1085 Y1.8401 Z-0.2127 I0.3349 J0.1214
N2580 X6.4386 Y1.5974 Z-0.2517 I-0.3349 J-0.1214
N2585 X7.1085 Y1.8401 Z-0.2908 I0.3349 J0.1214
N2590 X6.4386 Y1.5974 Z-0.3299 I-0.3349 J-0.1214
N2595 X7.1085 Y1.8401 Z-0.369 I0.3349 J0.1214
N2600 X6.4386 Y1.5974 Z-0.4081 I-0.3349 J-0.1214
N2605 X7.1085 Y1.8401 Z-0.4472 I0.3349 J0.1214
N2610 X6.4386 Y1.5974 Z-0.4862 I-0.3349 J-0.1214
N2615 X7.1085 Y1.8401 Z-0.5253 I0.3349 J0.1214
N2620 X6.4386 Y1.5974 Z-0.5644 I-0.3349 J-0.1214
N2625 X7.1085 Y1.8401 Z-0.6035 I0.3349 J0.1214
N2630 X6.4386 Y1.5974 Z-0.6426 I-0.3349 J-0.1214
N2635 X7.1085 Y1.8401 Z-0.6817 I0.3349 J0.1214
N2640 X6.4386 Y1.5974 Z-0.7207 I-0.3349 J-0.1214
N2645 X7.1085 Y1.8401 Z-0.7598 I0.3349 J0.1214
N2650 X6.4386 Y1.5974 Z-0.7989 I-0.3349 J-0.1214
N2655 X7.1085 Y1.8401 Z-0.838 I0.3349 J0.1214
N2660 X6.4386 Y1.5974 Z-0.8771 I-0.3349 J-0.1214
N2665 X7.1085 Y1.8401 Z-0.9162 I0.3349 J0.1214
N2670 X6.4386 Y1.5974 Z-0.9552 I-0.3349 J-0.1214
N2675 X7.1298 Y1.7187 Z-0.99 I0.3349 J0.1214
N2680 X6.5825 I-0.2737 J0.
N2685 X7.13 I0.2737 J0.
N2690 X5.87 I-0.63 J0.
N2695 X7.13 I0.63 J0.
N2700 G1 X7.1299 Y1.7235 Z-0.9899
N2705 X7.1294 Y1.7281 Z-0.9894
N2710 X7.1287 Y1.7327 Z-0.9887
N2715 X7.1277 Y1.7372 Z-0.9876
N2720 X7.1264 Y1.7416 Z-0.9863
N2725 X7.125 Y1.7457 Z-0.9847
N2730 X7.1233 Y1.7497 Z-0.9829
N2735 X7.1215 Y1.7535 Z-0.9807
N2740 X7.1195 Y1.757 Z-0.9783
N2745 X7.1174 Y1.7603 Z-0.9757
N2750 X7.1153 Y1.7634 Z-0.9728
N2755 X7.1131 Y1.7662 Z-0.9697
N2760 X7.1109 Y1.7687 Z-0.9663
N2765 X7.1088 Y1.771 Z-0.9628
N2770 X7.1068 Y1.773 Z-0.9591
N2775 X7.1048 Y1.7748 Z-0.9552
N2780 X7.103 Y1.7764 Z-0.9511
N2785 X7.1013 Y1.7777 Z-0.9469
N2790 X7.0999 Y1.7789 Z-0.9426
N2795 X7.0986 Y1.7798 Z-0.9382
N2800 X7.0975 Y1.7806 Z-0.9337
N2805 X7.0966 Y1.7811 Z-0.9291
N2810 X7.096 Y1.7815 Z-0.9244
N2815 X7.0956 Y1.7818 Z-0.9197
N2820 X7.0955 Y1.7819 Z-0.915
N2825 G0 Z0.6
(2D CONTOUR3)
N2835 M9
N2840 G0 X3.4416 Y1.6668
N2845 Z0.6
N2850 Z0.2
N2855 G1 Z0.0394 F28.221
N2860 Z-0.935
N2865 X3.4418 Z-0.9415
N2870 X3.4427 Y1.6669 Z-0.948
N2875 X3.4441 Z-0.9544
N2880 X3.4461 Y1.667 Z-0.9607
N2885 X3.4486 Z-0.9667
N2890 X3.4516 Y1.6671 Z-0.9725
N2895 X3.4551 Y1.6672 Z-0.978
N2900 X3.4591 Y1.6673 Z-0.9832
N2905 X3.4635 Y1.6674 Z-0.988
N2910 X3.4683 Y1.6675 Z-0.9925
N2915 X3.4735 Y1.6676 Z-0.9964
N2920 X3.479 Y1.6678 Z-1.
N2925 X3.4848 Y1.6679 Z-1.003
N2930 X3.4909 Y1.6681 Z-1.0055
N2935 X3.4971 Y1.6682 Z-1.0074
N2940 X3.5035 Y1.6684 Z-1.0089
N2945 X3.51 Y1.6685 Z-1.0097
N2950 X3.5165 Y1.6687 Z-1.01
N2955 X3.5915 Y1.6705
N2960 G3 X3.6646 Y1.7473 I-0.0018 J0.075
N2965 X1.3354 Y1.6902 I-1.1646 J-0.0286
N2970 X3.6646 Y1.7473 I1.1646 J0.0286
N2975 X3.5878 Y1.8205 I-0.075 J-0.0018
N2980 G1 X3.5129 Y1.8186
N2985 X3.5063 Y1.8185 Z-1.0097
N2990 X3.4998 Y1.8183 Z-1.0089
N2995 X3.4934 Y1.8182 Z-1.0074
N3000 X3.4872 Y1.818 Z-1.0055
N3005 X3.4812 Y1.8179 Z-1.003
N3010 X3.4754 Y1.8177 Z-1.
N3015 X3.4698 Y1.8176 Z-0.9964
N3020 X3.4647 Y1.8175 Z-0.9925
N3025 X3.4598 Y1.8173 Z-0.988
N3030 X3.4554 Y1.8172 Z-0.9832
N3035 X3.4514 Y1.8171 Z-0.978
N3040 X3.4479 Y1.817 Z-0.9725
N3045 X3.4449 Z-0.9667
N3050 X3.4424 Y1.8169 Z-0.9607
N3055 X3.4404 Z-0.9544
N3060 X3.439 Y1.8168 Z-0.948
N3065 X3.4382 Z-0.9415
N3070 X3.4379 Z-0.935
N3075 G0 Z0.2
N3080 X6.925 Y1.6437
N3085 G1 Z0.0394 F28.221
N3090 Z-0.935
N3095 G18 G2 X7. Z-1.01 I0.075 K0.
N3100 G1 X7.075
N3105 G17 G3 X7.15 Y1.7187 I0. J0.075
N3110 X5.85 I-0.65 J0.
N3115 X7.15 I0.65 J0.
N3120 X7.075 Y1.7937 I-0.075 J0.
N3125 G1 X7.
N3130 G18 G3 X6.925 Z-0.935 I0. K0.075
N3135 G0 Z0.6
N3140 G17
(RAMP2)
N3145 M9
N3150 G0 X1.4421 Y1.724
N3155 Z0.6
N3160 Z0.065
N3165 G18 G3 X1.3671 Z-0.01 I-0.075 K0. F28.221
N3170 G17 G3 X1.2921 Y1.649 I0. J-0.075
N3175 G1 X1.2933 Y1.6316
N3180 X1.2948 Y1.6123
N3185 X1.2967 Y1.5929
N3190 X1.2989 Y1.5736
N3195 X1.3014 Y1.5542 Z-0.0101
N3200 X1.3042 Y1.5348
N3205 X1.3074 Y1.5155
N3210 X1.3116 Y1.4917
N3215 X1.3146 Y1.4768
N3220 X1.3187 Y1.4574
N3225 X1.3232 Y1.4381
N3230 X1.3279 Y1.4187 Z-0.0102
N3235 X1.331 Y1.4072
N3240 X1.3384 Y1.38
N3245 X1.3444 Y1.3606
N3250 X1.3504 Y1.3415
N3255 X1.3571 Y1.3219
N3260 X1.3639 Y1.3026
N3265 X1.3713 Y1.2832
N3270 X1.3789 Y1.2638 Z-0.0103
N3275 X1.3892 Y1.2392
N3280 X1.3954 Y1.2251
N3285 X1.4042 Y1.2058
N3290 X1.4086 Y1.1965
N3295 X1.4231 Y1.167
N3300 X1.428 Y1.1579
N3305 X1.4334 Y1.1477
N3310 X1.4439 Y1.1283 Z-0.0104
N3315 X1.4551 Y1.109
N3320 X1.4666 Y1.0896
N3325 X1.4785 Y1.0703
N3330 X1.4862 Y1.0584
N3335 X1.4912 Y1.0509
N3340 X1.5042 Y1.0315
N3345 X1.5179 Y1.0122 Z-0.0105
N3350 X1.5251 Y1.0022
N3355 X1.5445 Y0.9765
N3360 X1.5468 Y0.9735
N3365 X1.5639 Y0.9523
N3370 X1.5786 Y0.9348
N3375 X1.5952 Y0.9154
N3380 X1.6027 Y0.9072
N3385 X1.6129 Y0.896
N3390 X1.6221 Y0.8861 Z-0.0106
N3395 X1.6415 Y0.8662
N3400 X1.6504 Y0.8573
N3405 X1.6705 Y0.838
N3410 X1.6803 Y0.8288
N3415 X1.6997 Y0.8113
N3420 X1.7137 Y0.7992
N3425 X1.7192 Y0.7947
N3430 X1.7368 Y0.7799 Z-0.0107
N3435 X1.7612 Y0.7605
N3440 X1.7774 Y0.7484
N3445 X1.7872 Y0.7412
N3450 X1.7968 Y0.7342
N3455 X1.8162 Y0.7207
N3460 X1.8356 Y0.7077
N3465 X1.855 Y0.6951 Z-0.0108
N3470 X1.8744 Y0.6832
N3475 X1.8746 Y0.6831
N3480 X1.8938 Y0.6716
N3485 X1.9133 Y0.6607
N3490 X1.9327 Y0.6502
N3495 X1.9521 Y0.64
N3500 X1.9715 Y0.6305
N3505 X1.9909 Y0.6211 Z-0.0109
N3510 X2.0103 Y0.6125
N3515 X2.0256 Y0.6057
N3520 X2.0297 Y0.604
N3525 X2.0491 Y0.5961
N3530 X2.0685 Y0.5884
N3535 X2.0879 Y0.5812
N3540 X2.1073 Y0.5744
N3545 X2.1295 Y0.567 Z-0.011
N3550 X2.1462 Y0.5618
N3555 X2.1656 Y0.556
N3560 X2.185 Y0.5507
N3565 X2.2044 Y0.5455
N3570 X2.2238 Y0.5409
N3575 X2.2432 Y0.5364
N3580 X2.2626 Y0.5325
N3585 X2.282 Y0.5286 Z-0.0111
N3590 X2.3014 Y0.5253
N3595 X2.3209 Y0.5222
N3600 X2.3403 Y0.5195
N3605 X2.3597 Y0.517
N3610 X2.3791 Y0.515
N3615 X2.3985 Y0.5131
N3620 X2.4179 Y0.5117 Z-0.0112
N3625 X2.4373 Y0.5105
N3630 X2.4567 Y0.5097
N3635 X2.4761 Y0.5091
N3640 X2.504 Y0.5089
N3645 X2.5114
N3650 X2.5344 Y0.5094
N3655 X2.5538 Y0.5101
N3660 X2.5732 Y0.5111 Z-0.0113
N3665 X2.5926 Y0.5124
N3670 X2.612 Y0.5141
N3675 X2.6314 Y0.516
N3680 X2.6508 Y0.5184
N3685 X2.6702 Y0.5209
N3690 X2.6896 Y0.5239
N3695 X2.709 Y0.5271
N3700 X2.7285 Y0.5307 Z-0.0114
N3705 X2.7479 Y0.5346
N3710 X2.7673 Y0.5388
N3715 X2.7867 Y0.5434
N3720 X2.8061 Y0.5482
N3725 X2.8255 Y0.5535
N3730 X2.8449 Y0.559
N3735 X2.8643 Y0.5651
N3740 X2.8837 Y0.5713 Z-0.0115
N3745 X2.9031 Y0.5781
N3750 X2.9225 Y0.585
N3755 X2.942 Y0.5925
N3760 X2.9614 Y0.6003
N3765 X2.9808 Y0.6085
N3770 X3.0002 Y0.6171
N3775 X3.0196 Y0.6261 Z-0.0116
N3780 X3.039 Y0.6356
N3785 X3.0584 Y0.6454
N3790 X3.0778 Y0.6558
N3795 X3.0924 Y0.6637
N3800 X3.0972 Y0.6665
N3805 X3.1256 Y0.6831
N3810 X3.1361 Y0.6896
N3815 X3.1566 Y0.7025 Z-0.0117
N3820 X3.1749 Y0.7147
N3825 X3.1855 Y0.7218
N3830 X3.1943 Y0.7279
N3835 X3.2137 Y0.7418
N3840 X3.2331 Y0.7563
N3845 X3.2386 Y0.7605
N3850 X3.2525 Y0.7713
N3855 X3.2719 Y0.7872 Z-0.0118
N3860 X3.2864 Y0.7992
N3865 X3.3085 Y0.8186
N3870 X3.3107 Y0.8206
N3875 X3.3302 Y0.8386
N3880 X3.3495 Y0.8573
N3885 X3.3496 Y0.8574
N3890 X3.3688 Y0.8767
N3895 X3.3884 Y0.8974 Z-0.0119
N3900 X3.4046 Y0.9154
N3905 X3.4078 Y0.919
N3910 X3.4215 Y0.9348
N3915 X3.4376 Y0.9541
N3920 X3.4466 Y0.9653
N3925 X3.453 Y0.9735
N3930 X3.466 Y0.9902
N3935 X3.4854 Y1.0167 Z-0.012
N3940 X3.4957 Y1.0315
N3945 X3.509 Y1.0509
N3950 X3.5213 Y1.0703
N3955 X3.5242 Y1.0748
N3960 X3.5334 Y1.0896
N3965 X3.545 Y1.109
N3970 X3.556 Y1.1283
N3975 X3.5667 Y1.1477 Z-0.0121
N3980 X3.5767 Y1.167
N3985 X3.5825 Y1.1783
N3990 X3.5865 Y1.1864
N3995 X3.5957 Y1.2058
N4000 X3.6019 Y1.2189
N4005 X3.613 Y1.2445
N4010 X3.6211 Y1.2638
N4015 X3.6288 Y1.2832 Z-0.0122
N4020 X3.636 Y1.3026
N4025 X3.643 Y1.3219
N4030 X3.6494 Y1.3413
N4035 X3.6557 Y1.3606
N4040 X3.6601 Y1.3755
N4045 X3.6614 Y1.38
N4050 X3.667 Y1.3993
N4055 X3.672 Y1.4187 Z-0.0123
N4060 X3.6769 Y1.4381
N4065 X3.6813 Y1.4574
N4070 X3.6855 Y1.4768
N4075 X3.6892 Y1.4961
N4080 X3.6927 Y1.5155
N4085 X3.6958 Y1.5348
N4090 X3.6986 Y1.5542
N4095 X3.7011 Y1.5736 Z-0.0124
N4100 X3.7033 Y1.5929
N4105 X3.7051 Y1.6123
N4110 X3.7067 Y1.6316
N4115 X3.7079 Y1.651
N4120 X3.7089 Y1.6704
N4125 X3.7095 Y1.6897
N4130 X3.7098 Y1.7091
N4135 Y1.7284 Z-0.0125
N4140 X3.7095 Y1.7478
N4145 X3.7089 Y1.7671
N4150 X3.7079 Y1.7865
N4155 X3.7067 Y1.8059
N4160 X3.7051 Y1.8252
N4165 X3.7033 Y1.8446
N4170 X3.7011 Y1.8639
N4175 X3.6986 Y1.8833 Z-0.0126
N4180 X3.6958 Y1.9027
N4185 X3.6927 Y1.922
N4190 X3.6892 Y1.9414
N4195 X3.6855 Y1.9607
N4200 X3.6813 Y1.9801
N4205 X3.6769 Y1.9994
N4210 X3.672 Y2.0188 Z-0.0127
N4215 X3.667 Y2.0382
N4220 X3.6614 Y2.0575
N4225 X3.6601 Y2.062
N4230 X3.6557 Y2.0769
N4235 X3.6494 Y2.0962
N4240 X3.643 Y2.1156
N4245 X3.636 Y2.1349
N4250 X3.6288 Y2.1543
N4255 X3.6211 Y2.1737 Z-0.0128
N4260 X3.613 Y2.193
N4265 X3.6019 Y2.2186
N4270 X3.5957 Y2.2317
N4275 X3.5865 Y2.2511
N4280 X3.5825 Y2.2592
N4285 X3.5767 Y2.2705
N4290 X3.5667 Y2.2898
N4295 X3.556 Y2.3092 Z-0.0129
N4300 X3.545 Y2.3285
N4305 X3.5334 Y2.3479
N4310 X3.5242 Y2.3627
N4315 X3.5213 Y2.3672
N4320 X3.509 Y2.3866
N4325 X3.4957 Y2.406
N4330 X3.4854 Y2.4208
N4335 X3.466 Y2.4473 Z-0.013
N4340 X3.453 Y2.464
N4345 X3.4466 Y2.4722
N4350 X3.4376 Y2.4834
N4355 X3.4215 Y2.5027
N4360 X3.4078 Y2.5185
N4365 X3.4046 Y2.5221
N4370 X3.3884 Y2.5401
N4375 X3.3688 Y2.5608 Z-0.0131
N4380 X3.3496 Y2.5801
N4385 X3.3495 Y2.5802
N4390 X3.3302 Y2.5989
N4395 X3.3107 Y2.6169
N4400 X3.3085 Y2.6189
N4405 X3.2864 Y2.6383
N4410 X3.2719 Y2.6503 Z-0.0132
N4415 X3.2525 Y2.6662
N4420 X3.2386 Y2.677
N4425 X3.2331 Y2.6812
N4430 X3.2137 Y2.6957
N4435 X3.1943 Y2.7096
N4440 X3.1855 Y2.7157
N4445 X3.1749 Y2.7228
N4450 X3.1566 Y2.735
N4455 X3.1361 Y2.7479 Z-0.0133
N4460 X3.1256 Y2.7544
N4465 X3.0972 Y2.771
N4470 X3.0924 Y2.7738
N4475 X3.0778 Y2.7817
N4480 X3.0584 Y2.7921
N4485 X3.039 Y2.8019
N4490 X3.0196 Y2.8114 Z-0.0134
N4495 X3.0002 Y2.8204
N4500 X2.9808 Y2.829
N4505 X2.9614 Y2.8372
N4510 X2.942 Y2.845
N4515 X2.9225 Y2.8525
N4520 X2.9031 Y2.8594
N4525 X2.8837 Y2.8662
N4530 X2.8643 Y2.8724 Z-0.0135
N4535 X2.8449 Y2.8785
N4540 X2.8255 Y2.884
N4545 X2.8061 Y2.8893
N4550 X2.7867 Y2.8941
N4555 X2.7673 Y2.8987
N4560 X2.7479 Y2.9029
N4565 X2.7285 Y2.9068 Z-0.0136
N4570 X2.709 Y2.9104
N4575 X2.6896 Y2.9136
N4580 X2.6702 Y2.9166
N4585 X2.6508 Y2.9191
N4590 X2.6314 Y2.9215
N4595 X2.612 Y2.9234
N4600 X2.5926 Y2.9251
N4605 X2.5732 Y2.9264 Z-0.0137
N4610 X2.5538 Y2.9274
N4615 X2.5344 Y2.9281
N4620 X2.5114 Y2.9286
N4625 X2.5041
N4630 X2.4761 Y2.9284
N4635 X2.4567 Y2.9278
N4640 X2.4373 Y2.927
N4645 X2.4179 Y2.9258 Z-0.0138
N4650 X2.3985 Y2.9244
N4655 X2.3791 Y2.9225
N4660 X2.3597 Y2.9205
N4665 X2.3403 Y2.918
N4670 X2.3209 Y2.9153
N4675 X2.3014 Y2.9122
N4680 X2.282 Y2.9089
N4685 X2.2626 Y2.905 Z-0.0139
N4690 X2.2432 Y2.9011
N4695 X2.2238 Y2.8966
N4700 X2.2044 Y2.892
N4705 X2.185 Y2.8868
N4710 X2.1656 Y2.8815
N4715 X2.1462 Y2.8757
N4720 X2.1295 Y2.8705 Z-0.014
N4725 X2.1073 Y2.8631
N4730 X2.0879 Y2.8563
N4735 X2.0685 Y2.8491
N4740 X2.0491 Y2.8414
N4745 X2.0297 Y2.8335
N4750 X2.0256 Y2.8318
N4755 X2.0103 Y2.825
N4760 X1.9909 Y2.8164
N4765 X1.9715 Y2.807 Z-0.0141
N4770 X1.9521 Y2.7975
N4775 X1.9327 Y2.7873
N4780 X1.9133 Y2.7768
N4785 X1.8938 Y2.7659
N4790 X1.8746 Y2.7544
N4795 X1.8744 Y2.7543
N4800 X1.855 Y2.7424 Z-0.0142
N4805 X1.8356 Y2.7298
N4810 X1.8162 Y2.7168
N4815 X1.7968 Y2.7033
N4820 X1.7872 Y2.6963
N4825 X1.7774 Y2.6891
N4830 X1.7612 Y2.677
N4835 X1.7368 Y2.6576
N4840 X1.7192 Y2.6428 Z-0.0143
N4845 X1.7137 Y2.6383
N4850 X1.6997 Y2.6262
N4855 X1.6803 Y2.6087
N4860 X1.6705 Y2.5995
N4865 X1.6504 Y2.5802
N4870 X1.6415 Y2.5713
N4875 X1.6221 Y2.5514 Z-0.0144
N4880 X1.6129 Y2.5415
N4885 X1.6027 Y2.5303
N4890 X1.5952 Y2.5221
N4895 X1.5786 Y2.5027
N4900 X1.5639 Y2.4852
N4905 X1.5468 Y2.464
N4910 X1.5445 Y2.461
N4915 X1.5251 Y2.4353
N4920 X1.5179 Y2.4253 Z-0.0145
N4925 X1.5042 Y2.406
N4930 X1.4912 Y2.3866
N4935 X1.4862 Y2.3791
N4940 X1.4785 Y2.3672
N4945 X1.4666 Y2.3479
N4950 X1.4551 Y2.3285
N4955 X1.4439 Y2.3092
N4960 X1.4334 Y2.2898 Z-0.0146
N4965 X1.428 Y2.2796
N4970 X1.4231 Y2.2705
N4975 X1.4086 Y2.241
N4980 X1.4042 Y2.2317
N4985 X1.3954 Y2.2124
N4990 X1.3892 Y2.1983
N4995 X1.3789 Y2.1737
N5000 X1.3713 Y2.1543 Z-0.0147
N5005 X1.3639 Y2.1349
N5010 X1.3571 Y2.1156
N5015 X1.3504 Y2.096
N5020 X1.3444 Y2.0769
N5025 X1.3384 Y2.0575
N5030 X1.331 Y2.0303
N5035 X1.3279 Y2.0188 Z-0.0148
N5040 X1.3232 Y1.9994
N5045 X1.3187 Y1.9801
N5050 X1.3146 Y1.9607
N5055 X1.3116 Y1.9458
N5060 X1.3074 Y1.922
N5065 X1.3042 Y1.9027
N5070 X1.3014 Y1.8833
N5075 X1.2989 Y1.8639 Z-0.0149
N5080 X1.2967 Y1.8446
N5085 X1.2948 Y1.8252
N5090 X1.2933 Y1.8059
N5095 X1.2921 Y1.7885
N5100 X1.2911 Y1.7671
N5105 X1.2905 Y1.7478
N5110 X1.2902 Y1.7284
N5115 Y1.7091 Z-0.015
N5120 X1.2905 Y1.6897
N5125 X1.2911 Y1.6704
N5130 X1.2921 Y1.649
N5135 X1.2947 Y1.6149
N5140 X1.2981 Y1.5808
N5145 X1.3025 Y1.5469 Z-0.0151
N5150 X1.3079 Y1.513
N5155 X1.3142 Y1.4794
N5160 X1.3214 Y1.4459
N5165 X1.3296 Y1.4126 Z-0.0152
N5170 X1.3387 Y1.3797
N5175 X1.3488 Y1.347
N5180 X1.3599 Y1.3146
N5185 X1.3718 Y1.2825
N5190 X1.3847 Y1.2508 Z-0.0153
N5195 X1.3984 Y1.2194
N5200 X1.413 Y1.1884
N5205 X1.4284 Y1.1578
N5210 X1.4447 Y1.1277 Z-0.0154
N5215 X1.4618 Y1.0981
N5220 X1.4798 Y1.069
N5225 X1.4986 Y1.0405
N5230 X1.5183 Y1.0124 Z-0.0155
N5235 X1.5387 Y0.9849
N5240 X1.5599 Y0.958
N5245 X1.5818 Y0.9317
N5250 X1.6045 Y0.9061
N5255 X1.6278 Y0.8811 Z-0.0156
N5260 X1.6518 Y0.8567
N5265 X1.6766 Y0.833
N5270 X1.702 Y0.8101
N5275 X1.7281 Y0.788 Z-0.0157
N5280 X1.7547 Y0.7665
N5285 X1.782 Y0.7459
N5290 X1.8099 Y0.726
N5295 X1.8383 Y0.7068
N5300 X1.8672 Y0.6885 Z-0.0158
N5305 X1.8966 Y0.671
N5310 X1.9264 Y0.6543
N5315 X1.9568 Y0.6385
N5320 X1.9876 Y0.6237 Z-0.0159
N5325 X2.0188 Y0.6096
N5330 X2.0504 Y0.5965
N5335 X2.0824 Y0.5843
N5340 X2.1147 Y0.5729
N5345 X2.1473 Y0.5625 Z-0.016
N5350 X2.1801 Y0.553
N5355 X2.2132 Y0.5444
N5360 X2.2466 Y0.5367
N5365 X2.2801 Y0.53 Z-0.0161
N5370 X2.3138 Y0.5244
N5375 X2.3477 Y0.5196
N5380 X2.3817 Y0.5159
N5385 X2.4158 Y0.513
N5390 X2.45 Y0.5111 Z-0.0162
N5395 X2.4842 Y0.5102
N5400 X2.5184 Y0.5103
N5405 X2.5525 Y0.5112
N5410 X2.5867 Y0.5132 Z-0.0163
N5415 X2.6208 Y0.5162
N5420 X2.6548 Y0.5201
N5425 X2.6886 Y0.525
N5430 X2.7223 Y0.5309 Z-0.0164
N5435 X2.7558 Y0.5377
N5440 X2.7892 Y0.5454
N5445 X2.8222 Y0.5541
N5450 X2.8551 Y0.5637
N5455 X2.8877 Y0.5742 Z-0.0165
N5460 X2.9199 Y0.5856
N5465 X2.9517 Y0.598
N5470 X2.9833 Y0.6113
N5475 X3.0144 Y0.6254 Z-0.0166
N5480 X3.0451 Y0.6404
N5485 X3.0754 Y0.6563
N5490 X3.1052 Y0.6731
N5495 X3.1346 Y0.6906
N5500 X3.1634 Y0.709 Z-0.0167
N5505 X3.1917 Y0.7281
N5510 X3.2195 Y0.7481
N5515 X3.2466 Y0.7689
N5520 X3.2731 Y0.7904 Z-0.0168
N5525 X3.2991 Y0.8127
N5530 X3.3244 Y0.8357
N5535 X3.349 Y0.8594
N5540 X3.373 Y0.8838
N5545 X3.3963 Y0.9089 Z-0.0169
N5550 X3.4189 Y0.9345
N5555 X3.4407 Y0.9608
N5560 X3.4617 Y0.9878
N5565 X3.482 Y1.0153 Z-0.017
N5570 X3.5014 Y1.0434
N5575 X3.5201 Y1.0721
N5580 X3.538 Y1.1012
N5585 X3.555 Y1.1308
N5590 X3.5712 Y1.1609 Z-0.0171
N5595 X3.5866 Y1.1915
N5600 X3.6011 Y1.2224
N5605 X3.6147 Y1.2538
N5610 X3.6274 Y1.2855 Z-0.0172
N5615 X3.6391 Y1.3176
N5620 X3.65 Y1.35
N5625 X3.6599 Y1.3827
N5630 X3.6689 Y1.4157 Z-0.0173
N5635 X3.677 Y1.4489
N5640 X3.6842 Y1.4823
N5645 X3.6904 Y1.5159
N5650 X3.6957 Y1.5497
N5655 X3.7 Y1.5836 Z-0.0174
N5660 X3.7033 Y1.6176
N5665 X3.7056 Y1.6517
N5670 X3.7069 Y1.6858
N5675 X3.7073 Y1.72 Z-0.0175
N5680 X3.7068 Y1.7542
N5685 X3.7053 Y1.7883
N5690 X3.7029 Y1.8224
N5695 X3.6995 Y1.8564
N5700 X3.6951 Y1.8903 Z-0.0176
N5705 X3.6897 Y1.9241
N5710 X3.6834 Y1.9576
N5715 X3.6761 Y1.991
N5720 X3.6679 Y2.0242 Z-0.0177
N5725 X3.6588 Y2.0571
N5730 X3.6487 Y2.0897
N5735 X3.6377 Y2.1221
N5740 X3.6259 Y2.1541
N5745 X3.6131 Y2.1858 Z-0.0178
N5750 X3.5995 Y2.2172
N5755 X3.5849 Y2.248
N5760 X3.5694 Y2.2785
N5765 X3.5531 Y2.3085 Z-0.0179
N5770 X3.536 Y2.338
N5775 X3.518 Y2.3671
N5780 X3.4992 Y2.3957
N5785 X3.4797 Y2.4237
N5790 X3.4593 Y2.4511 Z-0.018
N5795 X3.4383 Y2.478
N5800 X3.4164 Y2.5042
N5805 X3.3937 Y2.5298
N5810 X3.3704 Y2.5547 Z-0.0181
N5815 X3.3464 Y2.579
N5820 X3.3216 Y2.6025
N5825 X3.2963 Y2.6254
N5830 X3.2703 Y2.6476
N5835 X3.2437 Y2.669 Z-0.0182
N5840 X3.2166 Y2.6897
N5845 X3.1888 Y2.7096
N5850 X3.1605 Y2.7287
N5855 X3.1316 Y2.7469 Z-0.0183
N5860 X3.1022 Y2.7643
N5865 X3.0723 Y2.7809
N5870 X3.042 Y2.7966
N5875 X3.0113 Y2.8115 Z-0.0184
N5880 X2.9802 Y2.8256
N5885 X2.9487 Y2.8387
N5890 X2.9168 Y2.851
N5895 X2.8846 Y2.8623
N5900 X2.8521 Y2.8727 Z-0.0185
N5905 X2.8193 Y2.8821
N5910 X2.7862 Y2.8906
N5915 X2.7529 Y2.8982
N5920 X2.7194 Y2.9049 Z-0.0186
N5925 X2.6858 Y2.9106
N5930 X2.652 Y2.9154
N5935 X2.618 Y2.9192
N5940 X2.584 Y2.9221
N5945 X2.5499 Y2.924 Z-0.0187
N5950 X2.5158 Y2.9248
N5955 X2.4817 Y2.9247
N5960 X2.4475 Y2.9237
N5965 X2.4135 Y2.9217 Z-0.0188
N5970 X2.3795 Y2.9187
N5975 X2.3455 Y2.9149
N5980 X2.3117 Y2.91
N5985 X2.2781 Y2.9042
N5990 X2.2447 Y2.8975 Z-0.0189
N5995 X2.2114 Y2.8897
N6000 X2.1784 Y2.881
N6005 X2.1457 Y2.8714
N6010 X2.1132 Y2.8609 Z-0.019
N6015 X2.081 Y2.8495
N6020 X2.0492 Y2.8372
N6025 X2.0177 Y2.8239
N6030 X1.9866 Y2.8099
N6035 X1.956 Y2.7949 Z-0.0191
N6040 X1.9257 Y2.7791
N6045 X1.896 Y2.7624
N6050 X1.8667 Y2.7448
N6055 X1.838 Y2.7264 Z-0.0192
N6060 X1.8098 Y2.7073
N6065 X1.7821 Y2.6873
N6070 X1.7549 Y2.6666
N6075 X1.7284 Y2.6451
N6080 X1.7025 Y2.623 Z-0.0193
N6085 X1.6772 Y2.6
N6090 X1.6526 Y2.5764
N6095 X1.6288 Y2.552
N6100 X1.6056 Y2.527 Z-0.0194
N6105 X1.5831 Y2.5013
N6110 X1.5613 Y2.475
N6115 X1.5403 Y2.4482
N6120 X1.5201 Y2.4207 Z-0.0195
N6125 X1.5006 Y2.3927
N6130 X1.4819 Y2.3642
N6135 X1.464 Y2.3351
N6140 X1.4471 Y2.3055
N6145 X1.4309 Y2.2754 Z-0.0196
N6150 X1.4157 Y2.2449
N6155 X1.4012 Y2.214
N6160 X1.3877 Y2.1827
N6165 X1.375 Y2.1511 Z-0.0197
N6170 X1.3632 Y2.1191
N6175 X1.3524 Y2.0867
N6180 X1.3424 Y2.0541
N6185 X1.3334 Y2.0212
N6190 X1.3253 Y1.9881 Z-0.0198
N6195 X1.3183 Y1.9547
N6200 X1.3121 Y1.9212
N6205 X1.3069 Y1.8875
N6210 X1.3026 Y1.8536 Z-0.0199
N6215 X1.2993 Y1.8197
N6220 X1.2969 Y1.7857
N6225 X1.2955 Y1.7516
N6230 X1.295 Y1.7175
N6235 X1.2956 Y1.6834 Z-0.02
N6240 X1.2971 Y1.6493
N6245 X1.2982 Y1.6338
N6250 X1.301 Y1.5996
N6255 X1.3049 Y1.5656
N6260 X1.3098 Y1.5316 Z-0.0201
N6265 X1.3156 Y1.498
N6270 X1.3224 Y1.4644
N6275 X1.3302 Y1.431
N6280 X1.3389 Y1.3979 Z-0.0202
N6285 X1.3485 Y1.365
N6290 X1.359 Y1.3324
N6295 X1.3704 Y1.3001
N6300 X1.3828 Y1.2682
N6305 X1.396 Y1.2366 Z-0.0203
N6310 X1.4102 Y1.2055
N6315 X1.4253 Y1.1747
N6320 X1.4412 Y1.1444
N6325 X1.458 Y1.1146 Z-0.0204
N6330 X1.4756 Y1.0852
N6335 X1.4941 Y1.0563
N6340 X1.5133 Y1.028
N6345 X1.5334 Y1.0002 Z-0.0205
N6350 X1.5541 Y0.9731
N6355 X1.5757 Y0.9464
N6360 X1.5981 Y0.9205
N6365 X1.6212 Y0.8952
N6370 X1.645 Y0.8706 Z-0.0206
N6375 X1.6695 Y0.8467
N6380 X1.6946 Y0.8235
N6385 X1.7204 Y0.8009
N6390 X1.7468 Y0.7792 Z-0.0207
N6395 X1.7738 Y0.7582
N6400 X1.8014 Y0.7379
N6405 X1.8295 Y0.7184
N6410 X1.8583 Y0.6998
N6415 X1.8875 Y0.682 Z-0.0208
N6420 X1.9173 Y0.665
N6425 X1.9475 Y0.649
N6430 X1.9782 Y0.6337
N6435 X2.0093 Y0.6193 Z-0.0209
N6440 X2.0407 Y0.6058
N6445 X2.0725 Y0.5932
N6450 X2.1047 Y0.5815
N6455 X2.1372 Y0.5707
N6460 X2.17 Y0.5609 Z-0.021
N6465 X2.203 Y0.5521
N6470 X2.2363 Y0.5441
N6475 X2.2698 Y0.5372
N6480 X2.3035 Y0.5311 Z-0.0211
N6485 X2.3374 Y0.5261
N6490 X2.3713 Y0.5219
N6495 X2.4054 Y0.5188
N6500 X2.4396 Y0.5165 Z-0.0212
N6505 X2.4737 Y0.5153
N6510 X2.5079 Y0.515
N6515 X2.5422 Y0.5158
N6520 X2.5764 Y0.5176
N6525 X2.6105 Y0.5203 Z-0.0213
N6530 X2.6445 Y0.5239
N6535 X2.6784 Y0.5285
N6540 X2.7122 Y0.5341
N6545 X2.7457 Y0.5406 Z-0.0214
N6550 X2.7792 Y0.5481
N6555 X2.8123 Y0.5564
N6560 X2.8452 Y0.5658
N6565 X2.8778 Y0.5761
N6570 X2.9102 Y0.5874 Z-0.0215
N6575 X2.9421 Y0.5995
N6580 X2.9737 Y0.6126
N6585 X3.005 Y0.6265
N6590 X3.0358 Y0.6414 Z-0.0216
N6595 X3.0663 Y0.657
N6600 X3.0962 Y0.6735
N6605 X3.1257 Y0.6909
N6610 X3.1546 Y0.7091 Z-0.0217
N6615 X3.1831 Y0.7282
N6620 X3.2109 Y0.748
N6625 X3.2382 Y0.7687
N6630 X3.2649 Y0.7901
N6635 X3.2909 Y0.8122 Z-0.0218
N6640 X3.3164 Y0.8351
N6645 X3.3412 Y0.8586
N6650 X3.3653 Y0.8829
N6655 X3.3887 Y0.9078 Z-0.0219
N6660 X3.4114 Y0.9334
N6665 X3.4333 Y0.9597
N6670 X3.4544 Y0.9865
N6675 X3.4749 Y1.014
N6680 X3.4945 Y1.042 Z-0.022
N6685 X3.5133 Y1.0706
N6690 X3.5313 Y1.0996
N6695 X3.5485 Y1.1292
N6700 X3.5648 Y1.1592 Z-0.0221
N6705 X3.5803 Y1.1898
N6710 X3.5949 Y1.2206
N6715 X3.6085 Y1.252
N6720 X3.6213 Y1.2837
N6725 X3.6332 Y1.3158 Z-0.0222
N6730 X3.6441 Y1.3482
N6735 X3.6542 Y1.3809
N6740 X3.6633 Y1.4138
N6745 X3.6715 Y1.447 Z-0.0223
N6750 X3.6788 Y1.4804
N6755 X3.6851 Y1.514
N6760 X3.6904 Y1.5478
N6765 X3.6947 Y1.5817 Z-0.0224
N6770 X3.6981 Y1.6157
N6775 X3.7005 Y1.6498
N6780 X3.7019 Y1.684
N6785 X3.7024 Y1.7182
N6790 X3.7019 Y1.7524 Z-0.0225
N6795 X3.7004 Y1.7865
N6800 X3.698 Y1.8206
N6805 X3.6947 Y1.8546
N6810 X3.6903 Y1.8885 Z-0.0226
N6815 X3.685 Y1.9223
N6820 X3.6787 Y1.9559
N6825 X3.6714 Y1.9893
N6830 X3.6632 Y2.0225
N6835 X3.6541 Y2.0554 Z-0.0227
N6840 X3.644 Y2.0881
N6845 X3.6331 Y2.1204
N6850 X3.6212 Y2.1525
N6855 X3.6084 Y2.1842 Z-0.0228
N6860 X3.5947 Y2.2155
N6865 X3.5801 Y2.2464
N6870 X3.5646 Y2.2769
N6875 X3.5483 Y2.3069
N6880 X3.5311 Y2.3364 Z-0.0229
N6885 X3.5131 Y2.3655
N6890 X3.4943 Y2.394
N6895 X3.4747 Y2.422
N6900 X3.4543 Y2.4494 Z-0.023
N6905 X3.4332 Y2.4763
N6910 X3.4113 Y2.5025
N6915 X3.3886 Y2.5281
N6920 X3.3652 Y2.5529 Z-0.0231
N6925 X3.3411 Y2.5772
N6930 X3.3163 Y2.6007
N6935 X3.2909 Y2.6235
N6940 X3.2649 Y2.6456
N6945 X3.2382 Y2.667 Z-0.0232
N6950 X3.211 Y2.6876
N6955 X3.1831 Y2.7074
N6960 X3.1547 Y2.7264
N6965 X3.1258 Y2.7446 Z-0.0233
N6970 X3.0964 Y2.7619
N6975 X3.0665 Y2.7784
N6980 X3.0361 Y2.7941
N6985 X3.0053 Y2.8088
N6990 X2.9741 Y2.8227 Z-0.0234
N6995 X2.9425 Y2.8358
N7000 X2.9106 Y2.8479
N7005 X2.8783 Y2.8591
N7010 X2.8458 Y2.8694 Z-0.0235
N7015 X2.8129 Y2.8787
N7020 X2.7798 Y2.8871
N7025 X2.7464 Y2.8945
N7030 X2.7129 Y2.901
N7035 X2.6792 Y2.9066 Z-0.0236
N7040 X2.6454 Y2.9112
N7045 X2.6114 Y2.9148
N7050 X2.5774 Y2.9175
N7055 X2.5433 Y2.9192 Z-0.0237
N7060 X2.5091 Y2.92
N7065 X2.475 Y2.9197
N7070 X2.4409 Y2.9184
N7075 X2.4068 Y2.9162
N7080 X2.3728 Y2.913 Z-0.0238
N7085 X2.3389 Y2.9089
N7090 X2.3051 Y2.9038
N7095 X2.2715 Y2.8978
N7100 X2.2381 Y2.8909 Z-0.0239
N7105 X2.2049 Y2.883
N7110 X2.1719 Y2.8741
N7115 X2.1392 Y2.8643
N7120 X2.1068 Y2.8535 Z-0.024
N7125 X2.0747 Y2.8418
N7130 X2.043 Y2.8292
N7135 X2.0116 Y2.8158
N7140 X1.9806 Y2.8014
N7145 X1.95 Y2.7862 Z-0.0241
N7150 X1.9199 Y2.7702
N7155 X1.8902 Y2.7533
N7160 X1.8611 Y2.7355
N7165 X1.8325 Y2.7169 Z-0.0242
N7170 X1.8044 Y2.6975
N7175 X1.7769 Y2.6773
N7180 X1.75 Y2.6563
N7185 X1.7236 Y2.6346
N7190 X1.6979 Y2.6121 Z-0.0243
N7195 X1.6729 Y2.5889
N7200 X1.6485 Y2.5651
N7205 X1.6247 Y2.5405
N7210 X1.6017 Y2.5153 Z-0.0244
N7215 X1.5795 Y2.4895
N7220 X1.558 Y2.4629
N7225 X1.5372 Y2.4358
N7230 X1.5173 Y2.4081
N7235 X1.4981 Y2.3799 Z-0.0245
N7240 X1.4797 Y2.3512
N7245 X1.4622 Y2.3219
N7250 X1.4455 Y2.2921
N7255 X1.4296 Y2.2619 Z-0.0246
N7260 X1.4146 Y2.2313
N7265 X1.4004 Y2.2002
N7270 X1.3873 Y2.1688
N7275 X1.375 Y2.1369 Z-0.0247
N7280 X1.3636 Y2.1048
N7285 X1.3531 Y2.0723
N7290 X1.3435 Y2.0395
N7295 X1.3349 Y2.0065
N7300 X1.3272 Y1.9733 Z-0.0248
N7305 X1.3204 Y1.9398
N7310 X1.3146 Y1.9062
N7315 X1.3098 Y1.8725
N7320 X1.306 Y1.8385 Z-0.0249
N7325 X1.3031 Y1.8046
N7330 X1.3012 Y1.7705
N7335 X1.3002 Y1.7364
N7340 X1.3003 Y1.7023
N7345 X1.3012 Y1.6682 Z-0.025
N7350 X1.3031 Y1.6341
N7355 X1.3044 Y1.6187
N7360 X1.3077 Y1.5845
N7365 X1.3121 Y1.5505
N7370 X1.3174 Y1.5167 Z-0.0251
N7375 X1.3236 Y1.483
N7380 X1.3308 Y1.4495
N7385 X1.339 Y1.4162
N7390 X1.3481 Y1.3832 Z-0.0252
N7395 X1.3582 Y1.3505
N7400 X1.3692 Y1.318
N7405 X1.3812 Y1.2859
N7410 X1.394 Y1.2541
N7415 X1.4078 Y1.2227 Z-0.0253
N7420 X1.4224 Y1.1918
N7425 X1.4379 Y1.1612
N7430 X1.4542 Y1.1311
N7435 X1.4714 Y1.1015 Z-0.0254
N7440 X1.4895 Y1.0724
N7445 X1.5084 Y1.0438
N7450 X1.5281 Y1.0158
N7455 X1.5486 Y0.9883 Z-0.0255
N7460 X1.5699 Y0.9615
N7465 X1.5919 Y0.9353
N7470 X1.6147 Y0.9097
N7475 X1.6381 Y0.8847
N7480 X1.6623 Y0.8605 Z-0.0256
N7485 X1.6871 Y0.8369
N7490 X1.7127 Y0.814
N7495 X1.7389 Y0.7919
N7500 X1.7656 Y0.7706 Z-0.0257
N7505 X1.793 Y0.7501
N7510 X1.821 Y0.7303
N7515 X1.8495 Y0.7114
N7520 X1.8786 Y0.6932
N7525 X1.9081 Y0.6759 Z-0.0258
N7530 X1.9382 Y0.6594
N7535 X1.9686 Y0.6438
N7540 X1.9996 Y0.6291
N7545 X2.0309 Y0.6152 Z-0.0259
N7550 X2.0625 Y0.6023
N7555 X2.0947 Y0.5903
N7560 X2.1271 Y0.5793
N7565 X2.1597 Y0.5691 Z-0.026
N7570 X2.1927 Y0.5599
N7575 X2.226 Y0.5517
N7580 X2.2594 Y0.5443
N7585 X2.2931 Y0.5379
N7590 X2.3269 Y0.5325 Z-0.0261
N7595 X2.3608 Y0.528
N7600 X2.3948 Y0.5245
N7605 X2.429 Y0.5221
N7610 X2.4632 Y0.5206 Z-0.0262
N7615 X2.4974 Y0.5201
N7620 X2.5317 Y0.5206
N7625 X2.5659 Y0.522
N7630 X2.6 Y0.5244
N7635 X2.6341 Y0.5277 Z-0.0263
N7640 X2.668 Y0.532
N7645 X2.7019 Y0.5373
N7650 X2.7355 Y0.5435
N7655 X2.769 Y0.5508 Z-0.0264
N7660 X2.8022 Y0.559
N7665 X2.8352 Y0.5681
N7670 X2.8679 Y0.5782
N7675 X2.9003 Y0.5892 Z-0.0265
N7680 X2.9324 Y0.6011
N7685 X2.9641 Y0.6139
N7690 X2.9955 Y0.6276
N7695 X3.0265 Y0.6422
N7700 X3.057 Y0.6576 Z-0.0266
N7705 X3.087 Y0.674
N7710 X3.1166 Y0.6912
N7715 X3.1457 Y0.7093
N7720 X3.1742 Y0.7282 Z-0.0267
N7725 X3.2022 Y0.7479
N7730 X3.2296 Y0.7684
N7735 X3.2565 Y0.7896
N7740 X3.2827 Y0.8116
N7745 X3.3082 Y0.8343 Z-0.0268
N7750 X3.3332 Y0.8578
N7755 X3.3574 Y0.8819
N7760 X3.3809 Y0.9067
N7765 X3.4037 Y0.9322 Z-0.0269
N7770 X3.4258 Y0.9584
N7775 X3.4471 Y0.9852
N7780 X3.4676 Y1.0125
N7785 X3.4874 Y1.0405 Z-0.027
N7790 X3.5064 Y1.069
N7795 X3.5245 Y1.098
N7800 X3.5418 Y1.1275
N7805 X3.5582 Y1.1575
N7810 X3.5739 Y1.1879 Z-0.0271
N7815 X3.5885 Y1.2188
N7820 X3.6023 Y1.2501
N7825 X3.6152 Y1.2818
N7830 X3.6272 Y1.3138 Z-0.0272
N7835 X3.6383 Y1.3462
N7840 X3.6484 Y1.3789
N7845 X3.6576 Y1.4118
N7850 X3.6659 Y1.445
N7855 X3.6733 Y1.4784 Z-0.0273
N7860 X3.6797 Y1.512
N7865 X3.6851 Y1.5458
N7870 X3.6894 Y1.5797
N7875 X3.6929 Y1.6137 Z-0.0274
N7880 X3.6953 Y1.6478
N7885 X3.6968 Y1.682
N7890 X3.6974 Y1.7162
N7895 X3.697 Y1.7504 Z-0.0275
N7900 X3.6956 Y1.7845
N7905 X3.6932 Y1.8187
N7910 X3.6899 Y1.8527
N7915 X3.6856 Y1.8866
N7920 X3.6802 Y1.9204 Z-0.0276
N7925 X3.6739 Y1.954
N7930 X3.6667 Y1.9874
N7935 X3.6585 Y2.0206
N7940 X3.6494 Y2.0536 Z-0.0277
N7945 X3.6394 Y2.0863
N7950 X3.6284 Y2.1187
N7955 X3.6165 Y2.1507
N7960 X3.6038 Y2.1825
N7965 X3.59 Y2.2138 Z-0.0278
N7970 X3.5754 Y2.2446
N7975 X3.5599 Y2.2751
N7980 X3.5436 Y2.3051
N7985 X3.5264 Y2.3347 Z-0.0279
N7990 X3.5084 Y2.3637
N7995 X3.4895 Y2.3923
N8000 X3.4699 Y2.4202
N8005 X3.4494 Y2.4477 Z-0.028
N8010 X3.4282 Y2.4745
N8015 X3.4063 Y2.5006
N8020 X3.3835 Y2.5262
N8025 X3.3601 Y2.5511
N8030 X3.336 Y2.5753 Z-0.0281
N8035 X3.3111 Y2.5987
N8040 X3.2856 Y2.6215
N8045 X3.2595 Y2.6436
N8050 X3.2328 Y2.6649 Z-0.0282
N8055 X3.2055 Y2.6854
N8060 X3.1776 Y2.7052
N8065 X3.1491 Y2.7241
N8070 X3.1202 Y2.7422
N8075 X3.0907 Y2.7595 Z-0.0283
N8080 X3.0607 Y2.7759
N8085 X3.0303 Y2.7914
N8090 X2.9994 Y2.8061
N8095 X2.9681 Y2.8199 Z-0.0284
N8100 X2.9365 Y2.8328
N8105 X2.9045 Y2.8448
N8110 X2.8722 Y2.8559
N8115 X2.8395 Y2.866
N8120 X2.8067 Y2.8752 Z-0.0285
N8125 X2.7735 Y2.8835
N8130 X2.7401 Y2.8908
N8135 X2.7065 Y2.8971
N8140 X2.6728 Y2.9025 Z-0.0286
N8145 X2.6389 Y2.9069
N8150 X2.6049 Y2.9103
N8155 X2.5708 Y2.9128
N8160 X2.5367 Y2.9144 Z-0.0287
N8165 X2.5026 Y2.9149
N8170 X2.4684 Y2.9145
N8175 X2.4343 Y2.9132
N8180 X2.4002 Y2.9107
N8185 X2.3662 Y2.9073 Z-0.0288
N8190 X2.3323 Y2.903
N8195 X2.2986 Y2.8977
N8200 X2.265 Y2.8914
N8205 X2.2316 Y2.8842 Z-0.0289
N8210 X2.1984 Y2.8761
N8215 X2.1655 Y2.867
N8220 X2.1329 Y2.857
N8225 X2.1005 Y2.846
N8230 X2.0685 Y2.8341 Z-0.029
N8235 X2.0368 Y2.8213
N8240 X2.0055 Y2.8076
N8245 X1.9747 Y2.793
N8250 X1.9442 Y2.7776 Z-0.0291
N8255 X1.9142 Y2.7612
N8260 X1.8847 Y2.7441
N8265 X1.8557 Y2.7261
N8270 X1.8272 Y2.7073 Z-0.0292
N8275 X1.7992 Y2.6876
N8280 X1.7719 Y2.6672
N8285 X1.7451 Y2.646
N8290 X1.7189 Y2.6241
N8295 X1.6934 Y2.6014 Z-0.0293
N8300 X1.6686 Y2.5779
N8305 X1.6444 Y2.5538
N8310 X1.6209 Y2.529
N8315 X1.5982 Y2.5036 Z-0.0294
N8320 X1.5761 Y2.4775
N8325 X1.5548 Y2.4508
N8330 X1.5343 Y2.4235
N8335 X1.5146 Y2.3957
N8340 X1.4957 Y2.3672 Z-0.0295
N8345 X1.4776 Y2.3383
N8350 X1.4604 Y2.3088
N8355 X1.444 Y2.2788
N8360 X1.4285 Y2.2484 Z-0.0296
N8365 X1.4138 Y2.2176
N8370 X1.4 Y2.1864
N8375 X1.3871 Y2.1548
N8380 X1.3751 Y2.1228 Z-0.0297
N8385 X1.364 Y2.0905
N8390 X1.3539 Y2.058
N8395 X1.3447 Y2.0251
N8400 X1.3365 Y1.9919
N8405 X1.3292 Y1.9586 Z-0.0298
N8410 X1.3229 Y1.9251
N8415 X1.3175 Y1.8914
N8420 X1.3131 Y1.8575
N8425 X1.3096 Y1.8236 Z-0.0299
N8430 X1.3071 Y1.7895
N8435 X1.3055 Y1.7554
N8440 X1.305 Y1.7213
N8445 X1.3055 Y1.6872
N8450 X1.3069 Y1.6531 Z-0.03
N8455 X1.3093 Y1.619
N8460 X1.3107 Y1.6036
N8465 X1.3145 Y1.5695
N8470 X1.3193 Y1.5356
N8475 X1.3251 Y1.5018 Z-0.0301
N8480 X1.3318 Y1.4682
N8485 X1.3395 Y1.4348
N8490 X1.3481 Y1.4016
N8495 X1.3577 Y1.3687 Z-0.0302
N8500 X1.3683 Y1.3361
N8505 X1.3797 Y1.3038
N8510 X1.392 Y1.2718
N8515 X1.4053 Y1.2402 Z-0.0303
N8520 X1.4195 Y1.2091
N8525 X1.4347 Y1.1783
N8530 X1.4506 Y1.148
N8535 X1.4675 Y1.1181
N8540 X1.4851 Y1.0887 Z-0.0304
N8545 X1.5037 Y1.0599
N8550 X1.523 Y1.0316
N8555 X1.5431 Y1.0038
N8560 X1.564 Y0.9767 Z-0.0305
N8565 X1.5857 Y0.9501
N8570 X1.6081 Y0.9243
N8575 X1.6313 Y0.899
N8580 X1.6552 Y0.8745
N8585 X1.6798 Y0.8506 Z-0.0306
N8590 X1.705 Y0.8274
N8595 X1.7309 Y0.8051
N8600 X1.7575 Y0.7834
N8605 X1.7846 Y0.7625 Z-0.0307
N8610 X1.8124 Y0.7424
N8615 X1.8407 Y0.723
N8620 X1.8695 Y0.7046
N8625 X1.8989 Y0.6869 Z-0.0308
N8630 X1.9287 Y0.6701
N8635 X1.9591 Y0.6541
N8640 X1.9899 Y0.6391
N8645 X2.021 Y0.625
N8650 X2.0526 Y0.6117 Z-0.0309
N8655 X2.0846 Y0.5994
N8660 X2.1169 Y0.5879
N8665 X2.1495 Y0.5774
N8670 X2.1823 Y0.5679 Z-0.031
N8675 X2.2155 Y0.5592
N8680 X2.2489 Y0.5515
N8685 X2.2825 Y0.5448
N8690 X2.3162 Y0.5391
N8695 X2.3502 Y0.5344 Z-0.0311
N8700 X2.3842 Y0.5306
N8705 X2.4184 Y0.5278
N8710 X2.4525 Y0.526
N8715 X2.4868 Y0.5252 Z-0.0312
N8720 X2.5211 Y0.5253
N8725 X2.5553 Y0.5264
N8730 X2.5894 Y0.5284
N8735 X2.6235 Y0.5315 Z-0.0313
N8740 X2.6576 Y0.5356
N8745 X2.6915 Y0.5406
N8750 X2.7251 Y0.5466
N8755 X2.7587 Y0.5536
N8760 X2.792 Y0.5615 Z-0.0314
N8765 X2.825 Y0.5704
N8770 X2.8579 Y0.5802
N8775 X2.8904 Y0.591
N8780 X2.9226 Y0.6026 Z-0.0315
N8785 X2.9544 Y0.6152
N8790 X2.9859 Y0.6287
N8795 X3.0169 Y0.6431
N8800 X3.0475 Y0.6584 Z-0.0316
N8805 X3.0777 Y0.6746
N8810 X3.1074 Y0.6916
N8815 X3.1366 Y0.7095
N8820 X3.1653 Y0.7282
N8825 X3.1934 Y0.7477 Z-0.0317
N8830 X3.221 Y0.768
N8835 X3.248 Y0.789
N8840 X3.2743 Y0.8109
N8845 X3.3 Y0.8335 Z-0.0318
N8850 X3.3251 Y0.8569
N8855 X3.3494 Y0.8809
N8860 X3.3731 Y0.9056
N8865 X3.396 Y0.931
N8870 X3.4182 Y0.9571 Z-0.0319
N8875 X3.4397 Y0.9837
N8880 X3.4604 Y1.011
N8885 X3.4803 Y1.0389
N8890 X3.4993 Y1.0673 Z-0.032
N8895 X3.5176 Y1.0962
N8900 X3.535 Y1.1257
N8905 X3.5516 Y1.1556
N8910 X3.5673 Y1.186 Z-0.0321
N8915 X3.5821 Y1.2169
N8920 X3.596 Y1.2482
N8925 X3.609 Y1.2798
N8930 X3.6211 Y1.3118
N8935 X3.6323 Y1.3441 Z-0.0322
N8940 X3.6426 Y1.3768
N8945 X3.6519 Y1.4097
N8950 X3.6603 Y1.4429
N8955 X3.6678 Y1.4763 Z-0.0323
N8960 X3.6742 Y1.5099
N8965 X3.6797 Y1.5436
N8970 X3.6842 Y1.5776
N8975 X3.6877 Y1.6116
N8980 X3.6902 Y1.6457 Z-0.0324
N8985 X3.6918 Y1.6799
N8990 X3.6924 Y1.7141
N8995 X3.692 Y1.7483
N9000 X3.6907 Y1.7825 Z-0.0325
N9005 X3.6884 Y1.8166
N9010 X3.6851 Y1.8507
N9015 X3.6808 Y1.8846
N9020 X3.6755 Y1.9184 Z-0.0326
N9025 X3.6692 Y1.952
N9030 X3.662 Y1.9855
N9035 X3.6539 Y2.0187
N9040 X3.6448 Y2.0517
N9045 X3.6347 Y2.0844 Z-0.0327
N9050 X3.6238 Y2.1168
N9055 X3.6119 Y2.1488
N9060 X3.5991 Y2.1806
N9065 X3.5854 Y2.2119 Z-0.0328
N9070 X3.5708 Y2.2428
N9075 X3.5552 Y2.2733
N9080 X3.5389 Y2.3033
N9085 X3.5217 Y2.3329 Z-0.0329
N9090 X3.5036 Y2.3619
N9095 X3.4847 Y2.3904
N9100 X3.465 Y2.4184
N9105 X3.4446 Y2.4458
N9110 X3.4233 Y2.4726 Z-0.033
N9115 X3.4013 Y2.4987
N9120 X3.3785 Y2.5242
N9125 X3.355 Y2.5491
N9130 X3.3309 Y2.5733 Z-0.0331
N9135 X3.306 Y2.5967
N9140 X3.2805 Y2.6195
N9145 X3.2543 Y2.6415
N9150 X3.2275 Y2.6627
N9155 X3.2001 Y2.6832 Z-0.0332
N9160 X3.1721 Y2.7028
N9165 X3.1436 Y2.7217
N9170 X3.1146 Y2.7397
N9175 X3.085 Y2.7569 Z-0.0333
N9180 X3.055 Y2.7733
N9185 X3.0245 Y2.7887
N9190 X2.9936 Y2.8033
N9195 X2.9622 Y2.817 Z-0.0334
N9200 X2.9305 Y2.8297
N9205 X2.8985 Y2.8416
N9210 X2.8661 Y2.8526
N9215 X2.8334 Y2.8626
N9220 X2.8005 Y2.8717 Z-0.0335
N9225 X2.7673 Y2.8798
N9230 X2.7339 Y2.887
N9235 X2.7002 Y2.8932
N9240 X2.6664 Y2.8984 Z-0.0336
N9245 X2.6325 Y2.9026
N9250 X2.5985 Y2.9059
N9255 X2.5644 Y2.9082
N9260 X2.5303 Y2.9095
N9265 X2.4961 Y2.9099 Z-0.0337
N9270 X2.4619 Y2.9093
N9275 X2.4278 Y2.9077
N9280 X2.3937 Y2.9052
N9285 X2.3597 Y2.9016 Z-0.0338
N9290 X2.3259 Y2.8971
N9295 X2.2921 Y2.8915
N9300 X2.2586 Y2.885
N9305 X2.2252 Y2.8776 Z-0.0339
N9310 X2.1921 Y2.8692
N9315 X2.1592 Y2.8599
N9320 X2.1266 Y2.8497
N9325 X2.0944 Y2.8385
N9330 X2.0624 Y2.8264 Z-0.034
N9335 X2.0308 Y2.8134
N9340 X1.9996 Y2.7994
N9345 X1.9688 Y2.7846
N9350 X1.9385 Y2.7689 Z-0.0341
N9355 X1.9086 Y2.7523
N9360 X1.8792 Y2.7349
N9365 X1.8503 Y2.7167
N9370 X1.822 Y2.6976
N9375 X1.7942 Y2.6778 Z-0.0342
N9380 X1.767 Y2.6571
N9385 X1.7404 Y2.6357
N9390 X1.7144 Y2.6135
N9395 X1.6891 Y2.5906 Z-0.0343
N9400 X1.6644 Y2.5669
N9405 X1.6404 Y2.5426
N9410 X1.6172 Y2.5176
N9415 X1.5947 Y2.4919 Z-0.0344
N9420 X1.5729 Y2.4656
N9425 X1.5519 Y2.4387
N9430 X1.5316 Y2.4112
N9435 X1.5122 Y2.3831
N9440 X1.4935 Y2.3545 Z-0.0345
N9445 X1.4757 Y2.3253
N9450 X1.4588 Y2.2957
N9455 X1.4426 Y2.2656
N9460 X1.4274 Y2.235 Z-0.0346
N9465 X1.4131 Y2.204
N9470 X1.3997 Y2.1726
N9475 X1.3871 Y2.1409
N9480 X1.3755 Y2.1088
N9485 X1.3648 Y2.0763 Z-0.0347
N9490 X1.355 Y2.0436
N9495 X1.3462 Y2.0106
N9500 X1.3383 Y1.9774
N9505 X1.3313 Y1.944 Z-0.0348
N9510 X1.3254 Y1.9104
N9515 X1.3204 Y1.8766
N9520 X1.3164 Y1.8427
N9525 X1.3134 Y1.8087 Z-0.0349
N9530 X1.3114 Y1.7746
N9535 X1.3103 Y1.7405
N9540 X1.3102 Y1.7063
N9545 X1.311 Y1.6722
N9550 X1.3128 Y1.6381 Z-0.035
N9555 X1.3156 Y1.6041
N9560 X1.3173 Y1.5886
N9565 X1.3216 Y1.5546
N9570 X1.3268 Y1.5207
N9575 X1.333 Y1.4869 Z-0.0351
N9580 X1.3401 Y1.4534
N9585 X1.3482 Y1.4202
N9590 X1.3574 Y1.3871
N9595 X1.3675 Y1.3543 Z-0.0352
N9600 X1.3785 Y1.3218
N9605 X1.3904 Y1.2897
N9610 X1.4033 Y1.2579
N9615 X1.417 Y1.2265 Z-0.0353
N9620 X1.4317 Y1.1955
N9625 X1.4472 Y1.1649
N9630 X1.4636 Y1.1348
N9635 X1.4808 Y1.1052
N9640 X1.499 Y1.0761 Z-0.0354
N9645 X1.518 Y1.0475
N9650 X1.5377 Y1.0195
N9655 X1.5583 Y0.9921
N9660 X1.5796 Y0.9653 Z-0.0355
N9665 X1.6018 Y0.9391
N9670 X1.6246 Y0.9135
N9675 X1.6482 Y0.8886
N9680 X1.6725 Y0.8645 Z-0.0356
N9685 X1.6975 Y0.841
N9690 X1.7231 Y0.8183
N9695 X1.7494 Y0.7963
N9700 X1.7763 Y0.775
N9705 X1.8038 Y0.7546 Z-0.0357
N9710 X1.8319 Y0.7349
N9715 X1.8606 Y0.7161
N9720 X1.8897 Y0.6981
N9725 X1.9194 Y0.681 Z-0.0358
N9730 X1.9495 Y0.6647
N9735 X1.9802 Y0.6493
N9740 X2.0112 Y0.6348
N9745 X2.0427 Y0.6212
N9750 X2.0745 Y0.6085 Z-0.0359
N9755 X2.1067 Y0.5967
N9760 X2.1392 Y0.5858
N9765 X2.172 Y0.5759
N9770 X2.2051 Y0.567 Z-0.036
N9775 X2.2383 Y0.559
N9780 X2.2719 Y0.552
N9785 X2.3056 Y0.5459
N9790 X2.3395 Y0.5409 Z-0.0361
N9795 X2.3735 Y0.5367
N9800 X2.4077 Y0.5336
N9805 X2.4419 Y0.5314
N9810 X2.4761 Y0.5302
N9815 X2.5103 Y0.53 Z-0.0362
N9820 X2.5446 Y0.5309
N9825 X2.5788 Y0.5327
N9830 X2.613 Y0.5355
N9835 X2.647 Y0.5393 Z-0.0363
N9840 X2.6809 Y0.5441
N9845 X2.7147 Y0.5498
N9850 X2.7483 Y0.5564
N9855 X2.7817 Y0.5641 Z-0.0364
N9860 X2.8149 Y0.5727
N9865 X2.8478 Y0.5822
N9870 X2.8803 Y0.5927
N9875 X2.9126 Y0.6042
N9880 X2.9446 Y0.6166 Z-0.0365
N9885 X2.9761 Y0.6299
N9890 X3.0073 Y0.6441
N9895 X3.038 Y0.6592
N9900 X3.0684 Y0.6751 Z-0.0366
N9905 X3.0981 Y0.6919
N9910 X3.1275 Y0.7096
N9915 X3.1563 Y0.7281
N9920 X3.1846 Y0.7475 Z-0.0367
N9925 X3.2123 Y0.7676
N9930 X3.2394 Y0.7886
N9935 X3.2658 Y0.8103
N9940 X3.2917 Y0.8328
N9945 X3.3169 Y0.856 Z-0.0368
N9950 X3.3414 Y0.8799
N9955 X3.3652 Y0.9045
N9960 X3.3883 Y0.9298
N9965 X3.4107 Y0.9557 Z-0.0369
N9970 X3.4322 Y0.9823
N9975 X3.453 Y1.0095
N9980 X3.4731 Y1.0373
N9985 X3.4923 Y1.0656
N9990 X3.5107 Y1.0945 Z-0.037
N9995 X3.5283 Y1.1239
N10000 X3.545 Y1.1537
N10005 X3.5607 Y1.1841
N10010 X3.5757 Y1.2149 Z-0.0371
N10015 X3.5897 Y1.2462
N10020 X3.6029 Y1.2777
N10025 X3.6151 Y1.3097
N10030 X3.6264 Y1.3421 Z-0.0372
N10035 X3.6368 Y1.3747
N10040 X3.6462 Y1.4076
N10045 X3.6547 Y1.4408
N10050 X3.6622 Y1.4741
N10055 X3.6687 Y1.5077 Z-0.0373
N10060 X3.6743 Y1.5415
N10065 X3.6789 Y1.5754
N10070 X3.6825 Y1.6094
N10075 X3.6851 Y1.6436 Z-0.0374
N10080 X3.6867 Y1.6778
N10085 X3.6874 Y1.712
N10090 X3.6871 Y1.7462
N10095 X3.6858 Y1.7804 Z-0.0375
N10100 X3.6836 Y1.8146
N10105 X3.6803 Y1.8486
N10110 X3.676 Y1.8825
N10115 X3.6708 Y1.9164
N10120 X3.6645 Y1.95 Z-0.0376
N10125 X3.6574 Y1.9835
N10130 X3.6492 Y2.0167
N10135 X3.6402 Y2.0497
N10140 X3.6301 Y2.0825 Z-0.0377
N10145 X3.6192 Y2.1148
N10150 X3.6073 Y2.1469
N10155 X3.5945 Y2.1787
N10160 X3.5808 Y2.21
N10165 X3.5661 Y2.2409 Z-0.0378
N10170 X3.5506 Y2.2714
N10175 X3.5342 Y2.3015
N10180 X3.517 Y2.331
N10185 X3.4989 Y2.3601 Z-0.0379
N10190 X3.48 Y2.3886
N10195 X3.4603 Y2.4165
N10200 X3.4398 Y2.4439
N10205 X3.4184 Y2.4707 Z-0.038
N10210 X3.3964 Y2.4968
N10215 X3.3735 Y2.5223
N10220 X3.35 Y2.5471
N10225 X3.3258 Y2.5712
N10230 X3.3009 Y2.5947 Z-0.0381
N10235 X3.2753 Y2.6174
N10240 X3.249 Y2.6393
N10245 X3.2222 Y2.6605
N10250 X3.1947 Y2.6809 Z-0.0382
N10255 X3.1667 Y2.7005
N10260 X3.1381 Y2.7193
N10265 X3.109 Y2.7372
N10270 X3.0794 Y2.7543 Z-0.0383
N10275 X3.0493 Y2.7706
N10280 X3.0187 Y2.786
N10285 X2.9878 Y2.8005
N10290 X2.9564 Y2.8141
N10295 X2.9246 Y2.8267 Z-0.0384
N10300 X2.8925 Y2.8384
N10305 X2.8601 Y2.8493
N10310 X2.8273 Y2.8591
N10315 X2.7943 Y2.8681 Z-0.0385
N10320 X2.7611 Y2.876
N10325 X2.7276 Y2.8831
N10330 X2.694 Y2.8892
N10335 X2.6601 Y2.8943
N10340 X2.6262 Y2.8984 Z-0.0386
N10345 X2.5921 Y2.9014
N10350 X2.558 Y2.9036
N10355 X2.5239 Y2.9047
N10360 X2.4897 Y2.9048 Z-0.0387
N10365 X2.4555 Y2.904
N10370 X2.4213 Y2.9023
N10375 X2.3873 Y2.8995
N10380 X2.3533 Y2.8958 Z-0.0388
N10385 X2.3194 Y2.8911
N10390 X2.2857 Y2.8854
N10395 X2.2522 Y2.8786
N10400 X2.2189 Y2.871
N10405 X2.1858 Y2.8624 Z-0.0389
N10410 X2.153 Y2.8528
N10415 X2.1205 Y2.8423
N10420 X2.0882 Y2.8309
N10425 X2.0564 Y2.8186 Z-0.039
N10430 X2.0249 Y2.8053
N10435 X1.9937 Y2.7912
N10440 X1.9631 Y2.7761
N10445 X1.9328 Y2.7602 Z-0.0391
N10450 X1.9031 Y2.7434
N10455 X1.8738 Y2.7257
N10460 X1.8451 Y2.7072
N10465 X1.8169 Y2.6879
N10470 X1.7892 Y2.6679 Z-0.0392
N10475 X1.7622 Y2.647
N10480 X1.7357 Y2.6253
N10485 X1.71 Y2.6029
N10490 X1.6848 Y2.5797 Z-0.0393
N10495 X1.6604 Y2.5558
N10500 X1.6366 Y2.5313
N10505 X1.6136 Y2.506
N10510 X1.5913 Y2.4802
N10515 X1.5697 Y2.4537 Z-0.0394
N10520 X1.5489 Y2.4266
N10525 X1.529 Y2.3988
N10530 X1.5098 Y2.3705
N10535 X1.4914 Y2.3417 Z-0.0395
N10540 X1.4739 Y2.3124
N10545 X1.4573 Y2.2825
N10550 X1.4415 Y2.2522
N10555 X1.4266 Y2.2215 Z-0.0396
N10560 X1.4126 Y2.1904
N10565 X1.3994 Y2.1588
N10570 X1.3872 Y2.1269
N10575 X1.3759 Y2.0947
N10580 X1.3656 Y2.0621 Z-0.0397
N10585 X1.3562 Y2.0293
N10590 X1.3478 Y1.9962
N10595 X1.3403 Y1.9629
N10600 X1.3338 Y1.9293 Z-0.0398
N10605 X1.3282 Y1.8956
N10610 X1.3236 Y1.8618
N10615 X1.32 Y1.8278
N10620 X1.3173 Y1.7938 Z-0.0399
N10625 X1.3157 Y1.7597
N10630 X1.3151 Y1.7255
N10635 X1.3154 Y1.6914
N10640 X1.3167 Y1.6572
N10645 X1.319 Y1.6232 Z-0.04
N10650 X1.3223 Y1.5892
N10655 X1.324 Y1.5737
N10660 X1.3288 Y1.5397
N10665 X1.3345 Y1.5059
N10670 X1.3412 Y1.4722 Z-0.0401
N10675 X1.3488 Y1.4388
N10680 X1.3574 Y1.4055
N10685 X1.367 Y1.3726
N10690 X1.3774 Y1.34 Z-0.0402
N10695 X1.3889 Y1.3076
N10700 X1.4012 Y1.2756
N10705 X1.4146 Y1.2441
N10710 X1.4288 Y1.2128 Z-0.0403
N10715 X1.444 Y1.182
N10720 X1.46 Y1.1517
N10725 X1.4768 Y1.1218
N10730 X1.4945 Y1.0925
N10735 X1.5131 Y1.0636 Z-0.0404
N10740 X1.5325 Y1.0353
N10745 X1.5527 Y1.0076
N10750 X1.5737 Y0.9805
N10755 X1.5955 Y0.954 Z-0.0405
N10760 X1.618 Y0.9282
N10765 X1.6413 Y0.903
N10770 X1.6653 Y0.8785
N10775 X1.69 Y0.8547 Z-0.0406
N10780 X1.7154 Y0.8316
N10785 X1.7414 Y0.8093
N10790 X1.768 Y0.7877
N10795 X1.7954 Y0.7669
N10800 X1.8232 Y0.747 Z-0.0407
N10805 X1.8516 Y0.7278
N10810 X1.8806 Y0.7095
N10815 X1.9101 Y0.692
N10820 X1.9401 Y0.6754 Z-0.0408
N10825 X1.9706 Y0.6596
N10830 X2.0014 Y0.6447
N10835 X2.0328 Y0.6307
N10840 X2.0644 Y0.6177 Z-0.0409
N10845 X2.0965 Y0.6056
N10850 X2.1289 Y0.5944
N10855 X2.1616 Y0.5842
N10860 X2.1946 Y0.5749
N10865 X2.2279 Y0.5666 Z-0.041
N10870 X2.2613 Y0.5592
N10875 X2.295 Y0.5528
N10880 X2.3289 Y0.5474
N10885 X2.3629 Y0.5429 Z-0.0411
N10890 X2.3969 Y0.5394
N10895 X2.4311 Y0.5369
N10900 X2.4654 Y0.5355
N10905 X2.4997 Y0.5351 Z-0.0412
N10910 X2.5339 Y0.5356
N10915 X2.5681 Y0.5371
N10920 X2.6023 Y0.5396
N10925 X2.6365 Y0.543
N10930 X2.6704 Y0.5475 Z-0.0413
N10935 X2.7042 Y0.5529
N10940 X2.7379 Y0.5593
N10945 X2.7714 Y0.5667
N10950 X2.8046 Y0.5751 Z-0.0414
N10955 X2.8376 Y0.5844
N10960 X2.8703 Y0.5947
N10965 X2.9026 Y0.6059
N10970 X2.9347 Y0.6181 Z-0.0415
N10975 X2.9664 Y0.6311
N10980 X2.9977 Y0.6451
N10985 X3.0285 Y0.6599
N10990 X3.0589 Y0.6757
N10995 X3.0889 Y0.6923 Z-0.0416
N11000 X3.1183 Y0.7098
N11005 X3.1473 Y0.7282
N11010 X3.1757 Y0.7474
N11015 X3.2035 Y0.7674 Z-0.0417
N11020 X3.2307 Y0.7882
N11025 X3.2574 Y0.8097
N11030 X3.2834 Y0.832
N11035 X3.3087 Y0.8551
N11040 X3.3334 Y0.8789 Z-0.0418
N11045 X3.3573 Y0.9034
N11050 X3.3805 Y0.9285
N11055 X3.403 Y0.9544
N11060 X3.4247 Y0.9809 Z-0.0419
N11065 X3.4456 Y1.008
N11070 X3.4658 Y1.0357
N11075 X3.4852 Y1.0639
N11080 X3.5037 Y1.0927 Z-0.042
N11085 X3.5214 Y1.122
N11090 X3.5383 Y1.1519
N11095 X3.5542 Y1.1822
N11100 X3.5692 Y1.2129
N11105 X3.5834 Y1.2441 Z-0.0421
N11110 X3.5966 Y1.2757
N11115 X3.609 Y1.3076
N11120 X3.6204 Y1.3399
N11125 X3.6309 Y1.3725 Z-0.0422
N11130 X3.6405 Y1.4054
N11135 X3.6491 Y1.4386
N11140 X3.6567 Y1.4719
N11145 X3.6633 Y1.5055 Z-0.0423
N11150 X3.6689 Y1.5393
N11155 X3.6736 Y1.5733
N11160 X3.6772 Y1.6073
N11165 X3.6799 Y1.6414
N11170 X3.6817 Y1.6756 Z-0.0424
N11175 X3.6824 Y1.7099
N11180 X3.6822 Y1.7441
N11185 X3.681 Y1.7783
N11190 X3.6788 Y1.8125 Z-0.0425
N11195 X3.6755 Y1.8466
N11200 X3.6712 Y1.8805
N11205 X3.666 Y1.9143
N11210 X3.6598 Y1.948 Z-0.0426
N11215 X3.6527 Y1.9815
N11220 X3.6446 Y2.0148
N11225 X3.6355 Y2.0478
N11230 X3.6255 Y2.0805
N11235 X3.6146 Y2.1129 Z-0.0427
N11240 X3.6027 Y2.1451
N11245 X3.5899 Y2.1768
N11250 X3.5761 Y2.2081
N11255 X3.5615 Y2.239 Z-0.0428
N11260 X3.5459 Y2.2695
N11265 X3.5295 Y2.2996
N11270 X3.5123 Y2.3291
N11275 X3.4942 Y2.3582 Z-0.0429
N11280 X3.4753 Y2.3867
N11285 X3.4555 Y2.4146
N11290 X3.4349 Y2.442
N11295 X3.4136 Y2.4687
N11300 X3.3914 Y2.4948 Z-0.043
N11305 X3.3686 Y2.5203
N11310 X3.345 Y2.5451
N11315 X3.3207 Y2.5692
N11320 X3.2957 Y2.5926 Z-0.0431
N11325 X3.2701 Y2.6153
N11330 X3.2438 Y2.6372
N11335 X3.2169 Y2.6583
N11340 X3.1894 Y2.6786 Z-0.0432
N11345 X3.1613 Y2.6982
N11350 X3.1326 Y2.7168
N11355 X3.1034 Y2.7347
N11360 X3.0738 Y2.7517
N11365 X3.0436 Y2.7679 Z-0.0433
N11370 X3.013 Y2.7832
N11375 X2.982 Y2.7976
N11380 X2.9505 Y2.8111
N11385 X2.9187 Y2.8237 Z-0.0434
N11390 X2.8865 Y2.8353
N11395 X2.854 Y2.8459
N11400 X2.8212 Y2.8557
N11405 X2.7882 Y2.8645 Z-0.0435
N11410 X2.7549 Y2.8723
N11415 X2.7214 Y2.8792
N11420 X2.6877 Y2.8851
N11425 X2.6538 Y2.89
N11430 X2.6199 Y2.894 Z-0.0436
N11435 X2.5858 Y2.897
N11440 X2.5516 Y2.8989
N11445 X2.5175 Y2.8998
N11450 X2.4833 Z-0.0437
N11455 X2.4491 Y2.8988
N11460 X2.4149 Y2.8968
N11465 X2.3809 Y2.8938
N11470 X2.3469 Y2.8899
N11475 X2.313 Y2.885 Z-0.0438
N11480 X2.2793 Y2.8791
N11485 X2.2459 Y2.8722
N11490 X2.2126 Y2.8643
N11495 X2.1796 Y2.8555 Z-0.0439
N11500 X2.1468 Y2.8457
N11505 X2.1143 Y2.8349
N11510 X2.0822 Y2.8233
N11515 X2.0504 Y2.8107 Z-0.044
N11520 X2.019 Y2.7972
N11525 X1.9879 Y2.7829
N11530 X1.9574 Y2.7676
N11535 X1.9272 Y2.7514
N11540 X1.8976 Y2.7344 Z-0.0441
N11545 X1.8685 Y2.7165
N11550 X1.8399 Y2.6977
N11555 X1.8118 Y2.6782
N11560 X1.7843 Y2.6578 Z-0.0442
N11565 X1.7575 Y2.6367
N11570 X1.7312 Y2.6148
N11575 X1.7056 Y2.5922
N11580 X1.6806 Y2.5688 Z-0.0443
N11585 X1.6564 Y2.5447
N11590 X1.6328 Y2.52
N11595 X1.6101 Y2.4945
N11600 X1.588 Y2.4684
N11605 X1.5667 Y2.4416 Z-0.0444
N11610 X1.5462 Y2.4143
N11615 X1.5265 Y2.3864
N11620 X1.5075 Y2.3579
N11625 X1.4895 Y2.3289 Z-0.0445
N11630 X1.4722 Y2.2994
N11635 X1.4559 Y2.2694
N11640 X1.4404 Y2.2389
N11645 X1.4258 Y2.208 Z-0.0446
N11650 X1.4122 Y2.1767
N11655 X1.3994 Y2.145
N11660 X1.3875 Y2.1129
N11665 X1.3766 Y2.0805
N11670 X1.3666 Y2.0479 Z-0.0447
N11675 X1.3575 Y2.0149
N11680 X1.3494 Y1.9817
N11685 X1.3424 Y1.9483
N11690 X1.3363 Y1.9147 Z-0.0448
N11695 X1.3311 Y1.8809
N11700 X1.327 Y1.847
N11705 X1.3238 Y1.813
N11710 X1.3216 Y1.7789 Z-0.0449
N11715 X1.3203 Y1.7447
N11720 X1.3201 Y1.7106
N11725 X1.3208 Y1.6764
N11730 X1.3225 Y1.6423
N11735 X1.3252 Y1.6082 Z-0.045
N11740 X1.329 Y1.5743
N11745 X1.331 Y1.5589
N11750 X1.3362 Y1.5249
N11755 X1.3423 Y1.4911
N11760 X1.3494 Y1.4577 Z-0.0451
N11765 X1.3575 Y1.4243
N11770 X1.3666 Y1.3912
N11775 X1.3767 Y1.3583
N11780 X1.3877 Y1.3259 Z-0.0452
N11785 X1.3996 Y1.2937
N11790 X1.4124 Y1.2618
N11795 X1.4262 Y1.2304
N11800 X1.4408 Y1.1993 Z-0.0453
N11805 X1.4564 Y1.1688
N11810 X1.4646 Y1.1537
N11815 X1.4728 Y1.1387
N11820 X1.4901 Y1.1091
N11825 X1.4992 Y1.0945
N11830 X1.5084 Y1.08
N11835 X1.5274 Y1.0515 Z-0.0454
N11840 X1.5473 Y1.0235
N11845 X1.5679 Y0.9961
N11850 X1.5893 Y0.9693
N11855 X1.6115 Y0.9431 Z-0.0455
N11860 X1.6344 Y0.9176
N11865 X1.6462 Y0.9051
N11870 X1.6581 Y0.8927
N11875 X1.6825 Y0.8686
N11880 X1.7076 Y0.8452 Z-0.0456
N11885 X1.7333 Y0.8226
N11890 X1.7598 Y0.8007
N11895 X1.7868 Y0.7796
N11900 X1.8145 Y0.7593
N11905 X1.8427 Y0.7398 Z-0.0457
N11910 X1.8714 Y0.7211
N11915 X1.886 Y0.712
N11920 X1.9007 Y0.7032
N11925 X1.9304 Y0.6862
N11930 X1.9608 Y0.6701 Z-0.0458
N11935 X1.9915 Y0.6549
N11940 X2.0226 Y0.6406
N11945 X2.0543 Y0.6272
N11950 X2.0862 Y0.6148 Z-0.0459
N11955 X2.1185 Y0.6032
N11960 X2.1511 Y0.5926
N11965 X2.1841 Y0.583
N11970 X2.2172 Y0.5742
N11975 X2.2506 Y0.5665 Z-0.046
N11980 X2.2843 Y0.5597
N11985 X2.318 Y0.554
N11990 X2.352 Y0.5492
N11995 X2.3861 Y0.5455 Z-0.0461
N12000 X2.4203 Y0.5427
N12005 X2.4545 Y0.5409
N12010 X2.4888 Y0.5401
N12015 X2.5231 Y0.5403 Z-0.0462
N12020 X2.5573 Y0.5415
N12025 X2.5915 Y0.5436
N12030 X2.6257 Y0.5468
N12035 X2.6597 Y0.5509
N12040 X2.6936 Y0.5561 Z-0.0463
N12045 X2.7273 Y0.5623
N12050 X2.7608 Y0.5694
N12055 X2.7942 Y0.5776
N12060 X2.8272 Y0.5866 Z-0.0464
N12065 X2.86 Y0.5966
N12070 X2.8925 Y0.6076
N12075 X2.9247 Y0.6195
N12080 X2.9564 Y0.6323 Z-0.0465
N12085 X2.9879 Y0.646
N12090 X3.0188 Y0.6607
N12095 X3.0493 Y0.6763
N12100 X3.0794 Y0.6927
N12105 X3.109 Y0.71 Z-0.0466
N12110 X3.1381 Y0.7282
N12115 X3.1666 Y0.7472
N12120 X3.1945 Y0.767
N12125 X3.222 Y0.7876 Z-0.0467
N12130 X3.2487 Y0.809
N12135 X3.2749 Y0.8312
N12140 X3.3003 Y0.854
N12145 X3.3251 Y0.8778 Z-0.0468
N12150 X3.3492 Y0.9021
N12155 X3.3725 Y0.9272
N12160 X3.3952 Y0.953
N12165 X3.417 Y0.9793 Z-0.0469
N12170 X3.4381 Y1.0063
N12175 X3.4585 Y1.0339
N12180 X3.478 Y1.0621
N12185 X3.4967 Y1.0908
N12190 X3.5145 Y1.12 Z-0.047
N12195 X3.5315 Y1.1499
N12200 X3.5475 Y1.1801
N12205 X3.5627 Y1.2108
N12210 X3.577 Y1.242 Z-0.0471
N12215 X3.5904 Y1.2735
N12220 X3.6028 Y1.3054
N12225 X3.6144 Y1.3376
N12230 X3.625 Y1.3703 Z-0.0472
N12235 X3.6347 Y1.4031
N12240 X3.6433 Y1.4362
N12245 X3.651 Y1.4696
N12250 X3.6577 Y1.5032
N12255 X3.6635 Y1.537 Z-0.0473
N12260 X3.6682 Y1.5709
N12265 X3.672 Y1.6049
N12270 X3.6748 Y1.6391
N12275 X3.6766 Y1.6733 Z-0.0474
N12280 X3.6774 Y1.7075
N12285 X3.6773 Y1.7418
N12290 X3.6761 Y1.776
N12295 X3.6739 Y1.8102 Z-0.0475
N12300 X3.6707 Y1.8443
N12305 X3.6665 Y1.8783
N12310 X3.6613 Y1.9121
N12315 X3.6552 Y1.9458
N12320 X3.6481 Y1.9793 Z-0.0476
N12325 X3.64 Y2.0126
N12330 X3.631 Y2.0456
N12335 X3.621 Y2.0784
N12340 X3.6101 Y2.1108 Z-0.0477
N12345 X3.5982 Y2.143
N12350 X3.5853 Y2.1747
N12355 X3.5716 Y2.206
N12360 X3.5569 Y2.237 Z-0.0478
N12365 X3.5413 Y2.2675
N12370 X3.5249 Y2.2975
N12375 X3.5076 Y2.3271
N12380 X3.4895 Y2.3562
N12385 X3.4706 Y2.3846 Z-0.0479
N12390 X3.4508 Y2.4126
N12395 X3.4302 Y2.4399
N12400 X3.4088 Y2.4667
N12405 X3.3866 Y2.4928 Z-0.048
N12410 X3.3637 Y2.5182
N12415 X3.3401 Y2.5429
N12420 X3.3157 Y2.567
N12425 X3.2907 Y2.5904 Z-0.0481
N12430 X3.265 Y2.613
N12435 X3.2387 Y2.6348
N12440 X3.2117 Y2.656
N12445 X3.1842 Y2.6762
N12450 X3.156 Y2.6957 Z-0.0482
N12455 X3.1273 Y2.7143
N12460 X3.098 Y2.7321
N12465 X3.0683 Y2.749
N12470 X3.038 Y2.7651 Z-0.0483
N12475 X3.0074 Y2.7803
N12480 X2.9763 Y2.7946
N12485 X2.9448 Y2.808
N12490 X2.9129 Y2.8205 Z-0.0484
N12495 X2.8807 Y2.832
N12500 X2.8482 Y2.8426
N12505 X2.8153 Y2.8522
N12510 X2.7822 Y2.8608
N12515 X2.7489 Y2.8685 Z-0.0485
N12520 X2.7153 Y2.8752
N12525 X2.6816 Y2.881
N12530 X2.6477 Y2.8857
N12535 X2.6137 Y2.8895 Z-0.0486
N12540 X2.5796 Y2.8924
N12545 X2.5454 Y2.8942
N12550 X2.5112 Y2.895
N12555 X2.477 Y2.8948 Z-0.0487
N12560 X2.4428 Y2.8935
N12565 X2.4087 Y2.8913
N12570 X2.3746 Y2.8881
N12575 X2.3407 Y2.884
N12580 X2.3068 Y2.8788 Z-0.0488
N12585 X2.2732 Y2.8727
N12590 X2.2397 Y2.8657
N12595 X2.2065 Y2.8576
N12600 X2.1734 Y2.8486 Z-0.0489
N12605 X2.1407 Y2.8386
N12610 X2.1084 Y2.8276
N12615 X2.0763 Y2.8157
N12620 X2.0446 Y2.8029 Z-0.049
N12625 X2.0132 Y2.7891
N12630 X1.9823 Y2.7745
N12635 X1.9518 Y2.759
N12640 X1.9218 Y2.7426
N12645 X1.8923 Y2.7254 Z-0.0491
N12650 X1.8632 Y2.7073
N12655 X1.8348 Y2.6883
N12660 X1.8069 Y2.6685
N12665 X1.7796 Y2.6479 Z-0.0492
N12670 X1.7529 Y2.6265
N12675 X1.7268 Y2.6044
N12680 X1.7014 Y2.5815
N12685 X1.6767 Y2.5579 Z-0.0493
N12690 X1.6526 Y2.5336
N12695 X1.6293 Y2.5086
N12700 X1.6066 Y2.483
N12705 X1.5848 Y2.4567
N12710 X1.5638 Y2.4297 Z-0.0494
N12715 X1.5436 Y2.4021
N12720 X1.5241 Y2.374
N12725 X1.5055 Y2.3453
N12730 X1.4877 Y2.3161 Z-0.0495
N12735 X1.4708 Y2.2864
N12740 X1.4547 Y2.2562
N12745 X1.4395 Y2.2256
N12750 X1.4252 Y2.1946 Z-0.0496
N12755 X1.4119 Y2.1631
N12760 X1.3994 Y2.1312
N12765 X1.388 Y2.099
N12770 X1.3774 Y2.0665
N12775 X1.3678 Y2.0337 Z-0.0497
N12780 X1.3592 Y2.0006
N12785 X1.3515 Y1.9673
N12790 X1.3447 Y1.9338
N12795 X1.339 Y1.9001 Z-0.0498
N12800 X1.3342 Y1.8663
N12805 X1.3304 Y1.8323
N12810 X1.3276 Y1.7983
N12815 X1.3259 Y1.7641 Z-0.0499
N12820 X1.3251 Y1.73
N12825 X1.3253 Y1.6958
N12830 X1.3265 Y1.6616
N12835 X1.3287 Y1.6275
N12840 X1.3318 Y1.5935 Z-0.05
N12845 X1.336 Y1.5596
N12850 X1.3382 Y1.5442
N12855 X1.3439 Y1.5103
N12860 X1.3505 Y1.4766
N12865 X1.354 Y1.4598 Z-0.0501
N12870 X1.358 Y1.4431
N12875 X1.3666 Y1.4098
N12880 X1.3761 Y1.3768
N12885 X1.3865 Y1.3441
N12890 X1.3979 Y1.3118 Z-0.0502
N12895 X1.4041 Y1.2957
N12900 X1.4104 Y1.2797
N12905 X1.4237 Y1.2482
N12910 X1.438 Y1.2169
N12915 X1.4531 Y1.1861 Z-0.0503
N12920 X1.4692 Y1.1558
N12925 X1.4861 Y1.1259
N12930 X1.5038 Y1.0965
N12935 X1.5225 Y1.0677
N12940 X1.5419 Y1.0394 Z-0.0504
N12945 X1.5621 Y1.0117
N12950 X1.5832 Y0.9846
N12955 X1.6051 Y0.9582
N12960 X1.6277 Y0.9324 Z-0.0505
N12965 X1.6511 Y0.9073
N12970 X1.6752 Y0.8828
N12975 X1.7 Y0.8591
N12980 X1.7255 Y0.8361 Z-0.0506
N12985 X1.7516 Y0.8138
N12990 X1.7784 Y0.7923
N12995 X1.8058 Y0.7717
N13000 X1.8337 Y0.7517 Z-0.0507
N13005 X1.8623 Y0.7327
N13010 X1.8913 Y0.7146
N13015 X1.921 Y0.6973
N13020 X1.9511 Y0.6809
N13025 X1.9817 Y0.6653 Z-0.0508
N13030 X2.0127 Y0.6506
N13035 X2.0441 Y0.6368
N13040 X2.076 Y0.624
N13045 X2.1081 Y0.6121 Z-0.0509
N13050 X2.1407 Y0.6011
N13055 X2.1734 Y0.591
N13060 X2.2066 Y0.582
N13065 X2.2398 Y0.574 Z-0.051
N13070 X2.2734 Y0.567
N13075 X2.3072 Y0.5609
N13080 X2.3411 Y0.5558
N13085 X2.3752 Y0.5516
N13090 X2.4094 Y0.5485 Z-0.0511
N13095 X2.4436 Y0.5464
N13100 X2.4779 Y0.5452
N13105 X2.5121 Y0.545
N13110 X2.5464 Y0.5459 Z-0.0512
N13115 X2.5807 Y0.5478
N13120 X2.6149 Y0.5507
N13125 X2.6489 Y0.5546
N13130 X2.6829 Y0.5595 Z-0.0513
N13135 X2.7167 Y0.5654
N13140 X2.7503 Y0.5722
N13145 X2.7837 Y0.58
N13150 X2.8169 Y0.5888
N13155 X2.8498 Y0.5986 Z-0.0514
N13160 X2.8823 Y0.6092
N13165 X2.9145 Y0.6209
N13170 X2.9305 Y0.6272
N13175 X2.9465 Y0.6335
N13180 X2.9779 Y0.6471 Z-0.0515
N13185 X3.009 Y0.6615
N13190 X3.0397 Y0.6769
N13195 X3.0699 Y0.6931
N13200 X3.0996 Y0.7103 Z-0.0516
N13205 X3.1288 Y0.7282
N13210 X3.1575 Y0.747
N13215 X3.1856 Y0.7666
N13220 X3.2131 Y0.787 Z-0.0517
N13225 X3.24 Y0.8083
N13230 X3.2663 Y0.8303
N13235 X3.2919 Y0.8532
N13240 X3.3168 Y0.8767
N13245 X3.341 Y0.901 Z-0.0518
N13250 X3.3645 Y0.9259
N13255 X3.3873 Y0.9515
N13260 X3.4094 Y0.9778
N13265 X3.4307 Y1.0047 Z-0.0519
N13270 X3.4511 Y1.0322
N13275 X3.4708 Y1.0602
N13280 X3.4896 Y1.0889
N13285 X3.5075 Y1.1181 Z-0.052
N13290 X3.5245 Y1.1478
N13295 X3.5408 Y1.178
N13300 X3.5561 Y1.2087
N13305 X3.5705 Y1.2398
N13310 X3.5841 Y1.2713 Z-0.0521
N13315 X3.5967 Y1.3032
N13320 X3.6083 Y1.3354
N13325 X3.6191 Y1.3679
N13330 X3.6289 Y1.4008 Z-0.0522
N13335 X3.6376 Y1.4339
N13340 X3.6454 Y1.4673
N13345 X3.6522 Y1.5009
N13350 X3.658 Y1.5346 Z-0.0523
N13355 X3.6629 Y1.5685
N13360 X3.6667 Y1.6026
N13365 X3.6696 Y1.6367
N13370 X3.6715 Y1.671
N13375 X3.6724 Y1.7052 Z-0.0524
N13380 Y1.7395
N13385 X3.6712 Y1.7737
N13390 X3.669 Y1.8079
N13395 X3.6659 Y1.842 Z-0.0525
N13400 X3.6617 Y1.876
N13405 X3.6566 Y1.9099
N13410 X3.6505 Y1.9436
N13415 X3.6434 Y1.9771 Z-0.0526
N13420 X3.6354 Y2.0104
N13425 X3.6264 Y2.0435
N13430 X3.6164 Y2.0762
N13435 X3.6055 Y2.1087
N13440 X3.5936 Y2.1409 Z-0.0527
N13445 X3.5808 Y2.1726
N13450 X3.567 Y2.204
N13455 X3.5523 Y2.2349
N13460 X3.5368 Y2.2654 Z-0.0528
N13465 X3.5203 Y2.2955
N13470 X3.503 Y2.3251
N13475 X3.4849 Y2.3541
N13480 X3.4659 Y2.3826 Z-0.0529
N13485 X3.4461 Y2.4106
N13490 X3.4255 Y2.4379
N13495 X3.4041 Y2.4646
N13500 X3.3818 Y2.4907
N13505 X3.3588 Y2.5161 Z-0.053
N13510 X3.3351 Y2.5408
N13515 X3.3107 Y2.5648
N13520 X3.2857 Y2.5881
N13525 X3.2599 Y2.6107 Z-0.0531
N13530 X3.2335 Y2.6325
N13535 X3.2065 Y2.6536
N13540 X3.1789 Y2.6738
N13545 X3.1507 Y2.6933 Z-0.0532
N13550 X3.1219 Y2.7118
N13555 X3.0926 Y2.7295
N13560 X3.0628 Y2.7463
N13565 X3.0325 Y2.7623 Z-0.0533
N13570 X3.0018 Y2.7774
N13575 X2.9706 Y2.7916
N13580 X2.9391 Y2.8049
N13585 X2.9071 Y2.8172
N13590 X2.8749 Y2.8287 Z-0.0534
N13595 X2.8423 Y2.8392
N13600 X2.8094 Y2.8487
N13605 X2.7762 Y2.8572
N13610 X2.7428 Y2.8647 Z-0.0535
N13615 X2.7092 Y2.8713
N13620 X2.6755 Y2.8768
N13625 X2.6415 Y2.8814
N13630 X2.6075 Y2.8851 Z-0.0536
N13635 X2.5734 Y2.8877
N13640 X2.5392 Y2.8893
N13645 X2.505 Y2.89
N13650 X2.4707 Y2.8897
N13655 X2.4365 Y2.8883 Z-0.0537
N13660 X2.4024 Y2.8859
N13665 X2.3684 Y2.8825
N13670 X2.3344 Y2.8781
N13675 X2.3006 Y2.8727 Z-0.0538
N13680 X2.267 Y2.8664
N13685 X2.2335 Y2.859
N13690 X2.2003 Y2.8508
N13695 X2.1674 Y2.8415 Z-0.0539
N13700 X2.1347 Y2.8314
N13705 X2.1024 Y2.8202
N13710 X2.0704 Y2.8081
N13715 X2.0388 Y2.795
N13720 X2.0075 Y2.781 Z-0.054
N13725 X1.9767 Y2.7661
N13730 X1.9463 Y2.7504
N13735 X1.9164 Y2.7337
N13740 X1.887 Y2.7162 Z-0.0541
N13745 X1.8582 Y2.6979
N13750 X1.8298 Y2.6787
N13755 X1.802 Y2.6588
N13760 X1.7749 Y2.638 Z-0.0542
N13765 X1.7484 Y2.6163
N13770 X1.7225 Y2.594
N13775 X1.6973 Y2.5708
N13780 X1.6728 Y2.547
N13785 X1.6489 Y2.5224 Z-0.0543
N13790 X1.6258 Y2.4972
N13795 X1.6035 Y2.4713
N13800 X1.5819 Y2.4448
N13805 X1.561 Y2.4177 Z-0.0544
N13810 X1.541 Y2.3899
N13815 X1.5218 Y2.3616
N13820 X1.5035 Y2.3327
N13825 X1.486 Y2.3033 Z-0.0545
N13830 X1.4694 Y2.2734
N13835 X1.4537 Y2.2431
N13840 X1.4388 Y2.2123
N13845 X1.4249 Y2.181
N13850 X1.4119 Y2.1494 Z-0.0546
N13855 X1.3997 Y2.1174
N13860 X1.3885 Y2.0851
N13865 X1.3783 Y2.0525
N13870 X1.3691 Y2.0196 Z-0.0547
N13875 X1.3608 Y1.9864
N13880 X1.3535 Y1.953
N13885 X1.3472 Y1.9194
N13890 X1.3419 Y1.8856 Z-0.0548
N13895 X1.3375 Y1.8517
N13900 X1.3342 Y1.8176
N13905 X1.3318 Y1.7835
N13910 X1.3304 Y1.7494 Z-0.0549
N13915 X1.33 Y1.7152
N13920 X1.3306 Y1.681
N13925 X1.3322 Y1.6468
N13930 X1.3349 Y1.6127
N13935 X1.3385 Y1.5788 Z-0.055
N13940 X1.3432 Y1.5449
N13945 X1.3456 Y1.5295
N13950 X1.348 Y1.5155
N13955 X1.3514 Y1.4961
N13960 X1.3555 Y1.4768
N13965 X1.3596 Y1.4574
N13970 X1.3644 Y1.4381
N13975 X1.3692 Y1.4187
N13980 X1.3746 Y1.3993
N13985 X1.3802 Y1.38
N13990 X1.3892 Y1.3516
N13995 X1.3927 Y1.3413
N14000 X1.3995 Y1.3219
N14005 X1.4067 Y1.3026
N14010 X1.4142 Y1.2832
N14015 X1.4223 Y1.2638
N14020 X1.4305 Y1.2445
N14025 X1.4394 Y1.2251
N14030 X1.4474 Y1.208
N14035 X1.4583 Y1.1864
N14040 X1.4668 Y1.1699
N14045 X1.479 Y1.1477
N14050 X1.4862 Y1.1349
N14055 X1.4901 Y1.1283
N14060 X1.5015 Y1.109
N14065 X1.5138 Y1.0896
N14070 X1.5251 Y1.0721
N14075 X1.5395 Y1.0509
N14080 X1.5445 Y1.0437
N14085 X1.5639 Y1.017
N14090 X1.5676 Y1.0122
N14095 X1.5833 Y0.9919
N14100 X1.5983 Y0.9735
N14105 X1.6027 Y0.9682
N14110 X1.6145 Y0.9541
N14115 X1.6317 Y0.9348
N14120 X1.6415 Y0.924
N14125 X1.6609 Y0.9035
N14130 X1.6683 Y0.896
N14135 X1.6878 Y0.8767
N14140 X1.6997 Y0.8655
N14145 X1.7085 Y0.8573
N14150 X1.7192 Y0.8475
N14155 X1.7386 Y0.8306
N14160 X1.7528 Y0.8186
N14165 X1.758 Y0.8144
N14170 X1.7766 Y0.7992
N14175 X1.802 Y0.7799
N14180 X1.8162 Y0.7696
N14185 X1.8289 Y0.7605
N14190 X1.8356 Y0.7557
N14195 X1.8574 Y0.7412
N14200 X1.8744 Y0.7302
N14205 X1.8938 Y0.7181
N14210 X1.9133 Y0.7067
N14215 X1.9206 Y0.7025
N14220 X1.9327 Y0.6956
N14225 X1.956 Y0.6831
N14230 X1.9715 Y0.6751
N14235 X1.9944 Y0.6637
N14240 X2.0103 Y0.6563
N14245 X2.0297 Y0.6475
N14250 X2.037 Y0.6444
N14255 X2.0491 Y0.6393
N14260 X2.0685 Y0.6313
N14265 X2.0879 Y0.6239
N14270 X2.1073 Y0.6167
N14275 X2.1268 Y0.6101
N14280 X2.1397 Y0.6057
N14285 X2.1656 Y0.5977
N14290 X2.185 Y0.5921
N14295 X2.2063 Y0.5863
N14300 X2.2238 Y0.582
N14305 X2.2432 Y0.5774
N14310 X2.2626 Y0.5733
N14315 X2.282 Y0.5693
N14320 X2.2954 Y0.567
N14325 X2.3209 Y0.5626
N14330 X2.3403 Y0.5599
N14335 X2.3597 Y0.5573
N14340 X2.3791 Y0.5552
N14345 X2.3985 Y0.5532
N14350 X2.4179 Y0.5518
N14355 X2.4373 Y0.5505
N14360 X2.4567 Y0.5497
N14365 X2.4761 Y0.5491
N14370 X2.4955 Y0.5489
N14375 X2.5149 Y0.549
N14380 X2.5344 Y0.5494
N14385 X2.5538 Y0.5501
N14390 X2.5732 Y0.5512
N14395 X2.5926 Y0.5526
N14400 X2.612 Y0.5543
N14405 X2.6314 Y0.5563
N14410 X2.6508 Y0.5587
N14415 X2.6702 Y0.5614
N14420 X2.6896 Y0.5644
N14425 X2.7048 Y0.567
N14430 X2.7285 Y0.5714
N14435 X2.7479 Y0.5755
N14440 X2.7673 Y0.5798
N14445 X2.7867 Y0.5846
N14450 X2.8061 Y0.5896
N14455 X2.8255 Y0.5951
N14460 X2.8449 Y0.6008
N14465 X2.8643 Y0.6071
N14470 X2.8837 Y0.6136
N14475 X2.9031 Y0.6206
N14480 X2.9154 Y0.625
N14485 X2.942 Y0.6356
N14490 X2.9614 Y0.6437
N14495 X2.9808 Y0.6522
N14500 X3.0002 Y0.6613
N14505 X3.0054 Y0.6637
N14510 X3.0196 Y0.6705
N14515 X3.0441 Y0.6831
N14520 X3.0584 Y0.6908
N14525 X3.0795 Y0.7025
N14530 X3.0972 Y0.7129
N14535 X3.1166 Y0.7245
N14540 X3.1361 Y0.737
N14545 X3.1426 Y0.7412
N14550 X3.1555 Y0.7497
N14555 X3.1749 Y0.7631
N14560 X3.1943 Y0.7772
N14565 X3.1979 Y0.7799
N14570 X3.2137 Y0.7917
N14575 X3.2331 Y0.8071
N14580 X3.2472 Y0.8186
N14585 X3.2525 Y0.8231
N14590 X3.2701 Y0.838
N14595 X3.2916 Y0.8573
N14600 X3.3107 Y0.8754
N14605 X3.312 Y0.8767
N14610 X3.3302 Y0.8945
N14615 X3.3496 Y0.9144
N14620 X3.3506 Y0.9154
N14625 X3.369 Y0.9355
N14630 X3.3853 Y0.9541
N14635 X3.3884 Y0.9577
N14640 X3.4018 Y0.9735
N14645 X3.4174 Y0.9928
N14650 X3.4272 Y1.0053
N14655 X3.4323 Y1.0122
N14660 X3.4466 Y1.0312
N14665 X3.466 Y1.0588
N14670 X3.4737 Y1.0703
N14675 X3.4863 Y1.0896
N14680 X3.4983 Y1.109
N14685 X3.5048 Y1.1197
N14690 X3.51 Y1.1283
N14695 X3.5242 Y1.1534
N14700 X3.5316 Y1.167
N14705 X3.5437 Y1.19
N14710 X3.5513 Y1.2058
N14715 X3.5607 Y1.2251
N14720 X3.5631 Y1.2303
N14725 X3.5694 Y1.2445
N14730 X3.5778 Y1.2638
N14735 X3.5857 Y1.2832
N14740 X3.5933 Y1.3026
N14745 X3.6019 Y1.3257
N14750 X3.6073 Y1.3413
N14755 X3.6137 Y1.3606
N14760 X3.6197 Y1.38
N14765 X3.6255 Y1.3993
N14770 X3.6307 Y1.4187
N14775 X3.6358 Y1.4381
N14780 X3.6402 Y1.4574
N14785 X3.6407 Y1.4594
N14790 X3.6446 Y1.4768
N14795 X3.6484 Y1.4961
N14800 X3.6521 Y1.5155
N14805 X3.6553 Y1.5348
N14810 X3.6583 Y1.5542
N14815 X3.6608 Y1.5736
N14820 X3.6631 Y1.5929
N14825 X3.665 Y1.6123
N14830 X3.6666 Y1.6316
N14835 X3.6679 Y1.651
N14840 X3.6688 Y1.6704
N14845 X3.6695 Y1.6897
N14850 X3.6698 Y1.7091
N14855 Y1.7284
N14860 X3.6695 Y1.7478
N14865 X3.6688 Y1.7671
N14870 X3.6679 Y1.7865
N14875 X3.6666 Y1.8059
N14880 X3.665 Y1.8252
N14885 X3.6631 Y1.8446
N14890 X3.6608 Y1.8639
N14895 X3.6583 Y1.8833
N14900 X3.6553 Y1.9027
N14905 X3.6521 Y1.922
N14910 X3.6484 Y1.9414
N14915 X3.6446 Y1.9607
N14920 X3.6407 Y1.9781
N14925 X3.6402 Y1.9801
N14930 X3.6358 Y1.9994
N14935 X3.6307 Y2.0188
N14940 X3.6255 Y2.0382
N14945 X3.6197 Y2.0575
N14950 X3.6137 Y2.0769
N14955 X3.6073 Y2.0962
N14960 X3.6019 Y2.1118
N14965 X3.5933 Y2.1349
N14970 X3.5857 Y2.1543
N14975 X3.5778 Y2.1737
N14980 X3.5694 Y2.193
N14985 X3.5631 Y2.2072
N14990 X3.5607 Y2.2124
N14995 X3.5513 Y2.2317
N15000 X3.5437 Y2.2475
N15005 X3.5316 Y2.2705
N15010 X3.5242 Y2.2841
N15015 X3.51 Y2.3092
N15020 X3.5048 Y2.3178
N15025 X3.4983 Y2.3285
N15030 X3.4863 Y2.3479
N15035 X3.4737 Y2.3672
N15040 X3.466 Y2.3787
N15045 X3.4466 Y2.4063
N15050 X3.4323 Y2.4253
N15055 X3.4272 Y2.4322
N15060 X3.4174 Y2.4447
N15065 X3.4018 Y2.464
N15070 X3.3884 Y2.4798
N15075 X3.3853 Y2.4834
N15080 X3.369 Y2.502
N15085 X3.3506 Y2.5221
N15090 X3.3496 Y2.5231
N15095 X3.3302 Y2.543
N15100 X3.312 Y2.5608
N15105 X3.3107 Y2.5621
N15110 X3.2916 Y2.5802
N15115 X3.2701 Y2.5995
N15120 X3.2525 Y2.6144
N15125 X3.2472 Y2.6189
N15130 X3.2331 Y2.6304
N15135 X3.2137 Y2.6458
N15140 X3.1979 Y2.6576
N15145 X3.1943 Y2.6603
N15150 X3.1749 Y2.6744
N15155 X3.1555 Y2.6878
N15160 X3.1426 Y2.6963
N15165 X3.1361 Y2.7005
N15170 X3.1166 Y2.713
N15175 X3.0972 Y2.7246
N15180 X3.0795 Y2.735
N15185 X3.0584 Y2.7467
N15190 X3.0441 Y2.7544
N15195 X3.0196 Y2.767
N15200 X3.0054 Y2.7738
N15205 X3.0002 Y2.7762
N15210 X2.9808 Y2.7853
N15215 X2.9614 Y2.7938
N15220 X2.942 Y2.8019
N15225 X2.9154 Y2.8125
N15230 X2.9031 Y2.8169
N15235 X2.8837 Y2.8239
N15240 X2.8643 Y2.8304
N15245 X2.8449 Y2.8367
N15250 X2.8255 Y2.8424
N15255 X2.8061 Y2.8479
N15260 X2.7867 Y2.8529
N15265 X2.7673 Y2.8577
N15270 X2.7479 Y2.862
N15275 X2.7285 Y2.8661
N15280 X2.7048 Y2.8705
N15285 X2.6896 Y2.8731
N15290 X2.6702 Y2.8761
N15295 X2.6508 Y2.8788
N15300 X2.6314 Y2.8812
N15305 X2.612 Y2.8832
N15310 X2.5926 Y2.8849
N15315 X2.5732 Y2.8863
N15320 X2.5538 Y2.8874
N15325 X2.5344 Y2.8881
N15330 X2.5149 Y2.8885
N15335 X2.4955 Y2.8886
N15340 X2.4761 Y2.8884
N15345 X2.4567 Y2.8878
N15350 X2.4373 Y2.887
N15355 X2.4179 Y2.8857
N15360 X2.3985 Y2.8843
N15365 X2.3791 Y2.8823
N15370 X2.3597 Y2.8802
N15375 X2.3403 Y2.8776
N15380 X2.3209 Y2.8749
N15385 X2.2954 Y2.8705
N15390 X2.282 Y2.8682
N15395 X2.2626 Y2.8642
N15400 X2.2432 Y2.8601
N15405 X2.2238 Y2.8555
N15410 X2.2063 Y2.8512
N15415 X2.185 Y2.8454
N15420 X2.1656 Y2.8398
N15425 X2.1397 Y2.8318
N15430 X2.1268 Y2.8274
N15435 X2.1073 Y2.8208
N15440 X2.0879 Y2.8136
N15445 X2.0685 Y2.8062
N15450 X2.0491 Y2.7982
N15455 X2.037 Y2.7931
N15460 X2.0297 Y2.79
N15465 X2.0103 Y2.7812
N15470 X1.9944 Y2.7738
N15475 X1.9715 Y2.7624
N15480 X1.956 Y2.7544
N15485 X1.9327 Y2.7419
N15490 X1.9206 Y2.735
N15495 X1.9133 Y2.7308
N15500 X1.8938 Y2.7194
N15505 X1.8744 Y2.7073
N15510 X1.8574 Y2.6963
N15515 X1.8356 Y2.6818
N15520 X1.8289 Y2.677
N15525 X1.8162 Y2.6679
N15530 X1.802 Y2.6576
N15535 X1.7766 Y2.6383
N15540 X1.758 Y2.6231
N15545 X1.7528 Y2.6189
N15550 X1.7386 Y2.6069
N15555 X1.7192 Y2.59
N15560 X1.7085 Y2.5802
N15565 X1.6997 Y2.572
N15570 X1.6878 Y2.5608
N15575 X1.6683 Y2.5415
N15580 X1.6609 Y2.534
N15585 X1.6415 Y2.5135
N15590 X1.6317 Y2.5027
N15595 X1.6145 Y2.4834
N15600 X1.6027 Y2.4693
N15605 X1.5983 Y2.464
N15610 X1.5833 Y2.4456
N15615 X1.5676 Y2.4253
N15620 X1.5639 Y2.4205
N15625 X1.5445 Y2.3938
N15630 X1.5395 Y2.3866
N15635 X1.5251 Y2.3654
N15640 X1.5138 Y2.3479
N15645 X1.5015 Y2.3285
N15650 X1.4901 Y2.3092
N15655 X1.4862 Y2.3026
N15660 X1.479 Y2.2898
N15665 X1.4668 Y2.2676
N15670 X1.4583 Y2.2511
N15675 X1.4474 Y2.2295
N15680 X1.4394 Y2.2124
N15685 X1.4305 Y2.193
N15690 X1.4223 Y2.1737
N15695 X1.4142 Y2.1543
N15700 X1.4067 Y2.1349
N15705 X1.3995 Y2.1156
N15710 X1.3927 Y2.0962
N15715 X1.3892 Y2.0859
N15720 X1.3802 Y2.0575
N15725 X1.3746 Y2.0382
N15730 X1.3692 Y2.0188
N15735 X1.3644 Y1.9994
N15740 X1.3596 Y1.9801
N15745 X1.3555 Y1.9607
N15750 X1.3514 Y1.9414
N15755 X1.348 Y1.922
N15760 X1.3446 Y1.9027
N15765 X1.3418 Y1.8833
N15770 X1.3392 Y1.8639
N15775 X1.337 Y1.8446
N15780 X1.335 Y1.8252
N15785 X1.3334 Y1.8059
N15790 X1.3321 Y1.7865
N15795 X1.331 Y1.7629
N15800 X1.3305 Y1.7478
N15805 X1.3302 Y1.7284
N15810 Y1.7091
N15815 X1.3305 Y1.6897
N15820 X1.331 Y1.6746
N15825 X1.3321 Y1.651
N15830 X1.3334 Y1.6316
N15835 X1.335 Y1.6123
N15840 X1.337 Y1.5929
N15845 X1.3392 Y1.5736
N15850 X1.3418 Y1.5542
N15855 X1.3446 Y1.5348
N15860 X1.3456 Y1.5295
N15865 G3 X1.4322 Y1.4684 I0.0739 J0.0128
N15870 G1 X1.4387 Y1.4695 Z-0.0547
N15875 X1.4451 Y1.4706 Z-0.0539
N15880 X1.4514 Y1.4717 Z-0.0524
N15885 X1.4575 Y1.4727 Z-0.0505
N15890 X1.4635 Y1.4738 Z-0.048
N15895 X1.4692 Y1.4747 Z-0.045
N15900 X1.4746 Y1.4757 Z-0.0414
N15905 X1.4797 Y1.4766 Z-0.0375
N15910 X1.4845 Y1.4774 Z-0.033
N15915 X1.4888 Y1.4781 Z-0.0282
N15920 X1.4928 Y1.4788 Z-0.023
N15925 X1.4962 Y1.4794 Z-0.0175
N15930 X1.4992 Y1.4799 Z-0.0117
N15935 X1.5017 Y1.4804 Z-0.0057
N15940 X1.5036 Y1.4807 Z0.0006
N15945 X1.505 Y1.4809 Z0.007
N15950 X1.5058 Y1.4811 Z0.0135
N15955 X1.5061 Z0.02
N15960 G0 Z0.2
N15965 X1.3451 Y1.5644
N15970 Z0.0527
N15975 G1 Z0.0253 F28.221
N15980 X1.345 Y1.5646 Z0.0193
N15985 X1.3449 Y1.5653 Z0.0134
N15990 X1.3448 Y1.5665 Z0.0075
N15995 X1.3445 Y1.5681 Z0.0018
N16000 X1.3442 Y1.5702 Z-0.0038
N16005 X1.3439 Y1.5727 Z-0.0092
N16010 X1.3435 Y1.5759 Z-0.0148
N16015 X1.3431 Y1.5795 Z-0.0201
N16020 X1.3427 Y1.5836 Z-0.025
N16025 X1.3422 Y1.5881 Z-0.0296
N16030 X1.3416 Y1.5929 Z-0.0338
N16035 X1.3421 Y1.5882 Z-0.0372
N16040 X1.3427 Y1.5832 Z-0.0402
N16045 X1.3433 Y1.5781 Z-0.0429
N16050 X1.3439 Y1.5727 Z-0.0451
N16055 X1.3447 Y1.5667 Z-0.0471
N16060 X1.3456 Y1.5605 Z-0.0485
N16065 X1.3465 Y1.5542 Z-0.0494
N16070 X1.3471 Y1.5497 Z-0.0497
N16075 X1.3493 Y1.5348 Z-0.0502
N16080 X1.3504 Y1.5283 Z-0.0504
N16085 X1.3561 Y1.4961 Z-0.0516
N16090 X1.3602 Y1.4768 Z-0.0522
N16095 X1.3643 Y1.4574 Z-0.0529
N16100 X1.3698 Y1.4354 Z-0.0537
N16105 X1.374 Y1.4187 Z-0.0543
N16110 X1.3788 Y1.4015 Z-0.055
N16115 X1.3792 Y1.4002
N16120 X1.3795 Y1.399
N16125 X1.374 Y1.4187 Z-0.0555
N16130 X1.3698 Y1.4354 Z-0.056
N16135 X1.3643 Y1.4574 Z-0.0565
N16140 X1.3602 Y1.4768 Z-0.057
N16145 X1.3561 Y1.4961 Z-0.0575
N16150 X1.3504 Y1.5283 Z-0.0584
N16155 X1.3493 Y1.5348 Z-0.0585
N16160 X1.3465 Y1.5542 Z-0.059
N16165 X1.3439 Y1.5727 Z-0.0595
N16170 X1.3416 Y1.5929 Z-0.06
N16175 X1.3439 Y1.5727
N16180 X1.3465 Y1.5542
N16185 X1.3493 Y1.5348
N16190 X1.3504 Y1.5283
N16195 X1.3561 Y1.4961
N16200 X1.3602 Y1.4768
N16205 X1.3643 Y1.4574
N16210 X1.3698 Y1.4354
N16215 X1.374 Y1.4187
N16220 X1.3795 Y1.399
N16225 G3 X1.472 Y1.3471 I0.0722 J0.0203
N16230 G1 X1.4783 Y1.3488 Z-0.0597
N16235 X1.4846 Y1.3506 Z-0.0589
N16240 X1.4907 Y1.3523 Z-0.0574
N16245 X1.4967 Y1.354 Z-0.0555
N16250 X1.5025 Y1.3556 Z-0.053
N16255 X1.5081 Y1.3572 Z-0.05
N16260 X1.5134 Y1.3587 Z-0.0464
N16265 X1.5184 Y1.3601 Z-0.0425
N16270 X1.5231 Y1.3614 Z-0.038
N16275 X1.5273 Y1.3626 Z-0.0332
N16280 X1.5312 Y1.3637 Z-0.028
N16285 X1.5346 Y1.3646 Z-0.0225
N16290 X1.5375 Y1.3654 Z-0.0167
N16295 X1.5399 Y1.3661 Z-0.0107
N16300 X1.5418 Y1.3667 Z-0.0044
N16305 X1.5431 Y1.367 Z0.002
N16310 X1.544 Y1.3673 Z0.0085
N16315 X1.5442 Z0.015
N16320 G0 Z0.2
N16325 X1.4116 Y1.3027
N16330 Z0.0528
N16335 G1 Z0.0253 F28.221
N16340 X1.4117 Y1.3024 Z0.0189
N16345 X1.412 Y1.3017 Z0.0125
N16350 X1.4125 Y1.3004 Z0.0062
N16355 X1.4132 Y1.2986 Z0.0001
N16360 X1.4141 Y1.2964 Z-0.0059
N16365 X1.4151 Y1.2937 Z-0.0116
N16370 X1.4163 Y1.2905 Z-0.017
N16375 X1.4177 Y1.2869 Z-0.0222
N16380 X1.4193 Y1.2829 Z-0.027
N16385 X1.4177 Y1.2869 Z-0.031
N16390 X1.4161 Y1.2911 Z-0.0347
N16395 X1.4143 Y1.2956 Z-0.0381
N16400 X1.4125 Y1.3004 Z-0.041
N16405 X1.4106 Y1.3053 Z-0.0435
N16410 X1.4086 Y1.3104 Z-0.0457
N16415 X1.4065 Y1.3161 Z-0.0475
N16420 X1.4044 Y1.3219 Z-0.0487
N16425 X1.4029 Y1.3263 Z-0.0493
N16430 X1.4013 Y1.3308 Z-0.0497
N16435 X1.3976 Y1.3413 Z-0.05
N16440 X1.4044 Y1.3219 Z-0.0508
N16445 X1.4086 Y1.3104 Z-0.0512
N16450 X1.4193 Y1.2829 Z-0.0522
N16455 X1.4086 Y1.3104 Z-0.0532
N16460 X1.4044 Y1.3219 Z-0.0537
N16465 X1.3976 Y1.3413 Z-0.0544
N16470 X1.4029 Y1.3261 Z-0.055
N16475 X1.4034 Y1.3249
N16480 X1.4038 Y1.3237
N16485 X1.3976 Y1.3413 Z-0.0557
N16490 X1.4044 Y1.3219 Z-0.0564
N16495 X1.4086 Y1.3104 Z-0.0568
N16500 X1.4193 Y1.2829 Z-0.0578
N16505 X1.4086 Y1.3104 Z-0.0589
N16510 X1.4044 Y1.3219 Z-0.0593
N16515 X1.3976 Y1.3413 Z-0.06
N16520 X1.4044 Y1.3219
N16525 X1.4086 Y1.3104
N16530 X1.4193 Y1.2829
N16535 G3 X1.5163 Y1.2402 I0.0699 J0.0272
N16540 G1 X1.5224 Y1.2425 Z-0.0597
N16545 X1.5285 Y1.2449 Z-0.0589
N16550 X1.5344 Y1.2472 Z-0.0574
N16555 X1.5403 Y1.2495 Z-0.0555
N16560 X1.5459 Y1.2516 Z-0.053
N16565 X1.5513 Y1.2538 Z-0.05
N16570 X1.5564 Y1.2557 Z-0.0464
N16575 X1.5613 Y1.2576 Z-0.0425
N16580 X1.5658 Y1.2594 Z-0.038
N16585 X1.5699 Y1.261 Z-0.0332
N16590 X1.5736 Y1.2624 Z-0.028
N16595 X1.5769 Y1.2637 Z-0.0225
N16600 X1.5797 Y1.2648 Z-0.0167
N16605 X1.582 Y1.2657 Z-0.0107
N16610 X1.5839 Y1.2664 Z-0.0044
N16615 X1.5852 Y1.2669 Z0.002
N16620 X1.586 Y1.2672 Z0.0085
N16625 X1.5863 Y1.2673 Z0.015
N16630 G0 Z0.2
N16635 X1.4603 Y1.1928
N16640 Z0.0527
N16645 G1 Z0.0253 F28.221
N16650 X1.4601 Y1.193 Z0.0185
N16655 X1.4597 Y1.1939 Z0.0118
N16660 X1.459 Y1.1952 Z0.0052
N16665 X1.4581 Y1.1971 Z-0.0013
N16670 X1.4569 Y1.1995 Z-0.0075
N16675 X1.4554 Y1.2024 Z-0.0135
N16680 X1.4537 Y1.2058 Z-0.0191
N16685 X1.4555 Y1.2022 Z-0.024
N16690 X1.4575 Y1.1983 Z-0.0286
N16695 X1.4596 Y1.1941 Z-0.0328
N16700 X1.4619 Y1.1896 Z-0.0366
N16705 X1.4643 Y1.1848 Z-0.04
N16710 X1.4668 Y1.1798 Z-0.0428
N16715 X1.4691 Y1.1756 Z-0.0448
N16720 X1.4713 Y1.1714 Z-0.0465
N16725 X1.4737 Y1.167 Z-0.0478
N16730 X1.4759 Y1.1629 Z-0.0487
N16735 X1.4782 Y1.1587 Z-0.0493
N16740 X1.4805 Y1.1545 Z-0.0497
N16745 X1.4842 Y1.1477 Z-0.0499
N16750 X1.4862 Y1.144 Z-0.0501
N16755 X1.4955 Y1.1283 Z-0.0507
N16760 X1.5056 Y1.1111 Z-0.0514
N16765 X1.5251 Y1.0804 Z-0.0527
N16770 X1.5319 Y1.0703 Z-0.0531
N16775 X1.545 Y1.0509 Z-0.0539
N16780 X1.559 Y1.0315 Z-0.0548
N16785 X1.5623 Y1.027 Z-0.055
N16790 X1.5631 Y1.0259
N16795 X1.5639 Y1.0249
N16800 X1.559 Y1.0315 Z-0.0552
N16805 X1.545 Y1.0509 Z-0.0558
N16810 X1.5319 Y1.0703 Z-0.0563
N16815 X1.5251 Y1.0804 Z-0.0566
N16820 X1.5056 Y1.1111 Z-0.0575
N16825 X1.4955 Y1.1283 Z-0.0579
N16830 X1.4862 Y1.144 Z-0.0584
N16835 X1.4842 Y1.1477 Z-0.0585
N16840 X1.4737 Y1.167 Z-0.059
N16845 X1.4668 Y1.1798 Z-0.0593
N16850 X1.4537 Y1.2058 Z-0.06
N16855 X1.4668 Y1.1798
N16860 X1.4737 Y1.167
N16865 X1.4842 Y1.1477
N16870 X1.4862 Y1.144
N16875 X1.4955 Y1.1283
N16880 X1.5056 Y1.1111
N16885 X1.5251 Y1.0804
N16890 X1.5319 Y1.0703
N16895 X1.545 Y1.0509
N16900 X1.559 Y1.0315
N16905 X1.5639 Y1.0249
N16910 G3 X1.6686 Y1.0083 I0.0607 J0.0441
N16915 G1 X1.6739 Y1.0121 Z-0.0597
N16920 X1.6792 Y1.0159 Z-0.0589
N16925 X1.6843 Y1.0197 Z-0.0574
N16930 X1.6894 Y1.0233 Z-0.0555
N16935 X1.6943 Y1.0269 Z-0.053
N16940 X1.699 Y1.0303 Z-0.05
N16945 X1.7034 Y1.0336 Z-0.0464
N16950 X1.7076 Y1.0366 Z-0.0425
N16955 X1.7115 Y1.0394 Z-0.038
N16960 X1.7151 Y1.042 Z-0.0332
N16965 X1.7183 Y1.0444 Z-0.028
N16970 X1.7212 Y1.0464 Z-0.0225
N16975 X1.7236 Y1.0482 Z-0.0167
N16980 X1.7257 Y1.0497 Z-0.0107
N16985 X1.7272 Y1.0509 Z-0.0044
N16990 X1.7284 Y1.0517 Z0.002
N16995 X1.7291 Y1.0522 Z0.0085
N17000 X1.7293 Y1.0524 Z0.015
N17005 G0 Z0.2
N17010 X1.7442 Y1.0353
N17015 Z0.02
N17020 G1 X1.744 Y1.0351 Z0.0135 F28.221
N17025 X1.7434 Y1.0345 Z0.007
N17030 X1.7424 Y1.0334 Z0.0006
N17035 X1.7411 Y1.032 Z-0.0057
N17040 X1.7394 Y1.0302 Z-0.0117
N17045 X1.7373 Y1.0279 Z-0.0175
N17050 X1.7349 Y1.0254 Z-0.023
N17055 X1.7322 Y1.0225 Z-0.0282
N17060 X1.7292 Y1.0192 Z-0.033
N17065 X1.7259 Y1.0157 Z-0.0375
N17070 X1.7224 Y1.0119 Z-0.0414
N17075 X1.7186 Y1.0078 Z-0.045
N17080 X1.7147 Y1.0036 Z-0.048
N17085 X1.7106 Y0.9992 Z-0.0505
N17090 X1.7063 Y0.9946 Z-0.0524
N17095 X1.702 Y0.9899 Z-0.0539
N17100 X1.6975 Y0.9852 Z-0.0547
N17105 X1.6931 Y0.9804 Z-0.055
N17110 G3 X1.6969 Y0.8744 I0.0549 J-0.0511
N17115 G1 X1.7192 Y0.8537 Z-0.0561
N17120 X1.7372 Y0.838 Z-0.0569
N17125 X1.7386 Y0.8367 Z-0.057
N17130 X1.7372 Y0.838
N17135 X1.7192 Y0.8537 Z-0.0579
N17140 X1.6945 Y0.8767 Z-0.059
N17145 X1.6803 Y0.8906 Z-0.0597
N17150 X1.6749 Y0.896 Z-0.06
N17155 X1.6803 Y0.8906
N17160 X1.6945 Y0.8767
N17165 X1.7192 Y0.8537
N17170 X1.7372 Y0.838
N17175 X1.7386 Y0.8367
N17180 G3 X1.8444 Y0.844 I0.0493 J0.0565
N17185 G1 X1.8487 Y0.8489 Z-0.0597
N17190 X1.8529 Y0.8538 Z-0.0589
N17195 X1.8571 Y0.8586 Z-0.0574
N17200 X1.8612 Y0.8633 Z-0.0555
N17205 X1.8652 Y0.8679 Z-0.053
N17210 X1.869 Y0.8723 Z-0.05
N17215 X1.8726 Y0.8764 Z-0.0464
N17220 X1.8761 Y0.8803 Z-0.0425
N17225 X1.8792 Y0.884 Z-0.038
N17230 X1.8821 Y0.8873 Z-0.0332
N17235 X1.8848 Y0.8903 Z-0.028
N17240 X1.8871 Y0.893 Z-0.0225
N17245 X1.889 Y0.8952 Z-0.0167
N17250 X1.8907 Y0.8971 Z-0.0107
N17255 X1.892 Y0.8986 Z-0.0044
N17260 X1.8929 Y0.8997 Z0.002
N17265 X1.8935 Y0.9003 Z0.0085
N17270 X1.8937 Y0.9005 Z0.015
N17275 G0 Z0.2
N17280 X1.8021 Y0.7857
N17285 Z0.0528
N17290 G1 Z0.0253 F28.221
N17295 X1.8019 Y0.7858 Z0.0189
N17300 X1.8012 Y0.7863 Z0.0126
N17305 X1.8002 Y0.7871 Z0.0064
N17310 X1.7987 Y0.7882 Z0.0004
N17315 X1.7968 Y0.7897 Z-0.0055
N17320 X1.7948 Y0.7912 Z-0.0105
N17325 X1.7926 Y0.7929 Z-0.0153
N17330 X1.7901 Y0.7948 Z-0.0198
N17335 X1.7873 Y0.7969 Z-0.0242
N17340 X1.7842 Y0.7992 Z-0.0282
N17345 X1.7809 Y0.8018 Z-0.032
N17350 X1.7774 Y0.8045 Z-0.0355
N17355 X1.7738 Y0.8074 Z-0.0386
N17360 X1.77 Y0.8105 Z-0.0413
N17365 X1.7661 Y0.8137 Z-0.0437
N17370 X1.7621 Y0.817 Z-0.0457
N17375 X1.758 Y0.8204 Z-0.0473
N17380 X1.7621 Y0.817 Z-0.0485
N17385 X1.7663 Y0.8135 Z-0.0493
N17390 X1.7706 Y0.8101 Z-0.0497
N17395 X1.7774 Y0.8045 Z-0.05
N17400 X1.7842 Y0.7992 Z-0.0503
N17405 X1.7968 Y0.7897 Z-0.0508
N17410 X1.8097 Y0.7799 Z-0.0514
N17415 X1.8368 Y0.7605 Z-0.0525
N17420 X1.855 Y0.7483 Z-0.0533
N17425 X1.8658 Y0.7412 Z-0.0538
N17430 X1.8744 Y0.7356 Z-0.0541
N17435 X1.8947 Y0.7231 Z-0.055
N17440 X1.8958 Y0.7224
N17445 X1.8969 Y0.7217
N17450 X1.8744 Y0.7356 Z-0.0558
N17455 X1.8658 Y0.7412 Z-0.0561
N17460 X1.855 Y0.7483 Z-0.0565
N17465 X1.8368 Y0.7605 Z-0.0571
N17470 X1.8097 Y0.7799 Z-0.0581
N17475 X1.7968 Y0.7897 Z-0.0585
N17480 X1.7842 Y0.7992 Z-0.059
N17485 X1.7774 Y0.8045 Z-0.0593
N17490 X1.758 Y0.8204 Z-0.06
N17495 X1.7774 Y0.8045
N17500 X1.7842 Y0.7992
N17505 X1.7968 Y0.7897
N17510 X1.8097 Y0.7799
N17515 X1.8368 Y0.7605
N17520 X1.855 Y0.7483
N17525 X1.8658 Y0.7412
N17530 X1.8744 Y0.7356
N17535 X1.8969 Y0.7217
N17540 G3 X2.0002 Y0.7458 I0.0396 J0.0637
N17545 G1 X2.0036 Y0.7514 Z-0.0597
N17550 X2.007 Y0.7569 Z-0.0589
N17555 X2.0104 Y0.7623 Z-0.0574
N17560 X2.0137 Y0.7676 Z-0.0555
N17565 X2.0169 Y0.7728 Z-0.053
N17570 X2.0199 Y0.7777 Z-0.05
N17575 X2.0229 Y0.7824 Z-0.0464
N17580 X2.0256 Y0.7868 Z-0.0425
N17585 X2.0281 Y0.7909 Z-0.038
N17590 X2.0305 Y0.7946 Z-0.0332
N17595 X2.0326 Y0.798 Z-0.028
N17600 X2.0344 Y0.801 Z-0.0225
N17605 X2.036 Y0.8036 Z-0.0167
N17610 X2.0373 Y0.8057 Z-0.0107
N17615 X2.0384 Y0.8074 Z-0.0044
N17620 X2.0391 Y0.8086 Z0.002
N17625 X2.0396 Y0.8093 Z0.0085
N17630 X2.0397 Y0.8095 Z0.015
N17635 G0 Z0.2
N17640 X1.947 Y0.8634
N17645 Z0.02
N17650 G1 X1.9469 Y0.8632 Z0.0135 F28.221
N17655 X1.9465 Y0.8624 Z0.007
N17660 X1.9458 Y0.8612 Z0.0006
N17665 X1.9449 Y0.8594 Z-0.0057
N17670 X1.9437 Y0.8572 Z-0.0117
N17675 X1.9423 Y0.8546 Z-0.0175
N17680 X1.9406 Y0.8515 Z-0.023
N17685 X1.9387 Y0.848 Z-0.0282
N17690 X1.9366 Y0.8441 Z-0.033
N17695 X1.9343 Y0.8398 Z-0.0375
N17700 X1.9319 Y0.8352 Z-0.0414
N17705 X1.9293 Y0.8304 Z-0.045
N17710 X1.9265 Y0.8253 Z-0.048
N17715 X1.9237 Y0.8199 Z-0.0505
N17720 X1.9207 Y0.8145 Z-0.0524
N17725 X1.9177 Y0.8088 Z-0.0539
N17730 X1.9146 Y0.8031 Z-0.0547
N17735 X1.9115 Y0.7974 Z-0.055
N17740 G3 X1.9421 Y0.6958 I0.0661 J-0.0355
N17745 G1 X1.9521 Y0.6904 Z-0.0554
N17750 X1.9658 Y0.6831 Z-0.0559
N17755 X1.9715 Y0.6802 Z-0.0562
N17760 X1.991 Y0.6706 Z-0.0569
N17765 X1.9715 Y0.6802 Z-0.0577
N17770 X1.9658 Y0.6831 Z-0.0579
N17775 X1.9521 Y0.6904 Z-0.0584
N17780 X1.9327 Y0.7009 Z-0.0592
N17785 X1.9133 Y0.7121 Z-0.06
N17790 X1.9327 Y0.7009
N17795 X1.9521 Y0.6904
N17800 X1.9658 Y0.6831
N17805 X1.9715 Y0.6802
N17810 X1.991 Y0.6706
N17815 G3 X2.0915 Y0.7046 I0.0332 J0.0672
N17820 G1 X2.0944 Y0.7104 Z-0.0597
N17825 X2.0972 Y0.7162 Z-0.0589
N17830 X2.1001 Y0.722 Z-0.0574
N17835 X2.1028 Y0.7276 Z-0.0555
N17840 X2.1055 Y0.733 Z-0.053
N17845 X2.1081 Y0.7382 Z-0.05
N17850 X2.1105 Y0.7431 Z-0.0464
N17855 X2.1128 Y0.7478 Z-0.0425
N17860 X2.115 Y0.7521 Z-0.038
N17865 X2.1169 Y0.7561 Z-0.0332
N17870 X2.1187 Y0.7596 Z-0.028
N17875 X2.1203 Y0.7628 Z-0.0225
N17880 X2.1216 Y0.7655 Z-0.0167
N17885 X2.1227 Y0.7677 Z-0.0107
N17890 X2.1236 Y0.7695 Z-0.0044
N17895 X2.1242 Y0.7708 Z0.002
N17900 X2.1246 Y0.7715 Z0.0085
N17905 X2.1247 Y0.7718 Z0.015
N17910 G0 Z0.2
N17915 X2.054 Y0.8023
N17920 Z0.02
N17925 G1 X2.0539 Y0.802 Z0.0135 F28.221
N17930 X2.0536 Y0.8012 Z0.007
N17935 X2.0531 Y0.7999 Z0.0006
N17940 X2.0524 Y0.798 Z-0.0057
N17945 X2.0515 Y0.7957 Z-0.0117
N17950 X2.0504 Y0.7929 Z-0.0175
N17955 X2.0492 Y0.7896 Z-0.023
N17960 X2.0477 Y0.7859 Z-0.0282
N17965 X2.0462 Y0.7817 Z-0.033
N17970 X2.0445 Y0.7772 Z-0.0375
N17975 X2.0426 Y0.7724 Z-0.0414
N17980 X2.0406 Y0.7672 Z-0.045
N17985 X2.0386 Y0.7618 Z-0.048
N17990 X2.0364 Y0.7562 Z-0.0505
N17995 X2.0342 Y0.7503 Z-0.0524
N18000 X2.0319 Y0.7444 Z-0.0539
N18005 X2.0296 Y0.7383 Z-0.0547
N18010 X2.0273 Y0.7322 Z-0.055
N18015 G3 X2.0707 Y0.6354 I0.0701 J-0.0267
N18020 G1 X2.0879 Y0.6288 Z-0.0556
N18025 X2.098 Y0.625 Z-0.056
N18030 X2.1073 Y0.6216 Z-0.0564
N18035 X2.1269 Y0.6149 Z-0.0571
N18040 X2.1073 Y0.6216 Z-0.0578
N18045 X2.098 Y0.625 Z-0.0582
N18050 X2.0879 Y0.6288 Z-0.0585
N18055 X2.0685 Y0.6362 Z-0.0593
N18060 X2.049 Y0.6444 Z-0.06
N18065 X2.0685 Y0.6362
N18070 X2.0879 Y0.6288
N18075 X2.098 Y0.625
N18080 X2.1073 Y0.6216
N18085 X2.1269 Y0.6149
N18090 G3 X2.2222 Y0.6615 I0.0243 J0.0709
N18095 G1 X2.2243 Y0.6677 Z-0.0597
N18100 X2.2264 Y0.6738 Z-0.0589
N18105 X2.2285 Y0.6799 Z-0.0574
N18110 X2.2305 Y0.6858 Z-0.0555
N18115 X2.2325 Y0.6915 Z-0.053
N18120 X2.2343 Y0.697 Z-0.05
N18125 X2.2361 Y0.7022 Z-0.0464
N18130 X2.2378 Y0.7071 Z-0.0425
N18135 X2.2394 Y0.7117 Z-0.038
N18140 X2.2408 Y0.7159 Z-0.0332
N18145 X2.2421 Y0.7196 Z-0.028
N18150 X2.2432 Y0.723 Z-0.0225
N18155 X2.2442 Y0.7258 Z-0.0167
N18160 X2.245 Y0.7282 Z-0.0107
N18165 X2.2457 Y0.73 Z-0.0044
N18170 X2.2461 Y0.7314 Z0.002
N18175 X2.2464 Y0.7322 Z0.0085
N18180 X2.2465 Y0.7325 Z0.015
N18185 G0 Z0.2
N18190 X2.2907 Y0.5725
N18195 Z0.0527
N18200 G1 Z0.0253 F28.221
N18205 X2.2904 Z0.0192
N18210 X2.2897 Y0.5727 Z0.0131
N18215 X2.2885 Y0.5729 Z0.0072
N18220 X2.2868 Y0.5732 Z0.0013
N18225 X2.2846 Y0.5736 Z-0.0044
N18230 X2.282 Y0.574 Z-0.0099
N18235 X2.279 Y0.5746 Z-0.0153
N18240 X2.2754 Y0.5754 Z-0.0204
N18245 X2.2715 Y0.5762 Z-0.0251
N18250 X2.2673 Y0.577 Z-0.0296
N18255 X2.2626 Y0.578 Z-0.0336
N18260 X2.2671 Y0.5771 Z-0.037
N18265 X2.2719 Y0.5761 Z-0.04
N18270 X2.2769 Y0.5751 Z-0.0426
N18275 X2.282 Y0.574 Z-0.0448
N18280 X2.2884 Y0.5729 Z-0.0469
N18285 X2.2948 Y0.5718 Z-0.0485
N18290 X2.3014 Y0.5706 Z-0.0494
N18295 X2.3057 Y0.5699 Z-0.0497
N18300 X2.3209 Y0.5673 Z-0.0502
N18305 X2.3229 Y0.567 Z-0.0503
N18310 X2.3403 Y0.5646 Z-0.0509
N18315 X2.3597 Y0.5619 Z-0.0516
N18320 X2.3791 Y0.5598 Z-0.0522
N18325 X2.3985 Y0.5579 Z-0.0529
N18330 X2.4179 Y0.5564 Z-0.0536
N18335 X2.4373 Y0.5551 Z-0.0543
N18340 X2.4564 Y0.5544 Z-0.055
N18345 X2.4577 Y0.5543
N18350 X2.459
N18355 X2.4373 Y0.5551 Z-0.0555
N18360 X2.4179 Y0.5564 Z-0.056
N18365 X2.3985 Y0.5579 Z-0.0565
N18370 X2.3791 Y0.5598 Z-0.057
N18375 X2.3597 Y0.5619 Z-0.0575
N18380 X2.3403 Y0.5646 Z-0.058
N18385 X2.3229 Y0.567 Z-0.0585
N18390 X2.3209 Y0.5673
N18395 X2.3014 Y0.5706 Z-0.059
N18400 X2.282 Y0.574 Z-0.0595
N18405 X2.2626 Y0.578 Z-0.06
N18410 X2.282 Y0.574
N18415 X2.3014 Y0.5706
N18420 X2.3209 Y0.5673
N18425 X2.3229 Y0.567
N18430 X2.3403 Y0.5646
N18435 X2.3597 Y0.5619
N18440 X2.3791 Y0.5598
N18445 X2.3985 Y0.5579
N18450 X2.4179 Y0.5564
N18455 X2.4373 Y0.5551
N18460 X2.459 Y0.5543
N18465 G3 X2.537 Y0.6262 I0.003 J0.0749
N18470 G1 X2.5372 Y0.6327 Z-0.0597
N18475 X2.5375 Y0.6392 Z-0.0589
N18480 X2.5378 Y0.6456 Z-0.0574
N18485 X2.538 Y0.6518 Z-0.0555
N18490 X2.5382 Y0.6579 Z-0.053
N18495 X2.5385 Y0.6637 Z-0.05
N18500 X2.5387 Y0.6692 Z-0.0464
N18505 X2.5389 Y0.6744 Z-0.0425
N18510 X2.5391 Y0.6792 Z-0.038
N18515 X2.5393 Y0.6836 Z-0.0332
N18520 X2.5394 Y0.6876 Z-0.028
N18525 X2.5396 Y0.6911 Z-0.0225
N18530 X2.5397 Y0.6941 Z-0.0167
N18535 X2.5398 Y0.6966 Z-0.0107
N18540 X2.5399 Y0.6986 Z-0.0044
N18545 Y0.7 Z0.002
N18550 X2.54 Y0.7008 Z0.0085
N18555 Y0.7011 Z0.015
N18560 G0 Z0.2
N18565 X2.7293 Y0.728
N18570 Z0.02
N18575 G1 X2.7294 Y0.7277 Z0.0135 F28.221
N18580 X2.7296 Y0.7269 Z0.007
N18585 X2.73 Y0.7255 Z0.0006
N18590 X2.7306 Y0.7236 Z-0.0057
N18595 X2.7313 Y0.7212 Z-0.0117
N18600 X2.7321 Y0.7183 Z-0.0175
N18605 X2.7331 Y0.715 Z-0.023
N18610 X2.7343 Y0.7111 Z-0.0282
N18615 X2.7355 Y0.7069 Z-0.033
N18620 X2.7369 Y0.7023 Z-0.0375
N18625 X2.7383 Y0.6973 Z-0.0414
N18630 X2.7399 Y0.692 Z-0.045
N18635 X2.7415 Y0.6864 Z-0.048
N18640 X2.7433 Y0.6806 Z-0.0505
N18645 X2.745 Y0.6747 Z-0.0524
N18650 X2.7468 Y0.6685 Z-0.0539
N18655 X2.7487 Y0.6623 Z-0.0547
N18660 X2.7505 Y0.656 Z-0.055
N18665 G3 X2.8436 Y0.6053 I0.0719 J0.0212
N18670 G1 X2.8449 Y0.6057
N18675 X2.8646 Y0.6121 Z-0.0558
N18680 X2.8449 Y0.6057 Z-0.0565
N18685 X2.8255 Y0.5999 Z-0.0572
N18690 X2.8061 Y0.5943 Z-0.0579
N18695 X2.7747 Y0.5863 Z-0.059
N18700 X2.7673 Y0.5845 Z-0.0593
N18705 X2.7479 Y0.5802 Z-0.06
N18710 X2.7673 Y0.5845
N18715 X2.7747 Y0.5863
N18720 X2.8061 Y0.5943
N18725 X2.8255 Y0.5999
N18730 X2.8449 Y0.6057
N18735 X2.8646 Y0.6121
N18740 G3 X2.9128 Y0.7066 I-0.0232 J0.0713
N18745 G1 X2.9108 Y0.7128 Z-0.0597
N18750 X2.9088 Y0.719 Z-0.0589
N18755 X2.9068 Y0.725 Z-0.0574
N18760 X2.9049 Y0.731 Z-0.0555
N18765 X2.903 Y0.7367 Z-0.053
N18770 X2.9012 Y0.7422 Z-0.05
N18775 X2.8995 Y0.7475 Z-0.0464
N18780 X2.8979 Y0.7524 Z-0.0425
N18785 X2.8964 Y0.757 Z-0.038
N18790 X2.895 Y0.7612 Z-0.0332
N18795 X2.8938 Y0.765 Z-0.028
N18800 X2.8927 Y0.7683 Z-0.0225
N18805 X2.8918 Y0.7712 Z-0.0167
N18810 X2.891 Y0.7736 Z-0.0107
N18815 X2.8904 Y0.7755 Z-0.0044
N18820 X2.89 Y0.7768 Z0.002
N18825 X2.8897 Y0.7776 Z0.0085
N18830 X2.8896 Y0.7779 Z0.015
N18835 G0 Z0.2
N18840 X2.8906 Y0.778
N18845 Z0.02
N18850 G1 X2.8907 Y0.7778 Z0.0135 F28.221
N18855 X2.8911 Y0.777 Z0.007
N18860 X2.8918 Y0.7757 Z0.0006
N18865 X2.8927 Y0.774 Z-0.0057
N18870 X2.8938 Y0.7718 Z-0.0117
N18875 X2.8952 Y0.7691 Z-0.0175
N18880 X2.8968 Y0.766 Z-0.023
N18885 X2.8986 Y0.7624 Z-0.0282
N18890 X2.9006 Y0.7585 Z-0.033
N18895 X2.9028 Y0.7542 Z-0.0375
N18900 X2.9052 Y0.7496 Z-0.0414
N18905 X2.9077 Y0.7447 Z-0.045
N18910 X2.9104 Y0.7395 Z-0.048
N18915 X2.9132 Y0.7341 Z-0.0505
N18920 X2.916 Y0.7286 Z-0.0524
N18925 X2.9189 Y0.7229 Z-0.0539
N18930 X2.9219 Y0.7171 Z-0.0547
N18935 X2.9249 Y0.7113 Z-0.055
N18940 G3 X3.0259 Y0.679 I0.0667 J0.0343
N18945 G1 X3.0392 Y0.6858 Z-0.0555
N18950 X3.0196 Y0.6757 Z-0.0563
N18955 X3.0002 Y0.6664 Z-0.057
N18960 X2.9946 Y0.6637 Z-0.0573
N18965 X2.9808 Y0.6572 Z-0.0578
N18970 X2.9513 Y0.6444 Z-0.0589
N18975 X2.942 Y0.6406 Z-0.0593
N18980 X2.9225 Y0.6328 Z-0.06
N18985 X2.942 Y0.6406
N18990 X2.9513 Y0.6444
N18995 X2.9808 Y0.6572
N19000 X2.9946 Y0.6637
N19005 X3.0002 Y0.6664
N19010 X3.0196 Y0.6757
N19015 X3.0392 Y0.6858
N19020 G3 X3.0716 Y0.7868 I-0.0343 J0.0667
N19025 G1 X3.0686 Y0.7926 Z-0.0597
N19030 X3.0656 Y0.7984 Z-0.0589
N19035 X3.0627 Y0.8041 Z-0.0574
N19040 X3.0599 Y0.8096 Z-0.0555
N19045 X3.0571 Y0.815 Z-0.053
N19050 X3.0544 Y0.8202 Z-0.05
N19055 X3.0519 Y0.8251 Z-0.0464
N19060 X3.0495 Y0.8297 Z-0.0425
N19065 X3.0473 Y0.834 Z-0.038
N19070 X3.0453 Y0.8379 Z-0.0332
N19075 X3.0435 Y0.8414 Z-0.028
N19080 X3.0419 Y0.8446 Z-0.0225
N19085 X3.0405 Y0.8473 Z-0.0167
N19090 X3.0393 Y0.8495 Z-0.0107
N19095 X3.0384 Y0.8512 Z-0.0044
N19100 X3.0378 Y0.8525 Z0.002
N19105 X3.0374 Y0.8533 Z0.0085
N19110 X3.0373 Y0.8535 Z0.015
N19115 G0 Z0.2
N19120 X3.1427 Y0.9291
N19125 Z0.02
N19130 G1 X3.1429 Y0.9288 Z0.0135 F28.221
N19135 X3.1435 Y0.9282 Z0.007
N19140 X3.1445 Y0.9272 Z0.0006
N19145 X3.1459 Y0.9258 Z-0.0057
N19150 X3.1476 Y0.924 Z-0.0117
N19155 X3.1497 Y0.9218 Z-0.0175
N19160 X3.1521 Y0.9192 Z-0.023
N19165 X3.1548 Y0.9163 Z-0.0282
N19170 X3.1579 Y0.9131 Z-0.033
N19175 X3.1612 Y0.9096 Z-0.0375
N19180 X3.1648 Y0.9059 Z-0.0414
N19185 X3.1686 Y0.9019 Z-0.045
N19190 X3.1726 Y0.8977 Z-0.048
N19195 X3.1767 Y0.8933 Z-0.0505
N19200 X3.181 Y0.8888 Z-0.0524
N19205 X3.1855 Y0.8841 Z-0.0539
N19210 X3.1899 Y0.8794 Z-0.0547
N19215 X3.1944 Y0.8747 Z-0.055
N19220 G3 X3.3005 Y0.872 I0.0544 J0.0517
N19225 G1 X3.3054 Y0.8767 Z-0.0552
N19230 X3.3109 Y0.882 Z-0.0555
N19235 X3.3054 Y0.8767 Z-0.0558
N19240 X3.2913 Y0.8633 Z-0.0564
N19245 X3.2719 Y0.8459 Z-0.0574
N19250 X3.263 Y0.838 Z-0.0578
N19255 X3.24 Y0.8186 Z-0.0588
N19260 X3.2331 Y0.813 Z-0.0591
N19265 X3.2137 Y0.7976 Z-0.06
N19270 X3.2331 Y0.813
N19275 X3.24 Y0.8186
N19280 X3.263 Y0.838
N19285 X3.2719 Y0.8459
N19290 X3.2913 Y0.8633
N19295 X3.3054 Y0.8767
N19300 X3.3109 Y0.882
N19305 G3 X3.313 Y0.988 I-0.052 J0.0541
N19310 G1 X3.3085 Y0.9927 Z-0.0597
N19315 X3.304 Y0.9974 Z-0.0589
N19320 X3.2996 Y1.002 Z-0.0574
N19325 X3.2953 Y1.0065 Z-0.0555
N19330 X3.2911 Y1.0109 Z-0.053
N19335 X3.287 Y1.0151 Z-0.05
