%
(1001)
(AUX_SPINDLE_BRACKET)
(T1  D=0.75 CR=0. - ZMIN=-1.01 - FLAT END MILL)
N10 G90 G94 G17 G91.1
N15 G20
N20 G53 G0 Z0.
(2D CONTOUR1)
N25 M9
N30 T1 M6
N35 S2000 M3
N40 G54
N45 M8
N55 G0 X8.6044 Y0.4093
N60 G43 Z0.6 H1
N65 G0 Z0.2
N70 G1 Z0.0894 F24.
N75 Z0.025 F1.
N80 X8.6043 Y0.4096 Z0.0185
N85 X8.6041 Y0.4104 Z0.012
N90 X8.6037 Y0.4118 Z0.0056
N95 X8.6032 Y0.4137 Z-0.0007
N100 X8.6026 Y0.4161 Z-0.0067
N105 X8.6018 Y0.419 Z-0.0125
N110 X8.6009 Y0.4224 Z-0.018
N115 X8.5998 Y0.4262 Z-0.0232
N120 X8.5987 Y0.4305 Z-0.028
N125 X8.5974 Y0.4351 Z-0.0325
N130 X8.596 Y0.4402 Z-0.0364
N135 X8.5946 Y0.4455 Z-0.04
N140 X8.5931 Y0.4511 Z-0.043
N145 X8.5915 Y0.4569 Z-0.0455
N150 X8.5899 Y0.4629 Z-0.0474
N155 X8.5882 Y0.4691 Z-0.0489
N160 X8.5865 Y0.4754 Z-0.0497
N165 X8.5848 Y0.4817 Z-0.05
N170 X8.5651 Y0.5541 F24.
N175 G3 X8.4731 Y0.6068 I-0.0724 J-0.0196
N180 G2 X8.375 Y0.5937 I-0.0981 J0.3619
N185 G1 X7.8405
N190 G2 X6.5 Y-0.0312 I-1.3405 J1.125
N195 G1 X4.1057
N200 G2 X3.7144 Y-0.3223 I-1.6056 J1.75
N205 X3.5227 Y-0.375 I-0.1918 J0.3223
N210 G1 X1.4773
N215 G2 X1.2856 Y-0.3223 I0. J0.375
N220 X0.4084 Y0.5937 I1.2144 J2.041
N225 G1 X0.
N230 G2 X-0.1925 Y0.647 I0. J0.375
N235 G1 Z-0.01
N240 G2 X-0.375 Y0.9687 I0.1925 J0.3218
N245 G1 Y2.4687
N250 G2 X-0.2207 Y2.772 I0.375 J0.
N255 G1 Z-0.05 F1.
N260 G2 X0. Y2.8437 I0.2207 J-0.3032 F24.
N265 G1 X0.4083
N270 G2 X1.2856 Y3.7598 I2.0917 J-1.125
N275 X1.4773 Y3.8125 I0.1918 J-0.3223
N280 G1 X3.5227
N285 G2 X3.7144 Y3.7598 I0. J-0.375
N290 X4.1057 Y3.4687 I-1.2145 J-2.041
N295 G1 X6.5
N300 G2 X7.8405 Y2.8437 I0. J-1.75
N305 G1 X8.375
N310 G2 X8.603 Y2.7665 I0. J-0.375
N315 G1 Z-0.01
N320 G2 X8.75 Y2.4687 I-0.228 J-0.2977
N325 G1 Y0.9687
N330 G2 X8.5581 Y0.6415 I-0.375 J0.
N335 G1 Z-0.05 F1.
N340 G2 X8.4731 Y0.6068 I-0.1831 J0.3273 F24.
N345 G3 X8.4204 Y0.5148 I0.0196 J-0.0724
N350 G1 X8.44 Y0.4424
N355 X8.4417 Y0.4361 Z-0.0497
N360 X8.4434 Y0.4298 Z-0.0489
N365 X8.4451 Y0.4237 Z-0.0474
N370 X8.4467 Y0.4177 Z-0.0455
N375 X8.4483 Y0.4118 Z-0.043
N380 X8.4498 Y0.4062 Z-0.04
N385 X8.4513 Y0.4009 Z-0.0364
N390 X8.4526 Y0.3959 Z-0.0325
N395 X8.4539 Y0.3912 Z-0.028
N400 X8.455 Y0.387 Z-0.0232
N405 X8.4561 Y0.3831 Z-0.018
N410 X8.457 Y0.3797 Z-0.0125
N415 X8.4578 Y0.3768 Z-0.0067
N420 X8.4584 Y0.3744 Z-0.0007
N425 X8.459 Y0.3725 Z0.0056
N430 X8.4593 Y0.3711 Z0.012
N435 X8.4596 Y0.3703 Z0.0185
N440 Y0.37 Z0.025
N445 X8.6044 Y0.4093
N450 Z-0.025 F1.
N455 X8.6043 Y0.4096 Z-0.0315
N460 X8.6041 Y0.4104 Z-0.038
N465 X8.6037 Y0.4118 Z-0.0444
N470 X8.6032 Y0.4137 Z-0.0507
N475 X8.6026 Y0.4161 Z-0.0567
N480 X8.6018 Y0.419 Z-0.0625
N485 X8.6009 Y0.4224 Z-0.068
N490 X8.5998 Y0.4262 Z-0.0732
N495 X8.5987 Y0.4305 Z-0.078
N500 X8.5974 Y0.4351 Z-0.0825
N505 X8.596 Y0.4402 Z-0.0864
N510 X8.5946 Y0.4455 Z-0.09
N515 X8.5931 Y0.4511 Z-0.093
N520 X8.5915 Y0.4569 Z-0.0955
N525 X8.5899 Y0.4629 Z-0.0974
N530 X8.5882 Y0.4691 Z-0.0989
N535 X8.5865 Y0.4754 Z-0.0997
N540 X8.5848 Y0.4817 Z-0.1
N545 X8.5651 Y0.5541 F24.
N550 G3 X8.4731 Y0.6068 I-0.0724 J-0.0196
N555 G2 X8.375 Y0.5937 I-0.0981 J0.3619
N560 G1 X7.8405
N565 G2 X6.5 Y-0.0312 I-1.3405 J1.125
N570 G1 X4.1057
N575 G2 X3.7144 Y-0.3223 I-1.6056 J1.75
N580 X3.5227 Y-0.375 I-0.1918 J0.3223
N585 G1 X1.4773
N590 G2 X1.2856 Y-0.3223 I0. J0.375
N595 X0.4084 Y0.5937 I1.2144 J2.041
N600 G1 X0.
N605 G2 X-0.1925 Y0.647 I0. J0.375
N610 G1 Z-0.01
N615 G2 X-0.375 Y0.9687 I0.1925 J0.3218
N620 G1 Y2.4687
N625 G2 X-0.2207 Y2.772 I0.375 J0.
N630 G1 Z-0.1 F1.
N635 G2 X0. Y2.8437 I0.2207 J-0.3032 F24.
N640 G1 X0.4083
N645 G2 X1.2856 Y3.7598 I2.0917 J-1.125
N650 X1.4773 Y3.8125 I0.1918 J-0.3223
N655 G1 X3.5227
N660 G2 X3.7144 Y3.7598 I0. J-0.375
N665 X4.1057 Y3.4687 I-1.2145 J-2.041
N670 G1 X6.5
N675 G2 X7.8405 Y2.8437 I0. J-1.75
N680 G1 X8.375
N685 G2 X8.603 Y2.7665 I0. J-0.375
N690 G1 Z-0.01
N695 G2 X8.75 Y2.4687 I-0.228 J-0.2977
N700 G1 Y0.9687
N705 G2 X8.5581 Y0.6415 I-0.375 J0.
N710 G1 Z-0.1 F1.
N715 G2 X8.4731 Y0.6068 I-0.1831 J0.3273 F24.
N720 G3 X8.4204 Y0.5148 I0.0196 J-0.0724
N725 G1 X8.44 Y0.4424
N730 X8.4417 Y0.4361 Z-0.0997
N735 X8.4434 Y0.4298 Z-0.0989
N740 X8.4451 Y0.4237 Z-0.0974
N745 X8.4467 Y0.4177 Z-0.0955
N750 X8.4483 Y0.4118 Z-0.093
N755 X8.4498 Y0.4062 Z-0.09
N760 X8.4513 Y0.4009 Z-0.0864
N765 X8.4526 Y0.3959 Z-0.0825
N770 X8.4539 Y0.3912 Z-0.078
N775 X8.455 Y0.387 Z-0.0732
N780 X8.4561 Y0.3831 Z-0.068
N785 X8.457 Y0.3797 Z-0.0625
N790 X8.4578 Y0.3768 Z-0.0567
N795 X8.4584 Y0.3744 Z-0.0507
N800 X8.459 Y0.3725 Z-0.0444
N805 X8.4593 Y0.3711 Z-0.038
N810 X8.4596 Y0.3703 Z-0.0315
N815 Y0.37 Z-0.025
N820 X8.6044 Y0.4093
N825 Z-0.075 F1.
N830 X8.6043 Y0.4096 Z-0.0815
N835 X8.6041 Y0.4104 Z-0.088
N840 X8.6037 Y0.4118 Z-0.0944
N845 X8.6032 Y0.4137 Z-0.1007
N850 X8.6026 Y0.4161 Z-0.1067
N855 X8.6018 Y0.419 Z-0.1125
N860 X8.6009 Y0.4224 Z-0.118
N865 X8.5998 Y0.4262 Z-0.1232
N870 X8.5987 Y0.4305 Z-0.128
N875 X8.5974 Y0.4351 Z-0.1325
N880 X8.596 Y0.4402 Z-0.1364
N885 X8.5946 Y0.4455 Z-0.14
N890 X8.5931 Y0.4511 Z-0.143
N895 X8.5915 Y0.4569 Z-0.1455
N900 X8.5899 Y0.4629 Z-0.1474
N905 X8.5882 Y0.4691 Z-0.1489
N910 X8.5865 Y0.4754 Z-0.1497
N915 X8.5848 Y0.4817 Z-0.15
N920 X8.5651 Y0.5541 F24.
N925 G3 X8.4731 Y0.6068 I-0.0724 J-0.0196
N930 G2 X8.375 Y0.5937 I-0.0981 J0.3619
N935 G1 X7.8405
N940 G2 X6.5 Y-0.0312 I-1.3405 J1.125
N945 G1 X4.1057
N950 G2 X3.7144 Y-0.3223 I-1.6056 J1.75
N955 X3.5227 Y-0.375 I-0.1918 J0.3223
N960 G1 X1.4773
N965 G2 X1.2856 Y-0.3223 I0. J0.375
N970 X0.4084 Y0.5937 I1.2144 J2.041
N975 G1 X0.
N980 G2 X-0.1925 Y0.647 I0. J0.375
N985 G1 Z-0.01
N990 G2 X-0.375 Y0.9687 I0.1925 J0.3218
N995 G1 Y2.4687
N1000 G2 X-0.2207 Y2.772 I0.375 J0.
N1005 G1 Z-0.15 F1.
N1010 G2 X0. Y2.8437 I0.2207 J-0.3032 F24.
N1015 G1 X0.4083
N1020 G2 X1.2856 Y3.7598 I2.0917 J-1.125
N1025 X1.4773 Y3.8125 I0.1918 J-0.3223
N1030 G1 X3.5227
N1035 G2 X3.7144 Y3.7598 I0. J-0.375
N1040 X4.1057 Y3.4687 I-1.2145 J-2.041
N1045 G1 X6.5
N1050 G2 X7.8405 Y2.8437 I0. J-1.75
N1055 G1 X8.375
N1060 G2 X8.603 Y2.7665 I0. J-0.375
N1065 G1 Z-0.01
N1070 G2 X8.75 Y2.4687 I-0.228 J-0.2977
N1075 G1 Y0.9687
N1080 G2 X8.5581 Y0.6415 I-0.375 J0.
N1085 G1 Z-0.15 F1.
N1090 G2 X8.4731 Y0.6068 I-0.1831 J0.3273 F24.
N1095 G3 X8.4204 Y0.5148 I0.0196 J-0.0724
N1100 G1 X8.44 Y0.4424
N1105 X8.4417 Y0.4361 Z-0.1497
N1110 X8.4434 Y0.4298 Z-0.1489
N1115 X8.4451 Y0.4237 Z-0.1474
N1120 X8.4467 Y0.4177 Z-0.1455
N1125 X8.4483 Y0.4118 Z-0.143
N1130 X8.4498 Y0.4062 Z-0.14
N1135 X8.4513 Y0.4009 Z-0.1364
N1140 X8.4526 Y0.3959 Z-0.1325
N1145 X8.4539 Y0.3912 Z-0.128
N1150 X8.455 Y0.387 Z-0.1232
N1155 X8.4561 Y0.3831 Z-0.118
N1160 X8.457 Y0.3797 Z-0.1125
N1165 X8.4578 Y0.3768 Z-0.1067
N1170 X8.4584 Y0.3744 Z-0.1007
N1175 X8.459 Y0.3725 Z-0.0944
N1180 X8.4593 Y0.3711 Z-0.088
N1185 X8.4596 Y0.3703 Z-0.0815
N1190 Y0.37 Z-0.075
N1195 X8.6044 Y0.4093
N1200 Z-0.125 F1.
N1205 X8.6043 Y0.4096 Z-0.1315
N1210 X8.6041 Y0.4104 Z-0.138
N1215 X8.6037 Y0.4118 Z-0.1444
N1220 X8.6032 Y0.4137 Z-0.1507
N1225 X8.6026 Y0.4161 Z-0.1567
N1230 X8.6018 Y0.419 Z-0.1625
N1235 X8.6009 Y0.4224 Z-0.168
N1240 X8.5998 Y0.4262 Z-0.1732
N1245 X8.5987 Y0.4305 Z-0.178
N1250 X8.5974 Y0.4351 Z-0.1825
N1255 X8.596 Y0.4402 Z-0.1864
N1260 X8.5946 Y0.4455 Z-0.19
N1265 X8.5931 Y0.4511 Z-0.193
N1270 X8.5915 Y0.4569 Z-0.1955
N1275 X8.5899 Y0.4629 Z-0.1974
N1280 X8.5882 Y0.4691 Z-0.1989
N1285 X8.5865 Y0.4754 Z-0.1997
N1290 X8.5848 Y0.4817 Z-0.2
N1295 X8.5651 Y0.5541 F24.
N1300 G3 X8.4731 Y0.6068 I-0.0724 J-0.0196
N1305 G2 X8.375 Y0.5937 I-0.0981 J0.3619
N1310 G1 X7.8405
N1315 G2 X6.5 Y-0.0312 I-1.3405 J1.125
N1320 G1 X4.1057
N1325 G2 X3.7144 Y-0.3223 I-1.6056 J1.75
N1330 X3.5227 Y-0.375 I-0.1918 J0.3223
N1335 G1 X1.4773
N1340 G2 X1.2856 Y-0.3223 I0. J0.375
N1345 X0.4084 Y0.5937 I1.2144 J2.041
N1350 G1 X0.
N1355 G2 X-0.1925 Y0.647 I0. J0.375
N1360 G1 Z-0.01
N1365 G2 X-0.375 Y0.9687 I0.1925 J0.3218
N1370 G1 Y2.4687
N1375 G2 X-0.2207 Y2.772 I0.375 J0.
N1380 G1 Z-0.2 F1.
N1385 G2 X0. Y2.8437 I0.2207 J-0.3032 F24.
N1390 G1 X0.4083
N1395 G2 X1.2856 Y3.7598 I2.0917 J-1.125
N1400 X1.4773 Y3.8125 I0.1918 J-0.3223
N1405 G1 X3.5227
N1410 G2 X3.7144 Y3.7598 I0. J-0.375
N1415 X4.1057 Y3.4687 I-1.2145 J-2.041
N1420 G1 X6.5
N1425 G2 X7.8405 Y2.8437 I0. J-1.75
N1430 G1 X8.375
N1435 G2 X8.603 Y2.7665 I0. J-0.375
N1440 G1 Z-0.01
N1445 G2 X8.75 Y2.4687 I-0.228 J-0.2977
N1450 G1 Y0.9687
N1455 G2 X8.5581 Y0.6415 I-0.375 J0.
N1460 G1 Z-0.2 F1.
N1465 G2 X8.4731 Y0.6068 I-0.1831 J0.3273 F24.
N1470 G3 X8.4204 Y0.5148 I0.0196 J-0.0724
N1475 G1 X8.44 Y0.4424
N1480 X8.4417 Y0.4361 Z-0.1997
N1485 X8.4434 Y0.4298 Z-0.1989
N1490 X8.4451 Y0.4237 Z-0.1974
N1495 X8.4467 Y0.4177 Z-0.1955
N1500 X8.4483 Y0.4118 Z-0.193
N1505 X8.4498 Y0.4062 Z-0.19
N1510 X8.4513 Y0.4009 Z-0.1864
N1515 X8.4526 Y0.3959 Z-0.1825
N1520 X8.4539 Y0.3912 Z-0.178
N1525 X8.455 Y0.387 Z-0.1732
N1530 X8.4561 Y0.3831 Z-0.168
N1535 X8.457 Y0.3797 Z-0.1625
N1540 X8.4578 Y0.3768 Z-0.1567
N1545 X8.4584 Y0.3744 Z-0.1507
N1550 X8.459 Y0.3725 Z-0.1444
N1555 X8.4593 Y0.3711 Z-0.138
N1560 X8.4596 Y0.3703 Z-0.1315
N1565 Y0.37 Z-0.125
N1570 X8.6044 Y0.4093
N1575 Z-0.175 F1.
N1580 X8.6043 Y0.4096 Z-0.1815
N1585 X8.6041 Y0.4104 Z-0.188
N1590 X8.6037 Y0.4118 Z-0.1944
N1595 X8.6032 Y0.4137 Z-0.2007
N1600 X8.6026 Y0.4161 Z-0.2067
N1605 X8.6018 Y0.419 Z-0.2125
N1610 X8.6009 Y0.4224 Z-0.218
N1615 X8.5998 Y0.4262 Z-0.2232
N1620 X8.5987 Y0.4305 Z-0.228
N1625 X8.5974 Y0.4351 Z-0.2325
N1630 X8.596 Y0.4402 Z-0.2364
N1635 X8.5946 Y0.4455 Z-0.24
N1640 X8.5931 Y0.4511 Z-0.243
N1645 X8.5915 Y0.4569 Z-0.2455
N1650 X8.5899 Y0.4629 Z-0.2474
N1655 X8.5882 Y0.4691 Z-0.2489
N1660 X8.5865 Y0.4754 Z-0.2497
N1665 X8.5848 Y0.4817 Z-0.25
N1670 X8.5651 Y0.5541 F24.
N1675 G3 X8.4731 Y0.6068 I-0.0724 J-0.0196
N1680 G2 X8.375 Y0.5937 I-0.0981 J0.3619
N1685 G1 X7.8405
N1690 G2 X6.5 Y-0.0312 I-1.3405 J1.125
N1695 G1 X4.1057
N1700 G2 X3.7144 Y-0.3223 I-1.6056 J1.75
N1705 X3.5227 Y-0.375 I-0.1918 J0.3223
N1710 G1 X1.4773
N1715 G2 X1.2856 Y-0.3223 I0. J0.375
N1720 X0.4084 Y0.5937 I1.2144 J2.041
N1725 G1 X0.
N1730 G2 X-0.1925 Y0.647 I0. J0.375
N1735 G1 Z-0.01
N1740 G2 X-0.375 Y0.9687 I0.1925 J0.3218
N1745 G1 Y2.4687
N1750 G2 X-0.2207 Y2.772 I0.375 J0.
N1755 G1 Z-0.25 F1.
N1760 G2 X0. Y2.8437 I0.2207 J-0.3032 F24.
N1765 G1 X0.4083
N1770 G2 X1.2856 Y3.7598 I2.0917 J-1.125
N1775 X1.4773 Y3.8125 I0.1918 J-0.3223
N1780 G1 X3.5227
N1785 G2 X3.7144 Y3.7598 I0. J-0.375
N1790 X4.1057 Y3.4687 I-1.2145 J-2.041
N1795 G1 X6.5
N1800 G2 X7.8405 Y2.8437 I0. J-1.75
N1805 G1 X8.375
N1810 G2 X8.603 Y2.7665 I0. J-0.375
N1815 G1 Z-0.01
N1820 G2 X8.75 Y2.4687 I-0.228 J-0.2977
N1825 G1 Y0.9687
N1830 G2 X8.5581 Y0.6415 I-0.375 J0.
N1835 G1 Z-0.25 F1.
N1840 G2 X8.4731 Y0.6068 I-0.1831 J0.3273 F24.
N1845 G3 X8.4204 Y0.5148 I0.0196 J-0.0724
N1850 G1 X8.44 Y0.4424
N1855 X8.4417 Y0.4361 Z-0.2497
N1860 X8.4434 Y0.4298 Z-0.2489
N1865 X8.4451 Y0.4237 Z-0.2474
N1870 X8.4467 Y0.4177 Z-0.2455
N1875 X8.4483 Y0.4118 Z-0.243
N1880 X8.4498 Y0.4062 Z-0.24
N1885 X8.4513 Y0.4009 Z-0.2364
N1890 X8.4526 Y0.3959 Z-0.2325
N1895 X8.4539 Y0.3912 Z-0.228
N1900 X8.455 Y0.387 Z-0.2232
N1905 X8.4561 Y0.3831 Z-0.218
N1910 X8.457 Y0.3797 Z-0.2125
N1915 X8.4578 Y0.3768 Z-0.2067
N1920 X8.4584 Y0.3744 Z-0.2007
N1925 X8.459 Y0.3725 Z-0.1944
N1930 X8.4593 Y0.3711 Z-0.188
N1935 X8.4596 Y0.3703 Z-0.1815
N1940 Y0.37 Z-0.175
N1945 X8.6044 Y0.4093
N1950 Z-0.225 F1.
N1955 X8.6043 Y0.4096 Z-0.2315
N1960 X8.6041 Y0.4104 Z-0.238
N1965 X8.6037 Y0.4118 Z-0.2444
N1970 X8.6032 Y0.4137 Z-0.2507
N1975 X8.6026 Y0.4161 Z-0.2567
N1980 X8.6018 Y0.419 Z-0.2625
N1985 X8.6009 Y0.4224 Z-0.268
N1990 X8.5998 Y0.4262 Z-0.2732
N1995 X8.5987 Y0.4305 Z-0.278
N2000 X8.5974 Y0.4351 Z-0.2825
N2005 X8.596 Y0.4402 Z-0.2864
N2010 X8.5946 Y0.4455 Z-0.29
N2015 X8.5931 Y0.4511 Z-0.293
N2020 X8.5915 Y0.4569 Z-0.2955
N2025 X8.5899 Y0.4629 Z-0.2974
N2030 X8.5882 Y0.4691 Z-0.2989
N2035 X8.5865 Y0.4754 Z-0.2997
N2040 X8.5848 Y0.4817 Z-0.3
N2045 X8.5651 Y0.5541 F24.
N2050 G3 X8.4731 Y0.6068 I-0.0724 J-0.0196
N2055 G2 X8.375 Y0.5937 I-0.0981 J0.3619
N2060 G1 X7.8405
N2065 G2 X6.5 Y-0.0312 I-1.3405 J1.125
N2070 G1 X4.1057
N2075 G2 X3.7144 Y-0.3223 I-1.6056 J1.75
N2080 X3.5227 Y-0.375 I-0.1918 J0.3223
N2085 G1 X1.4773
N2090 G2 X1.2856 Y-0.3223 I0. J0.375
N2095 X0.4084 Y0.5937 I1.2144 J2.041
N2100 G1 X0.
N2105 G2 X-0.1925 Y0.647 I0. J0.375
N2110 G1 Z-0.01
N2115 G2 X-0.375 Y0.9687 I0.1925 J0.3218
N2120 G1 Y2.4687
N2125 G2 X-0.2207 Y2.772 I0.375 J0.
N2130 G1 Z-0.3 F1.
N2135 G2 X0. Y2.8437 I0.2207 J-0.3032 F24.
N2140 G1 X0.4083
N2145 G2 X1.2856 Y3.7598 I2.0917 J-1.125
N2150 X1.4773 Y3.8125 I0.1918 J-0.3223
N2155 G1 X3.5227
N2160 G2 X3.7144 Y3.7598 I0. J-0.375
N2165 X4.1057 Y3.4687 I-1.2145 J-2.041
N2170 G1 X6.5
N2175 G2 X7.8405 Y2.8437 I0. J-1.75
N2180 G1 X8.375
N2185 G2 X8.603 Y2.7665 I0. J-0.375
N2190 G1 Z-0.01
N2195 G2 X8.75 Y2.4687 I-0.228 J-0.2977
N2200 G1 Y0.9687
N2205 G2 X8.5581 Y0.6415 I-0.375 J0.
N2210 G1 Z-0.3 F1.
N2215 G2 X8.4731 Y0.6068 I-0.1831 J0.3273 F24.
N2220 G3 X8.4204 Y0.5148 I0.0196 J-0.0724
N2225 G1 X8.44 Y0.4424
N2230 X8.4417 Y0.4361 Z-0.2997
N2235 X8.4434 Y0.4298 Z-0.2989
N2240 X8.4451 Y0.4237 Z-0.2974
N2245 X8.4467 Y0.4177 Z-0.2955
N2250 X8.4483 Y0.4118 Z-0.293
N2255 X8.4498 Y0.4062 Z-0.29
N2260 X8.4513 Y0.4009 Z-0.2864
N2265 X8.4526 Y0.3959 Z-0.2825
N2270 X8.4539 Y0.3912 Z-0.278
N2275 X8.455 Y0.387 Z-0.2732
N2280 X8.4561 Y0.3831 Z-0.268
N2285 X8.457 Y0.3797 Z-0.2625
N2290 X8.4578 Y0.3768 Z-0.2567
N2295 X8.4584 Y0.3744 Z-0.2507
N2300 X8.459 Y0.3725 Z-0.2444
N2305 X8.4593 Y0.3711 Z-0.238
N2310 X8.4596 Y0.3703 Z-0.2315
N2315 Y0.37 Z-0.225
N2320 X8.6044 Y0.4093
N2325 Z-0.275 F1.
N2330 X8.6043 Y0.4096 Z-0.2815
N2335 X8.6041 Y0.4104 Z-0.288
N2340 X8.6037 Y0.4118 Z-0.2944
N2345 X8.6032 Y0.4137 Z-0.3007
N2350 X8.6026 Y0.4161 Z-0.3067
N2355 X8.6018 Y0.419 Z-0.3125
N2360 X8.6009 Y0.4224 Z-0.318
N2365 X8.5998 Y0.4262 Z-0.3232
N2370 X8.5987 Y0.4305 Z-0.328
N2375 X8.5974 Y0.4351 Z-0.3325
N2380 X8.596 Y0.4402 Z-0.3364
N2385 X8.5946 Y0.4455 Z-0.34
N2390 X8.5931 Y0.4511 Z-0.343
N2395 X8.5915 Y0.4569 Z-0.3455
N2400 X8.5899 Y0.4629 Z-0.3474
N2405 X8.5882 Y0.4691 Z-0.3489
N2410 X8.5865 Y0.4754 Z-0.3497
N2415 X8.5848 Y0.4817 Z-0.35
N2420 X8.5651 Y0.5541 F24.
N2425 G3 X8.4731 Y0.6068 I-0.0724 J-0.0196
N2430 G2 X8.375 Y0.5937 I-0.0981 J0.3619
N2435 G1 X7.8405
N2440 G2 X6.5 Y-0.0312 I-1.3405 J1.125
N2445 G1 X4.1057
N2450 G2 X3.7144 Y-0.3223 I-1.6056 J1.75
N2455 X3.5227 Y-0.375 I-0.1918 J0.3223
N2460 G1 X1.4773
N2465 G2 X1.2856 Y-0.3223 I0. J0.375
N2470 X0.4084 Y0.5937 I1.2144 J2.041
N2475 G1 X0.
N2480 G2 X-0.1925 Y0.647 I0. J0.375
N2485 G1 Z-0.01
N2490 G2 X-0.375 Y0.9687 I0.1925 J0.3218
N2495 G1 Y2.4687
N2500 G2 X-0.2207 Y2.772 I0.375 J0.
N2505 G1 Z-0.35 F1.
N2510 G2 X0. Y2.8437 I0.2207 J-0.3032 F24.
N2515 G1 X0.4083
N2520 G2 X1.2856 Y3.7598 I2.0917 J-1.125
N2525 X1.4773 Y3.8125 I0.1918 J-0.3223
N2530 G1 X3.5227
N2535 G2 X3.7144 Y3.7598 I0. J-0.375
N2540 X4.1057 Y3.4687 I-1.2145 J-2.041
N2545 G1 X6.5
N2550 G2 X7.8405 Y2.8437 I0. J-1.75
N2555 G1 X8.375
N2560 G2 X8.603 Y2.7665 I0. J-0.375
N2565 G1 Z-0.01
N2570 G2 X8.75 Y2.4687 I-0.228 J-0.2977
N2575 G1 Y0.9687
N2580 G2 X8.5581 Y0.6415 I-0.375 J0.
N2585 G1 Z-0.35 F1.
N2590 G2 X8.4731 Y0.6068 I-0.1831 J0.3273 F24.
N2595 G3 X8.4204 Y0.5148 I0.0196 J-0.0724
N2600 G1 X8.44 Y0.4424
N2605 X8.4417 Y0.4361 Z-0.3497
N2610 X8.4434 Y0.4298 Z-0.3489
N2615 X8.4451 Y0.4237 Z-0.3474
N2620 X8.4467 Y0.4177 Z-0.3455
N2625 X8.4483 Y0.4118 Z-0.343
N2630 X8.4498 Y0.4062 Z-0.34
N2635 X8.4513 Y0.4009 Z-0.3364
N2640 X8.4526 Y0.3959 Z-0.3325
N2645 X8.4539 Y0.3912 Z-0.328
N2650 X8.455 Y0.387 Z-0.3232
N2655 X8.4561 Y0.3831 Z-0.318
N2660 X8.457 Y0.3797 Z-0.3125
N2665 X8.4578 Y0.3768 Z-0.3067
N2670 X8.4584 Y0.3744 Z-0.3007
N2675 X8.459 Y0.3725 Z-0.2944
N2680 X8.4593 Y0.3711 Z-0.288
N2685 X8.4596 Y0.3703 Z-0.2815
N2690 Y0.37 Z-0.275
N2695 X8.6044 Y0.4093
N2700 Z-0.325 F1.
N2705 X8.6043 Y0.4096 Z-0.3315
N2710 X8.6041 Y0.4104 Z-0.338
N2715 X8.6037 Y0.4118 Z-0.3444
N2720 X8.6032 Y0.4137 Z-0.3507
N2725 X8.6026 Y0.4161 Z-0.3567
N2730 X8.6018 Y0.419 Z-0.3625
N2735 X8.6009 Y0.4224 Z-0.368
N2740 X8.5998 Y0.4262 Z-0.3732
N2745 X8.5987 Y0.4305 Z-0.378
N2750 X8.5974 Y0.4351 Z-0.3825
N2755 X8.596 Y0.4402 Z-0.3864
N2760 X8.5946 Y0.4455 Z-0.39
N2765 X8.5931 Y0.4511 Z-0.393
N2770 X8.5915 Y0.4569 Z-0.3955
N2775 X8.5899 Y0.4629 Z-0.3974
N2780 X8.5882 Y0.4691 Z-0.3989
N2785 X8.5865 Y0.4754 Z-0.3997
N2790 X8.5848 Y0.4817 Z-0.4
N2795 X8.5651 Y0.5541 F24.
N2800 G3 X8.4731 Y0.6068 I-0.0724 J-0.0196
N2805 G2 X8.375 Y0.5937 I-0.0981 J0.3619
N2810 G1 X7.8405
N2815 G2 X6.5 Y-0.0312 I-1.3405 J1.125
N2820 G1 X4.1057
N2825 G2 X3.7144 Y-0.3223 I-1.6056 J1.75
N2830 X3.5227 Y-0.375 I-0.1918 J0.3223
N2835 G1 X1.4773
N2840 G2 X1.2856 Y-0.3223 I0. J0.375
N2845 X0.4084 Y0.5937 I1.2144 J2.041
N2850 G1 X0.
N2855 G2 X-0.1925 Y0.647 I0. J0.375
N2860 G1 Z-0.01
N2865 G2 X-0.375 Y0.9687 I0.1925 J0.3218
N2870 G1 Y2.4687
N2875 G2 X-0.2207 Y2.772 I0.375 J0.
N2880 G1 Z-0.4 F1.
N2885 G2 X0. Y2.8437 I0.2207 J-0.3032 F24.
N2890 G1 X0.4083
N2895 G2 X1.2856 Y3.7598 I2.0917 J-1.125
N2900 X1.4773 Y3.8125 I0.1918 J-0.3223
N2905 G1 X3.5227
N2910 G2 X3.7144 Y3.7598 I0. J-0.375
N2915 X4.1057 Y3.4687 I-1.2145 J-2.041
N2920 G1 X6.5
N2925 G2 X7.8405 Y2.8437 I0. J-1.75
N2930 G1 X8.375
N2935 G2 X8.603 Y2.7665 I0. J-0.375
N2940 G1 Z-0.01
N2945 G2 X8.75 Y2.4687 I-0.228 J-0.2977
N2950 G1 Y0.9687
N2955 G2 X8.5581 Y0.6415 I-0.375 J0.
N2960 G1 Z-0.4 F1.
N2965 G2 X8.4731 Y0.6068 I-0.1831 J0.3273 F24.
N2970 G3 X8.4204 Y0.5148 I0.0196 J-0.0724
N2975 G1 X8.44 Y0.4424
N2980 X8.4417 Y0.4361 Z-0.3997
N2985 X8.4434 Y0.4298 Z-0.3989
N2990 X8.4451 Y0.4237 Z-0.3974
N2995 X8.4467 Y0.4177 Z-0.3955
N3000 X8.4483 Y0.4118 Z-0.393
N3005 X8.4498 Y0.4062 Z-0.39
N3010 X8.4513 Y0.4009 Z-0.3864
N3015 X8.4526 Y0.3959 Z-0.3825
N3020 X8.4539 Y0.3912 Z-0.378
N3025 X8.455 Y0.387 Z-0.3732
N3030 X8.4561 Y0.3831 Z-0.368
N3035 X8.457 Y0.3797 Z-0.3625
N3040 X8.4578 Y0.3768 Z-0.3567
N3045 X8.4584 Y0.3744 Z-0.3507
N3050 X8.459 Y0.3725 Z-0.3444
N3055 X8.4593 Y0.3711 Z-0.338
N3060 X8.4596 Y0.3703 Z-0.3315
N3065 Y0.37 Z-0.325
N3070 X8.6044 Y0.4093
N3075 Z-0.375 F1.
N3080 X8.6043 Y0.4096 Z-0.3815
N3085 X8.6041 Y0.4104 Z-0.388
N3090 X8.6037 Y0.4118 Z-0.3944
N3095 X8.6032 Y0.4137 Z-0.4007
N3100 X8.6026 Y0.4161 Z-0.4067
N3105 X8.6018 Y0.419 Z-0.4125
N3110 X8.6009 Y0.4224 Z-0.418
N3115 X8.5998 Y0.4262 Z-0.4232
N3120 X8.5987 Y0.4305 Z-0.428
N3125 X8.5974 Y0.4351 Z-0.4325
N3130 X8.596 Y0.4402 Z-0.4364
N3135 X8.5946 Y0.4455 Z-0.44
N3140 X8.5931 Y0.4511 Z-0.443
N3145 X8.5915 Y0.4569 Z-0.4455
N3150 X8.5899 Y0.4629 Z-0.4474
N3155 X8.5882 Y0.4691 Z-0.4489
N3160 X8.5865 Y0.4754 Z-0.4497
N3165 X8.5848 Y0.4817 Z-0.45
N3170 X8.5651 Y0.5541 F24.
N3175 G3 X8.4731 Y0.6068 I-0.0724 J-0.0196
N3180 G2 X8.375 Y0.5937 I-0.0981 J0.3619
N3185 G1 X7.8405
N3190 G2 X6.5 Y-0.0312 I-1.3405 J1.125
N3195 G1 X4.1057
N3200 G2 X3.7144 Y-0.3223 I-1.6056 J1.75
N3205 X3.5227 Y-0.375 I-0.1918 J0.3223
N3210 G1 X1.4773
N3215 G2 X1.2856 Y-0.3223 I0. J0.375
N3220 X0.4084 Y0.5937 I1.2144 J2.041
N3225 G1 X0.
N3230 G2 X-0.1925 Y0.647 I0. J0.375
N3235 G1 Z-0.01
N3240 G2 X-0.375 Y0.9687 I0.1925 J0.3218
N3245 G1 Y2.4687
N3250 G2 X-0.2207 Y2.772 I0.375 J0.
N3255 G1 Z-0.45 F1.
N3260 G2 X0. Y2.8437 I0.2207 J-0.3032 F24.
N3265 G1 X0.4083
N3270 G2 X1.2856 Y3.7598 I2.0917 J-1.125
N3275 X1.4773 Y3.8125 I0.1918 J-0.3223
N3280 G1 X3.5227
N3285 G2 X3.7144 Y3.7598 I0. J-0.375
N3290 X4.1057 Y3.4687 I-1.2145 J-2.041
N3295 G1 X6.5
N3300 G2 X7.8405 Y2.8437 I0. J-1.75
N3305 G1 X8.375
N3310 G2 X8.603 Y2.7665 I0. J-0.375
N3315 G1 Z-0.01
N3320 G2 X8.75 Y2.4687 I-0.228 J-0.2977
N3325 G1 Y0.9687
N3330 G2 X8.5581 Y0.6415 I-0.375 J0.
N3335 G1 Z-0.45 F1.
N3340 G2 X8.4731 Y0.6068 I-0.1831 J0.3273 F24.
N3345 G3 X8.4204 Y0.5148 I0.0196 J-0.0724
N3350 G1 X8.44 Y0.4424
N3355 X8.4417 Y0.4361 Z-0.4497
N3360 X8.4434 Y0.4298 Z-0.4489
N3365 X8.4451 Y0.4237 Z-0.4474
N3370 X8.4467 Y0.4177 Z-0.4455
N3375 X8.4483 Y0.4118 Z-0.443
N3380 X8.4498 Y0.4062 Z-0.44
N3385 X8.4513 Y0.4009 Z-0.4364
N3390 X8.4526 Y0.3959 Z-0.4325
N3395 X8.4539 Y0.3912 Z-0.428
N3400 X8.455 Y0.387 Z-0.4232
N3405 X8.4561 Y0.3831 Z-0.418
N3410 X8.457 Y0.3797 Z-0.4125
N3415 X8.4578 Y0.3768 Z-0.4067
N3420 X8.4584 Y0.3744 Z-0.4007
N3425 X8.459 Y0.3725 Z-0.3944
N3430 X8.4593 Y0.3711 Z-0.388
N3435 X8.4596 Y0.3703 Z-0.3815
N3440 Y0.37 Z-0.375
N3445 X8.6044 Y0.4093
N3450 Z-0.425 F1.
N3455 X8.6043 Y0.4096 Z-0.4315
N3460 X8.6041 Y0.4104 Z-0.438
N3465 X8.6037 Y0.4118 Z-0.4444
N3470 X8.6032 Y0.4137 Z-0.4507
N3475 X8.6026 Y0.4161 Z-0.4567
N3480 X8.6018 Y0.419 Z-0.4625
N3485 X8.6009 Y0.4224 Z-0.468
N3490 X8.5998 Y0.4262 Z-0.4732
N3495 X8.5987 Y0.4305 Z-0.478
N3500 X8.5974 Y0.4351 Z-0.4825
N3505 X8.596 Y0.4402 Z-0.4864
N3510 X8.5946 Y0.4455 Z-0.49
N3515 X8.5931 Y0.4511 Z-0.493
N3520 X8.5915 Y0.4569 Z-0.4955
N3525 X8.5899 Y0.4629 Z-0.4974
N3530 X8.5882 Y0.4691 Z-0.4989
N3535 X8.5865 Y0.4754 Z-0.4997
N3540 X8.5848 Y0.4817 Z-0.5
N3545 X8.5651 Y0.5541 F24.
N3550 G3 X8.4731 Y0.6068 I-0.0724 J-0.0196
N3555 G2 X8.375 Y0.5937 I-0.0981 J0.3619
N3560 G1 X7.8405
N3565 G2 X6.5 Y-0.0312 I-1.3405 J1.125
N3570 G1 X4.1057
N3575 G2 X3.7144 Y-0.3223 I-1.6056 J1.75
N3580 X3.5227 Y-0.375 I-0.1918 J0.3223
N3585 G1 X1.4773
N3590 G2 X1.2856 Y-0.3223 I0. J0.375
N3595 X0.4084 Y0.5937 I1.2144 J2.041
N3600 G1 X0.
N3605 G2 X-0.1925 Y0.647 I0. J0.375
N3610 G1 Z-0.01
N3615 G2 X-0.375 Y0.9687 I0.1925 J0.3218
N3620 G1 Y2.4687
N3625 G2 X-0.2207 Y2.772 I0.375 J0.
N3630 G1 Z-0.5 F1.
N3635 G2 X0. Y2.8437 I0.2207 J-0.3032 F24.
N3640 G1 X0.4083
N3645 G2 X1.2856 Y3.7598 I2.0917 J-1.125
N3650 X1.4773 Y3.8125 I0.1918 J-0.3223
N3655 G1 X3.5227
N3660 G2 X3.7144 Y3.7598 I0. J-0.375
N3665 X4.1057 Y3.4687 I-1.2145 J-2.041
N3670 G1 X6.5
N3675 G2 X7.8405 Y2.8437 I0. J-1.75
N3680 G1 X8.375
N3685 G2 X8.603 Y2.7665 I0. J-0.375
N3690 G1 Z-0.01
N3695 G2 X8.75 Y2.4687 I-0.228 J-0.2977
N3700 G1 Y0.9687
N3705 G2 X8.5581 Y0.6415 I-0.375 J0.
N3710 G1 Z-0.5 F1.
N3715 G2 X8.4731 Y0.6068 I-0.1831 J0.3273 F24.
N3720 G3 X8.4204 Y0.5148 I0.0196 J-0.0724
N3725 G1 X8.44 Y0.4424
N3730 X8.4417 Y0.4361 Z-0.4997
N3735 X8.4434 Y0.4298 Z-0.4989
N3740 X8.4451 Y0.4237 Z-0.4974
N3745 X8.4467 Y0.4177 Z-0.4955
N3750 X8.4483 Y0.4118 Z-0.493
N3755 X8.4498 Y0.4062 Z-0.49
N3760 X8.4513 Y0.4009 Z-0.4864
N3765 X8.4526 Y0.3959 Z-0.4825
N3770 X8.4539 Y0.3912 Z-0.478
N3775 X8.455 Y0.387 Z-0.4732
N3780 X8.4561 Y0.3831 Z-0.468
N3785 X8.457 Y0.3797 Z-0.4625
N3790 X8.4578 Y0.3768 Z-0.4567
N3795 X8.4584 Y0.3744 Z-0.4507
N3800 X8.459 Y0.3725 Z-0.4444
N3805 X8.4593 Y0.3711 Z-0.438
N3810 X8.4596 Y0.3703 Z-0.4315
N3815 Y0.37 Z-0.425
N3820 X8.6044 Y0.4093
N3825 Z-0.475 F1.
N3830 X8.6043 Y0.4096 Z-0.4815
N3835 X8.6041 Y0.4104 Z-0.488
N3840 X8.6037 Y0.4118 Z-0.4944
N3845 X8.6032 Y0.4137 Z-0.5007
N3850 X8.6026 Y0.4161 Z-0.5067
N3855 X8.6018 Y0.419 Z-0.5125
N3860 X8.6009 Y0.4224 Z-0.518
N3865 X8.5998 Y0.4262 Z-0.5232
N3870 X8.5987 Y0.4305 Z-0.528
N3875 X8.5974 Y0.4351 Z-0.5325
N3880 X8.596 Y0.4402 Z-0.5364
N3885 X8.5946 Y0.4455 Z-0.54
N3890 X8.5931 Y0.4511 Z-0.543
N3895 X8.5915 Y0.4569 Z-0.5455
N3900 X8.5899 Y0.4629 Z-0.5474
N3905 X8.5882 Y0.4691 Z-0.5489
N3910 X8.5865 Y0.4754 Z-0.5497
N3915 X8.5848 Y0.4817 Z-0.55
N3920 X8.5651 Y0.5541 F24.
N3925 G3 X8.4731 Y0.6068 I-0.0724 J-0.0196
N3930 G2 X8.375 Y0.5937 I-0.0981 J0.3619
N3935 G1 X7.8405
N3940 G2 X6.5 Y-0.0312 I-1.3405 J1.125
N3945 G1 X4.1057
N3950 G2 X3.7144 Y-0.3223 I-1.6056 J1.75
N3955 X3.5227 Y-0.375 I-0.1918 J0.3223
N3960 G1 X1.4773
N3965 G2 X1.2856 Y-0.3223 I0. J0.375
N3970 X0.4084 Y0.5937 I1.2144 J2.041
N3975 G1 X0.
N3980 G2 X-0.1925 Y0.647 I0. J0.375
N3985 G1 Z-0.01
N3990 G2 X-0.375 Y0.9687 I0.1925 J0.3218
N3995 G1 Y2.4687
N4000 G2 X-0.2207 Y2.772 I0.375 J0.
N4005 G1 Z-0.55 F1.
N4010 G2 X0. Y2.8437 I0.2207 J-0.3032 F24.
N4015 G1 X0.4083
N4020 G2 X1.2856 Y3.7598 I2.0917 J-1.125
N4025 X1.4773 Y3.8125 I0.1918 J-0.3223
N4030 G1 X3.5227
N4035 G2 X3.7144 Y3.7598 I0. J-0.375
N4040 X4.1057 Y3.4687 I-1.2145 J-2.041
N4045 G1 X6.5
N4050 G2 X7.8405 Y2.8437 I0. J-1.75
N4055 G1 X8.375
N4060 G2 X8.603 Y2.7665 I0. J-0.375
N4065 G1 Z-0.01
N4070 G2 X8.75 Y2.4687 I-0.228 J-0.2977
N4075 G1 Y0.9687
N4080 G2 X8.5581 Y0.6415 I-0.375 J0.
N4085 G1 Z-0.55 F1.
N4090 G2 X8.4731 Y0.6068 I-0.1831 J0.3273 F24.
N4095 G3 X8.4204 Y0.5148 I0.0196 J-0.0724
N4100 G1 X8.44 Y0.4424
N4105 X8.4417 Y0.4361 Z-0.5497
N4110 X8.4434 Y0.4298 Z-0.5489
N4115 X8.4451 Y0.4237 Z-0.5474
N4120 X8.4467 Y0.4177 Z-0.5455
N4125 X8.4483 Y0.4118 Z-0.543
N4130 X8.4498 Y0.4062 Z-0.54
N4135 X8.4513 Y0.4009 Z-0.5364
N4140 X8.4526 Y0.3959 Z-0.5325
N4145 X8.4539 Y0.3912 Z-0.528
N4150 X8.455 Y0.387 Z-0.5232
N4155 X8.4561 Y0.3831 Z-0.518
N4160 X8.457 Y0.3797 Z-0.5125
N4165 X8.4578 Y0.3768 Z-0.5067
N4170 X8.4584 Y0.3744 Z-0.5007
N4175 X8.459 Y0.3725 Z-0.4944
N4180 X8.4593 Y0.3711 Z-0.488
N4185 X8.4596 Y0.3703 Z-0.4815
N4190 Y0.37 Z-0.475
N4195 X8.6044 Y0.4093
N4200 Z-0.525 F1.
N4205 X8.6043 Y0.4096 Z-0.5315
N4210 X8.6041 Y0.4104 Z-0.538
N4215 X8.6037 Y0.4118 Z-0.5444
N4220 X8.6032 Y0.4137 Z-0.5507
N4225 X8.6026 Y0.4161 Z-0.5567
N4230 X8.6018 Y0.419 Z-0.5625
N4235 X8.6009 Y0.4224 Z-0.568
N4240 X8.5998 Y0.4262 Z-0.5732
N4245 X8.5987 Y0.4305 Z-0.578
N4250 X8.5974 Y0.4351 Z-0.5825
N4255 X8.596 Y0.4402 Z-0.5864
N4260 X8.5946 Y0.4455 Z-0.59
N4265 X8.5931 Y0.4511 Z-0.593
N4270 X8.5915 Y0.4569 Z-0.5955
N4275 X8.5899 Y0.4629 Z-0.5974
N4280 X8.5882 Y0.4691 Z-0.5989
N4285 X8.5865 Y0.4754 Z-0.5997
N4290 X8.5848 Y0.4817 Z-0.6
N4295 X8.5651 Y0.5541 F24.
N4300 G3 X8.4731 Y0.6068 I-0.0724 J-0.0196
N4305 G2 X8.375 Y0.5937 I-0.0981 J0.3619
N4310 G1 X7.8405
N4315 G2 X6.5 Y-0.0312 I-1.3405 J1.125
N4320 G1 X4.1057
N4325 G2 X3.7144 Y-0.3223 I-1.6056 J1.75
N4330 X3.5227 Y-0.375 I-0.1918 J0.3223
N4335 G1 X1.4773
N4340 G2 X1.2856 Y-0.3223 I0. J0.375
N4345 X0.4084 Y0.5937 I1.2144 J2.041
N4350 G1 X0.
N4355 G2 X-0.1925 Y0.647 I0. J0.375
N4360 G1 Z-0.01
N4365 G2 X-0.375 Y0.9687 I0.1925 J0.3218
N4370 G1 Y2.4687
N4375 G2 X-0.2207 Y2.772 I0.375 J0.
N4380 G1 Z-0.6 F1.
N4385 G2 X0. Y2.8437 I0.2207 J-0.3032 F24.
N4390 G1 X0.4083
N4395 G2 X1.2856 Y3.7598 I2.0917 J-1.125
N4400 X1.4773 Y3.8125 I0.1918 J-0.3223
N4405 G1 X3.5227
N4410 G2 X3.7144 Y3.7598 I0. J-0.375
N4415 X4.1057 Y3.4687 I-1.2145 J-2.041
N4420 G1 X6.5
N4425 G2 X7.8405 Y2.8437 I0. J-1.75
N4430 G1 X8.375
N4435 G2 X8.603 Y2.7665 I0. J-0.375
N4440 G1 Z-0.01
N4445 G2 X8.75 Y2.4687 I-0.228 J-0.2977
N4450 G1 Y0.9687
N4455 G2 X8.5581 Y0.6415 I-0.375 J0.
N4460 G1 Z-0.6 F1.
N4465 G2 X8.4731 Y0.6068 I-0.1831 J0.3273 F24.
N4470 G3 X8.4204 Y0.5148 I0.0196 J-0.0724
N4475 G1 X8.44 Y0.4424
N4480 X8.4417 Y0.4361 Z-0.5997
N4485 X8.4434 Y0.4298 Z-0.5989
N4490 X8.4451 Y0.4237 Z-0.5974
N4495 X8.4467 Y0.4177 Z-0.5955
N4500 X8.4483 Y0.4118 Z-0.593
N4505 X8.4498 Y0.4062 Z-0.59
N4510 X8.4513 Y0.4009 Z-0.5864
N4515 X8.4526 Y0.3959 Z-0.5825
N4520 X8.4539 Y0.3912 Z-0.578
N4525 X8.455 Y0.387 Z-0.5732
N4530 X8.4561 Y0.3831 Z-0.568
N4535 X8.457 Y0.3797 Z-0.5625
N4540 X8.4578 Y0.3768 Z-0.5567
N4545 X8.4584 Y0.3744 Z-0.5507
N4550 X8.459 Y0.3725 Z-0.5444
N4555 X8.4593 Y0.3711 Z-0.538
N4560 X8.4596 Y0.3703 Z-0.5315
N4565 Y0.37 Z-0.525
N4570 X8.6044 Y0.4093
N4575 Z-0.575 F1.
N4580 X8.6043 Y0.4096 Z-0.5815
N4585 X8.6041 Y0.4104 Z-0.588
N4590 X8.6037 Y0.4118 Z-0.5944
N4595 X8.6032 Y0.4137 Z-0.6007
N4600 X8.6026 Y0.4161 Z-0.6067
N4605 X8.6018 Y0.419 Z-0.6125
N4610 X8.6009 Y0.4224 Z-0.618
N4615 X8.5998 Y0.4262 Z-0.6232
N4620 X8.5987 Y0.4305 Z-0.628
N4625 X8.5974 Y0.4351 Z-0.6325
N4630 X8.596 Y0.4402 Z-0.6364
N4635 X8.5946 Y0.4455 Z-0.64
N4640 X8.5931 Y0.4511 Z-0.643
N4645 X8.5915 Y0.4569 Z-0.6455
N4650 X8.5899 Y0.4629 Z-0.6474
N4655 X8.5882 Y0.4691 Z-0.6489
N4660 X8.5865 Y0.4754 Z-0.6497
N4665 X8.5848 Y0.4817 Z-0.65
N4670 X8.5651 Y0.5541 F24.
N4675 G3 X8.4731 Y0.6068 I-0.0724 J-0.0196
N4680 G2 X8.375 Y0.5937 I-0.0981 J0.3619
N4685 G1 X7.8405
N4690 G2 X6.5 Y-0.0312 I-1.3405 J1.125
N4695 G1 X4.1057
N4700 G2 X3.7144 Y-0.3223 I-1.6056 J1.75
N4705 X3.5227 Y-0.375 I-0.1918 J0.3223
N4710 G1 X1.4773
N4715 G2 X1.2856 Y-0.3223 I0. J0.375
N4720 X0.4084 Y0.5937 I1.2144 J2.041
N4725 G1 X0.
N4730 G2 X-0.1925 Y0.647 I0. J0.375
N4735 G1 Z-0.01
N4740 G2 X-0.375 Y0.9687 I0.1925 J0.3218
N4745 G1 Y2.4687
N4750 G2 X-0.2207 Y2.772 I0.375 J0.
N4755 G1 Z-0.65 F1.
N4760 G2 X0. Y2.8437 I0.2207 J-0.3032 F24.
N4765 G1 X0.4083
N4770 G2 X1.2856 Y3.7598 I2.0917 J-1.125
N4775 X1.4773 Y3.8125 I0.1918 J-0.3223
N4780 G1 X3.5227
N4785 G2 X3.7144 Y3.7598 I0. J-0.375
N4790 X4.1057 Y3.4687 I-1.2145 J-2.041
N4795 G1 X6.5
N4800 G2 X7.8405 Y2.8437 I0. J-1.75
N4805 G1 X8.375
N4810 G2 X8.603 Y2.7665 I0. J-0.375
N4815 G1 Z-0.01
N4820 G2 X8.75 Y2.4687 I-0.228 J-0.2977
N4825 G1 Y0.9687
N4830 G2 X8.5581 Y0.6415 I-0.375 J0.
N4835 G1 Z-0.65 F1.
N4840 G2 X8.4731 Y0.6068 I-0.1831 J0.3273 F24.
N4845 G3 X8.4204 Y0.5148 I0.0196 J-0.0724
N4850 G1 X8.44 Y0.4424
N4855 X8.4417 Y0.4361 Z-0.6497
N4860 X8.4434 Y0.4298 Z-0.6489
N4865 X8.4451 Y0.4237 Z-0.6474
N4870 X8.4467 Y0.4177 Z-0.6455
N4875 X8.4483 Y0.4118 Z-0.643
N4880 X8.4498 Y0.4062 Z-0.64
N4885 X8.4513 Y0.4009 Z-0.6364
N4890 X8.4526 Y0.3959 Z-0.6325
N4895 X8.4539 Y0.3912 Z-0.628
N4900 X8.455 Y0.387 Z-0.6232
N4905 X8.4561 Y0.3831 Z-0.618
N4910 X8.457 Y0.3797 Z-0.6125
N4915 X8.4578 Y0.3768 Z-0.6067
N4920 X8.4584 Y0.3744 Z-0.6007
N4925 X8.459 Y0.3725 Z-0.5944
N4930 X8.4593 Y0.3711 Z-0.588
N4935 X8.4596 Y0.3703 Z-0.5815
N4940 Y0.37 Z-0.575
N4945 X8.6044 Y0.4093
N4950 Z-0.625 F1.
N4955 X8.6043 Y0.4096 Z-0.6315
N4960 X8.6041 Y0.4104 Z-0.638
N4965 X8.6037 Y0.4118 Z-0.6444
N4970 X8.6032 Y0.4137 Z-0.6507
N4975 X8.6026 Y0.4161 Z-0.6567
N4980 X8.6018 Y0.419 Z-0.6625
N4985 X8.6009 Y0.4224 Z-0.668
N4990 X8.5998 Y0.4262 Z-0.6732
N4995 X8.5987 Y0.4305 Z-0.678
N5000 X8.5974 Y0.4351 Z-0.6825
N5005 X8.596 Y0.4402 Z-0.6864
N5010 X8.5946 Y0.4455 Z-0.69
N5015 X8.5931 Y0.4511 Z-0.693
N5020 X8.5915 Y0.4569 Z-0.6955
N5025 X8.5899 Y0.4629 Z-0.6974
N5030 X8.5882 Y0.4691 Z-0.6989
N5035 X8.5865 Y0.4754 Z-0.6997
N5040 X8.5848 Y0.4817 Z-0.7
N5045 X8.5651 Y0.5541 F24.
N5050 G3 X8.4731 Y0.6068 I-0.0724 J-0.0196
N5055 G2 X8.375 Y0.5937 I-0.0981 J0.3619
N5060 G1 X7.8405
N5065 G2 X6.5 Y-0.0312 I-1.3405 J1.125
N5070 G1 X4.1057
N5075 G2 X3.7144 Y-0.3223 I-1.6056 J1.75
N5080 X3.5227 Y-0.375 I-0.1918 J0.3223
N5085 G1 X1.4773
N5090 G2 X1.2856 Y-0.3223 I0. J0.375
N5095 X0.4084 Y0.5937 I1.2144 J2.041
N5100 G1 X0.
N5105 G2 X-0.1925 Y0.647 I0. J0.375
N5110 G1 Z-0.01
N5115 G2 X-0.375 Y0.9687 I0.1925 J0.3218
N5120 G1 Y2.4687
N5125 G2 X-0.2207 Y2.772 I0.375 J0.
N5130 G1 Z-0.7 F1.
N5135 G2 X0. Y2.8437 I0.2207 J-0.3032 F24.
N5140 G1 X0.4083
N5145 G2 X1.2856 Y3.7598 I2.0917 J-1.125
N5150 X1.4773 Y3.8125 I0.1918 J-0.3223
N5155 G1 X3.5227
N5160 G2 X3.7144 Y3.7598 I0. J-0.375
N5165 X4.1057 Y3.4687 I-1.2145 J-2.041
N5170 G1 X6.5
N5175 G2 X7.8405 Y2.8437 I0. J-1.75
N5180 G1 X8.375
N5185 G2 X8.603 Y2.7665 I0. J-0.375
N5190 G1 Z-0.01
N5195 G2 X8.75 Y2.4687 I-0.228 J-0.2977
N5200 G1 Y0.9687
N5205 G2 X8.5581 Y0.6415 I-0.375 J0.
N5210 G1 Z-0.7 F1.
N5215 G2 X8.4731 Y0.6068 I-0.1831 J0.3273 F24.
N5220 G3 X8.4204 Y0.5148 I0.0196 J-0.0724
N5225 G1 X8.44 Y0.4424
N5230 X8.4417 Y0.4361 Z-0.6997
N5235 X8.4434 Y0.4298 Z-0.6989
N5240 X8.4451 Y0.4237 Z-0.6974
N5245 X8.4467 Y0.4177 Z-0.6955
N5250 X8.4483 Y0.4118 Z-0.693
N5255 X8.4498 Y0.4062 Z-0.69
N5260 X8.4513 Y0.4009 Z-0.6864
N5265 X8.4526 Y0.3959 Z-0.6825
N5270 X8.4539 Y0.3912 Z-0.678
N5275 X8.455 Y0.387 Z-0.6732
N5280 X8.4561 Y0.3831 Z-0.668
N5285 X8.457 Y0.3797 Z-0.6625
N5290 X8.4578 Y0.3768 Z-0.6567
N5295 X8.4584 Y0.3744 Z-0.6507
N5300 X8.459 Y0.3725 Z-0.6444
N5305 X8.4593 Y0.3711 Z-0.638
N5310 X8.4596 Y0.3703 Z-0.6315
N5315 Y0.37 Z-0.625
N5320 X8.6044 Y0.4093
N5325 Z-0.675 F1.
N5330 X8.6043 Y0.4096 Z-0.6815
N5335 X8.6041 Y0.4104 Z-0.688
N5340 X8.6037 Y0.4118 Z-0.6944
N5345 X8.6032 Y0.4137 Z-0.7007
N5350 X8.6026 Y0.4161 Z-0.7067
N5355 X8.6018 Y0.419 Z-0.7125
N5360 X8.6009 Y0.4224 Z-0.718
N5365 X8.5998 Y0.4262 Z-0.7232
N5370 X8.5987 Y0.4305 Z-0.728
N5375 X8.5974 Y0.4351 Z-0.7325
N5380 X8.596 Y0.4402 Z-0.7364
N5385 X8.5946 Y0.4455 Z-0.74
N5390 X8.5931 Y0.4511 Z-0.743
N5395 X8.5915 Y0.4569 Z-0.7455
N5400 X8.5899 Y0.4629 Z-0.7474
N5405 X8.5882 Y0.4691 Z-0.7489
N5410 X8.5865 Y0.4754 Z-0.7497
N5415 X8.5848 Y0.4817 Z-0.75
N5420 X8.5651 Y0.5541 F24.
N5425 G3 X8.4731 Y0.6068 I-0.0724 J-0.0196
N5430 G2 X8.375 Y0.5937 I-0.0981 J0.3619
N5435 G1 X7.8405
N5440 G2 X6.5 Y-0.0312 I-1.3405 J1.125
N5445 G1 X4.1057
N5450 G2 X3.7144 Y-0.3223 I-1.6056 J1.75
N5455 X3.5227 Y-0.375 I-0.1918 J0.3223
N5460 G1 X1.4773
N5465 G2 X1.2856 Y-0.3223 I0. J0.375
N5470 X0.4084 Y0.5937 I1.2144 J2.041
N5475 G1 X0.
N5480 G2 X-0.1925 Y0.647 I0. J0.375
N5485 G1 Z-0.01
N5490 G2 X-0.375 Y0.9687 I0.1925 J0.3218
N5495 G1 Y2.4687
N5500 G2 X-0.2207 Y2.772 I0.375 J0.
N5505 G1 Z-0.75 F1.
N5510 G2 X0. Y2.8437 I0.2207 J-0.3032 F24.
N5515 G1 X0.4083
N5520 G2 X1.2856 Y3.7598 I2.0917 J-1.125
N5525 X1.4773 Y3.8125 I0.1918 J-0.3223
N5530 G1 X3.5227
N5535 G2 X3.7144 Y3.7598 I0. J-0.375
N5540 X4.1057 Y3.4687 I-1.2145 J-2.041
N5545 G1 X6.5
N5550 G2 X7.8405 Y2.8437 I0. J-1.75
N5555 G1 X8.375
N5560 G2 X8.603 Y2.7665 I0. J-0.375
N5565 G1 Z-0.01
N5570 G2 X8.75 Y2.4687 I-0.228 J-0.2977
N5575 G1 Y0.9687
N5580 G2 X8.5581 Y0.6415 I-0.375 J0.
N5585 G1 Z-0.75 F1.
N5590 G2 X8.4731 Y0.6068 I-0.1831 J0.3273 F24.
N5595 G3 X8.4204 Y0.5148 I0.0196 J-0.0724
N5600 G1 X8.44 Y0.4424
N5605 X8.4417 Y0.4361 Z-0.7497
N5610 X8.4434 Y0.4298 Z-0.7489
N5615 X8.4451 Y0.4237 Z-0.7474
N5620 X8.4467 Y0.4177 Z-0.7455
N5625 X8.4483 Y0.4118 Z-0.743
N5630 X8.4498 Y0.4062 Z-0.74
N5635 X8.4513 Y0.4009 Z-0.7364
N5640 X8.4526 Y0.3959 Z-0.7325
N5645 X8.4539 Y0.3912 Z-0.728
N5650 X8.455 Y0.387 Z-0.7232
N5655 X8.4561 Y0.3831 Z-0.718
N5660 X8.457 Y0.3797 Z-0.7125
N5665 X8.4578 Y0.3768 Z-0.7067
N5670 X8.4584 Y0.3744 Z-0.7007
N5675 X8.459 Y0.3725 Z-0.6944
N5680 X8.4593 Y0.3711 Z-0.688
N5685 X8.4596 Y0.3703 Z-0.6815
N5690 Y0.37 Z-0.675
N5695 X8.6044 Y0.4093
N5700 Z-0.725 F1.
N5705 X8.6043 Y0.4096 Z-0.7315
N5710 X8.6041 Y0.4104 Z-0.738
N5715 X8.6037 Y0.4118 Z-0.7444
N5720 X8.6032 Y0.4137 Z-0.7507
N5725 X8.6026 Y0.4161 Z-0.7567
N5730 X8.6018 Y0.419 Z-0.7625
N5735 X8.6009 Y0.4224 Z-0.768
N5740 X8.5998 Y0.4262 Z-0.7732
N5745 X8.5987 Y0.4305 Z-0.778
N5750 X8.5974 Y0.4351 Z-0.7825
N5755 X8.596 Y0.4402 Z-0.7864
N5760 X8.5946 Y0.4455 Z-0.79
N5765 X8.5931 Y0.4511 Z-0.793
N5770 X8.5915 Y0.4569 Z-0.7955
N5775 X8.5899 Y0.4629 Z-0.7974
N5780 X8.5882 Y0.4691 Z-0.7989
N5785 X8.5865 Y0.4754 Z-0.7997
N5790 X8.5848 Y0.4817 Z-0.8
N5795 X8.5651 Y0.5541 F24.
N5800 G3 X8.4731 Y0.6068 I-0.0724 J-0.0196
N5805 G2 X8.375 Y0.5937 I-0.0981 J0.3619
N5810 G1 X7.8405
N5815 G2 X6.5 Y-0.0312 I-1.3405 J1.125
N5820 G1 X4.1057
N5825 G2 X3.7144 Y-0.3223 I-1.6056 J1.75
N5830 X3.5227 Y-0.375 I-0.1918 J0.3223
N5835 G1 X1.4773
N5840 G2 X1.2856 Y-0.3223 I0. J0.375
N5845 X0.4084 Y0.5937 I1.2144 J2.041
N5850 G1 X0.
N5855 G2 X-0.1925 Y0.647 I0. J0.375
N5860 G1 Z-0.01
N5865 G2 X-0.375 Y0.9687 I0.1925 J0.3218
N5870 G1 Y2.4687
N5875 G2 X-0.2207 Y2.772 I0.375 J0.
N5880 G1 Z-0.8 F1.
N5885 G2 X0. Y2.8437 I0.2207 J-0.3032 F24.
N5890 G1 X0.4083
N5895 G2 X1.2856 Y3.7598 I2.0917 J-1.125
N5900 X1.4773 Y3.8125 I0.1918 J-0.3223
N5905 G1 X3.5227
N5910 G2 X3.7144 Y3.7598 I0. J-0.375
N5915 X4.1057 Y3.4687 I-1.2145 J-2.041
N5920 G1 X6.5
N5925 G2 X7.8405 Y2.8437 I0. J-1.75
N5930 G1 X8.375
N5935 G2 X8.603 Y2.7665 I0. J-0.375
N5940 G1 Z-0.01
N5945 G2 X8.75 Y2.4687 I-0.228 J-0.2977
N5950 G1 Y0.9687
N5955 G2 X8.5581 Y0.6415 I-0.375 J0.
N5960 G1 Z-0.8 F1.
N5965 G2 X8.4731 Y0.6068 I-0.1831 J0.3273 F24.
N5970 G3 X8.4204 Y0.5148 I0.0196 J-0.0724
N5975 G1 X8.44 Y0.4424
N5980 X8.4417 Y0.4361 Z-0.7997
N5985 X8.4434 Y0.4298 Z-0.7989
N5990 X8.4451 Y0.4237 Z-0.7974
N5995 X8.4467 Y0.4177 Z-0.7955
N6000 X8.4483 Y0.4118 Z-0.793
N6005 X8.4498 Y0.4062 Z-0.79
N6010 X8.4513 Y0.4009 Z-0.7864
N6015 X8.4526 Y0.3959 Z-0.7825
N6020 X8.4539 Y0.3912 Z-0.778
N6025 X8.455 Y0.387 Z-0.7732
N6030 X8.4561 Y0.3831 Z-0.768
N6035 X8.457 Y0.3797 Z-0.7625
N6040 X8.4578 Y0.3768 Z-0.7567
N6045 X8.4584 Y0.3744 Z-0.7507
N6050 X8.459 Y0.3725 Z-0.7444
N6055 X8.4593 Y0.3711 Z-0.738
N6060 X8.4596 Y0.3703 Z-0.7315
N6065 Y0.37 Z-0.725
N6070 X8.6044 Y0.4093
N6075 Z-0.775 F1.
N6080 X8.6043 Y0.4096 Z-0.7815
N6085 X8.6041 Y0.4104 Z-0.788
N6090 X8.6037 Y0.4118 Z-0.7944
N6095 X8.6032 Y0.4137 Z-0.8007
N6100 X8.6026 Y0.4161 Z-0.8067
N6105 X8.6018 Y0.419 Z-0.8125
N6110 X8.6009 Y0.4224 Z-0.818
N6115 X8.5998 Y0.4262 Z-0.8232
N6120 X8.5987 Y0.4305 Z-0.828
N6125 X8.5974 Y0.4351 Z-0.8325
N6130 X8.596 Y0.4402 Z-0.8364
N6135 X8.5946 Y0.4455 Z-0.84
N6140 X8.5931 Y0.4511 Z-0.843
N6145 X8.5915 Y0.4569 Z-0.8455
N6150 X8.5899 Y0.4629 Z-0.8474
N6155 X8.5882 Y0.4691 Z-0.8489
N6160 X8.5865 Y0.4754 Z-0.8497
N6165 X8.5848 Y0.4817 Z-0.85
N6170 X8.5651 Y0.5541 F24.
N6175 G3 X8.4731 Y0.6068 I-0.0724 J-0.0196
N6180 G2 X8.375 Y0.5937 I-0.0981 J0.3619
N6185 G1 X7.8405
N6190 G2 X6.5 Y-0.0312 I-1.3405 J1.125
N6195 G1 X4.1057
N6200 G2 X3.7144 Y-0.3223 I-1.6056 J1.75
N6205 X3.5227 Y-0.375 I-0.1918 J0.3223
N6210 G1 X1.4773
N6215 G2 X1.2856 Y-0.3223 I0. J0.375
N6220 X0.4084 Y0.5937 I1.2144 J2.041
N6225 G1 X0.
N6230 G2 X-0.1925 Y0.647 I0. J0.375
N6235 G1 Z-0.01
N6240 G2 X-0.375 Y0.9687 I0.1925 J0.3218
N6245 G1 Y2.4687
N6250 G2 X-0.2207 Y2.772 I0.375 J0.
N6255 G1 Z-0.85 F1.
N6260 G2 X0. Y2.8437 I0.2207 J-0.3032 F24.
N6265 G1 X0.4083
N6270 G2 X1.2856 Y3.7598 I2.0917 J-1.125
N6275 X1.4773 Y3.8125 I0.1918 J-0.3223
N6280 G1 X3.5227
N6285 G2 X3.7144 Y3.7598 I0. J-0.375
N6290 X4.1057 Y3.4687 I-1.2145 J-2.041
N6295 G1 X6.5
N6300 G2 X7.8405 Y2.8437 I0. J-1.75
N6305 G1 X8.375
N6310 G2 X8.603 Y2.7665 I0. J-0.375
N6315 G1 Z-0.01
N6320 G2 X8.75 Y2.4687 I-0.228 J-0.2977
N6325 G1 Y0.9687
N6330 G2 X8.5581 Y0.6415 I-0.375 J0.
N6335 G1 Z-0.85 F1.
N6340 G2 X8.4731 Y0.6068 I-0.1831 J0.3273 F24.
N6345 G3 X8.4204 Y0.5148 I0.0196 J-0.0724
N6350 G1 X8.44 Y0.4424
N6355 X8.4417 Y0.4361 Z-0.8497
N6360 X8.4434 Y0.4298 Z-0.8489
N6365 X8.4451 Y0.4237 Z-0.8474
N6370 X8.4467 Y0.4177 Z-0.8455
N6375 X8.4483 Y0.4118 Z-0.843
N6380 X8.4498 Y0.4062 Z-0.84
N6385 X8.4513 Y0.4009 Z-0.8364
N6390 X8.4526 Y0.3959 Z-0.8325
N6395 X8.4539 Y0.3912 Z-0.828
N6400 X8.455 Y0.387 Z-0.8232
N6405 X8.4561 Y0.3831 Z-0.818
N6410 X8.457 Y0.3797 Z-0.8125
N6415 X8.4578 Y0.3768 Z-0.8067
N6420 X8.4584 Y0.3744 Z-0.8007
N6425 X8.459 Y0.3725 Z-0.7944
N6430 X8.4593 Y0.3711 Z-0.788
N6435 X8.4596 Y0.3703 Z-0.7815
N6440 Y0.37 Z-0.775
N6445 X8.6044 Y0.4093
N6450 Z-0.825 F1.
N6455 X8.6043 Y0.4096 Z-0.8315
N6460 X8.6041 Y0.4104 Z-0.838
N6465 X8.6037 Y0.4118 Z-0.8444
N6470 X8.6032 Y0.4137 Z-0.8507
N6475 X8.6026 Y0.4161 Z-0.8567
N6480 X8.6018 Y0.419 Z-0.8625
N6485 X8.6009 Y0.4224 Z-0.868
N6490 X8.5998 Y0.4262 Z-0.8732
N6495 X8.5987 Y0.4305 Z-0.878
N6500 X8.5974 Y0.4351 Z-0.8825
N6505 X8.596 Y0.4402 Z-0.8864
N6510 X8.5946 Y0.4455 Z-0.89
N6515 X8.5931 Y0.4511 Z-0.893
N6520 X8.5915 Y0.4569 Z-0.8955
N6525 X8.5899 Y0.4629 Z-0.8974
N6530 X8.5882 Y0.4691 Z-0.8989
N6535 X8.5865 Y0.4754 Z-0.8997
N6540 X8.5848 Y0.4817 Z-0.9
N6545 X8.5651 Y0.5541 F24.
N6550 G3 X8.4731 Y0.6068 I-0.0724 J-0.0196
N6555 G2 X8.375 Y0.5937 I-0.0981 J0.3619
N6560 G1 X7.8405
N6565 G2 X6.5 Y-0.0312 I-1.3405 J1.125
N6570 G1 X4.1057
N6575 G2 X3.7144 Y-0.3223 I-1.6056 J1.75
N6580 X3.5227 Y-0.375 I-0.1918 J0.3223
N6585 G1 X1.4773
N6590 G2 X1.2856 Y-0.3223 I0. J0.375
N6595 X0.4084 Y0.5937 I1.2144 J2.041
N6600 G1 X0.
N6605 G2 X-0.1925 Y0.647 I0. J0.375
N6610 G1 Z-0.01
N6615 G2 X-0.375 Y0.9687 I0.1925 J0.3218
N6620 G1 Y2.4687
N6625 G2 X-0.2207 Y2.772 I0.375 J0.
N6630 G1 Z-0.9 F1.
N6635 G2 X0. Y2.8437 I0.2207 J-0.3032 F24.
N6640 G1 X0.4083
N6645 G2 X1.2856 Y3.7598 I2.0917 J-1.125
N6650 X1.4773 Y3.8125 I0.1918 J-0.3223
N6655 G1 X3.5227
N6660 G2 X3.7144 Y3.7598 I0. J-0.375
N6665 X4.1057 Y3.4687 I-1.2145 J-2.041
N6670 G1 X6.5
N6675 G2 X7.8405 Y2.8437 I0. J-1.75
N6680 G1 X8.375
N6685 G2 X8.603 Y2.7665 I0. J-0.375
N6690 G1 Z-0.01
N6695 G2 X8.75 Y2.4687 I-0.228 J-0.2977
N6700 G1 Y0.9687
N6705 G2 X8.5581 Y0.6415 I-0.375 J0.
N6710 G1 Z-0.9 F1.
N6715 G2 X8.4731 Y0.6068 I-0.1831 J0.3273 F24.
N6720 G3 X8.4204 Y0.5148 I0.0196 J-0.0724
N6725 G1 X8.44 Y0.4424
N6730 X8.4417 Y0.4361 Z-0.8997
N6735 X8.4434 Y0.4298 Z-0.8989
N6740 X8.4451 Y0.4237 Z-0.8974
N6745 X8.4467 Y0.4177 Z-0.8955
N6750 X8.4483 Y0.4118 Z-0.893
N6755 X8.4498 Y0.4062 Z-0.89
N6760 X8.4513 Y0.4009 Z-0.8864
N6765 X8.4526 Y0.3959 Z-0.8825
N6770 X8.4539 Y0.3912 Z-0.878
N6775 X8.455 Y0.387 Z-0.8732
N6780 X8.4561 Y0.3831 Z-0.868
N6785 X8.457 Y0.3797 Z-0.8625
N6790 X8.4578 Y0.3768 Z-0.8567
N6795 X8.4584 Y0.3744 Z-0.8507
N6800 X8.459 Y0.3725 Z-0.8444
N6805 X8.4593 Y0.3711 Z-0.838
N6810 X8.4596 Y0.3703 Z-0.8315
N6815 Y0.37 Z-0.825
N6820 X8.6044 Y0.4093
N6825 Z-0.875 F1.
N6830 X8.6043 Y0.4096 Z-0.8815
N6835 X8.6041 Y0.4104 Z-0.888
N6840 X8.6037 Y0.4118 Z-0.8944
N6845 X8.6032 Y0.4137 Z-0.9007
N6850 X8.6026 Y0.4161 Z-0.9067
N6855 X8.6018 Y0.419 Z-0.9125
N6860 X8.6009 Y0.4224 Z-0.918
N6865 X8.5998 Y0.4262 Z-0.9232
N6870 X8.5987 Y0.4305 Z-0.928
N6875 X8.5974 Y0.4351 Z-0.9325
N6880 X8.596 Y0.4402 Z-0.9364
N6885 X8.5946 Y0.4455 Z-0.94
N6890 X8.5931 Y0.4511 Z-0.943
N6895 X8.5915 Y0.4569 Z-0.9455
N6900 X8.5899 Y0.4629 Z-0.9474
N6905 X8.5882 Y0.4691 Z-0.9489
N6910 X8.5865 Y0.4754 Z-0.9497
N6915 X8.5848 Y0.4817 Z-0.95
N6920 X8.5651 Y0.5541 F24.
N6925 G3 X8.4731 Y0.6068 I-0.0724 J-0.0196
N6930 G2 X8.375 Y0.5937 I-0.0981 J0.3619
N6935 G1 X7.8405
N6940 G2 X6.5 Y-0.0312 I-1.3405 J1.125
N6945 G1 X4.1057
N6950 G2 X3.7144 Y-0.3223 I-1.6056 J1.75
N6955 X3.5227 Y-0.375 I-0.1918 J0.3223
N6960 G1 X1.4773
N6965 G2 X1.2856 Y-0.3223 I0. J0.375
N6970 X0.4084 Y0.5937 I1.2144 J2.041
N6975 G1 X0.
N6980 G2 X-0.1925 Y0.647 I0. J0.375
N6985 G1 Z-0.01
N6990 G2 X-0.375 Y0.9687 I0.1925 J0.3218
N6995 G1 Y2.4687
N7000 G2 X-0.2207 Y2.772 I0.375 J0.
N7005 G1 Z-0.95 F1.
N7010 G2 X0. Y2.8437 I0.2207 J-0.3032 F24.
N7015 G1 X0.4083
N7020 G2 X1.2856 Y3.7598 I2.0917 J-1.125
N7025 X1.4773 Y3.8125 I0.1918 J-0.3223
N7030 G1 X3.5227
N7035 G2 X3.7144 Y3.7598 I0. J-0.375
N7040 X4.1057 Y3.4687 I-1.2145 J-2.041
N7045 G1 X6.5
N7050 G2 X7.8405 Y2.8437 I0. J-1.75
N7055 G1 X8.375
N7060 G2 X8.603 Y2.7665 I0. J-0.375
N7065 G1 Z-0.01
N7070 G2 X8.75 Y2.4687 I-0.228 J-0.2977
N7075 G1 Y0.9687
N7080 G2 X8.5581 Y0.6415 I-0.375 J0.
N7085 G1 Z-0.95 F1.
N7090 G2 X8.4731 Y0.6068 I-0.1831 J0.3273 F24.
N7095 G3 X8.4204 Y0.5148 I0.0196 J-0.0724
N7100 G1 X8.44 Y0.4424
N7105 X8.4417 Y0.4361 Z-0.9497
N7110 X8.4434 Y0.4298 Z-0.9489
N7115 X8.4451 Y0.4237 Z-0.9474
N7120 X8.4467 Y0.4177 Z-0.9455
N7125 X8.4483 Y0.4118 Z-0.943
N7130 X8.4498 Y0.4062 Z-0.94
N7135 X8.4513 Y0.4009 Z-0.9364
N7140 X8.4526 Y0.3959 Z-0.9325
N7145 X8.4539 Y0.3912 Z-0.928
N7150 X8.455 Y0.387 Z-0.9232
N7155 X8.4561 Y0.3831 Z-0.918
N7160 X8.457 Y0.3797 Z-0.9125
N7165 X8.4578 Y0.3768 Z-0.9067
N7170 X8.4584 Y0.3744 Z-0.9007
N7175 X8.459 Y0.3725 Z-0.8944
N7180 X8.4593 Y0.3711 Z-0.888
N7185 X8.4596 Y0.3703 Z-0.8815
N7190 Y0.37 Z-0.875
N7195 X8.6044 Y0.4093
N7200 Z-0.905 F1.
N7205 X8.6043 Y0.4096 Z-0.9115
N7210 X8.6041 Y0.4104 Z-0.918
N7215 X8.6037 Y0.4118 Z-0.9244
N7220 X8.6032 Y0.4137 Z-0.9307
N7225 X8.6026 Y0.4161 Z-0.9367
N7230 X8.6018 Y0.419 Z-0.9425
N7235 X8.6009 Y0.4224 Z-0.948
N7240 X8.5998 Y0.4262 Z-0.9532
N7245 X8.5987 Y0.4305 Z-0.958
N7250 X8.5974 Y0.4351 Z-0.9625
N7255 X8.596 Y0.4402 Z-0.9664
N7260 X8.5946 Y0.4455 Z-0.97
N7265 X8.5931 Y0.4511 Z-0.973
N7270 X8.5915 Y0.4569 Z-0.9755
N7275 X8.5899 Y0.4629 Z-0.9774
N7280 X8.5882 Y0.4691 Z-0.9789
N7285 X8.5865 Y0.4754 Z-0.9797
N7290 X8.5848 Y0.4817 Z-0.98
N7295 X8.5651 Y0.5541 F24.
N7300 G3 X8.4731 Y0.6068 I-0.0724 J-0.0196
N7305 G2 X8.375 Y0.5937 I-0.0981 J0.3619
N7310 G1 X7.8405
N7315 G2 X6.5 Y-0.0312 I-1.3405 J1.125
N7320 G1 X4.1057
N7325 G2 X3.7144 Y-0.3223 I-1.6056 J1.75
N7330 X3.5227 Y-0.375 I-0.1918 J0.3223
N7335 G1 X1.4773
N7340 G2 X1.2856 Y-0.3223 I0. J0.375
N7345 X0.4084 Y0.5937 I1.2144 J2.041
N7350 G1 X0.
N7355 G2 X-0.1925 Y0.647 I0. J0.375
N7360 G1 Z-0.01
N7365 G2 X-0.375 Y0.9687 I0.1925 J0.3218
N7370 G1 Y2.4687
N7375 G2 X-0.2207 Y2.772 I0.375 J0.
N7380 G1 Z-0.98 F1.
N7385 G2 X0. Y2.8437 I0.2207 J-0.3032 F24.
N7390 G1 X0.4083
N7395 G2 X1.2856 Y3.7598 I2.0917 J-1.125
N7400 X1.4773 Y3.8125 I0.1918 J-0.3223
N7405 G1 X3.5227
N7410 G2 X3.7144 Y3.7598 I0. J-0.375
N7415 X4.1057 Y3.4687 I-1.2145 J-2.041
N7420 G1 X6.5
N7425 G2 X7.8405 Y2.8437 I0. J-1.75
N7430 G1 X8.375
N7435 G2 X8.603 Y2.7665 I0. J-0.375
N7440 G1 Z-0.01
N7445 G2 X8.75 Y2.4687 I-0.228 J-0.2977
N7450 G1 Y0.9687
N7455 G2 X8.5581 Y0.6415 I-0.375 J0.
N7460 G1 Z-0.98 F1.
N7465 G2 X8.4731 Y0.6068 I-0.1831 J0.3273 F24.
N7470 G3 X8.4204 Y0.5148 I0.0196 J-0.0724
N7475 G1 X8.44 Y0.4424
N7480 X8.4417 Y0.4361 Z-0.9797
N7485 X8.4434 Y0.4298 Z-0.9789
N7490 X8.4451 Y0.4237 Z-0.9774
N7495 X8.4467 Y0.4177 Z-0.9755
N7500 X8.4483 Y0.4118 Z-0.973
N7505 X8.4498 Y0.4062 Z-0.97
N7510 X8.4513 Y0.4009 Z-0.9664
N7515 X8.4526 Y0.3959 Z-0.9625
N7520 X8.4539 Y0.3912 Z-0.958
N7525 X8.455 Y0.387 Z-0.9532
N7530 X8.4561 Y0.3831 Z-0.948
N7535 X8.457 Y0.3797 Z-0.9425
N7540 X8.4578 Y0.3768 Z-0.9367
N7545 X8.4584 Y0.3744 Z-0.9307
N7550 X8.459 Y0.3725 Z-0.9244
N7555 X8.4593 Y0.3711 Z-0.918
N7560 X8.4596 Y0.3703 Z-0.9115
N7565 Y0.37 Z-0.905
N7570 X8.6044 Y0.4093
N7575 Z-0.935 F1.
N7580 X8.6043 Y0.4096 Z-0.9415
N7585 X8.6041 Y0.4104 Z-0.948
N7590 X8.6037 Y0.4118 Z-0.9544
N7595 X8.6032 Y0.4137 Z-0.9607
N7600 X8.6026 Y0.4161 Z-0.9667
N7605 X8.6018 Y0.419 Z-0.9725
N7610 X8.6009 Y0.4224 Z-0.978
N7615 X8.5998 Y0.4262 Z-0.9832
N7620 X8.5987 Y0.4305 Z-0.988
N7625 X8.5974 Y0.4351 Z-0.9925
N7630 X8.596 Y0.4402 Z-0.9964
N7635 X8.5946 Y0.4455 Z-1.
N7640 X8.5931 Y0.4511 Z-1.003
N7645 X8.5915 Y0.4569 Z-1.0055
N7650 X8.5899 Y0.4629 Z-1.0074
N7655 X8.5882 Y0.4691 Z-1.0089
N7660 X8.5865 Y0.4754 Z-1.0097
N7665 X8.5848 Y0.4817 Z-1.01
N7670 X8.5651 Y0.5541 F24.
N7675 G3 X8.4731 Y0.6068 I-0.0724 J-0.0196
N7680 G2 X8.375 Y0.5937 I-0.0981 J0.3619
N7685 G1 X7.8405
N7690 G2 X6.5 Y-0.0312 I-1.3405 J1.125
N7695 G1 X4.1057
N7700 G2 X3.7144 Y-0.3223 I-1.6056 J1.75
N7705 X3.5227 Y-0.375 I-0.1918 J0.3223
N7710 G1 X1.4773
N7715 G2 X1.2856 Y-0.3223 I0. J0.375
N7720 X0.4084 Y0.5937 I1.2144 J2.041
N7725 G1 X0.
N7730 G2 X-0.1925 Y0.647 I0. J0.375
N7735 G1 Z-0.01
N7740 G2 X-0.375 Y0.9687 I0.1925 J0.3218
N7745 G1 Y2.4687
N7750 G2 X-0.2207 Y2.772 I0.375 J0.
N7755 G1 Z-1.01 F1.
N7760 G2 X0. Y2.8437 I0.2207 J-0.3032 F24.
N7765 G1 X0.4083
N7770 G2 X1.2856 Y3.7598 I2.0917 J-1.125
N7775 X1.4773 Y3.8125 I0.1918 J-0.3223
N7780 G1 X3.5227
N7785 G2 X3.7144 Y3.7598 I0. J-0.375
N7790 X4.1057 Y3.4687 I-1.2145 J-2.041
N7795 G1 X6.5
N7800 G2 X7.8405 Y2.8437 I0. J-1.75
N7805 G1 X8.375
N7810 G2 X8.603 Y2.7665 I0. J-0.375
N7815 G1 Z-0.01
N7820 G2 X8.75 Y2.4687 I-0.228 J-0.2977
N7825 G1 Y0.9687
N7830 G2 X8.5581 Y0.6415 I-0.375 J0.
N7835 G1 Z-1.01 F1.
N7840 G2 X8.4731 Y0.6068 I-0.1831 J0.3273 F24.
N7845 G3 X8.4204 Y0.5148 I0.0196 J-0.0724
N7850 G1 X8.44 Y0.4424
N7855 X8.4417 Y0.4361 Z-1.0097
N7860 X8.4434 Y0.4298 Z-1.0089
N7865 X8.4451 Y0.4237 Z-1.0074
N7870 X8.4467 Y0.4177 Z-1.0055
N7875 X8.4483 Y0.4118 Z-1.003
N7880 X8.4498 Y0.4062 Z-1.
N7885 X8.4513 Y0.4009 Z-0.9964
N7890 X8.4526 Y0.3959 Z-0.9925
N7895 X8.4539 Y0.3912 Z-0.988
N7900 X8.455 Y0.387 Z-0.9832
N7905 X8.4561 Y0.3831 Z-0.978
N7910 X8.457 Y0.3797 Z-0.9725
N7915 X8.4578 Y0.3768 Z-0.9667
N7920 X8.4584 Y0.3744 Z-0.9607
N7925 X8.459 Y0.3725 Z-0.9544
N7930 X8.4593 Y0.3711 Z-0.948
N7935 X8.4596 Y0.3703 Z-0.9415
N7940 Y0.37 Z-0.935
N7945 G0 Z0.6
(2D POCKET1)
N7955 M9
N7960 G0 X2.5215 Y1.6115
N7965 Z0.6
N7970 Z0.2
N7975 G1 Z0.175 F28.
N7980 X2.5216 Y1.6113 Z0.1702
N7985 X2.5217 Y1.6109 Z0.1654
N7990 X2.5219 Y1.6102 Z0.1606
N7995 X2.5223 Y1.6092 Z0.156
N8000 X2.5227 Y1.6079 Z0.1514
N8005 X2.5232 Y1.6063 Z0.1469
N8010 X2.5238 Y1.6045 Z0.1425
N8015 X2.5245 Y1.6024 Z0.1382
N8020 X2.5254 Y1.6 Z0.1341
N8025 X2.5263 Y1.5974 Z0.1302
N8030 X2.5273 Y1.5946 Z0.1264
N8035 X2.5285 Y1.5916 Z0.1229
N8040 X2.5291 Y1.59 Z0.1212
N8045 X2.5297 Y1.5884 Z0.1195
N8050 X2.5304 Y1.5867 Z0.118
N8055 X2.5311 Y1.585 Z0.1164
N8060 X2.5318 Y1.5832 Z0.115
N8065 X2.5325 Y1.5815 Z0.1135
N8070 X2.5333 Y1.5796 Z0.1122
N8075 X2.5341 Y1.5778 Z0.1109
N8080 X2.5349 Y1.5759 Z0.1097
N8085 X2.5358 Y1.5739 Z0.1085
N8090 X2.5366 Y1.572 Z0.1075
N8095 X2.5375 Y1.57 Z0.1064
N8100 X2.5385 Y1.568 Z0.1055
N8105 X2.5394 Y1.566 Z0.1046
N8110 X2.5404 Y1.5639 Z0.1039
N8115 X2.5414 Y1.5619 Z0.1031
N8120 X2.5424 Y1.5598 Z0.1025
N8125 X2.5435 Y1.5577 Z0.1019
N8130 X2.5445 Y1.5556 Z0.1014
N8135 X2.5456 Y1.5535 Z0.1009
N8140 X2.5467 Y1.5514 Z0.1006
N8145 X2.5479 Y1.5493 Z0.1003
N8150 X2.549 Y1.5472 Z0.1002
N8155 X2.5502 Y1.5451 Z0.1
N8160 G3 X3.1723 Y1.8924 Z0.0609 I0.3111 J0.1736
N8165 X2.5502 Y1.5451 Z0.0218 I-0.3111 J-0.1736
N8170 X3.1723 Y1.8924 Z-0.0172 I0.3111 J0.1736
N8175 X2.505 Y1.7187 Z-0.05 I-0.3111 J-0.1736
N8180 X2.545 I0.02 J0.
N8185 X2.455 I-0.045 J0.
N8190 X2.595 I0.07 J0.
N8195 X2.405 I-0.095 J0.
N8200 X2.645 I0.12 J0.
N8205 X2.355 I-0.145 J0.
N8210 X2.695 I0.17 J0.
N8215 X2.305 I-0.195 J0.
N8220 X2.745 I0.22 J0.
N8225 X2.255 I-0.245 J0.
N8230 X2.795 I0.27 J0.
N8235 X2.205 I-0.295 J0.
N8240 X2.845 I0.32 J0.
N8245 X2.155 I-0.345 J0.
N8250 X2.895 I0.37 J0.
N8255 X2.105 I-0.395 J0.
N8260 X2.945 I0.42 J0.
N8265 X2.055 I-0.445 J0.
N8270 X2.995 I0.47 J0.
N8275 X2.005 I-0.495 J0.
N8280 X3.045 I0.52 J0.
N8285 X1.955 I-0.545 J0.
N8290 X3.095 I0.57 J0.
N8295 X1.905 I-0.595 J0.
N8300 X3.145 I0.62 J0.
N8305 X1.855 I-0.645 J0.
N8310 X3.195 I0.67 J0.
N8315 X1.805 I-0.695 J0.
N8320 X3.245 I0.72 J0.
N8325 X1.755 I-0.745 J0.
N8330 X3.295 I0.77 J0.
N8335 X1.705 I-0.795 J0.
N8340 X3.345 I0.82 J0.
N8345 X1.655 I-0.845 J0.
N8350 X3.395 I0.87 J0.
N8355 X1.605 I-0.895 J0.
N8360 X3.445 I0.92 J0.
N8365 X1.555 I-0.945 J0.
N8370 X3.495 I0.97 J0.
N8375 X1.505 I-0.995 J0.
N8380 X3.545 I1.02 J0.
N8385 X1.455 I-1.045 J0.
N8390 X3.595 I1.07 J0.
N8395 X1.405 I-1.095 J0.
N8400 X3.645 I1.12 J0.
N8405 X1.355 I-1.145 J0.
N8410 X3.645 I1.145 J0.
N8415 X3.5839 Y1.7479 I-0.0375 J0.
N8420 G1 X3.1364 Y1.3867
N8425 G2 X3.0889 Y1.4447 I-0.0236 J0.0292
N8430 G3 X2.6336 Y1.9928 Z-0.0891 I-0.2277 J0.274
N8435 X2.505 Y1.7187 Z-0.1 I0.2277 J-0.274
N8440 X2.545 I0.02 J0.
N8445 X2.455 I-0.045 J0.
N8450 X2.595 I0.07 J0.
N8455 X2.405 I-0.095 J0.
N8460 X2.645 I0.12 J0.
N8465 X2.355 I-0.145 J0.
N8470 X2.695 I0.17 J0.
N8475 X2.305 I-0.195 J0.
N8480 X2.745 I0.22 J0.
N8485 X2.255 I-0.245 J0.
N8490 X2.795 I0.27 J0.
N8495 X2.205 I-0.295 J0.
N8500 X2.845 I0.32 J0.
N8505 X2.155 I-0.345 J0.
N8510 X2.895 I0.37 J0.
N8515 X2.105 I-0.395 J0.
N8520 X2.945 I0.42 J0.
N8525 X2.055 I-0.445 J0.
N8530 X2.995 I0.47 J0.
N8535 X2.005 I-0.495 J0.
N8540 X3.045 I0.52 J0.
N8545 X1.955 I-0.545 J0.
N8550 X3.095 I0.57 J0.
N8555 X1.905 I-0.595 J0.
N8560 X3.145 I0.62 J0.
N8565 X1.855 I-0.645 J0.
N8570 X3.195 I0.67 J0.
N8575 X1.805 I-0.695 J0.
N8580 X3.245 I0.72 J0.
N8585 X1.755 I-0.745 J0.
N8590 X3.295 I0.77 J0.
N8595 X1.705 I-0.795 J0.
N8600 X3.345 I0.82 J0.
N8605 X1.655 I-0.845 J0.
N8610 X3.395 I0.87 J0.
N8615 X1.605 I-0.895 J0.
N8620 X3.445 I0.92 J0.
N8625 X1.555 I-0.945 J0.
N8630 X3.495 I0.97 J0.
N8635 X1.505 I-0.995 J0.
N8640 X3.545 I1.02 J0.
N8645 X1.455 I-1.045 J0.
N8650 X3.595 I1.07 J0.
N8655 X1.405 I-1.095 J0.
N8660 X3.645 I1.12 J0.
N8665 X1.355 I-1.145 J0.
N8670 X3.645 I1.145 J0.
N8675 X3.5839 Y1.7479 I-0.0375 J0.
N8680 G1 X3.1364 Y1.3867
N8685 G2 X3.0889 Y1.4447 I-0.0236 J0.0292
N8690 G3 X2.6336 Y1.9928 Z-0.1391 I-0.2277 J0.274
N8695 X2.505 Y1.7187 Z-0.15 I0.2277 J-0.274
N8700 X2.545 I0.02 J0.
N8705 X2.455 I-0.045 J0.
N8710 X2.595 I0.07 J0.
N8715 X2.405 I-0.095 J0.
N8720 X2.645 I0.12 J0.
N8725 X2.355 I-0.145 J0.
N8730 X2.695 I0.17 J0.
N8735 X2.305 I-0.195 J0.
N8740 X2.745 I0.22 J0.
N8745 X2.255 I-0.245 J0.
N8750 X2.795 I0.27 J0.
N8755 X2.205 I-0.295 J0.
N8760 X2.845 I0.32 J0.
N8765 X2.155 I-0.345 J0.
N8770 X2.895 I0.37 J0.
N8775 X2.105 I-0.395 J0.
N8780 X2.945 I0.42 J0.
N8785 X2.055 I-0.445 J0.
N8790 X2.995 I0.47 J0.
N8795 X2.005 I-0.495 J0.
N8800 X3.045 I0.52 J0.
N8805 X1.955 I-0.545 J0.
N8810 X3.095 I0.57 J0.
N8815 X1.905 I-0.595 J0.
N8820 X3.145 I0.62 J0.
N8825 X1.855 I-0.645 J0.
N8830 X3.195 I0.67 J0.
N8835 X1.805 I-0.695 J0.
N8840 X3.245 I0.72 J0.
N8845 X1.755 I-0.745 J0.
N8850 X3.295 I0.77 J0.
N8855 X1.705 I-0.795 J0.
N8860 X3.345 I0.82 J0.
N8865 X1.655 I-0.845 J0.
N8870 X3.395 I0.87 J0.
N8875 X1.605 I-0.895 J0.
N8880 X3.445 I0.92 J0.
N8885 X1.555 I-0.945 J0.
N8890 X3.495 I0.97 J0.
N8895 X1.505 I-0.995 J0.
N8900 X3.545 I1.02 J0.
N8905 X1.455 I-1.045 J0.
N8910 X3.595 I1.07 J0.
N8915 X1.405 I-1.095 J0.
N8920 X3.645 I1.12 J0.
N8925 X1.355 I-1.145 J0.
N8930 X3.645 I1.145 J0.
N8935 X3.5839 Y1.7479 I-0.0375 J0.
N8940 G1 X3.1364 Y1.3867
N8945 G2 X3.0889 Y1.4447 I-0.0236 J0.0292
N8950 G3 X2.6336 Y1.9928 Z-0.1891 I-0.2277 J0.274
N8955 X2.505 Y1.7187 Z-0.2 I0.2277 J-0.274
N8960 X2.545 I0.02 J0.
N8965 X2.455 I-0.045 J0.
N8970 X2.595 I0.07 J0.
N8975 X2.405 I-0.095 J0.
N8980 X2.645 I0.12 J0.
N8985 X2.355 I-0.145 J0.
N8990 X2.695 I0.17 J0.
N8995 X2.305 I-0.195 J0.
N9000 X2.745 I0.22 J0.
N9005 X2.255 I-0.245 J0.
N9010 X2.795 I0.27 J0.
N9015 X2.205 I-0.295 J0.
N9020 X2.845 I0.32 J0.
N9025 X2.155 I-0.345 J0.
N9030 X2.895 I0.37 J0.
N9035 X2.105 I-0.395 J0.
N9040 X2.945 I0.42 J0.
N9045 X2.055 I-0.445 J0.
N9050 X2.995 I0.47 J0.
N9055 X2.005 I-0.495 J0.
N9060 X3.045 I0.52 J0.
N9065 X1.955 I-0.545 J0.
N9070 X3.095 I0.57 J0.
N9075 X1.905 I-0.595 J0.
N9080 X3.145 I0.62 J0.
N9085 X1.855 I-0.645 J0.
N9090 X3.195 I0.67 J0.
N9095 X1.805 I-0.695 J0.
N9100 X3.245 I0.72 J0.
N9105 X1.755 I-0.745 J0.
N9110 X3.295 I0.77 J0.
N9115 X1.705 I-0.795 J0.
N9120 X3.345 I0.82 J0.
N9125 X1.655 I-0.845 J0.
N9130 X3.395 I0.87 J0.
N9135 X1.605 I-0.895 J0.
N9140 X3.445 I0.92 J0.
N9145 X1.555 I-0.945 J0.
N9150 X3.495 I0.97 J0.
N9155 X1.505 I-0.995 J0.
N9160 X3.545 I1.02 J0.
N9165 X1.455 I-1.045 J0.
N9170 X3.595 I1.07 J0.
N9175 X1.405 I-1.095 J0.
N9180 X3.645 I1.12 J0.
N9185 X1.355 I-1.145 J0.
N9190 X3.645 I1.145 J0.
N9195 X3.5839 Y1.7479 I-0.0375 J0.
N9200 G1 X3.1364 Y1.3867
N9205 G2 X3.0889 Y1.4447 I-0.0236 J0.0292
N9210 G3 X2.6336 Y1.9928 Z-0.2391 I-0.2277 J0.274
N9215 X2.505 Y1.7187 Z-0.25 I0.2277 J-0.274
N9220 X2.545 I0.02 J0.
N9225 X2.455 I-0.045 J0.
N9230 X2.595 I0.07 J0.
N9235 X2.405 I-0.095 J0.
N9240 X2.645 I0.12 J0.
N9245 X2.355 I-0.145 J0.
N9250 X2.695 I0.17 J0.
N9255 X2.305 I-0.195 J0.
N9260 X2.745 I0.22 J0.
N9265 X2.255 I-0.245 J0.
N9270 X2.795 I0.27 J0.
N9275 X2.205 I-0.295 J0.
N9280 X2.845 I0.32 J0.
N9285 X2.155 I-0.345 J0.
N9290 X2.895 I0.37 J0.
N9295 X2.105 I-0.395 J0.
N9300 X2.945 I0.42 J0.
N9305 X2.055 I-0.445 J0.
N9310 X2.995 I0.47 J0.
N9315 X2.005 I-0.495 J0.
N9320 X3.045 I0.52 J0.
N9325 X1.955 I-0.545 J0.
N9330 X3.095 I0.57 J0.
N9335 X1.905 I-0.595 J0.
N9340 X3.145 I0.62 J0.
N9345 X1.855 I-0.645 J0.
N9350 X3.195 I0.67 J0.
N9355 X1.805 I-0.695 J0.
N9360 X3.245 I0.72 J0.
N9365 X1.755 I-0.745 J0.
N9370 X3.295 I0.77 J0.
N9375 X1.705 I-0.795 J0.
N9380 X3.345 I0.82 J0.
N9385 X1.655 I-0.845 J0.
N9390 X3.395 I0.87 J0.
N9395 X1.605 I-0.895 J0.
N9400 X3.445 I0.92 J0.
N9405 X1.555 I-0.945 J0.
N9410 X3.495 I0.97 J0.
N9415 X1.505 I-0.995 J0.
N9420 X3.545 I1.02 J0.
N9425 X1.455 I-1.045 J0.
N9430 X3.595 I1.07 J0.
N9435 X1.405 I-1.095 J0.
N9440 X3.645 I1.12 J0.
N9445 X1.355 I-1.145 J0.
N9450 X3.645 I1.145 J0.
N9455 X3.5839 Y1.7479 I-0.0375 J0.
N9460 G1 X3.1364 Y1.3867
N9465 G2 X3.0889 Y1.4447 I-0.0236 J0.0292
N9470 G3 X2.6336 Y1.9928 Z-0.2891 I-0.2277 J0.274
N9475 X2.505 Y1.7187 Z-0.3 I0.2277 J-0.274
N9480 X2.545 I0.02 J0.
N9485 X2.455 I-0.045 J0.
N9490 X2.595 I0.07 J0.
N9495 X2.405 I-0.095 J0.
N9500 X2.645 I0.12 J0.
N9505 X2.355 I-0.145 J0.
N9510 X2.695 I0.17 J0.
N9515 X2.305 I-0.195 J0.
N9520 X2.745 I0.22 J0.
N9525 X2.255 I-0.245 J0.
N9530 X2.795 I0.27 J0.
N9535 X2.205 I-0.295 J0.
N9540 X2.845 I0.32 J0.
N9545 X2.155 I-0.345 J0.
N9550 X2.895 I0.37 J0.
N9555 X2.105 I-0.395 J0.
N9560 X2.945 I0.42 J0.
N9565 X2.055 I-0.445 J0.
N9570 X2.995 I0.47 J0.
N9575 X2.005 I-0.495 J0.
N9580 X3.045 I0.52 J0.
N9585 X1.955 I-0.545 J0.
N9590 X3.095 I0.57 J0.
N9595 X1.905 I-0.595 J0.
N9600 X3.145 I0.62 J0.
N9605 X1.855 I-0.645 J0.
N9610 X3.195 I0.67 J0.
N9615 X1.805 I-0.695 J0.
N9620 X3.245 I0.72 J0.
N9625 X1.755 I-0.745 J0.
N9630 X3.295 I0.77 J0.
N9635 X1.705 I-0.795 J0.
N9640 X3.345 I0.82 J0.
N9645 X1.655 I-0.845 J0.
N9650 X3.395 I0.87 J0.
N9655 X1.605 I-0.895 J0.
N9660 X3.445 I0.92 J0.
N9665 X1.555 I-0.945 J0.
N9670 X3.495 I0.97 J0.
N9675 X1.505 I-0.995 J0.
N9680 X3.545 I1.02 J0.
N9685 X1.455 I-1.045 J0.
N9690 X3.595 I1.07 J0.
N9695 X1.405 I-1.095 J0.
N9700 X3.645 I1.12 J0.
N9705 X1.355 I-1.145 J0.
N9710 X3.645 I1.145 J0.
N9715 X3.5839 Y1.7479 I-0.0375 J0.
N9720 G1 X3.1364 Y1.3867
N9725 G2 X3.0889 Y1.4447 I-0.0236 J0.0292
N9730 G3 X2.6336 Y1.9928 Z-0.3391 I-0.2277 J0.274
N9735 X2.505 Y1.7187 Z-0.35 I0.2277 J-0.274
N9740 X2.545 I0.02 J0.
N9745 X2.455 I-0.045 J0.
N9750 X2.595 I0.07 J0.
N9755 X2.405 I-0.095 J0.
N9760 X2.645 I0.12 J0.
N9765 X2.355 I-0.145 J0.
N9770 X2.695 I0.17 J0.
N9775 X2.305 I-0.195 J0.
N9780 X2.745 I0.22 J0.
N9785 X2.255 I-0.245 J0.
N9790 X2.795 I0.27 J0.
N9795 X2.205 I-0.295 J0.
N9800 X2.845 I0.32 J0.
N9805 X2.155 I-0.345 J0.
N9810 X2.895 I0.37 J0.
N9815 X2.105 I-0.395 J0.
N9820 X2.945 I0.42 J0.
N9825 X2.055 I-0.445 J0.
N9830 X2.995 I0.47 J0.
N9835 X2.005 I-0.495 J0.
N9840 X3.045 I0.52 J0.
N9845 X1.955 I-0.545 J0.
N9850 X3.095 I0.57 J0.
N9855 X1.905 I-0.595 J0.
N9860 X3.145 I0.62 J0.
N9865 X1.855 I-0.645 J0.
N9870 X3.195 I0.67 J0.
N9875 X1.805 I-0.695 J0.
N9880 X3.245 I0.72 J0.
N9885 X1.755 I-0.745 J0.
N9890 X3.295 I0.77 J0.
N9895 X1.705 I-0.795 J0.
N9900 X3.345 I0.82 J0.
N9905 X1.655 I-0.845 J0.
N9910 X3.395 I0.87 J0.
N9915 X1.605 I-0.895 J0.
N9920 X3.445 I0.92 J0.
N9925 X1.555 I-0.945 J0.
N9930 X3.495 I0.97 J0.
N9935 X1.505 I-0.995 J0.
N9940 X3.545 I1.02 J0.
N9945 X1.455 I-1.045 J0.
N9950 X3.595 I1.07 J0.
N9955 X1.405 I-1.095 J0.
N9960 X3.645 I1.12 J0.
N9965 X1.355 I-1.145 J0.
N9970 X3.645 I1.145 J0.
N9975 X3.5839 Y1.7479 I-0.0375 J0.
N9980 G1 X3.1364 Y1.3867
N9985 G2 X3.0889 Y1.4447 I-0.0236 J0.0292
N9990 G3 X2.6336 Y1.9928 Z-0.3891 I-0.2277 J0.274
N9995 X2.505 Y1.7187 Z-0.4 I0.2277 J-0.274
N10000 X2.545 I0.02 J0.
N10005 X2.455 I-0.045 J0.
N10010 X2.595 I0.07 J0.
N10015 X2.405 I-0.095 J0.
N10020 X2.645 I0.12 J0.
N10025 X2.355 I-0.145 J0.
N10030 X2.695 I0.17 J0.
N10035 X2.305 I-0.195 J0.
N10040 X2.745 I0.22 J0.
N10045 X2.255 I-0.245 J0.
N10050 X2.795 I0.27 J0.
N10055 X2.205 I-0.295 J0.
N10060 X2.845 I0.32 J0.
N10065 X2.155 I-0.345 J0.
N10070 X2.895 I0.37 J0.
N10075 X2.105 I-0.395 J0.
N10080 X2.945 I0.42 J0.
N10085 X2.055 I-0.445 J0.
N10090 X2.995 I0.47 J0.
N10095 X2.005 I-0.495 J0.
N10100 X3.045 I0.52 J0.
N10105 X1.955 I-0.545 J0.
N10110 X3.095 I0.57 J0.
N10115 X1.905 I-0.595 J0.
N10120 X3.145 I0.62 J0.
N10125 X1.855 I-0.645 J0.
N10130 X3.195 I0.67 J0.
N10135 X1.805 I-0.695 J0.
N10140 X3.245 I0.72 J0.
N10145 X1.755 I-0.745 J0.
N10150 X3.295 I0.77 J0.
N10155 X1.705 I-0.795 J0.
N10160 X3.345 I0.82 J0.
N10165 X1.655 I-0.845 J0.
N10170 X3.395 I0.87 J0.
N10175 X1.605 I-0.895 J0.
N10180 X3.445 I0.92 J0.
N10185 X1.555 I-0.945 J0.
N10190 X3.495 I0.97 J0.
N10195 X1.505 I-0.995 J0.
N10200 X3.545 I1.02 J0.
N10205 X1.455 I-1.045 J0.
N10210 X3.595 I1.07 J0.
N10215 X1.405 I-1.095 J0.
N10220 X3.645 I1.12 J0.
N10225 X1.355 I-1.145 J0.
N10230 X3.645 I1.145 J0.
N10235 X3.5839 Y1.7479 I-0.0375 J0.
N10240 G1 X3.1364 Y1.3867
N10245 G2 X3.0889 Y1.4447 I-0.0236 J0.0292
N10250 G3 X2.6336 Y1.9928 Z-0.4391 I-0.2277 J0.274
N10255 X2.505 Y1.7187 Z-0.45 I0.2277 J-0.274
N10260 X2.545 I0.02 J0.
N10265 X2.455 I-0.045 J0.
N10270 X2.595 I0.07 J0.
N10275 X2.405 I-0.095 J0.
N10280 X2.645 I0.12 J0.
N10285 X2.355 I-0.145 J0.
N10290 X2.695 I0.17 J0.
N10295 X2.305 I-0.195 J0.
N10300 X2.745 I0.22 J0.
N10305 X2.255 I-0.245 J0.
N10310 X2.795 I0.27 J0.
N10315 X2.205 I-0.295 J0.
N10320 X2.845 I0.32 J0.
N10325 X2.155 I-0.345 J0.
N10330 X2.895 I0.37 J0.
N10335 X2.105 I-0.395 J0.
N10340 X2.945 I0.42 J0.
N10345 X2.055 I-0.445 J0.
N10350 X2.995 I0.47 J0.
N10355 X2.005 I-0.495 J0.
N10360 X3.045 I0.52 J0.
N10365 X1.955 I-0.545 J0.
N10370 X3.095 I0.57 J0.
N10375 X1.905 I-0.595 J0.
N10380 X3.145 I0.62 J0.
N10385 X1.855 I-0.645 J0.
N10390 X3.195 I0.67 J0.
N10395 X1.805 I-0.695 J0.
N10400 X3.245 I0.72 J0.
N10405 X1.755 I-0.745 J0.
N10410 X3.295 I0.77 J0.
N10415 X1.705 I-0.795 J0.
N10420 X3.345 I0.82 J0.
N10425 X1.655 I-0.845 J0.
N10430 X3.395 I0.87 J0.
N10435 X1.605 I-0.895 J0.
N10440 X3.445 I0.92 J0.
N10445 X1.555 I-0.945 J0.
N10450 X3.495 I0.97 J0.
N10455 X1.505 I-0.995 J0.
N10460 X3.545 I1.02 J0.
N10465 X1.455 I-1.045 J0.
N10470 X3.595 I1.07 J0.
N10475 X1.405 I-1.095 J0.
N10480 X3.645 I1.12 J0.
N10485 X1.355 I-1.145 J0.
N10490 X3.645 I1.145 J0.
N10495 X3.5839 Y1.7479 I-0.0375 J0.
N10500 G1 X3.1364 Y1.3867
N10505 G2 X3.0889 Y1.4447 I-0.0236 J0.0292
N10510 G3 X2.6336 Y1.9928 Z-0.4891 I-0.2277 J0.274
N10515 X2.505 Y1.7187 Z-0.5 I0.2277 J-0.274
N10520 X2.545 I0.02 J0.
N10525 X2.455 I-0.045 J0.
N10530 X2.595 I0.07 J0.
N10535 X2.405 I-0.095 J0.
N10540 X2.645 I0.12 J0.
N10545 X2.355 I-0.145 J0.
N10550 X2.695 I0.17 J0.
N10555 X2.305 I-0.195 J0.
N10560 X2.745 I0.22 J0.
N10565 X2.255 I-0.245 J0.
N10570 X2.795 I0.27 J0.
N10575 X2.205 I-0.295 J0.
N10580 X2.845 I0.32 J0.
N10585 X2.155 I-0.345 J0.
N10590 X2.895 I0.37 J0.
N10595 X2.105 I-0.395 J0.
N10600 X2.945 I0.42 J0.
N10605 X2.055 I-0.445 J0.
N10610 X2.995 I0.47 J0.
N10615 X2.005 I-0.495 J0.
N10620 X3.045 I0.52 J0.
N10625 X1.955 I-0.545 J0.
N10630 X3.095 I0.57 J0.
N10635 X1.905 I-0.595 J0.
N10640 X3.145 I0.62 J0.
N10645 X1.855 I-0.645 J0.
N10650 X3.195 I0.67 J0.
N10655 X1.805 I-0.695 J0.
N10660 X3.245 I0.72 J0.
N10665 X1.755 I-0.745 J0.
N10670 X3.295 I0.77 J0.
N10675 X1.705 I-0.795 J0.
N10680 X3.345 I0.82 J0.
N10685 X1.655 I-0.845 J0.
N10690 X3.395 I0.87 J0.
N10695 X1.605 I-0.895 J0.
N10700 X3.445 I0.92 J0.
N10705 X1.555 I-0.945 J0.
N10710 X3.495 I0.97 J0.
N10715 X1.505 I-0.995 J0.
N10720 X3.545 I1.02 J0.
N10725 X1.455 I-1.045 J0.
N10730 X3.595 I1.07 J0.
N10735 X1.405 I-1.095 J0.
N10740 X3.645 I1.12 J0.
N10745 X1.355 I-1.145 J0.
N10750 X3.645 I1.145 J0.
N10755 X3.5839 Y1.7479 I-0.0375 J0.
N10760 G1 X3.1364 Y1.3867
N10765 G2 X3.0889 Y1.4447 I-0.0236 J0.0292
N10770 G3 X2.6336 Y1.9928 Z-0.5391 I-0.2277 J0.274
N10775 X2.505 Y1.7187 Z-0.55 I0.2277 J-0.274
N10780 X2.545 I0.02 J0.
N10785 X2.455 I-0.045 J0.
N10790 X2.595 I0.07 J0.
N10795 X2.405 I-0.095 J0.
N10800 X2.645 I0.12 J0.
N10805 X2.355 I-0.145 J0.
N10810 X2.695 I0.17 J0.
N10815 X2.305 I-0.195 J0.
N10820 X2.745 I0.22 J0.
N10825 X2.255 I-0.245 J0.
N10830 X2.795 I0.27 J0.
N10835 X2.205 I-0.295 J0.
N10840 X2.845 I0.32 J0.
N10845 X2.155 I-0.345 J0.
N10850 X2.895 I0.37 J0.
N10855 X2.105 I-0.395 J0.
N10860 X2.945 I0.42 J0.
N10865 X2.055 I-0.445 J0.
N10870 X2.995 I0.47 J0.
N10875 X2.005 I-0.495 J0.
N10880 X3.045 I0.52 J0.
N10885 X1.955 I-0.545 J0.
N10890 X3.095 I0.57 J0.
N10895 X1.905 I-0.595 J0.
N10900 X3.145 I0.62 J0.
N10905 X1.855 I-0.645 J0.
N10910 X3.195 I0.67 J0.
N10915 X1.805 I-0.695 J0.
N10920 X3.245 I0.72 J0.
N10925 X1.755 I-0.745 J0.
N10930 X3.295 I0.77 J0.
N10935 X1.705 I-0.795 J0.
N10940 X3.345 I0.82 J0.
N10945 X1.655 I-0.845 J0.
N10950 X3.395 I0.87 J0.
N10955 X1.605 I-0.895 J0.
N10960 X3.445 I0.92 J0.
N10965 X1.555 I-0.945 J0.
N10970 X3.495 I0.97 J0.
N10975 X1.505 I-0.995 J0.
N10980 X3.545 I1.02 J0.
N10985 X1.455 I-1.045 J0.
N10990 X3.595 I1.07 J0.
N10995 X1.405 I-1.095 J0.
N11000 X3.645 I1.12 J0.
N11005 X1.355 I-1.145 J0.
N11010 X3.645 I1.145 J0.
N11015 X3.5839 Y1.7479 I-0.0375 J0.
N11020 G1 X3.1364 Y1.3867
N11025 G2 X3.0889 Y1.4447 I-0.0236 J0.0292
N11030 G3 X2.6336 Y1.9928 Z-0.5891 I-0.2277 J0.274
N11035 X2.505 Y1.7187 Z-0.6 I0.2277 J-0.274
N11040 X2.545 I0.02 J0.
N11045 X2.455 I-0.045 J0.
N11050 X2.595 I0.07 J0.
N11055 X2.405 I-0.095 J0.
N11060 X2.645 I0.12 J0.
N11065 X2.355 I-0.145 J0.
N11070 X2.695 I0.17 J0.
N11075 X2.305 I-0.195 J0.
N11080 X2.745 I0.22 J0.
N11085 X2.255 I-0.245 J0.
N11090 X2.795 I0.27 J0.
N11095 X2.205 I-0.295 J0.
N11100 X2.845 I0.32 J0.
N11105 X2.155 I-0.345 J0.
N11110 X2.895 I0.37 J0.
N11115 X2.105 I-0.395 J0.
N11120 X2.945 I0.42 J0.
N11125 X2.055 I-0.445 J0.
N11130 X2.995 I0.47 J0.
N11135 X2.005 I-0.495 J0.
N11140 X3.045 I0.52 J0.
N11145 X1.955 I-0.545 J0.
N11150 X3.095 I0.57 J0.
N11155 X1.905 I-0.595 J0.
N11160 X3.145 I0.62 J0.
N11165 X1.855 I-0.645 J0.
N11170 X3.195 I0.67 J0.
N11175 X1.805 I-0.695 J0.
N11180 X3.245 I0.72 J0.
N11185 X1.755 I-0.745 J0.
N11190 X3.295 I0.77 J0.
N11195 X1.705 I-0.795 J0.
N11200 X3.345 I0.82 J0.
N11205 X1.655 I-0.845 J0.
N11210 X3.395 I0.87 J0.
N11215 X1.605 I-0.895 J0.
N11220 X3.445 I0.92 J0.
N11225 X1.555 I-0.945 J0.
N11230 X3.495 I0.97 J0.
N11235 X1.505 I-0.995 J0.
N11240 X3.545 I1.02 J0.
N11245 X1.455 I-1.045 J0.
N11250 X3.595 I1.07 J0.
N11255 X1.405 I-1.095 J0.
N11260 X3.645 I1.12 J0.
N11265 X1.355 I-1.145 J0.
N11270 X3.645 I1.145 J0.
N11275 X3.5839 Y1.7479 I-0.0375 J0.
N11280 G1 X3.1364 Y1.3867
N11285 G2 X3.0889 Y1.4447 I-0.0236 J0.0292
N11290 G3 X2.6336 Y1.9928 Z-0.6391 I-0.2277 J0.274
N11295 X2.505 Y1.7187 Z-0.65 I0.2277 J-0.274
N11300 X2.545 I0.02 J0.
N11305 X2.455 I-0.045 J0.
N11310 X2.595 I0.07 J0.
N11315 X2.405 I-0.095 J0.
N11320 X2.645 I0.12 J0.
N11325 X2.355 I-0.145 J0.
N11330 X2.695 I0.17 J0.
N11335 X2.305 I-0.195 J0.
N11340 X2.745 I0.22 J0.
N11345 X2.255 I-0.245 J0.
N11350 X2.795 I0.27 J0.
N11355 X2.205 I-0.295 J0.
N11360 X2.845 I0.32 J0.
N11365 X2.155 I-0.345 J0.
N11370 X2.895 I0.37 J0.
N11375 X2.105 I-0.395 J0.
N11380 X2.945 I0.42 J0.
N11385 X2.055 I-0.445 J0.
N11390 X2.995 I0.47 J0.
N11395 X2.005 I-0.495 J0.
N11400 X3.045 I0.52 J0.
N11405 X1.955 I-0.545 J0.
N11410 X3.095 I0.57 J0.
N11415 X1.905 I-0.595 J0.
N11420 X3.145 I0.62 J0.
N11425 X1.855 I-0.645 J0.
N11430 X3.195 I0.67 J0.
N11435 X1.805 I-0.695 J0.
N11440 X3.245 I0.72 J0.
N11445 X1.755 I-0.745 J0.
N11450 X3.295 I0.77 J0.
N11455 X1.705 I-0.795 J0.
N11460 X3.345 I0.82 J0.
N11465 X1.655 I-0.845 J0.
N11470 X3.395 I0.87 J0.
N11475 X1.605 I-0.895 J0.
N11480 X3.445 I0.92 J0.
N11485 X1.555 I-0.945 J0.
N11490 X3.495 I0.97 J0.
N11495 X1.505 I-0.995 J0.
N11500 X3.545 I1.02 J0.
N11505 X1.455 I-1.045 J0.
N11510 X3.595 I1.07 J0.
N11515 X1.405 I-1.095 J0.
N11520 X3.645 I1.12 J0.
N11525 X1.355 I-1.145 J0.
N11530 X3.645 I1.145 J0.
N11535 X3.5839 Y1.7479 I-0.0375 J0.
N11540 G1 X3.1364 Y1.3867
N11545 G2 X3.0889 Y1.4447 I-0.0236 J0.0292
N11550 G3 X2.6336 Y1.9928 Z-0.6891 I-0.2277 J0.274
N11555 X2.505 Y1.7187 Z-0.7 I0.2277 J-0.274
N11560 X2.545 I0.02 J0.
N11565 X2.455 I-0.045 J0.
N11570 X2.595 I0.07 J0.
N11575 X2.405 I-0.095 J0.
N11580 X2.645 I0.12 J0.
N11585 X2.355 I-0.145 J0.
N11590 X2.695 I0.17 J0.
N11595 X2.305 I-0.195 J0.
N11600 X2.745 I0.22 J0.
N11605 X2.255 I-0.245 J0.
N11610 X2.795 I0.27 J0.
N11615 X2.205 I-0.295 J0.
N11620 X2.845 I0.32 J0.
N11625 X2.155 I-0.345 J0.
N11630 X2.895 I0.37 J0.
N11635 X2.105 I-0.395 J0.
N11640 X2.945 I0.42 J0.
N11645 X2.055 I-0.445 J0.
N11650 X2.995 I0.47 J0.
N11655 X2.005 I-0.495 J0.
N11660 X3.045 I0.52 J0.
N11665 X1.955 I-0.545 J0.
N11670 X3.095 I0.57 J0.
N11675 X1.905 I-0.595 J0.
N11680 X3.145 I0.62 J0.
N11685 X1.855 I-0.645 J0.
N11690 X3.195 I0.67 J0.
N11695 X1.805 I-0.695 J0.
N11700 X3.245 I0.72 J0.
N11705 X1.755 I-0.745 J0.
N11710 X3.295 I0.77 J0.
N11715 X1.705 I-0.795 J0.
N11720 X3.345 I0.82 J0.
N11725 X1.655 I-0.845 J0.
N11730 X3.395 I0.87 J0.
N11735 X1.605 I-0.895 J0.
N11740 X3.445 I0.92 J0.
N11745 X1.555 I-0.945 J0.
N11750 X3.495 I0.97 J0.
N11755 X1.505 I-0.995 J0.
N11760 X3.545 I1.02 J0.
N11765 X1.455 I-1.045 J0.
N11770 X3.595 I1.07 J0.
N11775 X1.405 I-1.095 J0.
N11780 X3.645 I1.12 J0.
N11785 X1.355 I-1.145 J0.
N11790 X3.645 I1.145 J0.
N11795 X3.5839 Y1.7479 I-0.0375 J0.
N11800 G1 X3.1364 Y1.3867
N11805 G2 X3.0889 Y1.4447 I-0.0236 J0.0292
N11810 G3 X2.6336 Y1.9928 Z-0.7391 I-0.2277 J0.274
N11815 X2.505 Y1.7187 Z-0.75 I0.2277 J-0.274
N11820 X2.545 I0.02 J0.
N11825 X2.455 I-0.045 J0.
N11830 X2.595 I0.07 J0.
N11835 X2.405 I-0.095 J0.
N11840 X2.645 I0.12 J0.
N11845 X2.355 I-0.145 J0.
N11850 X2.695 I0.17 J0.
N11855 X2.305 I-0.195 J0.
N11860 X2.745 I0.22 J0.
N11865 X2.255 I-0.245 J0.
N11870 X2.795 I0.27 J0.
N11875 X2.205 I-0.295 J0.
N11880 X2.845 I0.32 J0.
N11885 X2.155 I-0.345 J0.
N11890 X2.895 I0.37 J0.
N11895 X2.105 I-0.395 J0.
N11900 X2.945 I0.42 J0.
N11905 X2.055 I-0.445 J0.
N11910 X2.995 I0.47 J0.
N11915 X2.005 I-0.495 J0.
N11920 X3.045 I0.52 J0.
N11925 X1.955 I-0.545 J0.
N11930 X3.095 I0.57 J0.
N11935 X1.905 I-0.595 J0.
N11940 X3.145 I0.62 J0.
N11945 X1.855 I-0.645 J0.
N11950 X3.195 I0.67 J0.
N11955 X1.805 I-0.695 J0.
N11960 X3.245 I0.72 J0.
N11965 X1.755 I-0.745 J0.
N11970 X3.295 I0.77 J0.
N11975 X1.705 I-0.795 J0.
N11980 X3.345 I0.82 J0.
N11985 X1.655 I-0.845 J0.
N11990 X3.395 I0.87 J0.
N11995 X1.605 I-0.895 J0.
N12000 X3.445 I0.92 J0.
N12005 X1.555 I-0.945 J0.
N12010 X3.495 I0.97 J0.
N12015 X1.505 I-0.995 J0.
N12020 X3.545 I1.02 J0.
N12025 X1.455 I-1.045 J0.
N12030 X3.595 I1.07 J0.
N12035 X1.405 I-1.095 J0.
N12040 X3.645 I1.12 J0.
N12045 X1.355 I-1.145 J0.
N12050 X3.645 I1.145 J0.
N12055 X3.5839 Y1.7479 I-0.0375 J0.
N12060 G1 X3.1364 Y1.3867
N12065 G2 X3.0889 Y1.4447 I-0.0236 J0.0292
N12070 G3 X2.6336 Y1.9928 Z-0.7891 I-0.2277 J0.274
N12075 X2.505 Y1.7187 Z-0.8 I0.2277 J-0.274
N12080 X2.545 I0.02 J0.
N12085 X2.455 I-0.045 J0.
N12090 X2.595 I0.07 J0.
N12095 X2.405 I-0.095 J0.
N12100 X2.645 I0.12 J0.
N12105 X2.355 I-0.145 J0.
N12110 X2.695 I0.17 J0.
N12115 X2.305 I-0.195 J0.
N12120 X2.745 I0.22 J0.
N12125 X2.255 I-0.245 J0.
N12130 X2.795 I0.27 J0.
N12135 X2.205 I-0.295 J0.
N12140 X2.845 I0.32 J0.
N12145 X2.155 I-0.345 J0.
N12150 X2.895 I0.37 J0.
N12155 X2.105 I-0.395 J0.
N12160 X2.945 I0.42 J0.
N12165 X2.055 I-0.445 J0.
N12170 X2.995 I0.47 J0.
N12175 X2.005 I-0.495 J0.
N12180 X3.045 I0.52 J0.
N12185 X1.955 I-0.545 J0.
N12190 X3.095 I0.57 J0.
N12195 X1.905 I-0.595 J0.
N12200 X3.145 I0.62 J0.
N12205 X1.855 I-0.645 J0.
N12210 X3.195 I0.67 J0.
N12215 X1.805 I-0.695 J0.
N12220 X3.245 I0.72 J0.
N12225 X1.755 I-0.745 J0.
N12230 X3.295 I0.77 J0.
N12235 X1.705 I-0.795 J0.
N12240 X3.345 I0.82 J0.
N12245 X1.655 I-0.845 J0.
N12250 X3.395 I0.87 J0.
N12255 X1.605 I-0.895 J0.
N12260 X3.445 I0.92 J0.
N12265 X1.555 I-0.945 J0.
N12270 X3.495 I0.97 J0.
N12275 X1.505 I-0.995 J0.
N12280 X3.545 I1.02 J0.
N12285 X1.455 I-1.045 J0.
N12290 X3.595 I1.07 J0.
N12295 X1.405 I-1.095 J0.
N12300 X3.645 I1.12 J0.
N12305 X1.355 I-1.145 J0.
N12310 X3.645 I1.145 J0.
N12315 X3.5839 Y1.7479 I-0.0375 J0.
N12320 G1 X3.1364 Y1.3867
N12325 G2 X3.0889 Y1.4447 I-0.0236 J0.0292
N12330 G3 X2.6336 Y1.9928 Z-0.8391 I-0.2277 J0.274
N12335 X2.505 Y1.7187 Z-0.85 I0.2277 J-0.274
N12340 X2.545 I0.02 J0.
N12345 X2.455 I-0.045 J0.
N12350 X2.595 I0.07 J0.
N12355 X2.405 I-0.095 J0.
N12360 X2.645 I0.12 J0.
N12365 X2.355 I-0.145 J0.
N12370 X2.695 I0.17 J0.
N12375 X2.305 I-0.195 J0.
N12380 X2.745 I0.22 J0.
N12385 X2.255 I-0.245 J0.
N12390 X2.795 I0.27 J0.
N12395 X2.205 I-0.295 J0.
N12400 X2.845 I0.32 J0.
N12405 X2.155 I-0.345 J0.
N12410 X2.895 I0.37 J0.
N12415 X2.105 I-0.395 J0.
N12420 X2.945 I0.42 J0.
N12425 X2.055 I-0.445 J0.
N12430 X2.995 I0.47 J0.
N12435 X2.005 I-0.495 J0.
N12440 X3.045 I0.52 J0.
N12445 X1.955 I-0.545 J0.
N12450 X3.095 I0.57 J0.
N12455 X1.905 I-0.595 J0.
N12460 X3.145 I0.62 J0.
N12465 X1.855 I-0.645 J0.
N12470 X3.195 I0.67 J0.
N12475 X1.805 I-0.695 J0.
N12480 X3.245 I0.72 J0.
N12485 X1.755 I-0.745 J0.
N12490 X3.295 I0.77 J0.
N12495 X1.705 I-0.795 J0.
N12500 X3.345 I0.82 J0.
N12505 X1.655 I-0.845 J0.
N12510 X3.395 I0.87 J0.
N12515 X1.605 I-0.895 J0.
N12520 X3.445 I0.92 J0.
N12525 X1.555 I-0.945 J0.
N12530 X3.495 I0.97 J0.
N12535 X1.505 I-0.995 J0.
N12540 X3.545 I1.02 J0.
N12545 X1.455 I-1.045 J0.
N12550 X3.595 I1.07 J0.
N12555 X1.405 I-1.095 J0.
N12560 X3.645 I1.12 J0.
N12565 X1.355 I-1.145 J0.
N12570 X3.645 I1.145 J0.
N12575 X3.5839 Y1.7479 I-0.0375 J0.
N12580 G1 X3.1364 Y1.3867
N12585 G2 X3.0889 Y1.4447 I-0.0236 J0.0292
N12590 G3 X2.6336 Y1.9928 Z-0.8891 I-0.2277 J0.274
N12595 X2.505 Y1.7187 Z-0.9 I0.2277 J-0.274
N12600 X2.545 I0.02 J0.
N12605 X2.455 I-0.045 J0.
N12610 X2.595 I0.07 J0.
N12615 X2.405 I-0.095 J0.
N12620 X2.645 I0.12 J0.
N12625 X2.355 I-0.145 J0.
N12630 X2.695 I0.17 J0.
N12635 X2.305 I-0.195 J0.
N12640 X2.745 I0.22 J0.
N12645 X2.255 I-0.245 J0.
N12650 X2.795 I0.27 J0.
N12655 X2.205 I-0.295 J0.
N12660 X2.845 I0.32 J0.
N12665 X2.155 I-0.345 J0.
N12670 X2.895 I0.37 J0.
N12675 X2.105 I-0.395 J0.
N12680 X2.945 I0.42 J0.
N12685 X2.055 I-0.445 J0.
N12690 X2.995 I0.47 J0.
N12695 X2.005 I-0.495 J0.
N12700 X3.045 I0.52 J0.
N12705 X1.955 I-0.545 J0.
N12710 X3.095 I0.57 J0.
N12715 X1.905 I-0.595 J0.
N12720 X3.145 I0.62 J0.
N12725 X1.855 I-0.645 J0.
N12730 X3.195 I0.67 J0.
N12735 X1.805 I-0.695 J0.
N12740 X3.245 I0.72 J0.
N12745 X1.755 I-0.745 J0.
N12750 X3.295 I0.77 J0.
N12755 X1.705 I-0.795 J0.
N12760 X3.345 I0.82 J0.
N12765 X1.655 I-0.845 J0.
N12770 X3.395 I0.87 J0.
N12775 X1.605 I-0.895 J0.
N12780 X3.445 I0.92 J0.
N12785 X1.555 I-0.945 J0.
N12790 X3.495 I0.97 J0.
N12795 X1.505 I-0.995 J0.
N12800 X3.545 I1.02 J0.
N12805 X1.455 I-1.045 J0.
N12810 X3.595 I1.07 J0.
N12815 X1.405 I-1.095 J0.
N12820 X3.645 I1.12 J0.
N12825 X1.355 I-1.145 J0.
N12830 X3.645 I1.145 J0.
N12835 X3.5839 Y1.7479 I-0.0375 J0.
N12840 G1 X3.1364 Y1.3867
N12845 G2 X3.0889 Y1.4447 I-0.0236 J0.0292
N12850 G3 X2.6336 Y1.9928 Z-0.9391 I-0.2277 J0.274
N12855 X2.505 Y1.7187 Z-0.95 I0.2277 J-0.274
N12860 X2.545 I0.02 J0.
N12865 X2.455 I-0.045 J0.
N12870 X2.595 I0.07 J0.
N12875 X2.405 I-0.095 J0.
N12880 X2.645 I0.12 J0.
N12885 X2.355 I-0.145 J0.
N12890 X2.695 I0.17 J0.
N12895 X2.305 I-0.195 J0.
N12900 X2.745 I0.22 J0.
N12905 X2.255 I-0.245 J0.
N12910 X2.795 I0.27 J0.
N12915 X2.205 I-0.295 J0.
N12920 X2.845 I0.32 J0.
N12925 X2.155 I-0.345 J0.
N12930 X2.895 I0.37 J0.
N12935 X2.105 I-0.395 J0.
N12940 X2.945 I0.42 J0.
N12945 X2.055 I-0.445 J0.
N12950 X2.995 I0.47 J0.
N12955 X2.005 I-0.495 J0.
N12960 X3.045 I0.52 J0.
N12965 X1.955 I-0.545 J0.
N12970 X3.095 I0.57 J0.
N12975 X1.905 I-0.595 J0.
N12980 X3.145 I0.62 J0.
N12985 X1.855 I-0.645 J0.
N12990 X3.195 I0.67 J0.
N12995 X1.805 I-0.695 J0.
N13000 X3.245 I0.72 J0.
N13005 X1.755 I-0.745 J0.
N13010 X3.295 I0.77 J0.
N13015 X1.705 I-0.795 J0.
N13020 X3.345 I0.82 J0.
N13025 X1.655 I-0.845 J0.
N13030 X3.395 I0.87 J0.
N13035 X1.605 I-0.895 J0.
N13040 X3.445 I0.92 J0.
N13045 X1.555 I-0.945 J0.
N13050 X3.495 I0.97 J0.
N13055 X1.505 I-0.995 J0.
N13060 X3.545 I1.02 J0.
N13065 X1.455 I-1.045 J0.
N13070 X3.595 I1.07 J0.
N13075 X1.405 I-1.095 J0.
N13080 X3.645 I1.12 J0.
N13085 X1.355 I-1.145 J0.
N13090 X3.645 I1.145 J0.
N13095 X3.5966 Y1.7546 I-0.0375 J0.
N13100 G1 X3.2648 Y1.6539
N13105 G2 X3.2165 Y1.6925 I-0.0109 J0.0359
N13110 G3 X2.8744 Y2.0748 Z-0.97 I-0.3553 J0.0262
N13115 X2.505 Y1.7187 Z-0.99 I-0.0131 J-0.356
N13120 X2.545 I0.02 J0.
N13125 X2.455 I-0.045 J0.
N13130 X2.595 I0.07 J0.
N13135 X2.405 I-0.095 J0.
N13140 X2.645 I0.12 J0.
N13145 X2.355 I-0.145 J0.
N13150 X2.695 I0.17 J0.
N13155 X2.305 I-0.195 J0.
N13160 X2.745 I0.22 J0.
N13165 X2.255 I-0.245 J0.
N13170 X2.795 I0.27 J0.
N13175 X2.205 I-0.295 J0.
N13180 X2.845 I0.32 J0.
N13185 X2.155 I-0.345 J0.
N13190 X2.895 I0.37 J0.
N13195 X2.105 I-0.395 J0.
N13200 X2.945 I0.42 J0.
N13205 X2.055 I-0.445 J0.
N13210 X2.995 I0.47 J0.
N13215 X2.005 I-0.495 J0.
N13220 X3.045 I0.52 J0.
N13225 X1.955 I-0.545 J0.
N13230 X3.095 I0.57 J0.
N13235 X1.905 I-0.595 J0.
N13240 X3.145 I0.62 J0.
N13245 X1.855 I-0.645 J0.
N13250 X3.195 I0.67 J0.
N13255 X1.805 I-0.695 J0.
N13260 X3.245 I0.72 J0.
N13265 X1.755 I-0.745 J0.
N13270 X3.295 I0.77 J0.
N13275 X1.705 I-0.795 J0.
N13280 X3.345 I0.82 J0.
N13285 X1.655 I-0.845 J0.
N13290 X3.395 I0.87 J0.
N13295 X1.605 I-0.895 J0.
N13300 X3.445 I0.92 J0.
N13305 X1.555 I-0.945 J0.
N13310 X3.495 I0.97 J0.
N13315 X1.505 I-0.995 J0.
N13320 X3.545 I1.02 J0.
N13325 X1.455 I-1.045 J0.
N13330 X3.595 I1.07 J0.
N13335 X1.405 I-1.095 J0.
N13340 X3.645 I1.12 J0.
N13345 X1.355 I-1.145 J0.
N13350 X3.645 I1.145 J0.
N13355 G1 X3.6449 Y1.7235 Z-0.9899
N13360 X3.6444 Y1.7281 Z-0.9894
N13365 X3.6437 Y1.7327 Z-0.9887
N13370 X3.6427 Y1.7372 Z-0.9876
N13375 X3.6414 Y1.7416 Z-0.9863
N13380 X3.64 Y1.7457 Z-0.9847
N13385 X3.6383 Y1.7497 Z-0.9829
N13390 X3.6365 Y1.7535 Z-0.9807
N13395 X3.6345 Y1.757 Z-0.9783
N13400 X3.6324 Y1.7603 Z-0.9757
N13405 X3.6303 Y1.7634 Z-0.9728
N13410 X3.6281 Y1.7662 Z-0.9697
N13415 X3.6259 Y1.7687 Z-0.9663
N13420 X3.6238 Y1.771 Z-0.9628
N13425 X3.6218 Y1.773 Z-0.9591
N13430 X3.6198 Y1.7748 Z-0.9552
N13435 X3.618 Y1.7764 Z-0.9511
N13440 X3.6163 Y1.7777 Z-0.9469
N13445 X3.6149 Y1.7789 Z-0.9426
N13450 X3.6136 Y1.7798 Z-0.9382
N13455 X3.6125 Y1.7806 Z-0.9337
N13460 X3.6116 Y1.7811 Z-0.9291
N13465 X3.611 Y1.7815 Z-0.9244
N13470 X3.6106 Y1.7818 Z-0.9197
N13475 X3.6105 Y1.7819 Z-0.915
N13480 G0 Z0.2
N13485 X7.1135 Y1.826
N13490 G1 Z0.175 F28.
N13495 X7.1134 Y1.8262 Z0.1702
N13500 X7.1133 Y1.8266 Z0.1654
N13505 X7.113 Y1.8273 Z0.1606
N13510 X7.1127 Y1.8283 Z0.156
N13515 X7.1123 Y1.8296 Z0.1514
N13520 X7.1118 Y1.8312 Z0.1469
N13525 X7.1112 Y1.833 Z0.1425
N13530 X7.1104 Y1.8351 Z0.1382
N13535 X7.1096 Y1.8375 Z0.1341
N13540 X7.1087 Y1.8401 Z0.1302
N13545 X7.1077 Y1.8429 Z0.1264
N13550 X7.1065 Y1.8459 Z0.1229
N13555 X7.1059 Y1.8475 Z0.1212
N13560 X7.1053 Y1.8491 Z0.1195
N13565 X7.1046 Y1.8508 Z0.118
N13570 X7.1039 Y1.8525 Z0.1164
N13575 X7.1032 Y1.8543 Z0.115
N13580 X7.1025 Y1.856 Z0.1135
N13585 X7.1017 Y1.8579 Z0.1122
N13590 X7.1009 Y1.8597 Z0.1109
N13595 X7.1001 Y1.8616 Z0.1097
N13600 X7.0992 Y1.8636 Z0.1085
N13605 X7.0983 Y1.8655 Z0.1075
N13610 X7.0974 Y1.8675 Z0.1064
N13615 X7.0965 Y1.8695 Z0.1055
N13620 X7.0956 Y1.8715 Z0.1046
N13625 X7.0946 Y1.8736 Z0.1039
N13630 X7.0936 Y1.8756 Z0.1031
N13635 X7.0926 Y1.8777 Z0.1025
N13640 X7.0915 Y1.8798 Z0.1019
N13645 X7.0904 Y1.8819 Z0.1014
N13650 X7.0894 Y1.884 Z0.1009
N13655 X7.0883 Y1.8861 Z0.1006
N13660 X7.0871 Y1.8882 Z0.1003
N13665 X7.086 Y1.8903 Z0.1002
N13670 X7.0848 Y1.8924 Z0.1
N13675 G3 X6.4626 Y1.5451 Z0.0609 I-0.3111 J-0.1736
N13680 X7.0848 Y1.8924 Z0.0218 I0.3111 J0.1736
N13685 X6.4626 Y1.5451 Z-0.0172 I-0.3111 J-0.1736
N13690 X7.13 Y1.7187 Z-0.05 I0.3111 J0.1736
N13695 X6.52 I-0.305 J0.
N13700 X6.53 I0.005 J0.
N13705 X6.47 I-0.03 J0.
N13710 X6.58 I0.055 J0.
N13715 X6.42 I-0.08 J0.
N13720 X6.63 I0.105 J0.
N13725 X6.37 I-0.13 J0.
N13730 X6.68 I0.155 J0.
N13735 X6.32 I-0.18 J0.
N13740 X6.73 I0.205 J0.
N13745 X6.27 I-0.23 J0.
N13750 X6.78 I0.255 J0.
N13755 X6.22 I-0.28 J0.
N13760 X6.83 I0.305 J0.
N13765 X6.17 I-0.33 J0.
N13770 X6.88 I0.355 J0.
N13775 X6.12 I-0.38 J0.
N13780 X6.93 I0.405 J0.
N13785 X6.07 I-0.43 J0.
N13790 X6.98 I0.455 J0.
N13795 X6.02 I-0.48 J0.
N13800 X7.03 I0.505 J0.
N13805 X5.97 I-0.53 J0.
N13810 X7.08 I0.555 J0.
N13815 X5.92 I-0.58 J0.
N13820 X7.13 I0.605 J0.
N13825 X5.87 I-0.63 J0.
N13830 X7.13 I0.63 J0.
N13835 X7.1084 Y1.7527 I-0.0375 J0.
N13840 G1 X6.586 Y1.9979
N13845 G3 X6.5461 Y1.9928 I-0.0159 J-0.0339
N13850 X7.0014 Y1.4447 Z-0.0891 I0.2277 J-0.274
N13855 X7.13 Y1.7187 Z-0.1 I-0.2277 J0.274
N13860 X6.52 I-0.305 J0.
N13865 X6.53 I0.005 J0.
N13870 X6.47 I-0.03 J0.
N13875 X6.58 I0.055 J0.
N13880 X6.42 I-0.08 J0.
N13885 X6.63 I0.105 J0.
N13890 X6.37 I-0.13 J0.
N13895 X6.68 I0.155 J0.
N13900 X6.32 I-0.18 J0.
N13905 X6.73 I0.205 J0.
N13910 X6.27 I-0.23 J0.
N13915 X6.78 I0.255 J0.
N13920 X6.22 I-0.28 J0.
N13925 X6.83 I0.305 J0.
N13930 X6.17 I-0.33 J0.
N13935 X6.88 I0.355 J0.
N13940 X6.12 I-0.38 J0.
N13945 X6.93 I0.405 J0.
N13950 X6.07 I-0.43 J0.
N13955 X6.98 I0.455 J0.
N13960 X6.02 I-0.48 J0.
N13965 X7.03 I0.505 J0.
N13970 X5.97 I-0.53 J0.
N13975 X7.08 I0.555 J0.
N13980 X5.92 I-0.58 J0.
N13985 X7.13 I0.605 J0.
N13990 X5.87 I-0.63 J0.
N13995 X7.13 I0.63 J0.
N14000 X7.1084 Y1.7527 I-0.0375 J0.
N14005 G1 X6.586 Y1.9979
N14010 G3 X6.5461 Y1.9928 I-0.0159 J-0.0339
N14015 X7.0014 Y1.4447 Z-0.1391 I0.2277 J-0.274
N14020 X7.13 Y1.7187 Z-0.15 I-0.2277 J0.274
N14025 X6.52 I-0.305 J0.
N14030 X6.53 I0.005 J0.
N14035 X6.47 I-0.03 J0.
N14040 X6.58 I0.055 J0.
N14045 X6.42 I-0.08 J0.
N14050 X6.63 I0.105 J0.
N14055 X6.37 I-0.13 J0.
N14060 X6.68 I0.155 J0.
N14065 X6.32 I-0.18 J0.
N14070 X6.73 I0.205 J0.
N14075 X6.27 I-0.23 J0.
N14080 X6.78 I0.255 J0.
N14085 X6.22 I-0.28 J0.
N14090 X6.83 I0.305 J0.
N14095 X6.17 I-0.33 J0.
N14100 X6.88 I0.355 J0.
N14105 X6.12 I-0.38 J0.
N14110 X6.93 I0.405 J0.
N14115 X6.07 I-0.43 J0.
N14120 X6.98 I0.455 J0.
N14125 X6.02 I-0.48 J0.
N14130 X7.03 I0.505 J0.
N14135 X5.97 I-0.53 J0.
N14140 X7.08 I0.555 J0.
N14145 X5.92 I-0.58 J0.
N14150 X7.13 I0.605 J0.
N14155 X5.87 I-0.63 J0.
N14160 X7.13 I0.63 J0.
N14165 X7.1084 Y1.7527 I-0.0375 J0.
N14170 G1 X6.586 Y1.9979
N14175 G3 X6.5461 Y1.9928 I-0.0159 J-0.0339
N14180 X7.0014 Y1.4447 Z-0.1891 I0.2277 J-0.274
N14185 X7.13 Y1.7187 Z-0.2 I-0.2277 J0.274
N14190 X6.52 I-0.305 J0.
N14195 X6.53 I0.005 J0.
N14200 X6.47 I-0.03 J0.
N14205 X6.58 I0.055 J0.
N14210 X6.42 I-0.08 J0.
N14215 X6.63 I0.105 J0.
N14220 X6.37 I-0.13 J0.
N14225 X6.68 I0.155 J0.
N14230 X6.32 I-0.18 J0.
N14235 X6.73 I0.205 J0.
N14240 X6.27 I-0.23 J0.
N14245 X6.78 I0.255 J0.
N14250 X6.22 I-0.28 J0.
N14255 X6.83 I0.305 J0.
N14260 X6.17 I-0.33 J0.
N14265 X6.88 I0.355 J0.
N14270 X6.12 I-0.38 J0.
N14275 X6.93 I0.405 J0.
N14280 X6.07 I-0.43 J0.
N14285 X6.98 I0.455 J0.
N14290 X6.02 I-0.48 J0.
N14295 X7.03 I0.505 J0.
N14300 X5.97 I-0.53 J0.
N14305 X7.08 I0.555 J0.
N14310 X5.92 I-0.58 J0.
N14315 X7.13 I0.605 J0.
N14320 X5.87 I-0.63 J0.
N14325 X7.13 I0.63 J0.
N14330 X7.1084 Y1.7527 I-0.0375 J0.
N14335 G1 X6.586 Y1.9979
N14340 G3 X6.5461 Y1.9928 I-0.0159 J-0.0339
N14345 X7.0014 Y1.4447 Z-0.2391 I0.2277 J-0.274
N14350 X7.13 Y1.7187 Z-0.25 I-0.2277 J0.274
N14355 X6.52 I-0.305 J0.
N14360 X6.53 I0.005 J0.
N14365 X6.47 I-0.03 J0.
N14370 X6.58 I0.055 J0.
N14375 X6.42 I-0.08 J0.
N14380 X6.63 I0.105 J0.
N14385 X6.37 I-0.13 J0.
N14390 X6.68 I0.155 J0.
N14395 X6.32 I-0.18 J0.
N14400 X6.73 I0.205 J0.
N14405 X6.27 I-0.23 J0.
N14410 X6.78 I0.255 J0.
N14415 X6.22 I-0.28 J0.
N14420 X6.83 I0.305 J0.
N14425 X6.17 I-0.33 J0.
N14430 X6.88 I0.355 J0.
N14435 X6.12 I-0.38 J0.
N14440 X6.93 I0.405 J0.
N14445 X6.07 I-0.43 J0.
N14450 X6.98 I0.455 J0.
N14455 X6.02 I-0.48 J0.
N14460 X7.03 I0.505 J0.
N14465 X5.97 I-0.53 J0.
N14470 X7.08 I0.555 J0.
N14475 X5.92 I-0.58 J0.
N14480 X7.13 I0.605 J0.
N14485 X5.87 I-0.63 J0.
N14490 X7.13 I0.63 J0.
N14495 X7.1084 Y1.7527 I-0.0375 J0.
N14500 G1 X6.586 Y1.9979
N14505 G3 X6.5461 Y1.9928 I-0.0159 J-0.0339
N14510 X7.0014 Y1.4447 Z-0.2891 I0.2277 J-0.274
N14515 X7.13 Y1.7187 Z-0.3 I-0.2277 J0.274
N14520 X6.52 I-0.305 J0.
N14525 X6.53 I0.005 J0.
N14530 X6.47 I-0.03 J0.
N14535 X6.58 I0.055 J0.
N14540 X6.42 I-0.08 J0.
N14545 X6.63 I0.105 J0.
N14550 X6.37 I-0.13 J0.
N14555 X6.68 I0.155 J0.
N14560 X6.32 I-0.18 J0.
N14565 X6.73 I0.205 J0.
N14570 X6.27 I-0.23 J0.
N14575 X6.78 I0.255 J0.
N14580 X6.22 I-0.28 J0.
N14585 X6.83 I0.305 J0.
N14590 X6.17 I-0.33 J0.
N14595 X6.88 I0.355 J0.
N14600 X6.12 I-0.38 J0.
N14605 X6.93 I0.405 J0.
N14610 X6.07 I-0.43 J0.
N14615 X6.98 I0.455 J0.
N14620 X6.02 I-0.48 J0.
N14625 X7.03 I0.505 J0.
N14630 X5.97 I-0.53 J0.
N14635 X7.08 I0.555 J0.
N14640 X5.92 I-0.58 J0.
N14645 X7.13 I0.605 J0.
N14650 X5.87 I-0.63 J0.
N14655 X7.13 I0.63 J0.
N14660 X7.1084 Y1.7527 I-0.0375 J0.
N14665 G1 X6.586 Y1.9979
N14670 G3 X6.5461 Y1.9928 I-0.0159 J-0.0339
N14675 X7.0014 Y1.4447 Z-0.3391 I0.2277 J-0.274
N14680 X7.13 Y1.7187 Z-0.35 I-0.2277 J0.274
N14685 X6.52 I-0.305 J0.
N14690 X6.53 I0.005 J0.
N14695 X6.47 I-0.03 J0.
N14700 X6.58 I0.055 J0.
N14705 X6.42 I-0.08 J0.
N14710 X6.63 I0.105 J0.
N14715 X6.37 I-0.13 J0.
N14720 X6.68 I0.155 J0.
N14725 X6.32 I-0.18 J0.
N14730 X6.73 I0.205 J0.
N14735 X6.27 I-0.23 J0.
N14740 X6.78 I0.255 J0.
N14745 X6.22 I-0.28 J0.
N14750 X6.83 I0.305 J0.
N14755 X6.17 I-0.33 J0.
N14760 X6.88 I0.355 J0.
N14765 X6.12 I-0.38 J0.
N14770 X6.93 I0.405 J0.
N14775 X6.07 I-0.43 J0.
N14780 X6.98 I0.455 J0.
N14785 X6.02 I-0.48 J0.
N14790 X7.03 I0.505 J0.
N14795 X5.97 I-0.53 J0.
N14800 X7.08 I0.555 J0.
N14805 X5.92 I-0.58 J0.
N14810 X7.13 I0.605 J0.
N14815 X5.87 I-0.63 J0.
N14820 X7.13 I0.63 J0.
N14825 X7.1084 Y1.7527 I-0.0375 J0.
N14830 G1 X6.586 Y1.9979
N14835 G3 X6.5461 Y1.9928 I-0.0159 J-0.0339
N14840 X7.0014 Y1.4447 Z-0.3891 I0.2277 J-0.274
N14845 X7.13 Y1.7187 Z-0.4 I-0.2277 J0.274
N14850 X6.52 I-0.305 J0.
N14855 X6.53 I0.005 J0.
N14860 X6.47 I-0.03 J0.
N14865 X6.58 I0.055 J0.
N14870 X6.42 I-0.08 J0.
N14875 X6.63 I0.105 J0.
N14880 X6.37 I-0.13 J0.
N14885 X6.68 I0.155 J0.
N14890 X6.32 I-0.18 J0.
N14895 X6.73 I0.205 J0.
N14900 X6.27 I-0.23 J0.
N14905 X6.78 I0.255 J0.
N14910 X6.22 I-0.28 J0.
N14915 X6.83 I0.305 J0.
N14920 X6.17 I-0.33 J0.
N14925 X6.88 I0.355 J0.
N14930 X6.12 I-0.38 J0.
N14935 X6.93 I0.405 J0.
N14940 X6.07 I-0.43 J0.
N14945 X6.98 I0.455 J0.
N14950 X6.02 I-0.48 J0.
N14955 X7.03 I0.505 J0.
N14960 X5.97 I-0.53 J0.
N14965 X7.08 I0.555 J0.
N14970 X5.92 I-0.58 J0.
N14975 X7.13 I0.605 J0.
N14980 X5.87 I-0.63 J0.
N14985 X7.13 I0.63 J0.
N14990 X7.1084 Y1.7527 I-0.0375 J0.
N14995 G1 X6.586 Y1.9979
N15000 G3 X6.5461 Y1.9928 I-0.0159 J-0.0339
N15005 X7.0014 Y1.4447 Z-0.4391 I0.2277 J-0.274
N15010 X7.13 Y1.7187 Z-0.45 I-0.2277 J0.274
N15015 X6.52 I-0.305 J0.
N15020 X6.53 I0.005 J0.
N15025 X6.47 I-0.03 J0.
N15030 X6.58 I0.055 J0.
N15035 X6.42 I-0.08 J0.
N15040 X6.63 I0.105 J0.
N15045 X6.37 I-0.13 J0.
N15050 X6.68 I0.155 J0.
N15055 X6.32 I-0.18 J0.
N15060 X6.73 I0.205 J0.
N15065 X6.27 I-0.23 J0.
N15070 X6.78 I0.255 J0.
N15075 X6.22 I-0.28 J0.
N15080 X6.83 I0.305 J0.
N15085 X6.17 I-0.33 J0.
N15090 X6.88 I0.355 J0.
N15095 X6.12 I-0.38 J0.
N15100 X6.93 I0.405 J0.
N15105 X6.07 I-0.43 J0.
N15110 X6.98 I0.455 J0.
N15115 X6.02 I-0.48 J0.
N15120 X7.03 I0.505 J0.
N15125 X5.97 I-0.53 J0.
N15130 X7.08 I0.555 J0.
N15135 X5.92 I-0.58 J0.
N15140 X7.13 I0.605 J0.
N15145 X5.87 I-0.63 J0.
N15150 X7.13 I0.63 J0.
N15155 X7.1084 Y1.7527 I-0.0375 J0.
N15160 G1 X6.586 Y1.9979
N15165 G3 X6.5461 Y1.9928 I-0.0159 J-0.0339
N15170 X7.0014 Y1.4447 Z-0.4891 I0.2277 J-0.274
N15175 X7.13 Y1.7187 Z-0.5 I-0.2277 J0.274
N15180 X6.52 I-0.305 J0.
N15185 X6.53 I0.005 J0.
N15190 X6.47 I-0.03 J0.
N15195 X6.58 I0.055 J0.
N15200 X6.42 I-0.08 J0.
N15205 X6.63 I0.105 J0.
N15210 X6.37 I-0.13 J0.
N15215 X6.68 I0.155 J0.
N15220 X6.32 I-0.18 J0.
N15225 X6.73 I0.205 J0.
N15230 X6.27 I-0.23 J0.
N15235 X6.78 I0.255 J0.
N15240 X6.22 I-0.28 J0.
N15245 X6.83 I0.305 J0.
N15250 X6.17 I-0.33 J0.
N15255 X6.88 I0.355 J0.
N15260 X6.12 I-0.38 J0.
N15265 X6.93 I0.405 J0.
N15270 X6.07 I-0.43 J0.
N15275 X6.98 I0.455 J0.
N15280 X6.02 I-0.48 J0.
N15285 X7.03 I0.505 J0.
N15290 X5.97 I-0.53 J0.
N15295 X7.08 I0.555 J0.
N15300 X5.92 I-0.58 J0.
N15305 X7.13 I0.605 J0.
N15310 X5.87 I-0.63 J0.
N15315 X7.13 I0.63 J0.
N15320 X7.1084 Y1.7527 I-0.0375 J0.
N15325 G1 X6.586 Y1.9979
N15330 G3 X6.5461 Y1.9928 I-0.0159 J-0.0339
N15335 X7.0014 Y1.4447 Z-0.5391 I0.2277 J-0.274
N15340 X7.13 Y1.7187 Z-0.55 I-0.2277 J0.274
N15345 X6.52 I-0.305 J0.
N15350 X6.53 I0.005 J0.
N15355 X6.47 I-0.03 J0.
N15360 X6.58 I0.055 J0.
N15365 X6.42 I-0.08 J0.
N15370 X6.63 I0.105 J0.
N15375 X6.37 I-0.13 J0.
N15380 X6.68 I0.155 J0.
N15385 X6.32 I-0.18 J0.
N15390 X6.73 I0.205 J0.
N15395 X6.27 I-0.23 J0.
N15400 X6.78 I0.255 J0.
N15405 X6.22 I-0.28 J0.
N15410 X6.83 I0.305 J0.
N15415 X6.17 I-0.33 J0.
N15420 X6.88 I0.355 J0.
N15425 X6.12 I-0.38 J0.
N15430 X6.93 I0.405 J0.
N15435 X6.07 I-0.43 J0.
N15440 X6.98 I0.455 J0.
N15445 X6.02 I-0.48 J0.
N15450 X7.03 I0.505 J0.
N15455 X5.97 I-0.53 J0.
N15460 X7.08 I0.555 J0.
N15465 X5.92 I-0.58 J0.
N15470 X7.13 I0.605 J0.
N15475 X5.87 I-0.63 J0.
N15480 X7.13 I0.63 J0.
N15485 X7.1084 Y1.7527 I-0.0375 J0.
N15490 G1 X6.586 Y1.9979
N15495 G3 X6.5461 Y1.9928 I-0.0159 J-0.0339
N15500 X7.0014 Y1.4447 Z-0.5891 I0.2277 J-0.274
N15505 X7.13 Y1.7187 Z-0.6 I-0.2277 J0.274
N15510 X6.52 I-0.305 J0.
N15515 X6.53 I0.005 J0.
N15520 X6.47 I-0.03 J0.
N15525 X6.58 I0.055 J0.
N15530 X6.42 I-0.08 J0.
N15535 X6.63 I0.105 J0.
N15540 X6.37 I-0.13 J0.
N15545 X6.68 I0.155 J0.
N15550 X6.32 I-0.18 J0.
N15555 X6.73 I0.205 J0.
N15560 X6.27 I-0.23 J0.
N15565 X6.78 I0.255 J0.
N15570 X6.22 I-0.28 J0.
N15575 X6.83 I0.305 J0.
N15580 X6.17 I-0.33 J0.
N15585 X6.88 I0.355 J0.
N15590 X6.12 I-0.38 J0.
N15595 X6.93 I0.405 J0.
N15600 X6.07 I-0.43 J0.
N15605 X6.98 I0.455 J0.
N15610 X6.02 I-0.48 J0.
N15615 X7.03 I0.505 J0.
N15620 X5.97 I-0.53 J0.
N15625 X7.08 I0.555 J0.
N15630 X5.92 I-0.58 J0.
N15635 X7.13 I0.605 J0.
N15640 X5.87 I-0.63 J0.
N15645 X7.13 I0.63 J0.
N15650 X7.1084 Y1.7527 I-0.0375 J0.
N15655 G1 X6.586 Y1.9979
N15660 G3 X6.5461 Y1.9928 I-0.0159 J-0.0339
N15665 X7.0014 Y1.4447 Z-0.6391 I0.2277 J-0.274
N15670 X7.13 Y1.7187 Z-0.65 I-0.2277 J0.274
N15675 X6.52 I-0.305 J0.
N15680 X6.53 I0.005 J0.
N15685 X6.47 I-0.03 J0.
N15690 X6.58 I0.055 J0.
N15695 X6.42 I-0.08 J0.
N15700 X6.63 I0.105 J0.
N15705 X6.37 I-0.13 J0.
N15710 X6.68 I0.155 J0.
N15715 X6.32 I-0.18 J0.
N15720 X6.73 I0.205 J0.
N15725 X6.27 I-0.23 J0.
N15730 X6.78 I0.255 J0.
N15735 X6.22 I-0.28 J0.
N15740 X6.83 I0.305 J0.
N15745 X6.17 I-0.33 J0.
N15750 X6.88 I0.355 J0.
N15755 X6.12 I-0.38 J0.
N15760 X6.93 I0.405 J0.
N15765 X6.07 I-0.43 J0.
N15770 X6.98 I0.455 J0.
N15775 X6.02 I-0.48 J0.
N15780 X7.03 I0.505 J0.
N15785 X5.97 I-0.53 J0.
N15790 X7.08 I0.555 J0.
N15795 X5.92 I-0.58 J0.
N15800 X7.13 I0.605 J0.
N15805 X5.87 I-0.63 J0.
N15810 X7.13 I0.63 J0.
N15815 X7.1084 Y1.7527 I-0.0375 J0.
N15820 G1 X6.586 Y1.9979
N15825 G3 X6.5461 Y1.9928 I-0.0159 J-0.0339
N15830 X7.0014 Y1.4447 Z-0.6891 I0.2277 J-0.274
N15835 X7.13 Y1.7187 Z-0.7 I-0.2277 J0.274
N15840 X6.52 I-0.305 J0.
N15845 X6.53 I0.005 J0.
N15850 X6.47 I-0.03 J0.
N15855 X6.58 I0.055 J0.
N15860 X6.42 I-0.08 J0.
N15865 X6.63 I0.105 J0.
N15870 X6.37 I-0.13 J0.
N15875 X6.68 I0.155 J0.
N15880 X6.32 I-0.18 J0.
N15885 X6.73 I0.205 J0.
N15890 X6.27 I-0.23 J0.
N15895 X6.78 I0.255 J0.
N15900 X6.22 I-0.28 J0.
N15905 X6.83 I0.305 J0.
N15910 X6.17 I-0.33 J0.
N15915 X6.88 I0.355 J0.
N15920 X6.12 I-0.38 J0.
N15925 X6.93 I0.405 J0.
N15930 X6.07 I-0.43 J0.
N15935 X6.98 I0.455 J0.
N15940 X6.02 I-0.48 J0.
N15945 X7.03 I0.505 J0.
N15950 X5.97 I-0.53 J0.
N15955 X7.08 I0.555 J0.
N15960 X5.92 I-0.58 J0.
N15965 X7.13 I0.605 J0.
N15970 X5.87 I-0.63 J0.
N15975 X7.13 I0.63 J0.
N15980 X7.1084 Y1.7527 I-0.0375 J0.
N15985 G1 X6.586 Y1.9979
N15990 G3 X6.5461 Y1.9928 I-0.0159 J-0.0339
N15995 X7.0014 Y1.4447 Z-0.7391 I0.2277 J-0.274
N16000 X7.13 Y1.7187 Z-0.75 I-0.2277 J0.274
N16005 X6.52 I-0.305 J0.
N16010 X6.53 I0.005 J0.
N16015 X6.47 I-0.03 J0.
N16020 X6.58 I0.055 J0.
N16025 X6.42 I-0.08 J0.
N16030 X6.63 I0.105 J0.
N16035 X6.37 I-0.13 J0.
N16040 X6.68 I0.155 J0.
N16045 X6.32 I-0.18 J0.
N16050 X6.73 I0.205 J0.
N16055 X6.27 I-0.23 J0.
N16060 X6.78 I0.255 J0.
N16065 X6.22 I-0.28 J0.
N16070 X6.83 I0.305 J0.
N16075 X6.17 I-0.33 J0.
N16080 X6.88 I0.355 J0.
N16085 X6.12 I-0.38 J0.
N16090 X6.93 I0.405 J0.
N16095 X6.07 I-0.43 J0.
N16100 X6.98 I0.455 J0.
N16105 X6.02 I-0.48 J0.
N16110 X7.03 I0.505 J0.
N16115 X5.97 I-0.53 J0.
N16120 X7.08 I0.555 J0.
N16125 X5.92 I-0.58 J0.
N16130 X7.13 I0.605 J0.
N16135 X5.87 I-0.63 J0.
N16140 X7.13 I0.63 J0.
N16145 X7.1084 Y1.7527 I-0.0375 J0.
N16150 G1 X6.586 Y1.9979
N16155 G3 X6.5461 Y1.9928 I-0.0159 J-0.0339
N16160 X7.0014 Y1.4447 Z-0.7891 I0.2277 J-0.274
N16165 X7.13 Y1.7187 Z-0.8 I-0.2277 J0.274
N16170 X6.52 I-0.305 J0.
N16175 X6.53 I0.005 J0.
N16180 X6.47 I-0.03 J0.
N16185 X6.58 I0.055 J0.
N16190 X6.42 I-0.08 J0.
N16195 X6.63 I0.105 J0.
N16200 X6.37 I-0.13 J0.
N16205 X6.68 I0.155 J0.
N16210 X6.32 I-0.18 J0.
N16215 X6.73 I0.205 J0.
N16220 X6.27 I-0.23 J0.
N16225 X6.78 I0.255 J0.
N16230 X6.22 I-0.28 J0.
N16235 X6.83 I0.305 J0.
N16240 X6.17 I-0.33 J0.
N16245 X6.88 I0.355 J0.
N16250 X6.12 I-0.38 J0.
N16255 X6.93 I0.405 J0.
N16260 X6.07 I-0.43 J0.
N16265 X6.98 I0.455 J0.
N16270 X6.02 I-0.48 J0.
N16275 X7.03 I0.505 J0.
N16280 X5.97 I-0.53 J0.
N16285 X7.08 I0.555 J0.
N16290 X5.92 I-0.58 J0.
N16295 X7.13 I0.605 J0.
N16300 X5.87 I-0.63 J0.
N16305 X7.13 I0.63 J0.
N16310 X7.1084 Y1.7527 I-0.0375 J0.
N16315 G1 X6.586 Y1.9979
N16320 G3 X6.5461 Y1.9928 I-0.0159 J-0.0339
N16325 X7.0014 Y1.4447 Z-0.8391 I0.2277 J-0.274
N16330 X7.13 Y1.7187 Z-0.85 I-0.2277 J0.274
N16335 X6.52 I-0.305 J0.
N16340 X6.53 I0.005 J0.
N16345 X6.47 I-0.03 J0.
N16350 X6.58 I0.055 J0.
N16355 X6.42 I-0.08 J0.
N16360 X6.63 I0.105 J0.
N16365 X6.37 I-0.13 J0.
N16370 X6.68 I0.155 J0.
N16375 X6.32 I-0.18 J0.
N16380 X6.73 I0.205 J0.
N16385 X6.27 I-0.23 J0.
N16390 X6.78 I0.255 J0.
N16395 X6.22 I-0.28 J0.
N16400 X6.83 I0.305 J0.
N16405 X6.17 I-0.33 J0.
N16410 X6.88 I0.355 J0.
N16415 X6.12 I-0.38 J0.
N16420 X6.93 I0.405 J0.
N16425 X6.07 I-0.43 J0.
N16430 X6.98 I0.455 J0.
N16435 X6.02 I-0.48 J0.
N16440 X7.03 I0.505 J0.
N16445 X5.97 I-0.53 J0.
N16450 X7.08 I0.555 J0.
N16455 X5.92 I-0.58 J0.
N16460 X7.13 I0.605 J0.
N16465 X5.87 I-0.63 J0.
N16470 X7.13 I0.63 J0.
N16475 X7.1084 Y1.7527 I-0.0375 J0.
N16480 G1 X6.586 Y1.9979
N16485 G3 X6.5461 Y1.9928 I-0.0159 J-0.0339
N16490 X7.0014 Y1.4447 Z-0.8891 I0.2277 J-0.274
N16495 X7.13 Y1.7187 Z-0.9 I-0.2277 J0.274
N16500 X6.52 I-0.305 J0.
N16505 X6.53 I0.005 J0.
N16510 X6.47 I-0.03 J0.
N16515 X6.58 I0.055 J0.
N16520 X6.42 I-0.08 J0.
N16525 X6.63 I0.105 J0.
N16530 X6.37 I-0.13 J0.
N16535 X6.68 I0.155 J0.
N16540 X6.32 I-0.18 J0.
N16545 X6.73 I0.205 J0.
N16550 X6.27 I-0.23 J0.
N16555 X6.78 I0.255 J0.
N16560 X6.22 I-0.28 J0.
N16565 X6.83 I0.305 J0.
N16570 X6.17 I-0.33 J0.
N16575 X6.88 I0.355 J0.
N16580 X6.12 I-0.38 J0.
N16585 X6.93 I0.405 J0.
N16590 X6.07 I-0.43 J0.
N16595 X6.98 I0.455 J0.
N16600 X6.02 I-0.48 J0.
N16605 X7.03 I0.505 J0.
N16610 X5.97 I-0.53 J0.
N16615 X7.08 I0.555 J0.
N16620 X5.92 I-0.58 J0.
N16625 X7.13 I0.605 J0.
N16630 X5.87 I-0.63 J0.
N16635 X7.13 I0.63 J0.
N16640 X7.1084 Y1.7527 I-0.0375 J0.
N16645 G1 X6.586 Y1.9979
N16650 G3 X6.5461 Y1.9928 I-0.0159 J-0.0339
N16655 X7.0014 Y1.4447 Z-0.9391 I0.2277 J-0.274
N16660 X7.13 Y1.7187 Z-0.95 I-0.2277 J0.274
N16665 X6.52 I-0.305 J0.
N16670 X6.53 I0.005 J0.
N16675 X6.47 I-0.03 J0.
N16680 X6.58 I0.055 J0.
N16685 X6.42 I-0.08 J0.
N16690 X6.63 I0.105 J0.
N16695 X6.37 I-0.13 J0.
N16700 X6.68 I0.155 J0.
N16705 X6.32 I-0.18 J0.
N16710 X6.73 I0.205 J0.
N16715 X6.27 I-0.23 J0.
N16720 X6.78 I0.255 J0.
N16725 X6.22 I-0.28 J0.
N16730 X6.83 I0.305 J0.
N16735 X6.17 I-0.33 J0.
N16740 X6.88 I0.355 J0.
N16745 X6.12 I-0.38 J0.
N16750 X6.93 I0.405 J0.
N16755 X6.07 I-0.43 J0.
N16760 X6.98 I0.455 J0.
N16765 X6.02 I-0.48 J0.
N16770 X7.03 I0.505 J0.
N16775 X5.97 I-0.53 J0.
N16780 X7.08 I0.555 J0.
N16785 X5.92 I-0.58 J0.
N16790 X7.13 I0.605 J0.
N16795 X5.87 I-0.63 J0.
N16800 X7.13 I0.63 J0.
N16805 X7.0939 Y1.7562 I-0.0375 J0.
N16810 G1 X6.4572 Y1.7797
N16815 G3 X6.4185 Y1.745 I-0.0014 J-0.0375
N16820 X6.7606 Y1.3627 Z-0.97 I0.3553 J-0.0262
N16825 X7.13 Y1.7187 Z-0.99 I0.0131 J0.356
N16830 X6.52 I-0.305 J0.
N16835 X6.53 I0.005 J0.
N16840 X6.47 I-0.03 J0.
N16845 X6.58 I0.055 J0.
N16850 X6.42 I-0.08 J0.
N16855 X6.63 I0.105 J0.
N16860 X6.37 I-0.13 J0.
N16865 X6.68 I0.155 J0.
N16870 X6.32 I-0.18 J0.
N16875 X6.73 I0.205 J0.
N16880 X6.27 I-0.23 J0.
N16885 X6.78 I0.255 J0.
N16890 X6.22 I-0.28 J0.
N16895 X6.83 I0.305 J0.
N16900 X6.17 I-0.33 J0.
N16905 X6.88 I0.355 J0.
N16910 X6.12 I-0.38 J0.
N16915 X6.93 I0.405 J0.
N16920 X6.07 I-0.43 J0.
N16925 X6.98 I0.455 J0.
N16930 X6.02 I-0.48 J0.
N16935 X7.03 I0.505 J0.
N16940 X5.97 I-0.53 J0.
N16945 X7.08 I0.555 J0.
N16950 X5.92 I-0.58 J0.
N16955 X7.13 I0.605 J0.
N16960 X5.87 I-0.63 J0.
N16965 X7.13 I0.63 J0.
N16970 G1 X7.1299 Y1.7235 Z-0.9899
N16975 X7.1294 Y1.7281 Z-0.9894
N16980 X7.1287 Y1.7327 Z-0.9887
N16985 X7.1277 Y1.7372 Z-0.9876
N16990 X7.1264 Y1.7416 Z-0.9863
N16995 X7.125 Y1.7457 Z-0.9847
N17000 X7.1233 Y1.7497 Z-0.9829
N17005 X7.1215 Y1.7535 Z-0.9807
N17010 X7.1195 Y1.757 Z-0.9783
N17015 X7.1174 Y1.7603 Z-0.9757
N17020 X7.1153 Y1.7634 Z-0.9728
N17025 X7.1131 Y1.7662 Z-0.9697
N17030 X7.1109 Y1.7687 Z-0.9663
N17035 X7.1088 Y1.771 Z-0.9628
N17040 X7.1068 Y1.773 Z-0.9591
N17045 X7.1048 Y1.7748 Z-0.9552
N17050 X7.103 Y1.7764 Z-0.9511
N17055 X7.1013 Y1.7777 Z-0.9469
N17060 X7.0999 Y1.7789 Z-0.9426
N17065 X7.0986 Y1.7798 Z-0.9382
N17070 X7.0975 Y1.7806 Z-0.9337
N17075 X7.0966 Y1.7811 Z-0.9291
N17080 X7.096 Y1.7815 Z-0.9244
N17085 X7.0956 Y1.7818 Z-0.9197
N17090 X7.0955 Y1.7819 Z-0.915
N17095 G0 Z0.6
(2D CONTOUR3)
N17105 S840 M3
N17110 M9
N17115 G0 X3.4416 Y1.6668
N17120 Z0.6
N17125 Z0.2
N17130 G1 Z0.0394 F24.
N17135 Z-0.935 F1.
N17140 X3.4418 Z-0.9415
N17145 X3.4427 Y1.6669 Z-0.948
N17150 X3.4441 Z-0.9544
N17155 X3.4461 Y1.667 Z-0.9607
N17160 X3.4486 Z-0.9667
N17165 X3.4516 Y1.6671 Z-0.9725
N17170 X3.4551 Y1.6672 Z-0.978
N17175 X3.4591 Y1.6673 Z-0.9832
N17180 X3.4635 Y1.6674 Z-0.988
N17185 X3.4683 Y1.6675 Z-0.9925
N17190 X3.4735 Y1.6676 Z-0.9964
N17195 X3.479 Y1.6678 Z-1.
N17200 X3.4848 Y1.6679 Z-1.003
N17205 X3.4909 Y1.6681 Z-1.0055
N17210 X3.4971 Y1.6682 Z-1.0074
N17215 X3.5035 Y1.6684 Z-1.0089
N17220 X3.51 Y1.6685 Z-1.0097
N17225 X3.5165 Y1.6687 Z-1.01
N17230 X3.5915 Y1.6705 F24.
N17235 G3 X3.6646 Y1.7473 I-0.0018 J0.075
N17240 X1.3354 Y1.6902 I-1.1646 J-0.0286
N17245 X3.6646 Y1.7473 I1.1646 J0.0286
N17250 X3.5878 Y1.8205 I-0.075 J-0.0018
N17255 G1 X3.5129 Y1.8186
N17260 X3.5063 Y1.8185 Z-1.0097
N17265 X3.4998 Y1.8183 Z-1.0089
N17270 X3.4934 Y1.8182 Z-1.0074
N17275 X3.4872 Y1.818 Z-1.0055
N17280 X3.4812 Y1.8179 Z-1.003
N17285 X3.4754 Y1.8177 Z-1.
N17290 X3.4698 Y1.8176 Z-0.9964
N17295 X3.4647 Y1.8175 Z-0.9925
N17300 X3.4598 Y1.8173 Z-0.988
N17305 X3.4554 Y1.8172 Z-0.9832
N17310 X3.4514 Y1.8171 Z-0.978
N17315 X3.4479 Y1.817 Z-0.9725
N17320 X3.4449 Z-0.9667
N17325 X3.4424 Y1.8169 Z-0.9607
N17330 X3.4404 Z-0.9544
N17335 X3.439 Y1.8168 Z-0.948
N17340 X3.4382 Z-0.9415
N17345 X3.4379 Z-0.935
N17350 G0 Z0.2
N17355 X6.925 Y1.6437
N17360 G1 Z0.0394 F24.
N17365 Z-0.935 F1.
N17370 G18 G2 X7. Z-1.01 I0.075 K0.
N17375 G1 X7.075 F24.
N17380 G17 G3 X7.15 Y1.7187 I0. J0.075
N17385 X5.85 I-0.65 J0.
N17390 X7.15 I0.65 J0.
N17395 X7.075 Y1.7937 I-0.075 J0.
N17400 G1 X7.
N17405 G18 G3 X6.925 Z-0.935 I0. K0.075
N17410 G0 Z0.6
N17415 G17
(RAMP2)
N17420 M9
N17425 G0 X1.4421 Y1.724
N17430 Z0.6
N17435 Z0.065
N17440 G18 G3 X1.3671 Z-0.01 I-0.075 K0. F7.
N17445 G17 G3 X1.2921 Y1.649 I0. J-0.075
N17450 G1 X1.2933 Y1.6316
N17455 X1.2948 Y1.6123
N17460 X1.2967 Y1.5929
N17465 X1.2989 Y1.5736
N17470 X1.3014 Y1.5542 Z-0.0101
N17475 X1.3042 Y1.5348
N17480 X1.3074 Y1.5155
N17485 X1.3116 Y1.4917
N17490 X1.3146 Y1.4768
N17495 X1.3187 Y1.4574
N17500 X1.3232 Y1.4381
N17505 X1.3279 Y1.4187 Z-0.0102
N17510 X1.331 Y1.4072
N17515 X1.3384 Y1.38
N17520 X1.3444 Y1.3606
N17525 X1.3504 Y1.3415
N17530 X1.3571 Y1.3219
N17535 X1.3639 Y1.3026
N17540 X1.3713 Y1.2832
N17545 X1.3789 Y1.2638 Z-0.0103
N17550 X1.3892 Y1.2392
N17555 X1.3954 Y1.2251
N17560 X1.4042 Y1.2058
N17565 X1.4086 Y1.1965
N17570 X1.4231 Y1.167
N17575 X1.428 Y1.1579
N17580 X1.4334 Y1.1477
N17585 X1.4439 Y1.1283 Z-0.0104
N17590 X1.4551 Y1.109
N17595 X1.4666 Y1.0896
N17600 X1.4785 Y1.0703
N17605 X1.4862 Y1.0584
N17610 X1.4912 Y1.0509
N17615 X1.5042 Y1.0315
N17620 X1.5179 Y1.0122 Z-0.0105
N17625 X1.5251 Y1.0022
N17630 X1.5445 Y0.9765
N17635 X1.5468 Y0.9735
N17640 X1.5639 Y0.9523
N17645 X1.5786 Y0.9348
N17650 X1.5952 Y0.9154
N17655 X1.6027 Y0.9072
N17660 X1.6129 Y0.896
N17665 X1.6221 Y0.8861 Z-0.0106
N17670 X1.6415 Y0.8662
N17675 X1.6504 Y0.8573
N17680 X1.6705 Y0.838
N17685 X1.6803 Y0.8288
N17690 X1.6997 Y0.8113
N17695 X1.7137 Y0.7992
N17700 X1.7192 Y0.7947
N17705 X1.7368 Y0.7799 Z-0.0107
N17710 X1.7612 Y0.7605
N17715 X1.7774 Y0.7484
N17720 X1.7872 Y0.7412
N17725 X1.7968 Y0.7342
N17730 X1.8162 Y0.7207
N17735 X1.8356 Y0.7077
N17740 X1.855 Y0.6951 Z-0.0108
N17745 X1.8744 Y0.6832
N17750 X1.8746 Y0.6831
N17755 X1.8938 Y0.6716
N17760 X1.9133 Y0.6607
N17765 X1.9327 Y0.6502
N17770 X1.9521 Y0.64
N17775 X1.9715 Y0.6305
N17780 X1.9909 Y0.6211 Z-0.0109
N17785 X2.0103 Y0.6125
N17790 X2.0256 Y0.6057
N17795 X2.0297 Y0.604
N17800 X2.0491 Y0.5961
N17805 X2.0685 Y0.5884
N17810 X2.0879 Y0.5812
N17815 X2.1073 Y0.5744
N17820 X2.1295 Y0.567 Z-0.011
N17825 X2.1462 Y0.5618
N17830 X2.1656 Y0.556
N17835 X2.185 Y0.5507
N17840 X2.2044 Y0.5455
N17845 X2.2238 Y0.5409
N17850 X2.2432 Y0.5364
N17855 X2.2626 Y0.5325
N17860 X2.282 Y0.5286 Z-0.0111
N17865 X2.3014 Y0.5253
N17870 X2.3209 Y0.5222
N17875 X2.3403 Y0.5195
N17880 X2.3597 Y0.517
N17885 X2.3791 Y0.515
N17890 X2.3985 Y0.5131
N17895 X2.4179 Y0.5117 Z-0.0112
N17900 X2.4373 Y0.5105
N17905 X2.4567 Y0.5097
N17910 X2.4761 Y0.5091
N17915 X2.504 Y0.5089
N17920 X2.5114
N17925 X2.5344 Y0.5094
N17930 X2.5538 Y0.5101
N17935 X2.5732 Y0.5111 Z-0.0113
N17940 X2.5926 Y0.5124
N17945 X2.612 Y0.5141
N17950 X2.6314 Y0.516
N17955 X2.6508 Y0.5184
N17960 X2.6702 Y0.5209
N17965 X2.6896 Y0.5239
N17970 X2.709 Y0.5271
N17975 X2.7285 Y0.5307 Z-0.0114
N17980 X2.7479 Y0.5346
N17985 X2.7673 Y0.5388
N17990 X2.7867 Y0.5434
N17995 X2.8061 Y0.5482
N18000 X2.8255 Y0.5535
N18005 X2.8449 Y0.559
