%
(SESSION_LOGO)
(SESSION_LOGO 2MM FLAT END MILL 3.5X3.5X.094)
(T3  D=0.0787 CR=0. - ZMIN=-0.1363 - FLAT END MILL)
N10 G90 G94 G17 G91.1
N15 G20
N20 G53 G0 Z0.
(2D POCKET1)
N25 M9
N30 T3 M6
N35 S12000 M3
N40 G54
N45 M9
N55 G0 X0.0342 Y0.5442
N60 G43 Z0.6 H3
N65 G0 Z0.2
N70 G1 Z0.1079 F5.
N75 X0.0341 Y0.5443 Z0.1064
N80 G3 X0.0337 Y0.5446 Z0.1049 I-0.023 J-0.0295
N85 X0.0332 Y0.545 Z0.1036 I-0.0226 J-0.0298
N90 X0.0324 Y0.5455 Z0.1024 I-0.0221 J-0.0302
N95 X0.0315 Y0.5462 Z0.1014 I-0.0213 J-0.0307
N100 X0.0303 Y0.5469 Z0.1007 I-0.0204 J-0.0314
N105 X0.0291 Y0.5476 Z0.1002 I-0.0193 J-0.0321
N110 X0.0278 Y0.5483 Z0.1 I-0.018 J-0.0328
N115 X-0.0056 Y0.4813 Z0.0959 I-0.0167 J-0.0335
N120 X0.0278 Y0.5483 Z0.0918 I0.0167 J0.0335
N125 X-0.0056 Y0.4813 Z0.0877 I-0.0167 J-0.0335
N130 X0.0278 Y0.5483 Z0.0836 I0.0167 J0.0335
N135 X-0.0056 Y0.4813 Z0.0795 I-0.0167 J-0.0335
N140 X0.0278 Y0.5483 Z0.0754 I0.0167 J0.0335
N145 X-0.0056 Y0.4813 Z0.0713 I-0.0167 J-0.0335
N150 X0.0278 Y0.5483 Z0.0672 I0.0167 J0.0335
N155 X-0.0056 Y0.4813 Z0.0631 I-0.0167 J-0.0335
N160 X0.0278 Y0.5483 Z0.059 I0.0167 J0.0335
N165 X-0.0056 Y0.4813 Z0.0549 I-0.0167 J-0.0335
N170 X0.0278 Y0.5483 Z0.0508 I0.0167 J0.0335
N175 X-0.0056 Y0.4813 Z0.0467 I-0.0167 J-0.0335
N180 X0.0278 Y0.5483 Z0.0426 I0.0167 J0.0335
N185 X-0.0056 Y0.4813 Z0.0385 I-0.0167 J-0.0335
N190 X0.0278 Y0.5483 Z0.0343 I0.0167 J0.0335
N195 X-0.0056 Y0.4813 Z0.0302 I-0.0167 J-0.0335
N200 X0.0278 Y0.5483 Z0.0261 I0.0167 J0.0335
N205 X-0.0056 Y0.4813 Z0.022 I-0.0167 J-0.0335
N210 X0.0278 Y0.5483 Z0.0179 I0.0167 J0.0335
N215 X-0.0056 Y0.4813 Z0.0138 I-0.0167 J-0.0335
N220 X0.0278 Y0.5483 Z0.0097 I0.0167 J0.0335
N225 X-0.0056 Y0.4813 Z0.0056 I-0.0167 J-0.0335
N230 X0.0278 Y0.5483 Z0.0015 I0.0167 J0.0335
N235 X-0.0056 Y0.4813 Z-0.0026 I-0.0167 J-0.0335
N240 X0.0278 Y0.5483 Z-0.0067 I0.0167 J0.0335
N245 X-0.0056 Y0.4813 Z-0.0108 I-0.0167 J-0.0335
N250 X0.0278 Y0.5483 Z-0.0149 I0.0167 J0.0335
N255 X-0.0056 Y0.4813 Z-0.019 I-0.0167 J-0.0335
N260 X0.0278 Y0.5483 Z-0.0231 I0.0167 J0.0335
N265 X-0.0056 Y0.4813 Z-0.0272 I-0.0167 J-0.0335
N270 X0.0278 Y0.5483 Z-0.0313 I0.0167 J0.0335
N275 X-0.0056 Y0.4813 Z-0.0354 I-0.0167 J-0.0335
N280 X0.0278 Y0.5483 Z-0.0395 I0.0167 J0.0335
N285 X-0.0056 Y0.4813 Z-0.0436 I-0.0167 J-0.0335
N290 X0.0278 Y0.5483 Z-0.0477 I0.0167 J0.0335
N295 X-0.0056 Y0.4813 Z-0.0518 I-0.0167 J-0.0335
N300 X0.0278 Y0.5483 Z-0.0559 I0.0167 J0.0335
N305 X-0.0056 Y0.4813 Z-0.06 I-0.0167 J-0.0335
N310 X0.0278 Y0.5483 Z-0.0641 I0.0167 J0.0335
N315 X-0.0056 Y0.4813 Z-0.0682 I-0.0167 J-0.0335
N320 X0.0278 Y0.5483 Z-0.0723 I0.0167 J0.0335
N325 X-0.0056 Y0.4813 Z-0.0764 I-0.0167 J-0.0335
N330 X0.0278 Y0.5483 Z-0.0805 I0.0167 J0.0335
N335 X-0.0056 Y0.4813 Z-0.0846 I-0.0167 J-0.0335
N340 X0.0278 Y0.5483 Z-0.0887 I0.0167 J0.0335
N345 X-0.0056 Y0.4813 Z-0.0929 I-0.0167 J-0.0335
N350 X0.0278 Y0.5483 Z-0.097 I0.0167 J0.0335
N355 X-0.0056 Y0.4813 Z-0.1011 I-0.0167 J-0.0335
N360 X0.0278 Y0.5483 Z-0.1052 I0.0167 J0.0335
N365 X-0.0056 Y0.4813 Z-0.1093 I-0.0167 J-0.0335
N370 X0.0278 Y0.5483 Z-0.1134 I0.0167 J0.0335
N375 X-0.0056 Y0.4813 Z-0.1175 I-0.0167 J-0.0335
N380 X0.0278 Y0.5483 Z-0.1216 I0.0167 J0.0335
N385 X-0.0056 Y0.4813 Z-0.1257 I-0.0167 J-0.0335
N390 X0.0278 Y0.5483 Z-0.1298 I0.0167 J0.0335
N395 X-0.0056 Y0.4813 Z-0.1339 I-0.0167 J-0.0335
N400 X0.0476 Y0.5066 Z-0.1363 I0.0167 J0.0335
N405 X-0.0113 Y0.5198 I-0.0295 J0.0066
N410 G2 X-0.0135 Y0.5106 I-0.6559 J0.1473
N415 G3 X-0.0045 Y0.5012 I0.0075 J-0.0018
N420 G2 X0.0142 Y0.5028 I0.017 J-0.0875
N425 G3 X0.0207 Y0.5135 I0.0001 J0.0073
N430 G1 X0.0035 Y0.5454
N435 G3 X-0.0062 Y0.544 I-0.0046 J-0.0024
N440 G2 X-0.0097 Y0.5273 I-1.9574 J0.3989
N445 X-0.0113 Y0.5198 I-0.6575 J0.1399
N450 G3 X-0.0115 Y0.5183 Z-0.1361 I0.0077 J-0.0017
N455 X-0.0114 Y0.5168 Z-0.1357 I0.0079 J-0.0002
N460 X-0.0111 Y0.5155 Z-0.1349 I0.0078 J0.0013
N465 X-0.0106 Y0.5144 Z-0.1339 I0.0074 J0.0026
N470 X-0.0101 Y0.5136 Z-0.1328 I0.007 J0.0037
N475 X-0.0097 Y0.513 Z-0.1314 I0.0065 J0.0045
N480 X-0.0094 Y0.5127 Z-0.1299 I0.006 J0.0051
N485 G1 X-0.0093 Y0.5126 Z-0.1284
N490 G0 Z0.2
N495 X-1.0394 Y1.0639
N500 G1 Z0.1079 F5.
N505 X-1.0396 Y1.064 Z0.1064
N510 G3 X-1.04 Y1.0642 Z0.1049 I-0.016 J-0.0338
N515 X-1.0406 Y1.0645 Z0.1036 I-0.0156 J-0.034
N520 X-1.0415 Y1.0648 Z0.1024 I-0.0149 J-0.0343
N525 X-1.0425 Y1.0652 Z0.1014 I-0.0141 J-0.0347
N530 X-1.0438 Y1.0657 Z0.1007 I-0.013 J-0.0351
N535 X-1.0451 Y1.0661 Z0.1002 I-0.0118 J-0.0355
N540 X-1.0466 Y1.0665 Z0.1 I-0.0104 J-0.0359
N545 X-1.0645 Y0.9939 Z0.0959 I-0.0089 J-0.0363
N550 X-1.0466 Y1.0665 Z0.0918 I0.0089 J0.0363
N555 X-1.0645 Y0.9939 Z0.0877 I-0.0089 J-0.0363
N560 X-1.0466 Y1.0665 Z0.0836 I0.0089 J0.0363
N565 X-1.0645 Y0.9939 Z0.0795 I-0.0089 J-0.0363
N570 X-1.0466 Y1.0665 Z0.0754 I0.0089 J0.0363
N575 X-1.0645 Y0.9939 Z0.0713 I-0.0089 J-0.0363
N580 X-1.0466 Y1.0665 Z0.0672 I0.0089 J0.0363
N585 X-1.0645 Y0.9939 Z0.0631 I-0.0089 J-0.0363
N590 X-1.0466 Y1.0665 Z0.059 I0.0089 J0.0363
N595 X-1.0645 Y0.9939 Z0.0549 I-0.0089 J-0.0363
N600 X-1.0466 Y1.0665 Z0.0508 I0.0089 J0.0363
N605 X-1.0645 Y0.9939 Z0.0467 I-0.0089 J-0.0363
N610 X-1.0466 Y1.0665 Z0.0426 I0.0089 J0.0363
N615 X-1.0645 Y0.9939 Z0.0385 I-0.0089 J-0.0363
N620 X-1.0466 Y1.0665 Z0.0343 I0.0089 J0.0363
N625 X-1.0645 Y0.9939 Z0.0302 I-0.0089 J-0.0363
N630 X-1.0466 Y1.0665 Z0.0261 I0.0089 J0.0363
N635 X-1.0645 Y0.9939 Z0.022 I-0.0089 J-0.0363
N640 X-1.0466 Y1.0665 Z0.0179 I0.0089 J0.0363
N645 X-1.0645 Y0.9939 Z0.0138 I-0.0089 J-0.0363
N650 X-1.0466 Y1.0665 Z0.0097 I0.0089 J0.0363
N655 X-1.0645 Y0.9939 Z0.0056 I-0.0089 J-0.0363
N660 X-1.0466 Y1.0665 Z0.0015 I0.0089 J0.0363
N665 X-1.0645 Y0.9939 Z-0.0026 I-0.0089 J-0.0363
N670 X-1.0466 Y1.0665 Z-0.0067 I0.0089 J0.0363
N675 X-1.0645 Y0.9939 Z-0.0108 I-0.0089 J-0.0363
N680 X-1.0466 Y1.0665 Z-0.0149 I0.0089 J0.0363
N685 X-1.0645 Y0.9939 Z-0.019 I-0.0089 J-0.0363
N690 X-1.0466 Y1.0665 Z-0.0231 I0.0089 J0.0363
N695 X-1.0645 Y0.9939 Z-0.0272 I-0.0089 J-0.0363
N700 X-1.0466 Y1.0665 Z-0.0313 I0.0089 J0.0363
N705 X-1.0645 Y0.9939 Z-0.0354 I-0.0089 J-0.0363
N710 X-1.0466 Y1.0665 Z-0.0395 I0.0089 J0.0363
N715 X-1.0645 Y0.9939 Z-0.0436 I-0.0089 J-0.0363
N720 X-1.0466 Y1.0665 Z-0.0477 I0.0089 J0.0363
N725 X-1.0645 Y0.9939 Z-0.0518 I-0.0089 J-0.0363
N730 X-1.0466 Y1.0665 Z-0.0559 I0.0089 J0.0363
N735 X-1.0645 Y0.9939 Z-0.06 I-0.0089 J-0.0363
N740 X-1.0466 Y1.0665 Z-0.0641 I0.0089 J0.0363
N745 X-1.0645 Y0.9939 Z-0.0682 I-0.0089 J-0.0363
N750 X-1.0466 Y1.0665 Z-0.0723 I0.0089 J0.0363
N755 X-1.0645 Y0.9939 Z-0.0764 I-0.0089 J-0.0363
N760 X-1.0466 Y1.0665 Z-0.0805 I0.0089 J0.0363
N765 X-1.0645 Y0.9939 Z-0.0846 I-0.0089 J-0.0363
N770 X-1.0466 Y1.0665 Z-0.0887 I0.0089 J0.0363
N775 X-1.0645 Y0.9939 Z-0.0929 I-0.0089 J-0.0363
N780 X-1.0466 Y1.0665 Z-0.097 I0.0089 J0.0363
N785 X-1.0645 Y0.9939 Z-0.1011 I-0.0089 J-0.0363
N790 X-1.0466 Y1.0665 Z-0.1052 I0.0089 J0.0363
N795 X-1.0645 Y0.9939 Z-0.1093 I-0.0089 J-0.0363
N800 X-1.0466 Y1.0665 Z-0.1134 I0.0089 J0.0363
N805 X-1.0645 Y0.9939 Z-0.1175 I-0.0089 J-0.0363
N810 X-1.0466 Y1.0665 Z-0.1216 I0.0089 J0.0363
N815 X-1.0645 Y0.9939 Z-0.1257 I-0.0089 J-0.0363
N820 X-1.0466 Y1.0665 Z-0.1298 I0.0089 J0.0363
N825 X-1.0645 Y0.9939 Z-0.1339 I-0.0089 J-0.0363
N830 X-1.0181 Y1.0302 Z-0.1363 I0.0089 J0.0363
N835 X-1.0657 I-0.0238 J0.
N840 G1 Y1.0218
N845 G3 X-1.0569 Y1.0197 I0.0046 J0.
N850 G2 X-1.0516 Y1.0289 I0.0832 J-0.0412
N855 G3 X-1.056 Y1.037 I-0.0044 J0.0028
N860 G1 X-1.0587
N865 X-1.0605
N870 G3 X-1.0657 Y1.0318 I0. J-0.0052
N875 G1 Y1.0302
N880 G19 G2 Y1.0223 Z-0.1284 J0. K0.0079
N885 G0 Z0.2
N890 X-1.0519 Y-1.0826
N895 G1 Z0.1079 F5.
N900 X-1.0518 Z0.1064
N905 G17 G3 X-1.0514 Y-1.0825 Z0.1049 I-0.0099 J0.0361
N910 X-1.0507 Y-1.0823 Z0.1036 I-0.0104 J0.0359
N915 X-1.0498 Y-1.082 Z0.1024 I-0.011 J0.0357
N920 X-1.0487 Y-1.0816 Z0.1014 I-0.0119 J0.0355
N925 X-1.0475 Y-1.0811 Z0.1007 I-0.013 J0.0351
N930 X-1.0462 Y-1.0805 Z0.1002 I-0.0142 J0.0346
N935 X-1.0448 Y-1.0799 Z0.1 I-0.0155 J0.034
N940 X-1.0786 Y-1.0131 Z0.0959 I-0.0169 J0.0334
N945 X-1.0448 Y-1.0799 Z0.0918 I0.0169 J-0.0334
N950 X-1.0786 Y-1.0131 Z0.0877 I-0.0169 J0.0334
N955 X-1.0448 Y-1.0799 Z0.0836 I0.0169 J-0.0334
N960 X-1.0786 Y-1.0131 Z0.0795 I-0.0169 J0.0334
N965 X-1.0448 Y-1.0799 Z0.0754 I0.0169 J-0.0334
N970 X-1.0786 Y-1.0131 Z0.0713 I-0.0169 J0.0334
N975 X-1.0448 Y-1.0799 Z0.0672 I0.0169 J-0.0334
N980 X-1.0786 Y-1.0131 Z0.0631 I-0.0169 J0.0334
N985 X-1.0448 Y-1.0799 Z0.059 I0.0169 J-0.0334
N990 X-1.0786 Y-1.0131 Z0.0549 I-0.0169 J0.0334
N995 X-1.0448 Y-1.0799 Z0.0508 I0.0169 J-0.0334
N1000 X-1.0786 Y-1.0131 Z0.0467 I-0.0169 J0.0334
N1005 X-1.0448 Y-1.0799 Z0.0426 I0.0169 J-0.0334
N1010 X-1.0786 Y-1.0131 Z0.0385 I-0.0169 J0.0334
N1015 X-1.0448 Y-1.0799 Z0.0343 I0.0169 J-0.0334
N1020 X-1.0786 Y-1.0131 Z0.0302 I-0.0169 J0.0334
N1025 X-1.0448 Y-1.0799 Z0.0261 I0.0169 J-0.0334
N1030 X-1.0786 Y-1.0131 Z0.022 I-0.0169 J0.0334
N1035 X-1.0448 Y-1.0799 Z0.0179 I0.0169 J-0.0334
N1040 X-1.0786 Y-1.0131 Z0.0138 I-0.0169 J0.0334
N1045 X-1.0448 Y-1.0799 Z0.0097 I0.0169 J-0.0334
N1050 X-1.0786 Y-1.0131 Z0.0056 I-0.0169 J0.0334
N1055 X-1.0448 Y-1.0799 Z0.0015 I0.0169 J-0.0334
N1060 X-1.0786 Y-1.0131 Z-0.0026 I-0.0169 J0.0334
N1065 X-1.0448 Y-1.0799 Z-0.0067 I0.0169 J-0.0334
N1070 X-1.0786 Y-1.0131 Z-0.0108 I-0.0169 J0.0334
N1075 X-1.0448 Y-1.0799 Z-0.0149 I0.0169 J-0.0334
N1080 X-1.0786 Y-1.0131 Z-0.019 I-0.0169 J0.0334
N1085 X-1.0448 Y-1.0799 Z-0.0231 I0.0169 J-0.0334
N1090 X-1.0786 Y-1.0131 Z-0.0272 I-0.0169 J0.0334
N1095 X-1.0448 Y-1.0799 Z-0.0313 I0.0169 J-0.0334
N1100 X-1.0786 Y-1.0131 Z-0.0354 I-0.0169 J0.0334
N1105 X-1.0448 Y-1.0799 Z-0.0395 I0.0169 J-0.0334
N1110 X-1.0786 Y-1.0131 Z-0.0436 I-0.0169 J0.0334
N1115 X-1.0448 Y-1.0799 Z-0.0477 I0.0169 J-0.0334
N1120 X-1.0786 Y-1.0131 Z-0.0518 I-0.0169 J0.0334
N1125 X-1.0448 Y-1.0799 Z-0.0559 I0.0169 J-0.0334
N1130 X-1.0786 Y-1.0131 Z-0.06 I-0.0169 J0.0334
N1135 X-1.0448 Y-1.0799 Z-0.0641 I0.0169 J-0.0334
N1140 X-1.0786 Y-1.0131 Z-0.0682 I-0.0169 J0.0334
N1145 X-1.0448 Y-1.0799 Z-0.0723 I0.0169 J-0.0334
N1150 X-1.0786 Y-1.0131 Z-0.0764 I-0.0169 J0.0334
N1155 X-1.0448 Y-1.0799 Z-0.0805 I0.0169 J-0.0334
N1160 X-1.0786 Y-1.0131 Z-0.0846 I-0.0169 J0.0334
N1165 X-1.0448 Y-1.0799 Z-0.0887 I0.0169 J-0.0334
N1170 X-1.0786 Y-1.0131 Z-0.0929 I-0.0169 J0.0334
N1175 X-1.0448 Y-1.0799 Z-0.097 I0.0169 J-0.0334
N1180 X-1.0786 Y-1.0131 Z-0.1011 I-0.0169 J0.0334
N1185 X-1.0448 Y-1.0799 Z-0.1052 I0.0169 J-0.0334
N1190 X-1.0786 Y-1.0131 Z-0.1093 I-0.0169 J0.0334
N1195 X-1.0448 Y-1.0799 Z-0.1134 I0.0169 J-0.0334
N1200 X-1.0786 Y-1.0131 Z-0.1175 I-0.0169 J0.0334
N1205 X-1.0448 Y-1.0799 Z-0.1216 I0.0169 J-0.0334
N1210 X-1.0786 Y-1.0131 Z-0.1257 I-0.0169 J0.0334
N1215 X-1.0448 Y-1.0799 Z-0.1298 I0.0169 J-0.0334
N1220 X-1.0786 Y-1.0131 Z-0.1339 I-0.0169 J0.0334
N1225 X-1.0901 Y-1.0709 Z-0.1363 I0.0169 J-0.0334
N1230 X-1.0441 Y-1.0314 I0.023 J0.0198
N1235 G2 X-1.0583 Y-1.0092 I0.0704 J0.0605
N1240 G3 X-1.0656 Y-1.0108 I-0.0035 J-0.0016
N1245 G1 Y-1.0391
N1250 Y-1.0422
N1255 G3 X-1.0562 Y-1.0516 I0.0094 J0.
N1260 G1 X-1.0369
N1265 G3 X-1.0334 Y-1.0419 I0. J0.0055
N1270 G2 X-1.0441 Y-1.0314 I0.0598 J0.0711
N1275 G3 X-1.0452 Y-1.0303 Z-0.1361 I-0.006 J-0.0051
N1280 X-1.0464 Y-1.0295 Z-0.1357 I-0.0049 J-0.0062
N1285 X-1.0477 Y-1.029 Z-0.1349 I-0.0036 J-0.007
N1290 X-1.0489 Y-1.0287 Z-0.1339 I-0.0024 J-0.0075
N1295 X-1.0498 Y-1.0286 Z-0.1328 I-0.0012 J-0.0078
N1300 X-1.0506 Z-0.1314 I-0.0002 J-0.0079
N1305 X-1.051 Y-1.0287 Z-0.1299 I0.0005 J-0.0079
N1310 G1 X-1.0512 Z-0.1284
N1315 G0 Z0.2
N1320 X0.3598 Y-0.6115
N1325 G1 Z0.1079 F5.
N1330 Y-0.6117 Z0.1064
N1335 G3 Y-0.6121 Z0.1049 I0.0374 J-0.0001
N1340 Y-0.6128 Z0.1036 I0.0374 J0.0003
N1345 Y-0.6137 Z0.1024 I0.0374 J0.001
N1350 X0.3599 Y-0.6149 Z0.1014 I0.0374 J0.0019
N1355 X0.3601 Y-0.6162 Z0.1007 I0.0373 J0.0031
N1360 X0.3602 Y-0.6176 Z0.1002 I0.0371 J0.0044
N1365 X0.3605 Y-0.6191 Z0.1 I0.037 J0.0058
N1370 X0.4339 Y-0.6045 Z0.0959 I0.0367 J0.0073
N1375 X0.3605 Y-0.6191 Z0.0918 I-0.0367 J-0.0073
N1380 X0.4339 Y-0.6045 Z0.0877 I0.0367 J0.0073
N1385 X0.3605 Y-0.6191 Z0.0836 I-0.0367 J-0.0073
N1390 X0.4339 Y-0.6045 Z0.0795 I0.0367 J0.0073
N1395 X0.3605 Y-0.6191 Z0.0754 I-0.0367 J-0.0073
N1400 X0.4339 Y-0.6045 Z0.0713 I0.0367 J0.0073
N1405 X0.3605 Y-0.6191 Z0.0672 I-0.0367 J-0.0073
N1410 X0.4339 Y-0.6045 Z0.0631 I0.0367 J0.0073
N1415 X0.3605 Y-0.6191 Z0.059 I-0.0367 J-0.0073
N1420 X0.4339 Y-0.6045 Z0.0549 I0.0367 J0.0073
N1425 X0.3605 Y-0.6191 Z0.0508 I-0.0367 J-0.0073
N1430 X0.4339 Y-0.6045 Z0.0467 I0.0367 J0.0073
N1435 X0.3605 Y-0.6191 Z0.0426 I-0.0367 J-0.0073
N1440 X0.4339 Y-0.6045 Z0.0385 I0.0367 J0.0073
N1445 X0.3605 Y-0.6191 Z0.0343 I-0.0367 J-0.0073
N1450 X0.4339 Y-0.6045 Z0.0302 I0.0367 J0.0073
N1455 X0.3605 Y-0.6191 Z0.0261 I-0.0367 J-0.0073
N1460 X0.4339 Y-0.6045 Z0.022 I0.0367 J0.0073
N1465 X0.3605 Y-0.6191 Z0.0179 I-0.0367 J-0.0073
N1470 X0.4339 Y-0.6045 Z0.0138 I0.0367 J0.0073
N1475 X0.3605 Y-0.6191 Z0.0097 I-0.0367 J-0.0073
N1480 X0.4339 Y-0.6045 Z0.0056 I0.0367 J0.0073
N1485 X0.3605 Y-0.6191 Z0.0015 I-0.0367 J-0.0073
N1490 X0.4339 Y-0.6045 Z-0.0026 I0.0367 J0.0073
N1495 X0.3605 Y-0.6191 Z-0.0067 I-0.0367 J-0.0073
N1500 X0.4339 Y-0.6045 Z-0.0108 I0.0367 J0.0073
N1505 X0.3605 Y-0.6191 Z-0.0149 I-0.0367 J-0.0073
N1510 X0.4339 Y-0.6045 Z-0.019 I0.0367 J0.0073
N1515 X0.3605 Y-0.6191 Z-0.0231 I-0.0367 J-0.0073
N1520 X0.4339 Y-0.6045 Z-0.0272 I0.0367 J0.0073
N1525 X0.3605 Y-0.6191 Z-0.0313 I-0.0367 J-0.0073
N1530 X0.4339 Y-0.6045 Z-0.0354 I0.0367 J0.0073
N1535 X0.3605 Y-0.6191 Z-0.0395 I-0.0367 J-0.0073
N1540 X0.4339 Y-0.6045 Z-0.0436 I0.0367 J0.0073
N1545 X0.3605 Y-0.6191 Z-0.0477 I-0.0367 J-0.0073
N1550 X0.4339 Y-0.6045 Z-0.0518 I0.0367 J0.0073
N1555 X0.3605 Y-0.6191 Z-0.0559 I-0.0367 J-0.0073
N1560 X0.4339 Y-0.6045 Z-0.06 I0.0367 J0.0073
N1565 X0.3605 Y-0.6191 Z-0.0641 I-0.0367 J-0.0073
N1570 X0.4339 Y-0.6045 Z-0.0682 I0.0367 J0.0073
N1575 X0.3605 Y-0.6191 Z-0.0723 I-0.0367 J-0.0073
N1580 X0.4339 Y-0.6045 Z-0.0764 I0.0367 J0.0073
N1585 X0.3605 Y-0.6191 Z-0.0805 I-0.0367 J-0.0073
N1590 X0.4339 Y-0.6045 Z-0.0846 I0.0367 J0.0073
N1595 X0.3605 Y-0.6191 Z-0.0887 I-0.0367 J-0.0073
N1600 X0.4339 Y-0.6045 Z-0.0929 I0.0367 J0.0073
N1605 X0.3605 Y-0.6191 Z-0.097 I-0.0367 J-0.0073
N1610 X0.4339 Y-0.6045 Z-0.1011 I0.0367 J0.0073
N1615 X0.3605 Y-0.6191 Z-0.1052 I-0.0367 J-0.0073
N1620 X0.4339 Y-0.6045 Z-0.1093 I0.0367 J0.0073
N1625 X0.3605 Y-0.6191 Z-0.1134 I-0.0367 J-0.0073
N1630 X0.4339 Y-0.6045 Z-0.1175 I0.0367 J0.0073
N1635 X0.3605 Y-0.6191 Z-0.1216 I-0.0367 J-0.0073
N1640 X0.4339 Y-0.6045 Z-0.1257 I0.0367 J0.0073
N1645 X0.3605 Y-0.6191 Z-0.1298 I-0.0367 J-0.0073
N1650 X0.4339 Y-0.6045 Z-0.1339 I0.0367 J0.0073
N1655 X0.3814 Y-0.5779 Z-0.1363 I-0.0367 J-0.0073
N1660 X0.4094 Y-0.638 I0.014 J-0.0301
N1665 X0.423 Y-0.6315 I-0.2368 J0.5069
N1670 X0.4236 Y-0.6192 I-0.0031 J0.0063
N1675 G2 X0.4078 Y-0.607 I0.0482 J0.0784
N1680 G3 X0.3932 Y-0.609 I-0.0065 J-0.0068
N1685 G2 X0.3814 Y-0.6281 I-0.6561 J0.391
N1690 X0.3687 Y-0.6467 I-0.2808 J0.1788
N1695 G3 X0.3747 Y-0.654 I0.0039 J-0.0029
N1700 G1 X0.4058 Y-0.6397
N1705 G3 X0.4094 Y-0.638 I-0.2332 J0.5086
N1710 X0.4108 Y-0.6373 Z-0.1361 I-0.0033 J0.0072
N1715 X0.4119 Y-0.6363 Z-0.1357 I-0.0046 J0.0064
N1720 X0.4127 Y-0.6352 Z-0.1349 I-0.0057 J0.0054
N1725 X0.4133 Y-0.6342 Z-0.1339 I-0.0066 J0.0044
N1730 X0.4137 Y-0.6333 Z-0.1328 I-0.0071 J0.0033
N1735 X0.4138 Y-0.6326 Z-0.1314 I-0.0075 J0.0024
N1740 X0.4139 Y-0.6321 Z-0.1299 I-0.0077 J0.0017
N1745 G1 Y-0.632 Z-0.1284
N1750 G0 Z0.2
N1755 X1.0744 Y-0.2065
N1760 G1 Z0.1079 F5.
N1765 Y-0.2063 Z0.1064
N1770 G3 X1.0742 Y-0.206 Z0.1049 I-0.0332 J-0.0173
N1775 X1.0738 Y-0.2053 Z0.1036 I-0.033 J-0.0177
N1780 X1.0734 Y-0.2045 Z0.1024 I-0.0326 J-0.0183
N1785 X1.0728 Y-0.2036 Z0.1014 I-0.0322 J-0.0191
N1790 X1.072 Y-0.2025 Z0.1007 I-0.0316 J-0.0201
N1795 X1.0712 Y-0.2013 Z0.1002 I-0.0308 J-0.0212
N1800 X1.0703 Y-0.2001 Z0.1 I-0.03 J-0.0223
N1805 X1.0121 Y-0.2471 Z0.0959 I-0.0291 J-0.0235
N1810 X1.0703 Y-0.2001 Z0.0918 I0.0291 J0.0235
N1815 X1.0121 Y-0.2471 Z0.0877 I-0.0291 J-0.0235
N1820 X1.0703 Y-0.2001 Z0.0836 I0.0291 J0.0235
N1825 X1.0121 Y-0.2471 Z0.0795 I-0.0291 J-0.0235
N1830 X1.0703 Y-0.2001 Z0.0754 I0.0291 J0.0235
N1835 X1.0121 Y-0.2471 Z0.0713 I-0.0291 J-0.0235
N1840 X1.0703 Y-0.2001 Z0.0672 I0.0291 J0.0235
N1845 X1.0121 Y-0.2471 Z0.0631 I-0.0291 J-0.0235
N1850 X1.0703 Y-0.2001 Z0.059 I0.0291 J0.0235
N1855 X1.0121 Y-0.2471 Z0.0549 I-0.0291 J-0.0235
N1860 X1.0703 Y-0.2001 Z0.0508 I0.0291 J0.0235
N1865 X1.0121 Y-0.2471 Z0.0467 I-0.0291 J-0.0235
N1870 X1.0703 Y-0.2001 Z0.0426 I0.0291 J0.0235
N1875 X1.0121 Y-0.2471 Z0.0385 I-0.0291 J-0.0235
N1880 X1.0703 Y-0.2001 Z0.0343 I0.0291 J0.0235
N1885 X1.0121 Y-0.2471 Z0.0302 I-0.0291 J-0.0235
N1890 X1.0703 Y-0.2001 Z0.0261 I0.0291 J0.0235
N1895 X1.0121 Y-0.2471 Z0.022 I-0.0291 J-0.0235
N1900 X1.0703 Y-0.2001 Z0.0179 I0.0291 J0.0235
N1905 X1.0121 Y-0.2471 Z0.0138 I-0.0291 J-0.0235
N1910 X1.0703 Y-0.2001 Z0.0097 I0.0291 J0.0235
N1915 X1.0121 Y-0.2471 Z0.0056 I-0.0291 J-0.0235
N1920 X1.0703 Y-0.2001 Z0.0015 I0.0291 J0.0235
N1925 X1.0121 Y-0.2471 Z-0.0026 I-0.0291 J-0.0235
N1930 X1.0703 Y-0.2001 Z-0.0067 I0.0291 J0.0235
N1935 X1.0121 Y-0.2471 Z-0.0108 I-0.0291 J-0.0235
N1940 X1.0703 Y-0.2001 Z-0.0149 I0.0291 J0.0235
N1945 X1.0121 Y-0.2471 Z-0.019 I-0.0291 J-0.0235
N1950 X1.0703 Y-0.2001 Z-0.0231 I0.0291 J0.0235
N1955 X1.0121 Y-0.2471 Z-0.0272 I-0.0291 J-0.0235
N1960 X1.0703 Y-0.2001 Z-0.0313 I0.0291 J0.0235
N1965 X1.0121 Y-0.2471 Z-0.0354 I-0.0291 J-0.0235
N1970 X1.0703 Y-0.2001 Z-0.0395 I0.0291 J0.0235
N1975 X1.0121 Y-0.2471 Z-0.0436 I-0.0291 J-0.0235
N1980 X1.0703 Y-0.2001 Z-0.0477 I0.0291 J0.0235
N1985 X1.0121 Y-0.2471 Z-0.0518 I-0.0291 J-0.0235
N1990 X1.0703 Y-0.2001 Z-0.0559 I0.0291 J0.0235
N1995 X1.0121 Y-0.2471 Z-0.06 I-0.0291 J-0.0235
N2000 X1.0703 Y-0.2001 Z-0.0641 I0.0291 J0.0235
N2005 X1.0121 Y-0.2471 Z-0.0682 I-0.0291 J-0.0235
N2010 X1.0703 Y-0.2001 Z-0.0723 I0.0291 J0.0235
N2015 X1.0121 Y-0.2471 Z-0.0764 I-0.0291 J-0.0235
N2020 X1.0703 Y-0.2001 Z-0.0805 I0.0291 J0.0235
N2025 X1.0121 Y-0.2471 Z-0.0846 I-0.0291 J-0.0235
N2030 X1.0703 Y-0.2001 Z-0.0887 I0.0291 J0.0235
N2035 X1.0121 Y-0.2471 Z-0.0929 I-0.0291 J-0.0235
N2040 X1.0703 Y-0.2001 Z-0.097 I0.0291 J0.0235
N2045 X1.0121 Y-0.2471 Z-0.1011 I-0.0291 J-0.0235
N2050 X1.0703 Y-0.2001 Z-0.1052 I0.0291 J0.0235
N2055 X1.0121 Y-0.2471 Z-0.1093 I-0.0291 J-0.0235
N2060 X1.0703 Y-0.2001 Z-0.1134 I0.0291 J0.0235
N2065 X1.0121 Y-0.2471 Z-0.1175 I-0.0291 J-0.0235
N2070 X1.0703 Y-0.2001 Z-0.1216 I0.0291 J0.0235
N2075 X1.0121 Y-0.2471 Z-0.1257 I-0.0291 J-0.0235
N2080 X1.0703 Y-0.2001 Z-0.1298 I0.0291 J0.0235
N2085 X1.0121 Y-0.2471 Z-0.1339 I-0.0291 J-0.0235
N2090 X1.071 Y-0.2462 Z-0.1363 I0.0291 J0.0235
N2095 X1.0645 Y-0.1988 I-0.027 J0.0205
N2100 X1.017 Y-0.2053 I-0.0205 J-0.027
N2105 G2 X1.0122 Y-0.2114 I-0.3397 J0.258
N2110 G3 X1.0157 Y-0.2257 I0.0074 J-0.0058
N2115 G2 X1.0354 Y-0.238 I-0.0385 J-0.0841
N2120 G3 X1.0457 Y-0.2331 I0.004 J0.0049
N2125 G1 Y-0.1822
N2130 G3 X1.0361 Y-0.1791 I-0.0053 J0.
N2135 X1.0243 Y-0.1953 I1.4376 J-1.0524
N2140 G2 X1.017 Y-0.2053 I-0.347 J0.2481
N2145 G3 X1.0162 Y-0.2066 Z-0.1361 I0.0064 J-0.0047
N2150 X1.0157 Y-0.208 Z-0.1357 I0.0071 J-0.0033
N2155 X1.0155 Y-0.2093 Z-0.1349 I0.0076 J-0.0019
N2160 Y-0.2105 Z-0.1339 I0.0079 J-0.0006
N2165 X1.0157 Y-0.2115 Z-0.1328 I0.0079 J0.0006
N2170 X1.0158 Y-0.2122 Z-0.1314 I0.0077 J0.0016
N2175 X1.016 Y-0.2126 Z-0.1299 I0.0075 J0.0023
N2180 G1 Y-0.2127 Z-0.1284
N2185 G0 Z0.2
N2190 X1.0062 Y-1.0285
N2195 G1 Z0.1079 F5.
N2200 Y-1.0287 Z0.1064
N2205 G3 X1.006 Y-1.0291 Z0.1049 I0.0338 J-0.016
N2210 X1.0057 Y-1.0297 Z0.1036 I0.034 J-0.0156
N2215 X1.0053 Y-1.0306 Z0.1024 I0.0343 J-0.0149
N2220 X1.0049 Y-1.0316 Z0.1014 I0.0347 J-0.0141
N2225 X1.0045 Y-1.0329 Z0.1007 I0.0351 J-0.013
N2230 X1.0041 Y-1.0342 Z0.1002 I0.0355 J-0.0118
N2235 X1.0037 Y-1.0357 Z0.1 I0.0359 J-0.0104
N2240 X1.0763 Y-1.0536 Z0.0959 I0.0363 J-0.0089
N2245 X1.0037 Y-1.0357 Z0.0918 I-0.0363 J0.0089
N2250 X1.0763 Y-1.0536 Z0.0877 I0.0363 J-0.0089
N2255 X1.0037 Y-1.0357 Z0.0836 I-0.0363 J0.0089
N2260 X1.0763 Y-1.0536 Z0.0795 I0.0363 J-0.0089
N2265 X1.0037 Y-1.0357 Z0.0754 I-0.0363 J0.0089
N2270 X1.0763 Y-1.0536 Z0.0713 I0.0363 J-0.0089
N2275 X1.0037 Y-1.0357 Z0.0672 I-0.0363 J0.0089
N2280 X1.0763 Y-1.0536 Z0.0631 I0.0363 J-0.0089
N2285 X1.0037 Y-1.0357 Z0.059 I-0.0363 J0.0089
N2290 X1.0763 Y-1.0536 Z0.0549 I0.0363 J-0.0089
N2295 X1.0037 Y-1.0357 Z0.0508 I-0.0363 J0.0089
N2300 X1.0763 Y-1.0536 Z0.0467 I0.0363 J-0.0089
N2305 X1.0037 Y-1.0357 Z0.0426 I-0.0363 J0.0089
N2310 X1.0763 Y-1.0536 Z0.0385 I0.0363 J-0.0089
N2315 X1.0037 Y-1.0357 Z0.0343 I-0.0363 J0.0089
N2320 X1.0763 Y-1.0536 Z0.0302 I0.0363 J-0.0089
N2325 X1.0037 Y-1.0357 Z0.0261 I-0.0363 J0.0089
N2330 X1.0763 Y-1.0536 Z0.022 I0.0363 J-0.0089
N2335 X1.0037 Y-1.0357 Z0.0179 I-0.0363 J0.0089
N2340 X1.0763 Y-1.0536 Z0.0138 I0.0363 J-0.0089
N2345 X1.0037 Y-1.0357 Z0.0097 I-0.0363 J0.0089
N2350 X1.0763 Y-1.0536 Z0.0056 I0.0363 J-0.0089
N2355 X1.0037 Y-1.0357 Z0.0015 I-0.0363 J0.0089
N2360 X1.0763 Y-1.0536 Z-0.0026 I0.0363 J-0.0089
N2365 X1.0037 Y-1.0357 Z-0.0067 I-0.0363 J0.0089
N2370 X1.0763 Y-1.0536 Z-0.0108 I0.0363 J-0.0089
N2375 X1.0037 Y-1.0357 Z-0.0149 I-0.0363 J0.0089
N2380 X1.0763 Y-1.0536 Z-0.019 I0.0363 J-0.0089
N2385 X1.0037 Y-1.0357 Z-0.0231 I-0.0363 J0.0089
N2390 X1.0763 Y-1.0536 Z-0.0272 I0.0363 J-0.0089
N2395 X1.0037 Y-1.0357 Z-0.0313 I-0.0363 J0.0089
N2400 X1.0763 Y-1.0536 Z-0.0354 I0.0363 J-0.0089
N2405 X1.0037 Y-1.0357 Z-0.0395 I-0.0363 J0.0089
N2410 X1.0763 Y-1.0536 Z-0.0436 I0.0363 J-0.0089
N2415 X1.0037 Y-1.0357 Z-0.0477 I-0.0363 J0.0089
N2420 X1.0763 Y-1.0536 Z-0.0518 I0.0363 J-0.0089
N2425 X1.0037 Y-1.0357 Z-0.0559 I-0.0363 J0.0089
N2430 X1.0763 Y-1.0536 Z-0.06 I0.0363 J-0.0089
N2435 X1.0037 Y-1.0357 Z-0.0641 I-0.0363 J0.0089
N2440 X1.0763 Y-1.0536 Z-0.0682 I0.0363 J-0.0089
N2445 X1.0037 Y-1.0357 Z-0.0723 I-0.0363 J0.0089
N2450 X1.0763 Y-1.0536 Z-0.0764 I0.0363 J-0.0089
N2455 X1.0037 Y-1.0357 Z-0.0805 I-0.0363 J0.0089
N2460 X1.0763 Y-1.0536 Z-0.0846 I0.0363 J-0.0089
N2465 X1.0037 Y-1.0357 Z-0.0887 I-0.0363 J0.0089
N2470 X1.0763 Y-1.0536 Z-0.0929 I0.0363 J-0.0089
N2475 X1.0037 Y-1.0357 Z-0.097 I-0.0363 J0.0089
N2480 X1.0763 Y-1.0536 Z-0.1011 I0.0363 J-0.0089
N2485 X1.0037 Y-1.0357 Z-0.1052 I-0.0363 J0.0089
N2490 X1.0763 Y-1.0536 Z-0.1093 I0.0363 J-0.0089
N2495 X1.0037 Y-1.0357 Z-0.1134 I-0.0363 J0.0089
N2500 X1.0763 Y-1.0536 Z-0.1175 I0.0363 J-0.0089
N2505 X1.0037 Y-1.0357 Z-0.1216 I-0.0363 J0.0089
N2510 X1.0763 Y-1.0536 Z-0.1257 I0.0363 J-0.0089
N2515 X1.0037 Y-1.0357 Z-0.1298 I-0.0363 J0.0089
N2520 X1.0763 Y-1.0536 Z-0.1339 I0.0363 J-0.0089
N2525 X1.04 Y-1.0072 Z-0.1363 I-0.0363 J0.0089
N2530 Y-1.0572 I0. J-0.025
N2535 G1 X1.0415
N2540 G3 X1.0509 Y-1.0478 I0. J0.0094
N2545 G1 Y-1.0342
N2550 G3 X1.0411 Y-1.0303 I-0.0057 J0.
N2555 G2 X1.0173 Y-1.0483 I-0.0639 J0.0595
N2560 G3 X1.0195 Y-1.0572 I0.0022 J-0.0042
N2565 G1 X1.0397
N2570 X1.04
N2575 G2 X1.0586 Y-1.0672 I0. J-0.0223
N2580 G3 X1.0788 Y-1.0611 I0.0092 J0.0061
N2585 G1 Y1.0704
N2590 X-1.0991
N2595 Y-1.0851
N2600 X1.0788
N2605 Y-1.0611
N2610 G3 X1.0772 Y-1.0579 I-0.0039 J0.
N2615 G1 X1.0202 Y-1.0162
N2620 G3 X1.0153 Y-1.0163 I-0.0023 J-0.0032
N2625 G2 X0.9772 Y-1.0302 I-0.0381 J0.0455
N2630 G1 X-0.9737
N2635 G2 X-1.033 Y-0.9708 I0. J0.0594
N2640 G1 Y0.9786
N2645 G2 X-0.9737 Y1.0379 I0.0594 J0.
N2650 G1 X0.9772
N2655 G2 X1.0366 Y0.9786 I0. J-0.0594
N2660 G1 Y-0.103
N2665 G2 X1.0251 Y-0.138 I-0.0594 J0.
N2670 G1 X0.9888 Y-0.1876
N2675 G2 X0.9875 Y-0.1893 I-0.0479 J0.0351
N2680 G1 X0.9683 Y-0.2137
N2685 G2 X0.9674 Y-0.2148 I-0.0466 J0.0368
N2690 G1 X0.9475 Y-0.2389
N2695 G2 X0.9465 Y-0.24 I-0.0457 J0.0379
N2700 G1 X0.9258 Y-0.2637
N2705 G2 X0.9248 Y-0.2649 I-0.0448 J0.039
N2710 G1 X0.9033 Y-0.2883
N2715 G2 X0.9023 Y-0.2894 I-0.0438 J0.0401
N2720 G1 X0.88 Y-0.3125
N2725 G2 X0.8789 Y-0.3136 I-0.0427 J0.0412
N2730 G1 X0.8557 Y-0.3364
N2735 G2 X0.8546 Y-0.3374 I-0.0416 J0.0423
N2740 G1 X0.8306 Y-0.3598
N2745 G2 X0.8294 Y-0.3609 I-0.0405 J0.0434
N2750 G1 X0.8045 Y-0.3829
N2755 G2 X0.8034 Y-0.3839 I-0.0394 J0.0445
N2760 G1 X0.7776 Y-0.4056
N2765 G2 X0.7765 Y-0.4065 I-0.0382 J0.0454
N2770 G1 X0.7498 Y-0.4278
N2775 G2 X0.7488 Y-0.4287 I-0.0371 J0.0464
N2780 G1 X0.7213 Y-0.4497
N2785 G2 X0.7202 Y-0.4504 I-0.036 J0.0472
N2790 G1 X0.6919 Y-0.4711
N2795 G2 X0.691 Y-0.4718 I-0.035 J0.048
N2800 G1 X0.6619 Y-0.4921
N2805 G2 X0.661 Y-0.4928 I-0.034 J0.0487
N2810 G1 X0.6311 Y-0.5128
N2815 G2 X0.6298 Y-0.5136 I-0.0331 J0.0493
N2820 G1 X0.5681 Y-0.5528
N2825 G2 X0.5665 Y-0.5538 I-0.0318 J0.0501
N2830 G1 X0.502 Y-0.5919
N2835 G2 X0.4289 Y-0.4998 I-0.0302 J0.0511
N2840 G1 X0.4305 Y-0.4981
N2845 X0.4308 Y-0.4974
N2850 X0.4319 Y-0.4946
N2855 X0.4333 Y-0.49
N2860 X0.4346 Y-0.4836
N2865 X0.4358 Y-0.4755
N2870 X0.4366 Y-0.4661
N2875 X0.4371 Y-0.4553
N2880 X0.4372 Y-0.444
N2885 X0.436 Y-0.4174
N2890 X0.4332 Y-0.3892
N2895 X0.4288 Y-0.3604
N2900 X0.4231 Y-0.3322
N2905 X0.4163 Y-0.3055
N2910 X0.4085 Y-0.2806
N2915 X0.3997 Y-0.2573
N2920 X0.39 Y-0.2349
N2925 X0.3791 Y-0.2124
N2930 X0.3669 Y-0.1886
N2935 X0.3536 Y-0.1632
N2940 X0.3534 Y-0.1629
N2945 X0.3392 Y-0.1354
N2950 G2 X0.3389 Y-0.1347 I0.0528 J0.0272
N2955 G1 X0.324 Y-0.1049
N2960 G2 X0.3236 Y-0.104 I0.0531 J0.0265
N2965 G1 X0.3081 Y-0.0718
N2970 G2 X0.3077 Y-0.0709 I0.0535 J0.0257
N2975 G1 X0.2917 Y-0.0362
N2980 G2 X0.2913 Y-0.0354 I0.0539 J0.0248
N2985 G1 X0.275 Y0.0017
N2990 G2 X0.2747 Y0.0024 I0.0543 J0.024
N2995 G1 X0.258 Y0.0414
N3000 G2 X0.2578 Y0.0419 I0.0546 J0.0233
N3005 G1 X0.241 Y0.0825
N3010 G2 X0.2408 Y0.0829 I0.0548 J0.0228
N3015 G1 X0.2238 Y0.1246
N3020 Y0.1249
N3025 X0.2068 Y0.1672
N3030 X0.2067 Y0.1673
N3035 X0.1898 Y0.2097
N3040 X0.1729 Y0.2516
N3045 X0.1562 Y0.2926
N3050 X0.1396 Y0.3322
N3055 X0.1233 Y0.37
N3060 X0.1074 Y0.4057
N3065 X0.0919 Y0.439
N3070 X0.077 Y0.4696
N3075 X0.07 Y0.4836
N3080 X0.0631 Y0.497
N3085 X0.0564 Y0.5097
N3090 X0.0501 Y0.5216
N3095 X0.044 Y0.5328
N3100 X0.0383 Y0.5434
N3105 Y0.5435
N3110 X0.0329 Y0.5534
N3115 X0.0328 Y0.5537
N3120 X0.0279 Y0.5629
N3125 G2 X0.0272 Y0.5642 I0.0524 J0.0278
N3130 G1 X0.0189 Y0.5808
N3135 G2 X0.0172 Y0.5846 I0.0531 J0.0265
N3140 G1 X0.011 Y0.5996
N3145 G2 X0.0088 Y0.6059 I0.0548 J0.0228
N3150 G1 X0.0045 Y0.6206
N3155 G2 X0.003 Y0.6273 I0.057 J0.0165
N3160 G1 X0.0003 Y0.6431
N3165 G2 X-0.0002 Y0.6467 I0.0586 J0.0098
N3170 G1 X-0.0019 Y0.6637
N3175 X-0.0038 Y0.6796
N3180 X-0.007 Y0.6938
N3185 X-0.0085 Y0.6981
N3190 X-0.0107 Y0.7029
N3195 X-0.0134 Y0.7073
N3200 X-0.0166 Y0.7118
N3205 X-0.0207 Y0.7163
N3210 X-0.0222 Y0.7176
N3215 X-0.0218 Y0.7114
N3220 G2 X-0.0217 Y0.7094 I-0.0593 J-0.0034
N3225 G1 X-0.0212 Y0.6888
N3230 G2 Y0.6865 I-0.0594 J-0.0015
N3235 G1 X-0.0215 Y0.666
N3240 G2 X-0.0216 Y0.6636 I-0.0594 J0.0008
N3245 G1 X-0.0227 Y0.642
N3250 G2 X-0.0229 Y0.6397 I-0.0593 J0.0032
N3255 G1 X-0.0251 Y0.616
N3260 G2 X-0.0253 Y0.6143 I-0.0591 J0.0055
N3265 G1 X-0.0269 Y0.6014
N3270 G2 X-0.027 Y0.6003 I-0.0589 J0.0072
N3275 G1 X-0.029 Y0.5865
N3280 G2 X-0.0291 Y0.5854 I-0.0588 J0.0083
N3285 G1 X-0.0315 Y0.5708
N3290 G2 X-0.0317 Y0.5696 I-0.0586 J0.0095
N3295 G1 X-0.0345 Y0.5541
N3300 G2 X-0.0348 Y0.5529 I-0.0584 J0.0106
N3305 G1 X-0.0381 Y0.5366
N3310 G2 X-0.0384 Y0.5353 I-0.0582 J0.0119
N3315 G1 X-0.0422 Y0.5182
N3320 G2 X-0.0426 Y0.5169 I-0.0579 J0.0131
N3325 G1 X-0.0471 Y0.499
N3330 G2 X-0.0474 Y0.4976 I-0.0576 J0.0145
N3335 G1 X-0.0526 Y0.479
N3340 G2 X-0.053 Y0.4776 I-0.0572 J0.0159
N3345 G1 X-0.0589 Y0.4583
N3350 G2 X-0.0593 Y0.4568 I-0.0568 J0.0173
N3355 G1 X-0.066 Y0.4369
N3360 G2 X-0.0665 Y0.4354 I-0.0563 J0.0188
N3365 G1 X-0.0739 Y0.415
N3370 G2 X-0.0745 Y0.4135 I-0.0558 J0.0203
N3375 G1 X-0.0827 Y0.3926
N3380 G2 X-0.0833 Y0.3911 I-0.0552 J0.0218
N3385 G1 X-0.0924 Y0.3699
N3390 G2 X-0.093 Y0.3684 I-0.0546 J0.0233
N3395 G1 X-0.103 Y0.3467
N3400 G2 X-0.1037 Y0.3453 I-0.054 J0.0248
N3405 G1 X-0.1145 Y0.3233
N3410 G2 X-0.1152 Y0.3219 I-0.0533 J0.0262
N3415 G1 X-0.1268 Y0.2997
N3420 G2 X-0.1276 Y0.2984 I-0.0526 J0.0276
N3425 G1 X-0.1401 Y0.276
N3430 G2 X-0.1409 Y0.2747 I-0.0518 J0.029
N3435 G1 X-0.1543 Y0.2521
N3440 G2 X-0.155 Y0.2508 I-0.0511 J0.0303
N3445 G1 X-0.1692 Y0.2281
N3450 G2 X-0.17 Y0.2269 I-0.0503 J0.0315
N3455 G1 X-0.185 Y0.2041
N3460 G2 X-0.1862 Y0.2025 I-0.0496 J0.0327
N3465 G1 X-0.2186 Y0.1568
N3470 G2 X-0.22 Y0.1548 I-0.0484 J0.0343
N3475 G1 X-0.2552 Y0.1092
N3480 G2 X-0.2566 Y0.1075 I-0.047 J0.0363
N3485 G1 X-0.2942 Y0.0623
N3490 G2 X-0.2954 Y0.0608 I-0.0457 J0.0379
N3495 G1 X-0.3349 Y0.0163
N3500 G2 X-0.3359 Y0.0151 I-0.0444 J0.0394
N3505 G1 X-0.3767 Y-0.0285
N3510 G2 X-0.3777 Y-0.0295 I-0.0434 J0.0405
N3515 G1 X-0.4191 Y-0.0718
N3520 G2 X-0.4199 Y-0.0726 I-0.0424 J0.0415
N3525 G1 X-0.4613 Y-0.1134
N3530 G2 X-0.462 Y-0.114 I-0.0416 J0.0423
N3535 G1 X-0.5027 Y-0.1529
N3540 G2 X-0.5033 Y-0.1534 I-0.041 J0.043
N3545 G1 X-0.5429 Y-0.1901
N3550 G2 X-0.5433 Y-0.1905 I-0.0404 J0.0435
N3555 G1 X-0.5812 Y-0.225
N3560 G2 X-0.5815 Y-0.2253 I-0.0399 J0.0439
N3565 G1 X-0.5997 Y-0.2416
N3570 X-0.5999 Y-0.2418
N3575 X-0.6176 Y-0.2576
N3580 X-0.6179 Y-0.2578
N3585 X-0.6518 Y-0.2875
N3590 G2 X-0.6522 Y-0.2879 I-0.0392 J0.0446
N3595 G1 X-0.684 Y-0.3153
N3600 G2 X-0.6845 Y-0.3157 I-0.0387 J0.045
N3605 G1 X-0.7146 Y-0.341
N3610 G2 X-0.715 Y-0.3414 I-0.0383 J0.0454
N3615 G1 X-0.7434 Y-0.3649
N3620 X-0.7698 Y-0.3868
N3625 X-0.7934 Y-0.4072
N3630 X-0.8031 Y-0.4163
N3635 X-0.8116 Y-0.425
N3640 X-0.8184 Y-0.4329
N3645 X-0.8236 Y-0.44
N3650 X-0.8272 Y-0.4461
N3655 X-0.8295 Y-0.4515
N3660 X-0.83 Y-0.4535
N3665 X-0.8174 Y-0.4436
N3670 X-0.8027 Y-0.432
N3675 X-0.7868 Y-0.4194
N3680 X-0.7698 Y-0.4058
N3685 X-0.7515 Y-0.3911
N3690 X-0.7321 Y-0.3752
N3695 X-0.7114 Y-0.3582
N3700 X-0.6895 Y-0.3399
N3705 X-0.6665 Y-0.3203
N3710 X-0.6424 Y-0.2995
N3715 X-0.6174 Y-0.2776
N3720 X-0.5915 Y-0.2546
N3725 X-0.565 Y-0.2306
N3730 X-0.538 Y-0.2058
N3735 X-0.5108 Y-0.1802
N3740 X-0.4558 Y-0.127
N3745 X-0.4019 Y-0.0724
N3750 X-0.3501 Y-0.0173
N3755 X-0.3256 Y0.0098
N3760 X-0.302 Y0.0368
N3765 X-0.2795 Y0.0635
N3770 X-0.258 Y0.0896
N3775 X-0.2377 Y0.1152
N3780 X-0.2186 Y0.1403
N3785 X-0.2006 Y0.1646
N3790 X-0.1837 Y0.1883
N3795 X-0.1679 Y0.2113
N3800 X-0.1532 Y0.2335
N3805 X-0.1394 Y0.2549
N3810 X-0.1266 Y0.2756
N3815 X-0.1147 Y0.2955
N3820 X-0.1036 Y0.3146
N3825 X-0.0933 Y0.3328
N3830 X-0.0838 Y0.3503
N3835 X-0.075 Y0.3668
N3840 X-0.067 Y0.3825
N3845 X-0.0598 Y0.3973
N3850 X-0.0533 Y0.4112
N3855 X-0.0475 Y0.4241
N3860 X-0.0422 Y0.4367
N3865 G2 X0.0633 Y0.4445 I0.0547 J-0.023
N3870 G1 X0.0668 Y0.4388
N3875 G2 X0.0676 Y0.4373 I-0.0507 J-0.0308
N3880 G1 X0.0721 Y0.4295
N3885 G2 X0.0726 Y0.4286 I-0.0516 J-0.0293
N3890 G1 X0.0779 Y0.4188
N3895 G2 X0.0783 Y0.4182 I-0.0521 J-0.0284
N3900 G1 X0.0845 Y0.4063
N3905 G2 X0.0848 Y0.4059 I-0.0525 J-0.0278
N3910 G1 X0.0919 Y0.3921
N3915 G2 X0.0921 Y0.3917 I-0.0527 J-0.0273
N3920 G1 X0.1002 Y0.3759
N3925 X0.1003 Y0.3756
N3930 X0.1092 Y0.3579
N3935 X0.1093 Y0.3576
N3940 X0.1191 Y0.338
N3945 X0.1192 Y0.3378
N3950 X0.1298 Y0.3163
N3955 X0.1299 Y0.3161
N3960 X0.1411 Y0.2929
N3965 X0.1412 Y0.2927
N3970 X0.1532 Y0.2679
N3975 X0.1533 Y0.2677
N3980 X0.1658 Y0.2414
N3985 X0.1659 Y0.2412
N3990 X0.179 Y0.2135
N3995 X0.1791 Y0.2132
N4000 X0.1926 Y0.1843
N4005 X0.1927 Y0.184
N4010 X0.2065 Y0.154
N4015 X0.2066 Y0.1537
N4020 X0.2207 Y0.1228
N4025 G2 X0.2209 Y0.1223 I-0.0541 J-0.0245
N4030 G1 X0.2492 Y0.0582
N4035 G2 X0.2496 Y0.0575 I-0.0543 J-0.024
N4040 G1 X0.2776 Y-0.0083
N4045 G2 X0.278 Y-0.0093 I-0.0546 J-0.0233
N4050 G1 X0.3049 Y-0.0754
N4055 G2 X0.3053 Y-0.0765 I-0.055 J-0.0224
N4060 G1 X0.3301 Y-0.1415
N4065 G2 X0.3305 Y-0.1426 I-0.0555 J-0.0212
N4070 G1 X0.342 Y-0.1742
N4075 G2 X0.3422 Y-0.175 I-0.0558 J-0.0201
N4080 G1 X0.3529 Y-0.2059
N4085 G2 X0.3532 Y-0.2069 I-0.0561 J-0.0193
N4090 G1 X0.3629 Y-0.2368
N4095 G2 X0.3633 Y-0.2379 I-0.0565 J-0.0184
N4100 G1 X0.372 Y-0.2668
N4105 G2 X0.3724 Y-0.2681 I-0.0568 J-0.0172
N4110 G1 X0.3801 Y-0.2958
N4115 G2 X0.3805 Y-0.2973 I-0.0572 J-0.016
N4120 G1 X0.3872 Y-0.3237
N4125 G2 X0.3876 Y-0.3255 I-0.0576 J-0.0144
N4130 G1 X0.3931 Y-0.3506
N4135 G2 X0.3935 Y-0.3527 I-0.058 J-0.0127
N4140 G1 X0.3977 Y-0.3763
N4145 G2 X0.3981 Y-0.3789 I-0.0584 J-0.0105
N4150 G1 X0.4012 Y-0.4011
N4155 G2 X0.4015 Y-0.4041 I-0.0588 J-0.008
N4160 G1 X0.4033 Y-0.4249
N4165 G2 X0.4035 Y-0.4284 I-0.0592 J-0.0051
N4170 G1 X0.404 Y-0.4479
N4175 G2 Y-0.4519 I-0.0593 J-0.0016
N4180 G1 X0.4033 Y-0.4701
N4185 G2 X0.4029 Y-0.4745 I-0.0593 J0.0024
N4190 G1 X0.401 Y-0.4916
N4195 G2 X0.4003 Y-0.4962 I-0.059 J0.0067
N4200 G1 X0.3971 Y-0.5124
N4205 G2 X0.396 Y-0.517 I-0.0583 J0.0113
N4210 G1 X0.3918 Y-0.5324
N4215 G2 X0.3904 Y-0.5367 I-0.0572 J0.0159
N4220 G1 X0.385 Y-0.5515
N4225 G2 X0.3834 Y-0.5554 I-0.0558 J0.0203
N4230 G1 X0.377 Y-0.5699
N4235 G2 X0.3754 Y-0.5732 I-0.0542 J0.0242
N4240 G1 X0.3679 Y-0.5874
N4245 G2 X0.3663 Y-0.5903 I-0.0526 J0.0275
N4250 G1 X0.3579 Y-0.6044
N4255 G2 X0.3563 Y-0.6069 I-0.051 J0.0304
N4260 G1 X0.347 Y-0.621
N4265 G2 X0.3453 Y-0.6233 I-0.0494 J0.0329
N4270 G1 X0.335 Y-0.6374
N4275 G2 X0.3332 Y-0.6397 I-0.0478 J0.0352
N4280 G1 X0.3218 Y-0.6537
N4285 G2 X0.3198 Y-0.6561 I-0.0461 J0.0374
N4290 G1 X0.3073 Y-0.6699
N4295 G2 X0.3049 Y-0.6724 I-0.044 J0.0398
N4300 G1 X0.2913 Y-0.6858
N4305 G2 X0.2884 Y-0.6884 I-0.0416 J0.0423
N4310 G1 X0.2736 Y-0.7012
N4315 G2 X0.2701 Y-0.704 I-0.0388 J0.045
N4320 G1 X0.2541 Y-0.7159
N4325 G2 X0.25 Y-0.7186 I-0.0353 J0.0477
N4330 G1 X0.2326 Y-0.7294
N4335 G2 X0.2281 Y-0.732 I-0.0313 J0.0504
N4340 G1 X0.2094 Y-0.7414
N4345 G2 X0.2043 Y-0.7437 I-0.0267 J0.053
N4350 G1 X0.1844 Y-0.7515
N4355 G2 X0.179 Y-0.7533 I-0.0217 J0.0553
N4360 G1 X0.1579 Y-0.7593
N4365 G2 X0.1524 Y-0.7606 I-0.0163 J0.0571
N4370 G1 X0.1302 Y-0.7647
N4375 G2 X0.1247 Y-0.7655 I-0.0108 J0.0584
N4380 G1 X0.1017 Y-0.7675
N4385 G2 X0.0964 Y-0.7678 I-0.0053 J0.0591
N4390 G1 X0.0728
N4395 G2 X0.0677 Y-0.7676 I0. J0.0594
N4400 G1 X0.0438 Y-0.7655
N4405 G2 X0.039 Y-0.7649 I0.0051 J0.0592
N4410 G1 X0.015 Y-0.7608
N4415 G2 X0.0104 Y-0.7599 I0.0099 J0.0585
N4420 G1 X-0.0132 Y-0.7539
N4425 G2 X-0.0176 Y-0.7526 I0.0145 J0.0576
N4430 G1 X-0.0407 Y-0.7449
N4435 G2 X-0.0449 Y-0.7433 I0.0189 J0.0563
N4440 G1 X-0.067 Y-0.7339
N4445 G2 X-0.0711 Y-0.732 I0.0231 J0.0547
N4450 G1 X-0.092 Y-0.7212
N4455 G2 X-0.096 Y-0.719 I0.0272 J0.0528
N4460 G1 X-0.1155 Y-0.7069
N4465 G2 X-0.1193 Y-0.7044 I0.0311 J0.0506
N4470 G1 X-0.1372 Y-0.6914
N4475 G2 X-0.1408 Y-0.6886 I0.0349 J0.048
N4480 G1 X-0.157 Y-0.6748
N4485 G2 X-0.1603 Y-0.6718 I0.0384 J0.0452
N4490 G1 X-0.1747 Y-0.6575
N4495 G2 X-0.1777 Y-0.6543 I0.0418 J0.0422
N4500 G1 X-0.1903 Y-0.6398
N4505 G2 X-0.1931 Y-0.6364 I0.0448 J0.039
N4510 G1 X-0.2039 Y-0.6219
N4515 G2 X-0.2063 Y-0.6185 I0.0475 J0.0356
N4520 G1 X-0.2155 Y-0.6043
N4525 G2 X-0.2175 Y-0.6009 I0.0499 J0.0321
N4530 G1 X-0.2252 Y-0.587
N4535 G2 X-0.2268 Y-0.5838 I0.0519 J0.0288
N4540 G1 X-0.2332 Y-0.5704
N4545 G2 X-0.2345 Y-0.5676 I0.0536 J0.0256
N4550 G1 X-0.2398 Y-0.5548
N4555 G2 X-0.2407 Y-0.5525 I0.0549 J0.0227
N4560 G1 X-0.2452 Y-0.5402
N4565 G2 X-0.2458 Y-0.5384 I0.0558 J0.0204
N4570 G1 X-0.2534 Y-0.5154
N4575 X-0.261 Y-0.4939
N4580 X-0.2649 Y-0.4846
N4585 X-0.2694 Y-0.4751
N4590 X-0.2746 Y-0.4659
N4595 X-0.2801 Y-0.4574
N4600 X-0.2852 Y-0.451
N4605 X-0.2854 Y-0.4514
N4610 X-0.2871 Y-0.4559
N4615 X-0.2883 Y-0.4601
N4620 X-0.2906 Y-0.4732
N4625 X-0.2912 Y-0.487
N4630 X-0.29 Y-0.5021
N4635 X-0.2867 Y-0.5181
N4640 X-0.2814 Y-0.5347
N4645 X-0.2741 Y-0.5518
N4650 X-0.2648 Y-0.5689
N4655 X-0.2539 Y-0.5859
N4660 X-0.2414 Y-0.6026
N4665 X-0.2279 Y-0.6187
N4670 X-0.2137 Y-0.6342
N4675 X-0.199 Y-0.6488
N4680 X-0.1842 Y-0.6626
N4685 X-0.1696 Y-0.6755
N4690 X-0.1555 Y-0.6874
N4695 X-0.1418 Y-0.6984
N4700 X-0.1291 Y-0.7081
N4705 X-0.1039 Y-0.7255
N4710 X-0.0795 Y-0.7399
N4715 X-0.0534 Y-0.7524
N4720 X-0.0404 Y-0.7576
N4725 X-0.0262 Y-0.7626
N4730 X-0.0115 Y-0.767
N4735 X0.0036 Y-0.7709
N4740 X0.019 Y-0.7741
N4745 X0.0344 Y-0.7767
N4750 X0.0497 Y-0.7784
N4755 X0.0649 Y-0.7794
N4760 X0.0798 Y-0.7796
N4765 X0.0945 Y-0.7791
N4770 X0.1091 Y-0.7777
N4775 X0.1232 Y-0.7757
N4780 X0.1541 Y-0.7693
N4785 X0.1862 Y-0.7603
N4790 X0.2209 Y-0.749
N4795 X0.2583 Y-0.7358
N4800 X0.2981 Y-0.7209
N4805 X0.34 Y-0.7043
N4810 X0.3837 Y-0.6858
N4815 X0.4286 Y-0.6652
N4820 X0.4744 Y-0.6423
N4825 X0.5206 Y-0.617
N4830 X0.5667 Y-0.5894
N4835 X0.6123 Y-0.5599
N4840 X0.6568 Y-0.5288
N4845 X0.6997 Y-0.4967
N4850 X0.7407 Y-0.4639
N4855 X0.7794 Y-0.431
N4860 X0.8154 Y-0.3983
N4865 X0.8485 Y-0.3661
N4870 X0.8787 Y-0.3345
N4875 X0.9059 Y-0.3037
N4880 X0.931 Y-0.2726
N4885 G2 X1.0366 Y-0.3098 I0.0462 J-0.0373
N4890 G1 Y-0.9708
N4895 G2 X1.0153 Y-1.0163 I-0.0594 J0.
N4900 G3 X1.0143 Y-1.0174 Z-0.1361 I0.0051 J-0.006
N4905 X1.0135 Y-1.0187 Z-0.1357 I0.0061 J-0.0049
N4910 X1.0129 Y-1.0199 Z-0.1349 I0.0069 J-0.0037
N4915 X1.0126 Y-1.0211 Z-0.1339 I0.0075 J-0.0025
N4920 X1.0125 Y-1.022 Z-0.1328 I0.0078 J-0.0013
N4925 Y-1.0228 Z-0.1314 I0.0079 J-0.0003
N4930 X1.0126 Y-1.0232 Z-0.1299 I0.0079 J0.0004
N4935 G1 Y-1.0234 Z-0.1284
N4940 G0 Z0.6
N4950 M9
N4955 G53 Z0.
N4960 M30
%
