%
(1001)
(316 END MILL)
(T2  D=0.125 CR=0. - ZMIN=-0.3325 - FLAT END MILL)
N10 G90 G94 G17 G91.1
N15 G20
N20 G53 G0 Z0.
(2D POCKET1)
N25 M9
N30 T2 M6
N35 S12000 M3
N40 G54
N45 M9
N55 G0 X0.8395 Y0.433
N60 G43 Z0.6 H2
N65 G0 Z0.2
N70 G1 Z0.0794 F5.
N75 Z-0.0275
N80 X0.8393 Y0.4328 Z-0.0303
N85 X0.8387 Y0.4321 Z-0.0329
N90 X0.8377 Y0.4309 Z-0.0353
N95 X0.8364 Y0.4294 Z-0.0373
N100 X0.8349 Y0.4276 Z-0.0388
N105 X0.8332 Y0.4256 Z-0.0397
N110 X0.8314 Y0.4235 Z-0.04
N115 G3 X0.8338 Y0.3635 I0.0337 J-0.0287
N120 G2 X0.9852 Y0. I-0.364 J-0.3649 F15.
N125 X0.4698 Y-0.514 I-0.514 J0.
N130 Y0.514 I0. J0.514
N135 X0.8338 Y0.3635 I0. J-0.5154
N140 X0.8514 Y0.2528 I-0.0673 J-0.0675
N145 G3 X0.8452 Y0.141 I0.124 J-0.0631
N150 G2 X0.8705 Y0.0014 I-0.3726 J-0.1396
N155 X0.4712 Y-0.3993 I-0.4007 J0.
N160 X0.072 Y0.0014 I0. J0.3993
N165 X0.1899 Y0.2833 I0.3959 J0.
N170 X0.4726 Y0.3993 I0.2827 J-0.2868
N175 X0.8452 Y0.141 I0. J-0.3978
N180 X0.8113 Y0.0262 I-0.0932 J-0.0349
N185 G3 X0.7442 Y-0.0728 I0.1084 J-0.1459
N190 G2 X0.1887 Y0. I-0.273 J0.0728
N195 Y0.0014 I0.2825 J0.0007
N200 X0.4712 Y0.2825 I0.2825 J-0.0014
N205 X0.7442 Y-0.0728 I0. J-0.2825
N210 G3 X0.7509 Y-0.0828 I0.0077 J-0.0021
N215 G1 X1.0428 Y-0.1194
N220 G3 X1.0452 Y-0.1036 I0.001 J0.0079
N225 G1 X1.0425 Y-0.1031 Z-0.0403 F5.
N230 X1.0399 Y-0.1026 Z-0.0412
N235 X1.0376 Y-0.1022 Z-0.0427
N240 X1.0356 Y-0.1019 Z-0.0447
N245 X1.0342 Y-0.1016 Z-0.0471
N250 X1.0333 Y-0.1014 Z-0.0497
N255 X1.0329 Z-0.0525
N260 Z-0.0675
N265 X1.0326 Y-0.1013 Z-0.0703
N270 X1.0317 Y-0.1011 Z-0.0729
N275 X1.0303 Y-0.1009 Z-0.0753
N280 X1.0283 Y-0.1005 Z-0.0773
N285 X1.026 Y-0.1001 Z-0.0788
N290 X1.0234 Y-0.0996 Z-0.0797
N295 X1.0207 Y-0.0991 Z-0.08
N300 G3 X0.9678 Y-0.1325 I-0.0083 J-0.0453
N305 G2 X0.4698 Y-0.514 I-0.4966 J0.1325 F15.
N310 Y0.514 I0. J0.514
N315 X0.9852 Y0. I0. J-0.5154
N320 X0.9678 Y-0.1325 I-0.514 J0.
N325 X0.8795 Y-0.204 I-0.0933 J0.0249
N330 G3 X0.7778 Y-0.2549 I0.0072 J-0.1414
N335 G2 X0.4712 Y-0.3993 I-0.308 J0.2563
N340 X0.072 Y0.0014 I0. J0.3993
N345 X0.1899 Y0.2833 I0.3959 J0.
N350 X0.4726 Y0.3993 I0.2827 J-0.2868
N355 X0.8705 Y0.0014 I0. J-0.3978
N360 X0.7778 Y-0.2549 I-0.4007 J0.
N365 X0.6623 Y-0.2821 I-0.0758 J0.0631
N370 G3 X0.544 Y-0.273 I-0.0721 J-0.1641
N375 G2 X0.1887 Y0. I-0.0728 J0.273
N380 Y0.0014 I0.2825 J0.0007
N385 X0.4712 Y0.2825 I0.2825 J-0.0014
N390 X0.544 Y-0.273 I0. J-0.2825
N395 G3 X0.5395 Y-0.2854 I0.0021 J-0.0077
N400 G1 X0.6977 Y-0.5058
N405 G2 X0.6872 Y-0.5174 I-0.0065 J-0.0047
N410 G1 X0.6848 Y-0.516 Z-0.0803 F5.
N415 X0.6825 Y-0.5147 Z-0.0812
N420 X0.6805 Y-0.5135 Z-0.0827
N425 X0.6788 Y-0.5125 Z-0.0847
N430 X0.6775 Y-0.5118 Z-0.0871
N435 X0.6767 Y-0.5113 Z-0.0897
N440 X0.6764 Y-0.5111 Z-0.0925
N445 Z-0.1075
N450 X0.6761 Y-0.511 Z-0.1103
N455 X0.6753 Y-0.5105 Z-0.1129
N460 X0.674 Y-0.5098 Z-0.1153
N465 X0.6723 Y-0.5088 Z-0.1173
N470 X0.6703 Y-0.5076 Z-0.1188
N475 X0.668 Y-0.5063 Z-0.1197
N480 X0.6656 Y-0.5049 Z-0.12
N485 G3 X0.6036 Y-0.4966 I-0.0409 J-0.0707
N490 G2 X0.4698 Y-0.514 I-0.1324 J0.4966 F15.
N495 Y0.514 I0. J0.514
N500 X0.9852 Y0. I0. J-0.5154
N505 X0.6036 Y-0.4966 I-0.514 J0.
N510 X0.4977 Y-0.4559 I-0.0249 J0.0934
N515 G3 X0.4029 Y-0.3934 I-0.119 J-0.0773
N520 G2 X0.072 Y0.0014 I0.0683 J0.3934
N525 X0.1899 Y0.2833 I0.3959 J0.
N530 X0.4726 Y0.3993 I0.2827 J-0.2868
N535 X0.8705 Y0.0014 I0. J-0.3978
N540 X0.4712 Y-0.3993 I-0.4007 J0.
N545 X0.4029 Y-0.3934 I0. J0.3993
N550 X0.3213 Y-0.3063 I0.0169 J0.0977
N555 G3 X0.2702 Y-0.1985 I-0.1799 J-0.0193
N560 G2 X0.1887 Y0. I0.201 J0.1985
N565 Y0.0014 I0.2825 J0.0007
N570 X0.4712 Y0.2825 I0.2825 J-0.0014
N575 Y-0.2825 I0. J-0.2825
N580 X0.2702 Y-0.1985 I0. J0.2825
N585 G3 X0.2581 Y-0.1993 I-0.0057 J-0.0056
N590 G1 X0.0822 Y-0.4325
N595 G3 X0.0838 Y-0.4437 I0.0064 J-0.0048
N600 X0.0951 Y-0.442 I0.0048 J0.0064
N605 G1 X0.0967 Y-0.4398 Z-0.1203 F5.
N610 X0.0983 Y-0.4376 Z-0.1212
N615 X0.0997 Y-0.4357 Z-0.1227
N620 X0.1008 Y-0.4341 Z-0.1247
N625 X0.1017 Y-0.4329 Z-0.1271
N630 X0.1023 Y-0.4322 Z-0.1297
N635 X0.1024 Y-0.4319 Z-0.1325
N640 Z-0.1475
N645 X0.1026 Y-0.4317 Z-0.1503
N650 X0.1032 Y-0.4309 Z-0.1529
N655 X0.104 Y-0.4297 Z-0.1553
N660 X0.1052 Y-0.4281 Z-0.1573
N665 X0.1066 Y-0.4262 Z-0.1588
N670 X0.1082 Y-0.4241 Z-0.1597
N675 X0.1098 Y-0.4218 Z-0.16
N680 G3 X0.1053 Y-0.3624 I-0.037 J0.0271
N685 G2 X0.4698 Y0.514 I0.3645 J0.3624 F15.
N690 X0.9852 Y0. I0. J-0.5154
N695 X0.4698 Y-0.514 I-0.514 J0.
N700 X0.1053 Y-0.3624 I0. J0.514
N705 X0.0879 Y-0.2493 I0.0689 J0.0685
N710 G3 X0.0955 Y-0.1351 I-0.1271 J0.0658
N715 G2 X0.072 Y0.0014 I0.3757 J0.1351
N720 X0.1899 Y0.2833 I0.3959 J0.
N725 X0.4726 Y0.3993 I0.2827 J-0.2868
N730 X0.8705 Y0.0014 I0. J-0.3978
N735 X0.4712 Y-0.3993 I-0.4007 J0.
N740 X0.0955 Y-0.1351 I0. J0.3993
N745 X0.1309 Y-0.0211 I0.0933 J0.0335
N750 G3 X0.1993 Y0.0766 I-0.1057 J0.1469
N755 G2 X0.4712 Y0.2825 I0.2719 J-0.0766
N760 Y-0.2825 I0. J-0.2825
N765 X0.1887 Y0. I0. J0.2825
N770 Y0.0014 I0.2825 J0.0007
N775 X0.1993 Y0.0766 I0.2825 J-0.0014
N780 G3 X0.1927 Y0.0867 I-0.0077 J0.0022
N785 G1 X-0.0986 Y0.129
N790 G3 X-0.1013 Y0.1132 I-0.0011 J-0.0079
N795 G1 X-0.0986 Y0.1127 Z-0.1603 F5.
N800 X-0.096 Y0.1121 Z-0.1612
N805 X-0.0937 Y0.1117 Z-0.1627
N810 X-0.0918 Y0.1113 Z-0.1647
N815 X-0.0903 Y0.111 Z-0.1671
N820 X-0.0894 Y0.1108 Z-0.1697
N825 X-0.0891 Y0.1107 Z-0.1725
N830 Z-0.1875
N835 X-0.0888 Z-0.1903
N840 X-0.0879 Y0.1105 Z-0.1929
N845 X-0.0864 Y0.1102 Z-0.1953
N850 X-0.0845 Y0.1098 Z-0.1973
N855 X-0.0821 Y0.1094 Z-0.1988
N860 X-0.0796 Y0.1088 Z-0.1997
N865 X-0.0768 Y0.1083 Z-0.2
N870 G3 X-0.0247 Y0.1401 I0.0088 J0.0441
N875 G2 X0.4698 Y0.514 I0.4945 J-0.1401 F15.
N880 X0.9852 Y0. I0. J-0.5154
N885 X0.4698 Y-0.514 I-0.514 J0.
N890 X-0.0247 Y0.1401 I0. J0.514
N895 X0.0652 Y0.2108 I0.0936 J-0.0265
N900 G3 X0.1684 Y0.2604 I-0.0054 J0.1434
N905 G2 X0.1899 Y0.2833 I0.2994 J-0.2589
N910 X0.4726 Y0.3993 I0.2827 J-0.2868
N915 X0.8705 Y0.0014 I0. J-0.3978
N920 X0.4712 Y-0.3993 I-0.4007 J0.
N925 X0.072 Y0.0014 I0. J0.3993
N930 X0.1684 Y0.2604 I0.3959 J0.
N935 X0.2849 Y0.2856 I0.0751 J-0.0649
N940 G3 X0.4037 Y0.2743 I0.0755 J0.1642
N945 G2 X0.4712 Y0.2825 I0.0675 J-0.2743
N950 Y-0.2825 I0. J-0.2825
N955 X0.1887 Y0. I0. J0.2825
N960 Y0.0014 I0.2825 J0.0007
N965 X0.4037 Y0.2743 I0.2825 J-0.0014
N970 G3 X0.4088 Y0.286 I-0.0019 J0.0078
N975 G1 X0.2685 Y0.5391
N980 G2 X0.2717 Y0.5501 I0.007 J0.0039
N985 X0.2826 Y0.5466 I0.0038 J-0.0071
N990 G1 X0.2838 Y0.5443 Z-0.2003 F5.
N995 X0.2849 Y0.5421 Z-0.2011
N1000 X0.286 Y0.5401 Z-0.2024
N1005 X0.2869 Y0.5383 Z-0.2042
N1010 X0.2876 Y0.537 Z-0.2063
N1015 X0.288 Y0.536 Z-0.2087
N1020 X0.2885 Y0.5351 Z-0.2112
N1025 X0.2892 Y0.5337 Z-0.2133
N1030 X0.2901 Y0.532 Z-0.2151
N1035 X0.2911 Y0.53 Z-0.2164
N1040 X0.2923 Y0.5277 Z-0.2172
N1045 X0.2935 Y0.5254 Z-0.2175
N1050 G3 X0.3493 Y0.4997 I0.0443 J0.0226
N1055 G2 X0.4698 Y0.514 I0.1204 J-0.4997 F15.
N1060 X0.9852 Y0. I0. J-0.5154
N1065 X0.4698 Y-0.514 I-0.514 J0.
N1070 X0.3493 Y0.4997 I0. J0.514
N1075 X0.4544 Y0.4565 I0.0227 J-0.0942
N1080 G3 X0.548 Y0.3921 I0.1203 J0.0745
N1085 G2 X0.8705 Y0.0014 I-0.0753 J-0.3906
N1090 X0.4712 Y-0.3993 I-0.4007 J0.
N1095 X0.072 Y0.0014 I0. J0.3993
N1100 X0.1899 Y0.2833 I0.3959 J0.
N1105 X0.4726 Y0.3993 I0.2827 J-0.2868
N1110 X0.548 Y0.3921 I0. J-0.3978
N1115 X0.6281 Y0.303 I-0.0188 J-0.0975
N1120 G3 X0.6769 Y0.1936 I0.1815 J0.0155
N1125 G2 X0.2655 Y-0.1936 I-0.2057 J-0.1936
N1130 X0.1887 Y0. I0.2057 J0.1936
N1135 Y0.0014 I0.2825 J0.0007
N1140 X0.4712 Y0.2825 I0.2825 J-0.0014
N1145 X0.6769 Y0.1936 I0. J-0.2825
N1150 G3 X0.6808 Y0.1908 Z-0.2165 I0.0091 J0.0086 F5.
N1155 X0.6847 Y0.1898 Z-0.2138 I0.0052 J0.0113
N1160 X0.6874 Z-0.2098 I0.0014 J0.0124
N1165 X0.6883 Y0.1899 Z-0.205 I-0.0013 J0.0124
N1170 G0 Z0.6
N1175 X-0.8019 Y-0.269
N1180 Z0.2
N1185 G1 Z0.1125 F5.
N1190 G3 X-0.802 Y-0.2699 Z0.1078 I0.0584 J-0.0106
N1195 X-0.8024 Y-0.2725 Z0.1038 I0.0586 J-0.0097
N1200 X-0.8027 Y-0.2764 Z0.1011 I0.0589 J-0.0072
N1205 X-0.8028 Y-0.281 Z0.1 I0.0593 J-0.0033
N1210 X-0.6841 Y-0.2783 Z0.0935 I0.0594 J0.0014
N1215 X-0.8028 Y-0.281 Z0.087 I-0.0594 J-0.0014
N1220 X-0.6841 Y-0.2783 Z0.0805 I0.0594 J0.0014
N1225 X-0.8028 Y-0.281 Z0.0739 I-0.0594 J-0.0014
N1230 X-0.6841 Y-0.2783 Z0.0674 I0.0594 J0.0014
N1235 X-0.8028 Y-0.281 Z0.0609 I-0.0594 J-0.0014
N1240 X-0.6841 Y-0.2783 Z0.0544 I0.0594 J0.0014
N1245 X-0.8028 Y-0.281 Z0.0479 I-0.0594 J-0.0014
N1250 X-0.6841 Y-0.2783 Z0.0414 I0.0594 J0.0014
N1255 X-0.8028 Y-0.281 Z0.0349 I-0.0594 J-0.0014
N1260 X-0.6841 Y-0.2783 Z0.0283 I0.0594 J0.0014
N1265 X-0.8028 Y-0.281 Z0.0218 I-0.0594 J-0.0014
N1270 X-0.6841 Y-0.2783 Z0.0153 I0.0594 J0.0014
N1275 X-0.8028 Y-0.281 Z0.0088 I-0.0594 J-0.0014
N1280 X-0.6841 Y-0.2783 Z0.0023 I0.0594 J0.0014
N1285 X-0.8028 Y-0.281 Z-0.0042 I-0.0594 J-0.0014
N1290 X-0.6841 Y-0.2783 Z-0.0107 I0.0594 J0.0014
N1295 X-0.8028 Y-0.281 Z-0.0172 I-0.0594 J-0.0014
N1300 X-0.6841 Y-0.2783 Z-0.0238 I0.0594 J0.0014
N1305 X-0.8028 Y-0.281 Z-0.0303 I-0.0594 J-0.0014
N1310 X-0.6841 Y-0.2783 Z-0.0368 I0.0594 J0.0014
N1315 X-0.7434 Y-0.2203 Z-0.04 I-0.0594 J-0.0014
N1320 G2 X-0.9637 Y0. I0. J0.2203 F15.
N1325 Y0.0008 I0.2203 J0.0004
N1330 X-0.7434 Y0.2203 I0.2203 J-0.0008
N1335 Y-0.2203 I0. J-0.2203
N1340 X-0.9637 Y0. Z-0.0521 I0. J0.2203 F5.
N1345 Y0.0008 I0.2203 J0.0004
N1350 X-0.7434 Y0.2203 Z-0.0642 I0.2203 J-0.0008
N1355 X-0.5488 Y-0.1031 Z-0.08 I0. J-0.2203
N1360 X-0.9637 Y0. I-0.1947 J0.1031 F15.
N1365 Y0.0008 I0.2203 J0.0004
N1370 X-0.7434 Y0.2203 I0.2203 J-0.0008
N1375 X-0.5488 Y-0.1031 I0. J-0.2203
N1380 X-0.9637 Y0. Z-0.1004 I-0.1947 J0.1031 F5.
N1385 Y0.0008 I0.2203 J0.0004
N1390 X-0.7434 Y0.2203 Z-0.1125 I0.2203 J-0.0008
N1395 X-0.5612 Y0.1237 Z-0.12 I0. J-0.2203
N1400 X-0.9257 Y-0.1237 I-0.1823 J-0.1237 F15.
N1405 X-0.9637 Y0. I0.1823 J0.1237
N1410 Y0.0008 I0.2203 J0.0004
N1415 X-0.7434 Y0.2203 I0.2203 J-0.0008
N1420 X-0.5612 Y0.1237 I0. J-0.2203
N1425 X-0.9257 Y-0.1237 Z-0.1442 I-0.1823 J-0.1237 F5.
N1430 X-0.9637 Y0. Z-0.1488 I0.1823 J0.1237
N1435 Y0.0008 I0.2203 J0.0004
N1440 X-0.7674 Y0.219 Z-0.16 I0.2203 J-0.0008
N1445 X-0.7434 Y0.2203 I0.024 J-0.219 F15.
N1450 Y-0.2203 I0. J-0.2203
N1455 X-0.9637 Y0. I0. J0.2203
N1460 Y0.0008 I0.2203 J0.0004
N1465 X-0.7674 Y0.219 I0.2203 J-0.0008
N1470 X-0.7434 Y0.2203 Z-0.1608 I0.024 J-0.219 F5.
N1475 Y-0.2203 Z-0.185 I0. J-0.2203
N1480 X-0.9637 Y0. Z-0.1971 I0. J0.2203
N1485 Y0.0008 I0.2203 J0.0004
N1490 X-0.9482 Y0.0813 Z-0.2 I0.2203 J-0.0008
N1495 X-0.7434 Y0.2203 I0.2047 J-0.0813 F15.
N1500 Y-0.2203 I0. J-0.2203
N1505 X-0.9637 Y0. I0. J0.2203
N1510 Y0.0008 I0.2203 J0.0004
N1515 X-0.9482 Y0.0813 I0.2203 J-0.0008
N1520 X-0.7434 Y0.2203 Z-0.2092 I0.2047 J-0.0813 F5.
N1525 Y-0.2203 Z-0.2333 I0. J-0.2203
N1530 X-0.9111 Y-0.1428 Z-0.24 I0. J0.2203
N1535 X-0.9637 Y0. I0.1677 J0.1428 F15.
N1540 Y0.0008 I0.2203 J0.0004
N1545 X-0.7434 Y0.2203 I0.2203 J-0.0008
N1550 Y-0.2203 I0. J-0.2203
N1555 X-0.9111 Y-0.1428 I0. J0.2203
N1560 X-0.9637 Y0. Z-0.2454 I0.1677 J0.1428 F5.
N1565 Y0.0008 Z-0.2455 I0.2203 J0.0004
N1570 X-0.7434 Y0.2203 Z-0.2575 I0.2203 J-0.0008
N1575 X-0.6957 Y-0.2151 Z-0.28 I0. J-0.2203
N1580 X-0.9637 Y0. I-0.0477 J0.2151 F15.
N1585 Y0.0008 I0.2203 J0.0004
N1590 X-0.7434 Y0.2203 I0.2203 J-0.0008
N1595 X-0.6957 Y-0.2151 I0. J-0.2203
N1600 X-0.9637 Y0. Z-0.2938 I-0.0477 J0.2151 F5.
N1605 Y0.0008 I0.2203 J0.0004
N1610 X-0.7434 Y0.2203 Z-0.3058 I0.2203 J-0.0008
N1615 X-0.5311 Y-0.0585 Z-0.32 I0. J-0.2203
N1620 X-0.9637 Y0. I-0.2124 J0.0585 F15.
N1625 Y0.0008 I0.2203 J0.0004
N1630 X-0.7434 Y0.2203 I0.2203 J-0.0008
N1635 X-0.5311 Y-0.0585 I0. J-0.2203
N1640 X-0.8134 Y-0.2089 Z-0.3325 I-0.2124 J0.0585 F5.
N1645 X-0.9637 Y0. I0.0699 J0.2089 F15.
N1650 Y0.0008 I0.2203 J0.0004
N1655 X-0.7434 Y0.2203 I0.2203 J-0.0008
N1660 Y-0.2203 I0. J-0.2203
N1665 X-0.8134 Y-0.2089 I0. J0.2203
N1670 G3 X-0.8261 Y-0.2118 I-0.004 J-0.0119 F5.
N1675 G1 X-0.8707 Y-0.2556
N1680 X-0.8727 Y-0.2576 Z-0.3322
N1685 X-0.8746 Y-0.2594 Z-0.3313
N1690 X-0.8762 Y-0.2611 Z-0.3298
N1695 X-0.8777 Y-0.2625 Z-0.3278
N1700 X-0.8787 Y-0.2635 Z-0.3254
N1705 X-0.8794 Y-0.2642 Z-0.3228
N1710 X-0.8796 Y-0.2644 Z-0.32
N1715 G0 Z0.6
N1725 M9
N1730 G53 Z0.
N1735 M30
%
