%
(1001)
(316 END MILL)
(T2  D=0.125 CR=0. - ZMIN=-0.4575 - FLAT END MILL)
N10 G90 G94 G17 G91.1
N15 G20
N20 G53 G0 Z0.
(BORE4)
N25 M9
N30 T2 M6
N35 S12000 M3
N40 G54
N45 M9
N55 G0 X-0.4247 Y0.0125
N60 G43 Z0.6 H2
N65 G0 Z0.08
N70 G1 Z0.0125 F5.
N75 G18 G3 X-0.4372 Z0. I-0.0125 K0.
N80 G1 X-0.4434
N85 G17 G3 X-0.4559 Y0. I0. J-0.0125
N90 G2 X-1.0309 Z-0.0197 I-0.2875 J0. F15.
N95 X-0.4559 Z-0.0394 I0.2875 J0.
N100 X-1.0309 Z-0.0591 I-0.2875 J0.
N105 X-0.4559 Z-0.0787 I0.2875 J0.
N110 X-1.0309 Z-0.0984 I-0.2875 J0.
N115 X-0.4559 Z-0.1181 I0.2875 J0.
N120 X-1.0309 Z-0.1378 I-0.2875 J0.
N125 X-0.4559 Z-0.1575 I0.2875 J0.
N130 X-1.0309 Z-0.1772 I-0.2875 J0.
N135 X-0.4559 Z-0.1969 I0.2875 J0.
N140 X-1.0309 Z-0.2165 I-0.2875 J0.
N145 X-0.4559 Z-0.2362 I0.2875 J0.
N150 X-1.0309 Z-0.2559 I-0.2875 J0.
N155 X-0.4559 Z-0.2756 I0.2875 J0.
N160 X-1.0309 Z-0.2953 I-0.2875 J0.
N165 X-0.4559 Z-0.315 I0.2875 J0.
N170 X-1.0309 Z-0.3346 I-0.2875 J0.
N175 X-0.4559 Z-0.3543 I0.2875 J0.
N180 X-1.0309 Z-0.374 I-0.2875 J0.
N185 X-0.4559 Z-0.3937 I0.2875 J0.
N190 X-1.0309 Z-0.4134 I-0.2875 J0.
N195 X-0.4559 Z-0.4331 I0.2875 J0.
N200 X-1.0309 Z-0.4528 I-0.2875 J0.
N205 X-0.9524 Y0.1975 Z-0.4575 I0.2875 J0.
N210 X-0.5345 Y-0.1975 I0.209 J-0.1975
N215 X-0.9524 Y0.1975 I-0.209 J0.1975
N220 G3 X-0.9529 Y0.2151 I-0.0091 J0.0086 F5.
N225 G1 X-0.9574 Y0.2194
N230 X-0.9595 Y0.2213 Z-0.4572
N235 X-0.9614 Y0.2232 Z-0.4563
N240 X-0.9631 Y0.2248 Z-0.4548
N245 X-0.9645 Y0.2261 Z-0.4528
N250 X-0.9656 Y0.2272 Z-0.4504
N255 X-0.9663 Y0.2278 Z-0.4478
N260 X-0.9665 Y0.228 Z-0.445
N265 G0 Z0.6
(BORE5)
N275 M9
N280 G0 X1.0649 Y0.0125
N285 Z0.6
N290 Z0.08
N295 G1 Z0.0125 F5.
N300 G18 G3 X1.0524 Z0. I-0.0125 K0.
N305 G1 X1.0462
N310 G17 G3 X1.0337 Y0. I0. J-0.0125
N315 G2 X-0.0913 Z-0.0197 I-0.5625 J0. F15.
N320 X1.0337 Z-0.0394 I0.5625 J0.
N325 X-0.0913 Z-0.0591 I-0.5625 J0.
N330 X1.0337 Z-0.0787 I0.5625 J0.
N335 X-0.0913 Z-0.0984 I-0.5625 J0.
N340 X1.0337 Z-0.1181 I0.5625 J0.
N345 X-0.0913 Z-0.1378 I-0.5625 J0.
N350 X1.0337 Z-0.1575 I0.5625 J0.
N355 X-0.0913 Z-0.1772 I-0.5625 J0.
N360 X1.0337 Z-0.1969 I0.5625 J0.
N365 X-0.0913 Z-0.2165 I-0.5625 J0.
N370 X1.0337 Z-0.2362 I0.5625 J0.
N375 X-0.0913 Z-0.2559 I-0.5625 J0.
N380 X1.0337 Z-0.2756 I0.5625 J0.
N385 X-0.0913 Z-0.2953 I-0.5625 J0.
N390 X1.0337 Z-0.315 I0.5625 J0.
N395 X-0.0913 Z-0.3346 I-0.5625 J0.
N400 X0.2957 Y0.5344 Z-0.3425 I0.5625 J0.
N405 X0.6467 Y-0.5344 I0.1755 J-0.5344
N410 X0.2957 Y0.5344 I-0.1755 J0.5344
N415 G3 X0.3037 Y0.5502 I-0.0039 J0.0119 F5.
N420 G1 X0.3017 Y0.5561
N425 X0.3009 Y0.5588 Z-0.3422
N430 X0.3 Y0.5613 Z-0.3413
N435 X0.2993 Y0.5635 Z-0.3398
N440 X0.2987 Y0.5654 Z-0.3378
N445 X0.2982 Y0.5668 Z-0.3354
N450 X0.2979 Y0.5677 Z-0.3328
N455 X0.2978 Y0.568 Z-0.33
N460 G0 Z0.6
N470 M9
N475 G53 Z0.
N480 M30
%
