%
(1001)
(316 END MILL)
(T6  D=0.25 CR=0. - ZMIN=-0.4575 - FLAT END MILL)
N10 G90 G94 G17 G91.1
N15 G20
N20 G53 G0 Z0.
(14 FACE)
N25 M9
N30 T6 M6
N35 S1800 M3
N40 G54
N45 M8
N55 G0 X-0.4849 Y-0.1219
N60 G43 Z0.6 H6
N65 G0 Z0.2
N70 G1 Z-0.005 F5.
N75 G18 G3 X-0.5099 Z-0.03 I-0.025 K0.
N80 G1 X-0.645
N85 X-0.8419 F10.
N90 G17 G2 Y0.0167 I0. J0.0693
N95 G1 X-0.645
N100 G18 G2 X-0.62 Z-0.005 I0. K0.025 F5.
N105 G0 Z0.2
N110 X0.1317 Y-0.1219
N115 G1 Z-0.005 F5.
N120 G2 X0.1567 Z-0.03 I0.025 K0.
N125 G1 X0.2712
N130 X0.6712 F10.
N135 G17 G3 Y0.0789 I0. J0.1004
N140 G1 X0.2712
N145 G18 G3 X0.2462 Z-0.005 I0. K0.025 F5.
N150 G0 Z0.6
N155 G17
(14 FLATS CONTOUR)
N160 M8
N165 G0 X-1.0419 Y-0.1214
N170 Z0.6
N175 Z0.2
N180 G1 Z0.0394 F10.
N185 Z-0.1825 F1.
N190 G18 G2 X-1.0169 Z-0.2075 I0.025 K0.
N195 G1 X-0.9919 F10.
N200 G17 G3 X-0.9669 Y-0.0964 I0. J0.025
N205 G1 Y0.0964 F15.
N210 G3 X-0.9919 Y0.1214 I-0.025 J0. F10.
N215 G1 X-1.0169
N220 G18 G3 X-1.0419 Z-0.1825 I0. K0.025
N225 G0 Z0.2
N230 X-0.445
N235 G1 Z0.0394 F10.
N240 Z-0.1825 F1.
N245 G3 X-0.47 Z-0.2075 I-0.025 K0.
N250 G1 X-0.495 F10.
N255 G17 G3 X-0.52 Y0.0964 I0. J-0.025
N260 G1 Y-0.0964 F15.
N265 G3 X-0.495 Y-0.1214 I0.025 J0. F10.
N270 G1 X-0.47
N275 G18 G2 X-0.445 Z-0.1825 I0. K0.025
N280 G0 Z0.6
N285 G17
(14 BORE NUBS)
N290 M8
N295 G0 X0.8837 Y0.025
N300 Z0.6
N305 Z0.05
N310 G1 Z-0.005 F10.
N315 G18 G3 X0.8587 Z-0.03 I-0.025 K0.
N320 G1 X0.8462
N325 G17 G3 X0.8212 Y0. I0. J-0.025
N330 G2 X0.1212 Z-0.0497 I-0.35 J0. F15.
N335 X0.8212 Z-0.0694 I0.35 J0.
N340 X0.1212 Z-0.0891 I-0.35 J0.
N345 X0.8212 Z-0.1087 I0.35 J0.
N350 X0.1212 Z-0.1284 I-0.35 J0.
N355 X0.8212 Z-0.1481 I0.35 J0.
N360 X0.1212 Z-0.1678 I-0.35 J0.
N365 X0.8212 Z-0.1875 I0.35 J0.
N370 X0.1212 Z-0.2072 I-0.35 J0.
N375 X0.4987 Y0.3489 Z-0.2175 I0.35 J0.
N380 X0.4437 Y-0.3489 I-0.0275 J-0.3489
N385 X0.4987 Y0.3489 I0.0275 J0.3489
N390 G3 X0.5255 Y0.3719 I0.002 J0.0249 F10.
N395 G1 X0.5265 Y0.3843
N400 X0.5268 Y0.3882 Z-0.2172
N405 X0.5271 Y0.392 Z-0.2163
N410 X0.5274 Y0.3957 Z-0.2148
N415 X0.5277 Y0.399 Z-0.2127
N420 X0.5279 Y0.402 Z-0.2102
N425 X0.5281 Y0.4045 Z-0.2072
N430 X0.5283 Y0.4066 Z-0.2038
N435 X0.5284 Y0.408 Z-0.2002
N440 X0.5285 Y0.409 Z-0.1964
N445 Y0.4093 Z-0.1925
N450 G0 Z0.2
N455 X0.8587 Y0.025
N460 Z-0.1375
N465 G1 Z-0.1925 F10.
N470 G18 G3 X0.8337 Z-0.2175 I-0.025 K0.
N475 G1 X0.8212
N480 G17 G3 X0.7962 Y0. I0. J-0.025
N485 G2 X0.1462 I-0.325 J0. F15.
N490 X0.7962 I0.325 J0.
N495 G3 X0.8212 Y-0.025 I0.025 J0. F10.
N500 G1 X0.8337
N505 G18 G2 X0.8587 Z-0.1925 I0. K0.025
N510 G0 Z0.2
N515 X-0.3931 Y0.025
N520 Z0.0497
N525 G1 Z-0.0053 F10.
N530 G3 X-0.4181 Z-0.0303 I-0.025 K0.
N535 G1 X-0.4306
N540 G17 G3 X-0.4556 Y0. I0. J-0.025
N545 G2 X-1.0312 Z-0.05 I-0.2878 J0. F15.
N550 X-0.4556 Z-0.0697 I0.2878 J0.
N555 X-1.0312 Z-0.0894 I-0.2878 J0.
N560 X-0.4556 Z-0.1091 I0.2878 J0.
N565 X-1.0312 Z-0.1288 I-0.2878 J0.
N570 X-0.4556 Z-0.1484 I0.2878 J0.
N575 X-1.0312 Z-0.1681 I-0.2878 J0.
N580 X-0.4556 Z-0.1878 I0.2878 J0.
N585 X-1.0312 Z-0.2075 I-0.2878 J0.
N590 X-0.4556 Z-0.2272 I0.2878 J0.
N595 X-1.0312 Z-0.2469 I-0.2878 J0.
N600 X-0.4556 Z-0.2666 I0.2878 J0.
N605 X-1.0312 Z-0.2862 I-0.2878 J0.
N610 X-0.4556 Z-0.3059 I0.2878 J0.
N615 X-1.0312 Z-0.3256 I-0.2878 J0.
N620 X-0.8741 Y0.2564 Z-0.3325 I0.2878 J0.
N625 X-0.6128 Y-0.2564 I0.1307 J-0.2564
N630 X-0.8741 Y0.2564 I-0.1307 J0.2564
N635 G3 X-0.8632 Y0.2901 I-0.0113 J0.0223 F10.
N640 G1 X-0.8688 Y0.3012
N645 X-0.8706 Y0.3047 Z-0.3322
N650 X-0.8724 Y0.3081 Z-0.3313
N655 X-0.874 Y0.3113 Z-0.3298
N660 X-0.8755 Y0.3143 Z-0.3277
N665 X-0.8769 Y0.3169 Z-0.3252
N670 X-0.878 Y0.3192 Z-0.3222
N675 X-0.879 Y0.321 Z-0.3188
N680 X-0.8796 Y0.3224 Z-0.3152
N685 X-0.8801 Y0.3232 Z-0.3114
N690 X-0.8802 Y0.3235 Z-0.3075
N695 G0 Z0.2
N700 X-0.4181 Y0.025
N705 Z-0.2525
N710 G1 Z-0.3075 F10.
N715 G18 G3 X-0.4431 Z-0.3325 I-0.025 K0.
N720 G1 X-0.4556
N725 G17 G3 X-0.4806 Y0. I0. J-0.025
N730 G2 X-1.0062 I-0.2628 J0. F15.
N735 X-0.4806 I0.2628 J0.
N740 G3 X-0.4556 Y-0.025 I0.025 J0. F10.
N745 G1 X-0.4431
N750 G18 G2 X-0.4181 Z-0.3075 I0. K0.025
N755 G0 Z0.6
N760 G17
(14 BORE4)
N765 M8
N770 G0 X-0.3059 Y0.025
N775 Z0.6
N780 Z-0.2525
N785 G1 Z-0.3075 F4.
N790 G18 G3 X-0.3309 Z-0.3325 I-0.025 K0.
N795 G1 X-0.3434
N800 G17 G3 X-0.3684 Y0. I0. J-0.025
N805 G2 X-1.1184 Z-0.3522 I-0.375 J0. F7.
N810 X-0.3684 Z-0.3719 I0.375 J0.
N815 X-1.1184 Z-0.3916 I-0.375 J0.
N820 X-0.3684 Z-0.4112 I0.375 J0.
N825 X-1.1184 Z-0.4309 I-0.375 J0.
N830 X-0.3684 Z-0.4506 I0.375 J0.
N835 X-0.5732 Y-0.3341 Z-0.4575 I-0.375 J0.
N840 X-0.9137 Y0.3341 I-0.1702 J0.3341
N845 X-0.5732 Y-0.3341 I0.1702 J-0.3341
N850 G3 X-0.5841 Y-0.3678 I0.0113 J-0.0223 F4.
N855 G1 X-0.5784 Y-0.3789
N860 X-0.5767 Y-0.3824 Z-0.4572
N865 X-0.5749 Y-0.3858 Z-0.4563
N870 X-0.5733 Y-0.389 Z-0.4548
N875 X-0.5718 Y-0.392 Z-0.4527
N880 X-0.5704 Y-0.3946 Z-0.4502
N885 X-0.5693 Y-0.3969 Z-0.4472
N890 X-0.5683 Y-0.3987 Z-0.4438
N895 X-0.5677 Y-0.4001 Z-0.4402
N900 X-0.5672 Y-0.4009 Z-0.4364
N905 X-0.5671 Y-0.4012 Z-0.4325
N910 G0 Z0.2
N915 X-0.3309 Y0.025
N920 Z-0.3775
N925 G1 Z-0.4325 F4.
N930 G18 G3 X-0.3559 Z-0.4575 I-0.025 K0.
N935 G1 X-0.3684
N940 G17 G3 X-0.3934 Y0. I0. J-0.025
N945 G2 X-1.0934 I-0.35 J0. F7.
N950 X-0.3934 I0.35 J0.
N955 G3 X-0.3684 Y-0.025 I0.025 J0. F4.
N960 G1 X-0.3559
N965 G18 G2 X-0.3309 Z-0.4325 I0. K0.025
N970 G0 Z0.6
N975 G17
N980 M9
N985 G53 G0 Z0.
N990 M30
%
