%
(1001)
(316 END MILL)
(T5  D=0.2362 CR=0. - ZMIN=-0.4575 - FLAT END MILL)
N10 G90 G94 G17 G91.1
N15 G20
N20 G53 G0 Z0.
(6MM FACE)
N25 M9
N30 T5 M6
N35 S12000 M3
N40 G54
N45 M8
N55 G0 X-0.493 Y-0.1152
N60 G43 Z0.6 H5
N65 G0 Z0.2
N70 G1 Z-0.0064 F30.
N75 G18 G3 X-0.5166 Z-0.03 I-0.0236 K0.
N80 G1 X-0.645
N85 X-0.8419 F45.
N90 G17 G2 Y0.0233 I0. J0.0693
N95 G1 X-0.645
N100 G18 G2 X-0.6214 Z-0.0064 I0. K0.0236 F30.
N105 G0 Z0.2
N110 X0.1385 Y-0.1152
N115 G1 Z-0.0064 F30.
N120 G2 X0.1622 Z-0.03 I0.0236 K0.
N125 G1 X0.2712
N130 X0.6712 F45.
N135 G17 G3 Y0.0856 I0. J0.1004
N140 G1 X0.2712
N145 G18 G3 X0.2476 Z-0.0064 I0. K0.0236 F30.
N150 G0 Z0.6
N155 G17
(6MM FLATS CONTOUR)
N160 M8
N165 G0 X-1.0308 Y-0.1201
N170 Z0.6
N175 Z0.2
N180 G1 Z0.0394 F30.
N185 Z-0.1839 F1.
N190 G18 G2 X-1.0072 Z-0.2075 I0.0236 K0.
N195 G1 X-0.9836 F30.
N200 G17 G3 X-0.96 Y-0.0964 I0. J0.0236
N205 G1 Y0.0964
N210 G3 X-0.9836 Y0.1201 I-0.0236 J0.
N215 G1 X-1.0072
N220 G18 G3 X-1.0308 Z-0.1839 I0. K0.0236
N225 G0 Z0.2
N230 X-0.456
N235 G1 Z0.0394 F30.
N240 Z-0.1839 F1.
N245 G3 X-0.4797 Z-0.2075 I-0.0236 K0.
N250 G1 X-0.5033 F30.
N255 G17 G3 X-0.5269 Y0.0964 I0. J-0.0236
N260 G1 Y-0.0964
N265 G3 X-0.5033 Y-0.1201 I0.0236 J0.
N270 G1 X-0.4797
N275 G18 G2 X-0.456 Z-0.1839 I0. K0.0236
N280 G0 Z0.6
N285 G17
(6MM BORE NUBS)
N290 M8
N295 G0 X0.872 Y0.0236
N300 Z0.6
N305 Z0.05
N310 G1 Z-0.0064 F20.
N315 G18 G3 X0.8484 Z-0.03 I-0.0236 K0.
N320 G1 X0.8366
N325 G17 G3 X0.8129 Y0. I0. J-0.0236
N330 G2 X0.1295 Z-0.0497 I-0.3417 J0. F30.
N335 X0.8129 Z-0.0694 I0.3417 J0.
N340 X0.1295 Z-0.0891 I-0.3417 J0.
N345 X0.8129 Z-0.1087 I0.3417 J0.
N350 X0.1295 Z-0.1284 I-0.3417 J0.
N355 X0.8129 Z-0.1481 I0.3417 J0.
N360 X0.1295 Z-0.1678 I-0.3417 J0.
N365 X0.8129 Z-0.1875 I0.3417 J0.
N370 X0.1295 Z-0.2072 I-0.3417 J0.
N375 X0.498 Y0.3407 Z-0.2175 I0.3417 J0.
N380 X0.4444 Y-0.3407 I-0.0268 J-0.3407
N385 X0.498 Y0.3407 I0.0268 J0.3407
N390 G3 X0.5234 Y0.3624 I0.0019 J0.0235 F20.
N395 G1 X0.5243 Y0.3741
N400 X0.5246 Y0.3778 Z-0.2172
N405 X0.5249 Y0.3814 Z-0.2163
N410 X0.5252 Y0.3848 Z-0.2149
N415 X0.5254 Y0.388 Z-0.213
N420 X0.5257 Y0.3908 Z-0.2106
N425 X0.5258 Y0.3932 Z-0.2078
N430 X0.526 Y0.3951 Z-0.2046
N435 X0.5261 Y0.3965 Z-0.2012
N440 X0.5262 Y0.3974 Z-0.1976
N445 Y0.3977 Z-0.1939
N450 G0 Z0.2
N455 X0.8484 Y0.0236
N460 Z-0.1375
N465 G1 Z-0.1939 F20.
N470 G18 G3 X0.8247 Z-0.2175 I-0.0236 K0.
N475 G1 X0.8129
N480 G17 G3 X0.7893 Y0. I0. J-0.0236
N485 G2 X0.1531 I-0.3181 J0. F30.
N490 X0.7893 I0.3181 J0.
N495 G3 X0.8129 Y-0.0236 I0.0236 J0. F20.
N500 G1 X0.8247
N505 G18 G2 X0.8484 Z-0.1939 I0. K0.0236
N510 G0 Z0.2
N515 X-0.4049 Y0.0236
N520 Z0.0497
N525 G1 Z-0.0067 F20.
N530 G3 X-0.4285 Z-0.0303 I-0.0236 K0.
N535 G1 X-0.4403
N540 G17 G3 X-0.4639 Y0. I0. J-0.0236
N545 G2 X-1.023 Z-0.05 I-0.2795 J0. F30.
N550 X-0.4639 Z-0.0697 I0.2795 J0.
N555 X-1.023 Z-0.0894 I-0.2795 J0.
N560 X-0.4639 Z-0.1091 I0.2795 J0.
N565 X-1.023 Z-0.1288 I-0.2795 J0.
N570 X-0.4639 Z-0.1484 I0.2795 J0.
N575 X-1.023 Z-0.1681 I-0.2795 J0.
N580 X-0.4639 Z-0.1878 I0.2795 J0.
N585 X-1.023 Z-0.2075 I-0.2795 J0.
N590 X-0.4639 Z-0.2272 I0.2795 J0.
N595 X-1.023 Z-0.2469 I-0.2795 J0.
N600 X-0.4639 Z-0.2666 I0.2795 J0.
N605 X-1.023 Z-0.2862 I-0.2795 J0.
N610 X-0.4639 Z-0.3059 I0.2795 J0.
N615 X-1.023 Z-0.3256 I-0.2795 J0.
N620 X-0.8703 Y0.2491 Z-0.3325 I0.2795 J0.
N625 X-0.6165 Y-0.2491 I0.1269 J-0.2491
N630 X-0.8703 Y0.2491 I-0.1269 J0.2491
N635 G3 X-0.86 Y0.2808 I-0.0107 J0.021 F20.
N640 G1 X-0.8654 Y0.2914
N645 X-0.8671 Y0.2946 Z-0.3322
N650 X-0.8687 Y0.2979 Z-0.3313
N655 X-0.8703 Y0.3009 Z-0.3299
N660 X-0.8717 Y0.3037 Z-0.328
N665 X-0.873 Y0.3062 Z-0.3256
N670 X-0.8741 Y0.3084 Z-0.3228
N675 X-0.8749 Y0.3101 Z-0.3196
N680 X-0.8756 Y0.3114 Z-0.3162
N685 X-0.876 Y0.3121 Z-0.3126
N690 X-0.8761 Y0.3124 Z-0.3089
N695 G0 Z0.2
N700 X-0.4285 Y0.0236
N705 Z-0.2525
N710 G1 Z-0.3089 F20.
N715 G18 G3 X-0.4521 Z-0.3325 I-0.0236 K0.
N720 G1 X-0.4639
N725 G17 G3 X-0.4875 Y0. I0. J-0.0236
N730 G2 X-0.9993 I-0.2559 J0. F30.
N735 X-0.4875 I0.2559 J0.
N740 G3 X-0.4639 Y-0.0236 I0.0236 J0. F20.
N745 G1 X-0.4521
N750 G18 G2 X-0.4285 Z-0.3089 I0. K0.0236
N755 G0 Z0.6
N760 G17
(BORE4)
N765 M8
N770 G0 X-0.3177 Y0.0236
N775 Z0.6
N780 Z0.08
N785 G1 Z0.0236 F20.
N790 G18 G3 X-0.3413 Z0. I-0.0236 K0.
N795 G1 X-0.3531
N800 G17 G3 X-0.3767 Y0. I0. J-0.0236
N805 G2 X-1.1102 Z-0.0197 I-0.3667 J0. F30.
N810 X-0.3767 Z-0.0394 I0.3667 J0.
N815 X-1.1102 Z-0.0591 I-0.3667 J0.
N820 X-0.3767 Z-0.0787 I0.3667 J0.
N825 X-1.1102 Z-0.0984 I-0.3667 J0.
N830 X-0.3767 Z-0.1181 I0.3667 J0.
N835 X-1.1102 Z-0.1378 I-0.3667 J0.
N840 X-0.3767 Z-0.1575 I0.3667 J0.
N845 X-1.1102 Z-0.1772 I-0.3667 J0.
N850 X-0.3767 Z-0.1969 I0.3667 J0.
N855 X-1.1102 Z-0.2165 I-0.3667 J0.
N860 X-0.3767 Z-0.2362 I0.3667 J0.
N865 X-1.1102 Z-0.2559 I-0.3667 J0.
N870 X-0.3767 Z-0.2756 I0.3667 J0.
N875 X-1.1102 Z-0.2953 I-0.3667 J0.
N880 X-0.3767 Z-0.315 I0.3667 J0.
N885 X-1.1102 Z-0.3346 I-0.3667 J0.
N890 X-0.3767 Z-0.3543 I0.3667 J0.
N895 X-1.1102 Z-0.374 I-0.3667 J0.
N900 X-0.3767 Z-0.3937 I0.3667 J0.
N905 X-1.1102 Z-0.4134 I-0.3667 J0.
N910 X-0.3767 Z-0.4331 I0.3667 J0.
N915 X-1.1102 Z-0.4528 I-0.3667 J0.
N920 X-1.01 Y0.2519 Z-0.4575 I0.3667 J0.
N925 X-0.4769 Y-0.2519 I0.2665 J-0.2519
N930 X-1.01 Y0.2519 I-0.2665 J0.2519
N935 G3 X-1.0109 Y0.2853 I-0.0172 J0.0162 F20.
N940 G1 X-1.0195 Y0.2934
N945 X-1.0222 Y0.2959 Z-0.4572
N950 X-1.0248 Y0.2984 Z-0.4563
N955 X-1.0273 Y0.3008 Z-0.4549
N960 X-1.0296 Y0.3029 Z-0.453
N965 X-1.0317 Y0.3049 Z-0.4506
N970 X-1.0334 Y0.3065 Z-0.4478
N975 X-1.0348 Y0.3078 Z-0.4446
N980 X-1.0358 Y0.3088 Z-0.4412
N985 X-1.0365 Y0.3094 Z-0.4376
N990 X-1.0367 Y0.3096 Z-0.4339
N995 G0 Z0.2
N1000 X-0.3413 Y0.0236
N1005 Z-0.3775
N1010 G1 Z-0.4339 F20.
N1015 G18 G3 X-0.3649 Z-0.4575 I-0.0236 K0.
N1020 G1 X-0.3767
N1025 G17 G3 X-0.4003 Y0. I0. J-0.0236
N1030 G2 X-1.0866 I-0.3431 J0. F30.
N1035 X-0.4003 I0.3431 J0.
N1040 G3 X-0.3767 Y-0.0236 I0.0236 J0. F20.
N1045 G1 X-0.3649
N1050 G18 G2 X-0.3413 Z-0.4339 I0. K0.0236
N1055 G0 Z0.6
N1060 G17
N1065 M9
N1070 G53 G0 Z0.
N1075 M30
%
