%
(1001)
(38 END MILL)
(T1  D=0.375 CR=0. - ZMIN=-0.655 - FLAT END MILL)
N10 G90 G94 G17 G91.1
N15 G20
N20 G53 G0 Z0.
(38 POCKET CLEARING)
N25 M9
N30 T1 M6
N35 S1800 M3
N40 G54
N45 M8
N55 G0 X0.0038 Y0.722
N60 G43 Z0.6 H1
N65 G0 Z0.1644
N70 G1 Z-0.0875 F20.
N75 X0.0039 Y0.7218 Z-0.092
N80 X0.004 Y0.721 Z-0.0965
N85 X0.0044 Y0.7197 Z-0.1008
N90 X0.0048 Y0.7179 Z-0.1049
N95 X0.0053 Y0.7156 Z-0.1088
N100 X0.006 Y0.7129 Z-0.1124
N105 X0.0067 Y0.7097 Z-0.1156
N110 X0.0076 Y0.7063 Z-0.1184
N115 X0.0085 Y0.7025 Z-0.1207
N120 X0.0095 Y0.6985 Z-0.1226
N125 X0.0105 Y0.6943 Z-0.1239
N130 X0.0115 Y0.69 Z-0.1247
N135 X0.0126 Y0.6856 Z-0.125
N140 G3 X0.1564 Y0.5722 I0.1438 J0.0346
N145 G1 X1.1272 Y0.5725 F30.
N150 G2 X1.1329 Y0.5722 I-0.0006 J-0.055
N155 X1.1385 Y0.5713 I-0.0097 J-0.0844
N160 X1.1995 Y0.5084 I-0.0136 J-0.0742
N165 X1.2134 Y0.1494 I-1.6106 J-0.2423
N170 G3 X1.2005 Y-0.2095 I5.0228 J-0.3607
N175 X1.2087 Y-0.3626 I1.4248 J-0.0005
N180 G2 X1.1981 Y-0.5155 I-0.4338 J-0.0467
N185 X1.1314 Y-0.5723 I-0.0731 J0.0183
N190 G1 X-0.8159 Y-0.5725
N195 G2 X-0.8285 Y-0.5707 I0.004 J0.0748
N200 X-0.8869 Y-0.5037 I0.0167 J0.0735
N205 G1 X-0.8872 Y0.4995
N210 G2 X-0.887 Y0.5036 I0.0499 J-0.0006
N215 X-0.8865 Y0.5076 I0.0891 J-0.0083
N220 X-0.8214 Y0.572 I0.0747 J-0.0104
N225 G1 X0.1564 Y0.5722
N230 G2 X0.3514 Y0.4422 I0.0001 J-0.2112
N235 G3 X0.5465 Y0.3122 I0.1951 J0.0813
N240 G1 X0.8263
N245 G2 X0.94 Y0.1984 I0. J-0.1138
N250 G1 Y-0.1984
N255 G2 X0.8262 Y-0.3123 I-0.1139 J0.
N260 G1 X-0.5132 Y-0.3122
N265 G2 X-0.6269 Y-0.1984 I0. J0.1138
N270 G1 Y0.1984
N275 G2 X-0.5131 Y0.3123 I0.1139 J0.
N280 G1 X0.5465 Y0.3122
N285 G2 X0.6287 Y0.1758 I0. J-0.093
N290 G3 X0.6279 Y0.0164 I0.1523 J-0.0804
N295 G2 X0.596 Y-0.0359 I-0.0319 J-0.0165
N300 G1 X-0.2829
N305 G2 Y0.0359 I0. J0.0359
N310 G1 X0.596
N315 G2 X0.6279 Y0.0164 I0. J-0.0359
N320 G3 X0.6629 Y0.029 I0.0167 J0.0086
N325 G1 X0.5049 Y0.7628
N330 G3 X0.4824 Y0.7771 I-0.0183 J-0.0039
N335 X0.4683 Y0.7545 I0.0042 J-0.0183
N340 G1 X0.4694 Y0.7498 Z-0.1253 F20.
N345 X0.4705 Y0.7453 Z-0.1262
N350 X0.4716 Y0.7409 Z-0.1277
N355 X0.4726 Y0.7367 Z-0.1297
N360 X0.4735 Y0.7328 Z-0.1323
N365 X0.4744 Y0.7293 Z-0.1354
N370 X0.4751 Y0.7261 Z-0.1389
N375 X0.4758 Y0.7235 Z-0.1428
N380 X0.4763 Y0.7213 Z-0.147
N385 X0.4767 Y0.7196 Z-0.1514
N390 X0.4771 Y0.718 Z-0.1559
N395 X0.4776 Y0.7158 Z-0.1601
N400 X0.4783 Y0.7131 Z-0.164
N405 X0.479 Y0.71 Z-0.1675
N410 X0.4799 Y0.7064 Z-0.1705
N415 X0.4808 Y0.7025 Z-0.1731
N420 X0.4818 Y0.6984 Z-0.1751
N425 X0.4829 Y0.694 Z-0.1766
N430 X0.484 Y0.6894 Z-0.1775
N435 X0.4851 Y0.6848 Z-0.1778
N440 G3 X0.6278 Y0.5724 I0.1426 J0.0343
N445 G1 X1.1272 Y0.5725 F30.
N450 G2 X1.1329 Y0.5722 I-0.0006 J-0.055
N455 X1.1385 Y0.5713 I-0.0097 J-0.0844
N460 X1.1995 Y0.5084 I-0.0136 J-0.0742
N465 X1.2134 Y0.1494 I-1.6106 J-0.2423
N470 G3 X1.2005 Y-0.2095 I5.0228 J-0.3607
N475 X1.2087 Y-0.3626 I1.4248 J-0.0005
N480 G2 X1.1981 Y-0.5155 I-0.4338 J-0.0467
N485 X1.1314 Y-0.5723 I-0.0731 J0.0183
N490 G1 X-0.8159 Y-0.5725
N495 G2 X-0.8285 Y-0.5707 I0.004 J0.0748
N500 X-0.8869 Y-0.5037 I0.0167 J0.0735
N505 G1 X-0.8872 Y0.4995
N510 G2 X-0.887 Y0.5036 I0.0499 J-0.0006
N515 X-0.8865 Y0.5076 I0.0891 J-0.0083
N520 X-0.8214 Y0.572 I0.0747 J-0.0104
N525 G1 X0.6278 Y0.5724
N530 G2 X0.8641 Y0.4435 I0.0001 J-0.281
N535 X0.94 Y0.1853 I-0.4011 J-0.2582
N540 G1 Y-0.1984
N545 G2 X0.8262 Y-0.3123 I-0.1139 J0.
N550 G1 X-0.5132 Y-0.3122
N555 G2 X-0.6269 Y-0.1984 I0. J0.1138
N560 G1 Y0.1984
N565 G2 X-0.5131 Y0.3123 I0.1139 J0.
N570 G1 X0.8263 Y0.3122
N575 G2 X0.94 Y0.1984 I0. J-0.1138
N580 G1 Y0.1853
N585 G2 X0.7188 Y-0.0359 I-0.2212 J0.
N590 G1 X0.404
N595 X-0.2829
N600 G2 Y0.0359 I0. J0.0359
N605 G1 X0.596
N610 G2 Y-0.0359 I0. J-0.0359
N615 G1 X0.404
N620 G2 X0.3895 Y-0.0052 I0. J0.0187
N625 G1 X1.0209 Y0.7614
N630 G2 X1.0529 Y0.7562 I0.0145 J-0.0119
N635 G1 X1.0545 Y0.7519 Z-0.1781 F20.
N640 X1.0561 Y0.7478 Z-0.1789
N645 X1.0576 Y0.7437 Z-0.1803
N650 X1.0591 Y0.7399 Z-0.1821
N655 X1.0604 Y0.7362 Z-0.1845
N660 X1.0617 Y0.7329 Z-0.1873
N665 X1.0628 Y0.7299 Z-0.1905
N670 X1.0638 Y0.7273 Z-0.194
N675 X1.0647 Y0.7251 Z-0.1979
N680 X1.0653 Y0.7234 Z-0.202
N685 X1.0658 Y0.7221 Z-0.2064
N690 X1.0661 Y0.7213 Z-0.2108
N695 X1.0662 Y0.7211 Z-0.2153
N700 Z-0.255
N705 X1.0663 Y0.7208 Z-0.2595
N710 X1.0666 Y0.7201 Z-0.264
N715 X1.067 Y0.7188 Z-0.2683
N720 X1.0677 Y0.7171 Z-0.2724
N725 X1.0685 Y0.7149 Z-0.2763
N730 X1.0695 Y0.7123 Z-0.2799
N735 X1.0706 Y0.7093 Z-0.2831
N740 X1.0719 Y0.7059 Z-0.2859
N745 X1.0733 Y0.7023 Z-0.2882
N750 X1.0747 Y0.6984 Z-0.2901
N755 X1.0763 Y0.6944 Z-0.2914
N760 X1.0779 Y0.6902 Z-0.2922
N765 X1.0795 Y0.686 Z-0.2925
N770 X1.08 Y0.6846
N775 G2 X1.1556 Y0.4214 I-1.5561 J-0.5892 F30.
N780 X1.0802 Y-0.6517 I-1.997 J-0.3989
N785 X1.0683 Y-0.6846 I-1.6218 J0.569
N790 G3 X1.0964 Y-0.7399 I0.0394 J-0.0147
N795 X1.1491 Y-0.7072 I0.0113 J0.0406
N800 G1 X1.2794 Y-0.0189
N805 G3 X1.2791 Y-0.0017 I-0.0414 J0.0078
N810 G1 X1.1193 Y0.6996
N815 G3 X1.0815 Y0.7322 I-0.0411 J-0.0094
N820 G1 X0.943 Y0.7428
N825 G3 X0.901 Y0.6846 I-0.0032 J-0.042
N830 G2 X0.9894 Y0.3952 I-1.4061 J-0.588
N835 X0.9327 Y-0.5608 I-1.8515 J-0.3699
N840 X0.8864 Y-0.6847 I-1.4861 J0.4853
N845 X0.869 Y-0.6962 I-0.0173 J0.0073
N850 G1 X-0.6547 Y-0.6849
N855 G2 X-0.657 Y-0.6847 I0.0001 J0.0187
N860 X-0.8768 Y-0.6198 I0.0902 J0.7096
N865 G1 X-0.8781 Y-0.6191 F20.
N870 X-0.8822 Y-0.6172 Z-0.2922
N875 X-0.8862 Y-0.6152 Z-0.2914
N880 X-0.8901 Y-0.6134 Z-0.2901
N885 X-0.8938 Y-0.6116 Z-0.2882
N890 X-0.8973 Y-0.6099 Z-0.2859
N895 X-0.9005 Y-0.6083 Z-0.2831
N900 X-0.9034 Y-0.6069 Z-0.2799
N905 X-0.9059 Y-0.6057 Z-0.2763
N910 X-0.908 Y-0.6047 Z-0.2724
N915 X-0.9097 Y-0.6039 Z-0.2683
N920 X-0.9109 Y-0.6033 Z-0.264
N925 X-0.9117 Y-0.603 Z-0.2595
N930 X-0.9119 Y-0.6029 Z-0.255
N935 G0 Z0.2
N940 X0.4481 Y0.8483
N945 Z-0.255
N950 G1 X0.4482 Y0.848 Z-0.2595 F20.
N955 X0.4487 Y0.8473 Z-0.264
N960 X0.4493 Y0.8462 Z-0.2683
N965 X0.4503 Y0.8446 Z-0.2724
N970 X0.4514 Y0.8425 Z-0.2763
N975 X0.4528 Y0.8401 Z-0.2799
N980 X0.4544 Y0.8373 Z-0.2831
N985 X0.4562 Y0.8342 Z-0.2859
N990 X0.4581 Y0.8309 Z-0.2882
N995 X0.4602 Y0.8273 Z-0.2901
N1000 X0.4623 Y0.8236 Z-0.2914
N1005 X0.4646 Y0.8197 Z-0.2922
N1010 X0.4668 Y0.8158 Z-0.2925
N1015 X0.5424 Y0.6846
N1020 G2 X0.675 Y0.3324 I-1.006 J-0.5797 F30.
N1025 X0.6338 Y-0.4447 I-1.5417 J-0.308
N1030 X0.5301 Y-0.6846 I-1.1891 J0.3717
N1035 G1 X0.5294 Y-0.6859 F20.
N1040 X0.5272 Y-0.6898 Z-0.2922
N1045 X0.525 Y-0.6937 Z-0.2914
N1050 X0.5229 Y-0.6975 Z-0.2901
N1055 X0.5209 Y-0.7011 Z-0.2882
N1060 X0.519 Y-0.7045 Z-0.2859
N1065 X0.5172 Y-0.7076 Z-0.2831
N1070 X0.5156 Y-0.7104 Z-0.2799
N1075 X0.5143 Y-0.7128 Z-0.2763
N1080 X0.5131 Y-0.7148 Z-0.2724
N1085 X0.5122 Y-0.7164 Z-0.2683
N1090 X0.5115 Y-0.7176 Z-0.264
N1095 X0.5111 Y-0.7183 Z-0.2595
N1100 X0.511 Y-0.7186 Z-0.255
N1105 G0 Z0.2
N1110 X-0.0053 Y0.8483
N1115 Z-0.255
N1120 G1 X-0.0051 Y0.8481 Z-0.2595 F20.
N1125 X-0.0045 Y0.8475 Z-0.264
N1130 X-0.0036 Y0.8465 Z-0.2683
N1135 X-0.0023 Y0.8451 Z-0.2724
N1140 X-0.0007 Y0.8434 Z-0.2763
N1145 X0.0012 Y0.8414 Z-0.2799
N1150 X0.0034 Y0.839 Z-0.2831
N1155 X0.0058 Y0.8364 Z-0.2859
N1160 X0.0084 Y0.8336 Z-0.2882
N1165 X0.0113 Y0.8306 Z-0.2901
N1170 X0.0142 Y0.8274 Z-0.2914
N1175 X0.0172 Y0.8242 Z-0.2922
N1180 X0.0203 Y0.8209 Z-0.2925
N1185 X0.1476 Y0.6846
N1190 G2 X0.1543 Y0.6774 I-0.7523 J-0.7029 F30.
N1195 X0.3206 Y0.4083 I-0.6231 J-0.571
N1200 X0.3781 Y0.0972 I-0.8133 J-0.3111
N1205 X0.3563 Y-0.2483 I-2.7477 J0.
N1210 X0.2353 Y-0.5728 I-0.7508 J0.0952
N1215 X0.1481 Y-0.6847 I-0.7952 J0.5297
N1220 G1 X0.1471 Y-0.6858 F20.
N1225 X0.144 Y-0.6892 Z-0.2922
N1230 X0.141 Y-0.6925 Z-0.2914
N1235 X0.1381 Y-0.6957 Z-0.2901
N1240 X0.1354 Y-0.6987 Z-0.2882
N1245 X0.1328 Y-0.7016 Z-0.2859
N1250 X0.1304 Y-0.7043 Z-0.2831
N1255 X0.1282 Y-0.7066 Z-0.2799
N1260 X0.1263 Y-0.7087 Z-0.2763
N1265 X0.1248 Y-0.7104 Z-0.2724
N1270 X0.1235 Y-0.7118 Z-0.2683
N1275 X0.1226 Y-0.7128 Z-0.264
N1280 X0.1221 Y-0.7134 Z-0.2595
N1285 X0.1219 Y-0.7136 Z-0.255
N1290 G0 Z0.2
N1295 X-1.1635 Y0.5022
N1300 Z-0.255
N1305 G1 X-1.1633 Y0.5024 Z-0.2595 F20.
N1310 X-1.1625 Y0.5027 Z-0.264
N1315 X-1.1613 Y0.5032 Z-0.2683
N1320 X-1.1596 Y0.5039 Z-0.2724
N1325 X-1.1574 Y0.5049 Z-0.2763
N1330 X-1.1548 Y0.506 Z-0.2799
N1335 X-1.1519 Y0.5072 Z-0.2831
N1340 X-1.1486 Y0.5086 Z-0.2859
N1345 X-1.1451 Y0.5101 Z-0.2882
N1350 X-1.1413 Y0.5118 Z-0.2901
N1355 X-1.1373 Y0.5134 Z-0.2914
N1360 X-1.1332 Y0.5152 Z-0.2922
N1365 X-1.129 Y0.517 Z-0.2925
N1370 X-0.8683 Y0.6283
N1375 G2 X-0.4016 Y0.657 I0.2737 J-0.641 F30.
N1380 X-0.0871 Y0.4651 I-0.193 J-0.6697
N1385 X0.0566 Y0.1258 I-0.3865 J-0.3639
N1390 X0.0583 Y0.0143 I-1.798 J-0.0835
N1395 G3 X0.0575 Y-0.0972 I7.1658 J-0.1115
N1400 G2 X-0.3634 Y-0.661 I-0.588 J0.
N1405 X-0.4765 Y-0.6847 I-0.2033 J0.6859
N1410 X-0.9341 Y-0.3689 I-0.0525 J0.4133
N1415 X-0.8735 Y0.1838 I0.7984 J0.1921
N1420 G1 X-0.8698 Y0.1914
N1425 G2 X-0.8656 Y0.1991 I0.0932 J-0.0456
N1430 G1 X-0.8609 Y0.2068
N1435 G2 X-0.8558 Y0.2146 I0.089 J-0.0533
N1440 G1 X-0.8502 Y0.2224
N1445 G2 X-0.8439 Y0.2301 I0.0839 J-0.0611
N1450 G1 X-0.837 Y0.2379
N1455 G2 X-0.8294 Y0.2457 I0.0776 J-0.0688
N1460 G1 X-0.8209 Y0.2534
N1465 G2 X-0.8134 Y0.2596 I0.07 J-0.0766
N1470 G1 X-0.7742 Y0.2892
N1475 G2 X-0.7662 Y0.2947 I0.0625 J-0.0828
N1480 G1 X-0.7594 Y0.2989
N1485 G2 X-0.7546 Y0.3016 I0.0545 J-0.0883
N1490 G1 X-0.7452 Y0.3068
N1495 G2 X-0.7362 Y0.3112 I0.0497 J-0.0911
N1500 G1 X-0.7268 Y0.3152
N1505 G2 X-0.72 Y0.3178 I0.0407 J-0.0954
N1510 G1 X-0.6876 Y0.329
N1515 G2 X-0.6845 Y0.33 I0.0339 J-0.0981
N1520 G1 X-0.6683 Y0.335
N1525 G2 X-0.6595 Y0.3374 I0.0308 J-0.0991
N1530 G1 X-0.6514 Y0.3391
N1535 G2 X-0.646 Y0.3401 I0.022 J-0.1014
N1540 G1 X-0.6379 Y0.3415
N1545 G2 X-0.6275 Y0.3426 I0.0166 J-0.1024
N1550 G1 X-0.6113 Y0.3436
N1555 G2 X-0.6054 Y0.3438 I0.0063 J-0.1036
N1560 G1 X-0.5649 Y0.3439
N1565 G2 X-0.5568 Y0.3436 I0.0003 J-0.1037
N1570 G1 X-0.5486 Y0.343
N1575 G2 X-0.5429 Y0.3424 I-0.0078 J-0.1035
N1580 G1 X-0.5348 Y0.3413
N1585 G2 X-0.5276 Y0.3401 I-0.0136 J-0.1029
N1590 G1 X-0.5195 Y0.3384
N1595 G2 X-0.5115 Y0.3365 I-0.0208 J-0.1017
N1600 G1 X-0.4953 Y0.3318
N1605 G2 X-0.4916 Y0.3307 I-0.0287 J-0.0997
N1610 G1 X-0.4592 Y0.32
N1615 G2 X-0.4515 Y0.3171 I-0.0325 J-0.0985
N1620 G1 X-0.4402 Y0.3124
N1625 G2 X-0.4312 Y0.3081 I-0.0401 J-0.0957
N1630 G1 X-0.4198 Y0.302
N1635 G2 X-0.4106 Y0.2964 I-0.0491 J-0.0914
N1640 G1 X-0.4009 Y0.2898
N1645 G2 X-0.3976 Y0.2875 I-0.0583 J-0.0858
N1650 G1 X-0.3627 Y0.2617
N1655 G2 X-0.3545 Y0.255 I-0.0616 J-0.0835
N1660 G1 X-0.3464 Y0.2476
N1665 G2 X-0.3397 Y0.2409 I-0.0698 J-0.0768
N1670 G1 X-0.3316 Y0.2321
N1675 G2 X-0.3245 Y0.2236 I-0.0765 J-0.0701
N1680 G1 X-0.3186 Y0.2155
N1685 G2 X-0.3132 Y0.2074 I-0.0835 J-0.0616
N1690 G1 X-0.3083 Y0.1993
N1695 G2 X-0.3045 Y0.1924 I-0.0889 J-0.0535
N1700 G1 X-0.3017 Y0.1868
N1705 G2 X-0.2989 Y0.1807 I-0.0927 J-0.0466
N1710 G1 X-0.296 Y0.174
N1715 G2 X-0.2935 Y0.1673 I-0.0955 J-0.0405
N1720 G1 X-0.2912 Y0.1606
N1725 G2 X-0.2891 Y0.1539 I-0.0981 J-0.0338
N1730 G1 X-0.2873 Y0.1471
N1735 G2 X-0.2857 Y0.1404 I-0.1002 J-0.027
N1740 G1 X-0.2844 Y0.1337
N1745 G2 X-0.2832 Y0.1263 I-0.1017 J-0.0203
N1750 G1 X-0.2821 Y0.1182
N1755 G2 X-0.2815 Y0.1101 I-0.1029 J-0.0129
N1760 G1 X-0.2811 Y0.102
N1765 G2 X-0.281 Y0.0972 I-0.1036 J-0.0048
N1770 G1 Y-0.0972
N1775 G2 X-0.2811 Y-0.102 I-0.1038 J0.
N1780 G1 X-0.2815 Y-0.1101
N1785 G2 X-0.2821 Y-0.1182 I-0.1036 J0.0048
N1790 G1 X-0.2832 Y-0.1263
N1795 G2 X-0.2844 Y-0.1337 I-0.1029 J0.0129
N1800 G1 X-0.2857 Y-0.1404
N1805 G2 X-0.2873 Y-0.1471 I-0.1017 J0.0203
N1810 G1 X-0.2891 Y-0.1539
N1815 G2 X-0.2912 Y-0.1606 I-0.1002 J0.027
N1820 G1 X-0.2935 Y-0.1673
N1825 G2 X-0.296 Y-0.174 I-0.0981 J0.0338
N1830 G1 X-0.2989 Y-0.1807
N1835 G2 X-0.3028 Y-0.1889 I-0.0955 J0.0405
N1840 G1 X-0.3079 Y-0.1985
N1845 G2 X-0.3132 Y-0.2074 I-0.0916 J0.0487
N1850 G1 X-0.3186 Y-0.2155
N1855 G2 X-0.3247 Y-0.2238 I-0.0863 J0.0575
N1860 G1 X-0.3317 Y-0.2322
N1865 G2 X-0.3374 Y-0.2386 I-0.0802 J0.0658
N1870 G1 X-0.3417 Y-0.2431
N1875 G2 X-0.3476 Y-0.2487 I-0.0745 J0.0722
N1880 G1 X-0.3582 Y-0.2581
N1885 G2 X-0.3655 Y-0.2639 I-0.0686 J0.0779
N1890 G1 X-0.3979 Y-0.2877
N1895 G2 X-0.4009 Y-0.2898 I-0.0613 J0.0837
N1900 G1 X-0.4106 Y-0.2964
N1905 G2 X-0.4198 Y-0.302 I-0.0583 J0.0858
N1910 G1 X-0.4312 Y-0.3081
N1915 G2 X-0.4402 Y-0.3124 I-0.0491 J0.0914
N1920 G1 X-0.4515 Y-0.3171
N1925 G2 X-0.4592 Y-0.32 I-0.0401 J0.0957
N1930 G1 X-0.4916 Y-0.3307
N1935 G2 X-0.4953 Y-0.3318 I-0.0325 J0.0985
N1940 G1 X-0.5115 Y-0.3365
N1945 G2 X-0.5195 Y-0.3384 I-0.0287 J0.0997
N1950 G1 X-0.5276 Y-0.3401
N1955 G2 X-0.5348 Y-0.3413 I-0.0208 J0.1017
N1960 G1 X-0.5429 Y-0.3424
N1965 G2 X-0.5486 Y-0.343 I-0.0136 J0.1029
N1970 G1 X-0.5568 Y-0.3436
N1975 G2 X-0.5649 Y-0.3439 I-0.0078 J0.1035
N1980 G1 X-0.6054 Y-0.3438
N1985 G2 X-0.6113 Y-0.3436 I0.0003 J0.1037
N1990 G1 X-0.6275 Y-0.3426
N1995 G2 X-0.6379 Y-0.3415 I0.0063 J0.1036
N2000 G1 X-0.646 Y-0.3401
N2005 G2 X-0.6514 Y-0.3391 I0.0166 J0.1024
N2010 G1 X-0.6595 Y-0.3374
N2015 G2 X-0.6683 Y-0.335 I0.022 J0.1014
N2020 G1 X-0.6845 Y-0.33
N2025 G2 X-0.6876 Y-0.329 I0.0308 J0.0991
N2030 G1 X-0.72 Y-0.3178
N2035 G2 X-0.7268 Y-0.3152 I0.0339 J0.0981
N2040 G1 X-0.7362 Y-0.3112
N2045 G2 X-0.7452 Y-0.3068 I0.0407 J0.0954
N2050 G1 X-0.7546 Y-0.3016
N2055 G2 X-0.7594 Y-0.2989 I0.0497 J0.0911
N2060 G1 X-0.7662 Y-0.2947
N2065 G2 X-0.7742 Y-0.2892 I0.0545 J0.0883
N2070 G1 X-0.8134 Y-0.2596
N2075 G2 X-0.8209 Y-0.2534 I0.0625 J0.0828
N2080 G1 X-0.8294 Y-0.2457
N2085 G2 X-0.837 Y-0.2379 I0.07 J0.0766
N2090 G1 X-0.8439 Y-0.2301
N2095 G2 X-0.8502 Y-0.2224 I0.0776 J0.0688
N2100 G1 X-0.8558 Y-0.2146
N2105 G2 X-0.8609 Y-0.2068 I0.0839 J0.0611
N2110 G1 X-0.8656 Y-0.1991
N2115 G2 X-0.8698 Y-0.1914 I0.089 J0.0533
N2120 G1 X-0.8735 Y-0.1837
N2125 G2 X-0.8769 Y-0.176 I0.0932 J0.0456
N2130 G1 X-0.8799 Y-0.1683
N2135 G2 X-0.8827 Y-0.1602 I0.0966 J0.0379
N2140 G1 X-0.8853 Y-0.1517
N2145 G2 X-0.8874 Y-0.1432 I0.0994 J0.0298
N2150 G1 X-0.8892 Y-0.1346
N2155 G2 X-0.8906 Y-0.1263 I0.1016 J0.0212
N2160 G1 X-0.8916 Y-0.1182
N2165 G2 X-0.8923 Y-0.1101 I0.1029 J0.0129
N2170 G1 X-0.8927 Y-0.102
N2175 G2 X-0.8928 Y-0.0972 I0.1036 J0.0048
N2180 G1 Y0.0972
N2185 G2 X-0.8927 Y0.102 I0.1038 J0.
N2190 G1 X-0.8923 Y0.1101
N2195 G2 X-0.8916 Y0.1182 I0.1036 J-0.0048
N2200 G1 X-0.8906 Y0.1263
N2205 G2 X-0.8892 Y0.1346 I0.1029 J-0.0129
N2210 G1 X-0.8874 Y0.1432
N2215 G2 X-0.8853 Y0.1517 I0.1016 J-0.0212
N2220 G1 X-0.8827 Y0.1602
N2225 G2 X-0.8799 Y0.1683 I0.0994 J-0.0298
N2230 G1 X-0.8769 Y0.176
N2235 G2 X-0.8735 Y0.1837 I0.0966 J-0.0379
N2240 G1 Y0.1838
N2245 G3 X-0.8741 Y0.1954 I-0.0108 J0.0053
N2250 G1 X-0.8798 Y0.2045
N2255 G2 X-0.8766 Y0.2206 I0.0102 J0.0063
N2260 G1 X-0.1735 Y0.7265
N2265 G3 X-0.1849 Y0.7424 I-0.0057 J0.0079
N2270 X-0.1827 Y0.7253 I0.0057 J-0.0079
N2275 G1 X-0.1657 Y0.719
N2280 X-0.1619 Y0.7166 Z-0.2928 F20.
N2285 X-0.1582 Y0.7141 Z-0.2936
N2290 X-0.1545 Y0.7118 Z-0.2949
N2295 X-0.1511 Y0.7095 Z-0.2968
N2300 X-0.1478 Y0.7074 Z-0.2992
N2305 X-0.1448 Y0.7055 Z-0.302
N2310 X-0.1421 Y0.7037 Z-0.3052
N2315 X-0.1398 Y0.7022 Z-0.3087
N2320 X-0.1375 Y0.7007 Z-0.3123
N2325 X-0.1348 Y0.6989 Z-0.3155
N2330 X-0.1318 Y0.697 Z-0.3183
N2335 X-0.1285 Y0.6949 Z-0.3207
N2340 X-0.1251 Y0.6926 Z-0.3226
N2345 X-0.1214 Y0.6903 Z-0.3239
N2350 X-0.1177 Y0.6878 Z-0.3247
N2355 X-0.1139 Y0.6854 Z-0.325
N2360 X-0.1127 Y0.6846
N2365 G3 X0.0491 Y0.6847 I0.0808 J0.1243 F30.
N2370 G1 X0.0504 Y0.6855 F20.
N2375 X0.0541 Y0.688 Z-0.3247
N2380 X0.0579 Y0.6904 Z-0.3239
N2385 X0.0615 Y0.6928 Z-0.3226
N2390 X0.065 Y0.695 Z-0.3207
N2395 X0.0682 Y0.6971 Z-0.3184
N2400 X0.0712 Y0.6991 Z-0.3156
N2405 X0.0739 Y0.7008 Z-0.3124
N2410 X0.0762 Y0.7024 Z-0.3088
N2415 X0.0782 Y0.7036 Z-0.3049
N2420 X0.0797 Y0.7047 Z-0.3008
N2425 X0.0809 Y0.7054 Z-0.2965
N2430 X0.0815 Y0.7058 Z-0.292
N2435 X0.0818 Y0.706 Z-0.2875
N2440 G0 Z0.2
N2445 X0.3 Y-0.8489
N2450 Z-0.2875
N2455 G1 X0.2998 Y-0.8488 Z-0.292 F20.
N2460 X0.2991 Y-0.8483 Z-0.2965
N2465 X0.2979 Y-0.8476 Z-0.3008
N2470 X0.2964 Y-0.8466 Z-0.3049
N2475 X0.2944 Y-0.8453 Z-0.3088
N2480 X0.2921 Y-0.8438 Z-0.3124
N2485 X0.2894 Y-0.842 Z-0.3156
N2490 X0.2864 Y-0.8401 Z-0.3184
N2495 X0.2832 Y-0.8379 Z-0.3207
N2500 X0.2797 Y-0.8357 Z-0.3226
N2505 X0.2761 Y-0.8333 Z-0.3239
N2510 X0.2724 Y-0.8309 Z-0.3247
N2515 X0.2686 Y-0.8284 Z-0.325
N2520 X0.0491 Y-0.6847
N2525 G3 X-0.1129 I-0.081 J-0.1238 F30.
N2530 X-0.0995 Y-0.7189 I0.0103 J-0.0157
N2535 G1 X0.4166 Y-0.6306
N2540 G3 X0.4202 Y-0.5947 I-0.0032 J0.0185
N2545 G2 X0.044 Y-0.2255 I0.2436 J0.6246
N2550 X0.1921 Y0.4691 I0.5807 J0.2393
N2555 X0.9325 Y0.5668 I0.4374 J-0.4603
N2560 X1.2592 Y-0.1048 I-0.3065 J-0.5643
N2565 X1.0429 Y-0.4944 I-0.6605 J0.1119
N2570 X0.6214 Y-0.6391 I-0.3847 J0.4344
N2575 X0.4202 Y-0.5947 I0.0425 J0.669
N2580 X0.2968 Y-0.3977 I0.0708 J0.1815
N2585 G3 X0.2586 Y-0.1684 I-0.4781 J0.0382
N2590 G1 X0.2559 Y-0.162
N2595 G2 X0.2556 Y-0.1614 I0.0952 J0.0413
N2600 G1 X0.2421 Y-0.1298
N2605 G2 X0.2386 Y-0.1202 I0.0954 J0.0407
N2610 G1 X0.236 Y-0.1121
N2615 G2 X0.2338 Y-0.104 I0.099 J0.0311
N2620 G1 X0.232 Y-0.0959
N2625 G2 X0.2304 Y-0.0869 I0.1012 J0.023
N2630 G1 X0.2215 Y-0.0221
N2635 G2 X0.2207 Y-0.0122 I0.1028 J0.014
N2640 G1 X0.2203 Y-0.0041
N2645 G2 Y0.0041 I0.1037 J0.0041
N2650 G1 X0.2207 Y0.0122
N2655 G2 X0.2215 Y0.0221 I0.1037 J-0.0041
N2660 G1 X0.2304 Y0.0869
N2665 G2 X0.232 Y0.0959 I0.1028 J-0.014
N2670 G1 X0.2338 Y0.104
N2675 G2 X0.236 Y0.1121 I0.1012 J-0.023
N2680 G1 X0.2386 Y0.1202
N2685 G2 X0.2423 Y0.1301 I0.099 J-0.0311
N2690 G1 X0.2666 Y0.1868
N2695 G2 X0.2689 Y0.1917 I0.0953 J-0.041
N2700 G1 X0.2729 Y0.1998
N2705 G2 X0.2774 Y0.2079 I0.093 J-0.046
N2710 G1 X0.2823 Y0.2159
N2715 G2 X0.2877 Y0.224 I0.0886 J-0.054
N2720 G1 X0.2937 Y0.2321
N2725 G2 X0.2964 Y0.2355 I0.0831 J-0.0621
N2730 G1 X0.3294 Y0.2761
N2735 G2 X0.3315 Y0.2786 I0.0805 J-0.0655
N2740 G1 X0.3375 Y0.2854
N2745 G2 X0.3444 Y0.2926 I0.0784 J-0.068
N2750 G1 X0.3525 Y0.3003
N2755 G2 X0.3606 Y0.3073 I0.0715 J-0.0752
N2760 G1 X0.3687 Y0.3135
N2765 G2 X0.3724 Y0.3163 I0.0634 J-0.0822
N2770 G1 X0.421 Y0.3504
N2775 G2 X0.4306 Y0.3564 I0.0596 J-0.0849
N2780 G1 X0.4409 Y0.362
N2785 G2 X0.4511 Y0.367 I0.05 J-0.0909
N2790 G1 X0.4614 Y0.3712
N2795 G2 X0.4664 Y0.3732 I0.0398 J-0.0958
N2800 G1 X0.5188 Y0.3918
N2805 G2 X0.5241 Y0.3935 I0.0347 J-0.0978
N2810 G1 X0.5322 Y0.3959
N2815 G2 X0.5403 Y0.3979 I0.0295 J-0.0995
N2820 G1 X0.5484 Y0.3996
N2825 G2 X0.5565 Y0.401 I0.0214 J-0.1015
N2830 G1 X0.5646 Y0.4021
N2835 G2 X0.5713 Y0.4027 I0.0132 J-0.1029
N2840 G1 X0.6361 Y0.4068
N2845 G2 X0.6481 Y0.4069 I0.0066 J-0.1035
N2850 G1 X0.6562 Y0.4065
N2855 G2 X0.6643 Y0.4057 I-0.0054 J-0.1036
N2860 G1 X0.6724 Y0.4047
N2865 G2 X0.6799 Y0.4034 I-0.0135 J-0.1029
N2870 G1 X0.7285 Y0.3934
N2875 G2 X0.7306 Y0.3929 I-0.021 J-0.1016
N2880 G1 X0.7468 Y0.3892
N2885 G2 X0.7568 Y0.3864 I-0.0231 J-0.1012
N2890 G1 X0.7649 Y0.3837
N2895 G2 X0.773 Y0.3806 I-0.0331 J-0.0983
N2900 G1 X0.7811 Y0.3771
N2905 G2 X0.7879 Y0.3738 I-0.0412 J-0.0952
N2910 G1 X0.8446 Y0.3442
N2915 G2 X0.8543 Y0.3385 I-0.048 J-0.092
N2920 G1 X0.8624 Y0.3331
N2925 G2 X0.8689 Y0.3284 I-0.0577 J-0.0862
N2930 G1 X0.8738 Y0.3245
N2935 G2 X0.8802 Y0.319 I-0.0641 J-0.0816
N2940 G1 X0.9151 Y0.2866
N2945 G2 X0.9163 Y0.2855 I-0.0706 J-0.0761
N2950 G1 X0.9306 Y0.2718
N2955 G2 X0.9378 Y0.2643 I-0.0718 J-0.0749
N2960 G1 X0.9436 Y0.2574
N2965 G2 X0.949 Y0.2506 I-0.0789 J-0.0673
N2970 G1 X0.9539 Y0.2437
N2975 G2 X0.9582 Y0.2371 I-0.0843 J-0.0605
N2980 G1 X0.9906 Y0.1838
N2985 G2 X0.9949 Y0.176 I-0.0887 J-0.0539
N2990 G1 X0.999 Y0.1678
N2995 G2 X1.0027 Y0.1595 I-0.0929 J-0.0461
N3000 G1 X1.0059 Y0.1513
N3005 G2 X1.0092 Y0.1413 I-0.0966 J-0.0379
N3010 G1 X1.0273 Y0.0765
N3015 G2 X1.0297 Y0.0659 I-0.0999 J-0.0279
N3020 G1 X1.0311 Y0.0578
N3025 G2 X1.0321 Y0.0497 I-0.1023 J-0.0173
N3030 G1 X1.0329 Y0.0416
N3035 G2 X1.0333 Y0.0324 I-0.1033 J-0.0092
N3040 G1 Y-0.0324
N3045 G2 X1.0329 Y-0.0416 I-0.1038 J0.
N3050 G1 X1.0321 Y-0.0497
N3055 G2 X1.0311 Y-0.0578 I-0.1033 J0.0092
N3060 G1 X1.0297 Y-0.0659
N3065 G2 X1.0273 Y-0.0765 I-0.1023 J0.0173
N3070 G1 X1.0092 Y-0.1413
N3075 G2 X1.0051 Y-0.1534 I-0.0999 J0.0279
N3080 G1 X0.9999 Y-0.1658
N3085 G2 X0.996 Y-0.1739 I-0.0957 J0.04
N3090 G1 X0.9939 Y-0.1781
N3095 G2 X0.9906 Y-0.1838 I-0.0919 J0.0482
N3100 G1 X0.9582 Y-0.2371
N3105 G2 X0.9539 Y-0.2437 I-0.0887 J0.0539
N3110 G1 X0.949 Y-0.2506
N3115 G2 X0.9436 Y-0.2574 I-0.0843 J0.0605
N3120 G1 X0.9378 Y-0.2643
N3125 G2 X0.9303 Y-0.2721 I-0.0789 J0.0673
N3130 G1 X0.9086 Y-0.2927
N3135 G2 X0.9077 Y-0.2936 I-0.0715 J0.0752
N3140 G1 X0.8801 Y-0.3191
N3145 G2 X0.8718 Y-0.326 I-0.0705 J0.0761
N3150 G1 X0.8629 Y-0.3327
N3155 G2 X0.8563 Y-0.3373 I-0.0622 J0.0831
N3160 G1 X0.8523 Y-0.3398
N3165 G2 X0.8446 Y-0.3442 I-0.0556 J0.0876
N3170 G1 X0.7879 Y-0.3738
N3175 G2 X0.7811 Y-0.3771 I-0.048 J0.092
N3180 G1 X0.773 Y-0.3806
N3185 G2 X0.7649 Y-0.3837 I-0.0412 J0.0952
N3190 G1 X0.7568 Y-0.3864
N3195 G2 X0.7468 Y-0.3892 I-0.0331 J0.0983
N3200 G1 X0.7306 Y-0.3929
N3205 G2 X0.7285 Y-0.3934 I-0.0231 J0.1012
N3210 G1 X0.6799 Y-0.4034
N3215 G2 X0.6724 Y-0.4047 I-0.021 J0.1016
N3220 G1 X0.6643 Y-0.4057
N3225 G2 X0.6562 Y-0.4065 I-0.0135 J0.1029
N3230 G1 X0.6481 Y-0.4069
N3235 G2 X0.6361 Y-0.4068 I-0.0054 J0.1036
N3240 G1 X0.5713 Y-0.4027
N3245 G2 X0.5646 Y-0.4021 I0.0066 J0.1035
N3250 G1 X0.5565 Y-0.401
N3255 G2 X0.5484 Y-0.3996 I0.0132 J0.1029
N3260 G1 X0.5403 Y-0.3979
N3265 G2 X0.5322 Y-0.3959 I0.0214 J0.1015
N3270 G1 X0.5241 Y-0.3935
N3275 G2 X0.5186 Y-0.3917 I0.0295 J0.0995
N3280 G1 X0.4611 Y-0.3711
N3285 G2 X0.4511 Y-0.3669 I0.0349 J0.0977
N3290 G1 X0.4409 Y-0.362
N3295 G2 X0.4332 Y-0.358 I0.0449 J0.0935
N3300 G1 X0.4281 Y-0.355
N3305 G2 X0.4209 Y-0.3503 I0.0525 J0.0895
N3310 G1 X0.3683 Y-0.3132
N3315 G2 X0.3606 Y-0.3073 I0.0597 J0.0848
N3320 G1 X0.3525 Y-0.3004
N3325 G2 X0.3465 Y-0.2948 I0.0674 J0.0789
N3330 G1 X0.3424 Y-0.2907
N3335 G2 X0.3375 Y-0.2854 I0.0734 J0.0733
N3340 G1 X0.3315 Y-0.2786
N3345 G2 X0.3293 Y-0.2759 I0.0784 J0.068
N3350 G1 X0.2931 Y-0.2313
N3355 G2 X0.2877 Y-0.224 I0.0806 J0.0653
N3360 G1 X0.2823 Y-0.2159
N3365 G2 X0.2785 Y-0.2099 I0.086 J0.0581
N3370 G1 X0.2761 Y-0.2058
N3375 G2 X0.2729 Y-0.1998 I0.0898 J0.052
N3380 G1 X0.2689 Y-0.1917
N3385 G2 X0.2668 Y-0.1871 I0.093 J0.046
N3390 G1 X0.2586 Y-0.1684
N3395 G3 X0.2551 Y-0.162 Z-0.3243 I-0.0344 J-0.0149 F20.
N3400 X0.2506 Y-0.1566 Z-0.3221 I-0.0308 J-0.0213
N3405 X0.2456 Y-0.1525 Z-0.3187 I-0.0263 J-0.0267
N3410 X0.2407 Y-0.1496 Z-0.314 I-0.0213 J-0.0308
N3415 X0.2364 Y-0.1478 Z-0.3083 I-0.0164 J-0.0337
N3420 X0.233 Y-0.1468 Z-0.3019 I-0.0121 J-0.0355
N3425 X0.231 Y-0.1464 Z-0.2948 I-0.0088 J-0.0365
N3430 X0.2303 Y-0.1463 Z-0.2875 I-0.0067 J-0.0369
N3435 G0 Z0.2
N3440 X-1.1638 Y0.2346
N3445 Z-0.2875
N3450 G1 X-1.1636 Y0.2348 Z-0.292 F20.
N3455 X-1.163 Y0.2354 Z-0.2965
N3460 X-1.1621 Y0.2364 Z-0.3008
N3465 X-1.1608 Y0.2377 Z-0.3049
N3470 X-1.1592 Y0.2394 Z-0.3088
N3475 X-1.1572 Y0.2414 Z-0.3124
N3480 X-1.155 Y0.2438 Z-0.3156
N3485 X-1.1526 Y0.2463 Z-0.3184
N3490 X-1.1499 Y0.2491 Z-0.3207
N3495 X-1.147 Y0.2521 Z-0.3226
N3500 X-1.144 Y0.2552 Z-0.3239
N3505 X-1.1409 Y0.2584 Z-0.3247
N3510 X-1.1378 Y0.2617 Z-0.325
N3515 X-0.9994 Y0.406
N3520 G2 X-0.9405 Y0.4576 I0.3276 J-0.3143 F30.
N3525 X-0.5679 Y0.5769 I0.3639 J-0.4954
N3530 X-0.2554 Y0.48 I-0.0082 J-0.5791
N3535 X-0.0643 Y0.2145 I-0.257 J-0.3864
N3540 X-0.0419 Y-0.1277 I-0.841 J-0.227
N3545 X-0.2021 Y-0.4309 I-0.4909 J0.0655
N3550 X-0.656 Y-0.5811 I-0.399 J0.4449
N3555 X-0.9993 Y-0.4093 I0.0485 J0.526
N3560 X-0.9919 Y-0.1526 I0.1377 J0.1245
N3565 G3 X-0.8928 Y0.0843 I-0.2335 J0.2369
N3570 G1 Y0.0972
N3575 G2 X-0.8927 Y0.102 I0.1038 J0.
N3580 G1 X-0.8923 Y0.1101
N3585 G2 X-0.8916 Y0.1182 I0.1036 J-0.0048
N3590 G1 X-0.8906 Y0.1263
N3595 G2 X-0.8892 Y0.1346 I0.1029 J-0.0129
N3600 G1 X-0.8874 Y0.1432
N3605 G2 X-0.8853 Y0.1517 I0.1016 J-0.0212
N3610 G1 X-0.8827 Y0.1602
N3615 G2 X-0.8799 Y0.1683 I0.0994 J-0.0298
N3620 G1 X-0.8769 Y0.176
N3625 G2 X-0.8735 Y0.1837 I0.0966 J-0.0379
N3630 G1 X-0.8698 Y0.1914
N3635 G2 X-0.8656 Y0.1991 I0.0932 J-0.0456
N3640 G1 X-0.8609 Y0.2068
N3645 G2 X-0.8558 Y0.2146 I0.089 J-0.0533
N3650 G1 X-0.8502 Y0.2224
N3655 G2 X-0.8439 Y0.2301 I0.0839 J-0.0611
N3660 G1 X-0.837 Y0.2379
N3665 G2 X-0.8294 Y0.2457 I0.0776 J-0.0688
N3670 G1 X-0.8209 Y0.2534
N3675 G2 X-0.8141 Y0.2591 I0.07 J-0.0766
N3680 G1 X-0.7817 Y0.284
N3685 G2 X-0.7782 Y0.2866 I0.0632 J-0.0823
N3690 G1 X-0.7714 Y0.2913
N3695 G2 X-0.7631 Y0.2966 I0.0597 J-0.0849
N3700 G1 X-0.7469 Y0.3059
N3705 G2 X-0.7362 Y0.3112 I0.0514 J-0.0901
N3710 G1 X-0.7268 Y0.3152
N3715 G2 X-0.72 Y0.3178 I0.0407 J-0.0954
N3720 G1 X-0.6795 Y0.3318
N3725 G2 X-0.6734 Y0.3337 I0.0339 J-0.098
N3730 G1 X-0.6653 Y0.336
N3735 G2 X-0.6565 Y0.338 I0.0278 J-0.1
N3740 G1 X-0.6403 Y0.341
N3745 G2 X-0.6275 Y0.3426 I0.019 J-0.102
N3750 G1 X-0.6113 Y0.3436
N3755 G2 X-0.6061 Y0.3438 I0.0063 J-0.1036
N3760 G1 X-0.5737 Y0.3441
N3765 G2 X-0.5712 I0.001 J-0.1037
N3770 G1 X-0.5631 Y0.344
N3775 G2 X-0.5533 Y0.3434 I-0.0015 J-0.1037
N3780 G1 X-0.5371 Y0.3416
N3785 G2 X-0.5276 Y0.3401 I-0.0113 J-0.1031
N3790 G1 X-0.5195 Y0.3384
N3795 G2 X-0.5116 Y0.3365 I-0.0208 J-0.1017
N3800 G1 X-0.4954 Y0.3318
N3805 G2 X-0.4918 Y0.3308 I-0.0287 J-0.0997
N3810 G1 X-0.4594 Y0.3202
N3815 G2 X-0.4508 Y0.3169 I-0.0322 J-0.0986
N3820 G1 X-0.4394 Y0.3121
N3825 G2 X-0.4312 Y0.3081 I-0.0409 J-0.0954
N3830 G1 X-0.4198 Y0.302
N3835 G2 X-0.4106 Y0.2964 I-0.0491 J-0.0914
N3840 G1 X-0.4009 Y0.2898
N3845 G2 X-0.3978 Y0.2876 I-0.0583 J-0.0858
N3850 G1 X-0.3627 Y0.2618
N3855 G2 X-0.3537 Y0.2544 I-0.0615 J-0.0836
N3860 G1 X-0.345 Y0.2463
N3865 G2 X-0.3385 Y0.2398 I-0.0704 J-0.0762
N3870 G1 X-0.3312 Y0.2317
N3875 G2 X-0.3245 Y0.2236 I-0.0768 J-0.0697
N3880 G1 X-0.3186 Y0.2155
N3885 G2 X-0.3132 Y0.2074 I-0.0835 J-0.0616
N3890 G1 X-0.3083 Y0.1993
N3895 G2 X-0.3045 Y0.1924 I-0.0889 J-0.0535
N3900 G1 X-0.3017 Y0.1868
N3905 G2 X-0.2989 Y0.1807 I-0.0927 J-0.0466
N3910 G1 X-0.296 Y0.174
N3915 G2 X-0.2935 Y0.1673 I-0.0955 J-0.0405
N3920 G1 X-0.2912 Y0.1606
N3925 G2 X-0.2891 Y0.1539 I-0.0981 J-0.0338
N3930 G1 X-0.2873 Y0.1471
N3935 G2 X-0.2857 Y0.1404 I-0.1002 J-0.027
N3940 G1 X-0.2844 Y0.1337
N3945 G2 X-0.2832 Y0.1263 I-0.1017 J-0.0203
N3950 G1 X-0.2821 Y0.1182
N3955 G2 X-0.2815 Y0.1101 I-0.1029 J-0.0129
N3960 G1 X-0.2811 Y0.102
N3965 G2 X-0.281 Y0.0972 I-0.1036 J-0.0048
N3970 G1 Y-0.0972
N3975 G2 X-0.2811 Y-0.102 I-0.1038 J0.
N3980 G1 X-0.2815 Y-0.1101
N3985 G2 X-0.2821 Y-0.1182 I-0.1036 J0.0048
N3990 G1 X-0.2832 Y-0.1263
N3995 G2 X-0.2844 Y-0.1337 I-0.1029 J0.0129
N4000 G1 X-0.2857 Y-0.1404
N4005 G2 X-0.2873 Y-0.1471 I-0.1017 J0.0203
N4010 G1 X-0.2891 Y-0.1539
N4015 G2 X-0.2912 Y-0.1606 I-0.1002 J0.027
N4020 G1 X-0.2935 Y-0.1673
N4025 G2 X-0.296 Y-0.174 I-0.0981 J0.0338
N4030 G1 X-0.2989 Y-0.1807
N4035 G2 X-0.3028 Y-0.1889 I-0.0955 J0.0405
N4040 G1 X-0.3079 Y-0.1985
N4045 G2 X-0.3132 Y-0.2074 I-0.0916 J0.0487
N4050 G1 X-0.3186 Y-0.2155
N4055 G2 X-0.3246 Y-0.2236 I-0.0863 J0.0575
N4060 G1 X-0.3312 Y-0.2317
N4065 G2 X-0.3365 Y-0.2377 I-0.0803 J0.0656
N4070 G1 X-0.3404 Y-0.2417
N4075 G2 X-0.3461 Y-0.2473 I-0.075 J0.0717
N4080 G1 X-0.3575 Y-0.2576
N4085 G2 X-0.3657 Y-0.2642 I-0.0693 J0.0772
N4090 G1 X-0.3981 Y-0.2878
N4095 G2 X-0.4009 Y-0.2898 I-0.0612 J0.0838
N4100 G1 X-0.4106 Y-0.2964
N4105 G2 X-0.4198 Y-0.302 I-0.0583 J0.0858
N4110 G1 X-0.4312 Y-0.3081
N4115 G2 X-0.4394 Y-0.3121 I-0.0491 J0.0914
N4120 G1 X-0.4508 Y-0.3169
N4125 G2 X-0.4594 Y-0.3202 I-0.0409 J0.0954
N4130 G1 X-0.4918 Y-0.3308
N4135 G2 X-0.4954 Y-0.3318 I-0.0322 J0.0986
N4140 G1 X-0.5116 Y-0.3365
N4145 G2 X-0.5195 Y-0.3384 I-0.0287 J0.0997
N4150 G1 X-0.5276 Y-0.3401
N4155 G2 X-0.5371 Y-0.3416 I-0.0208 J0.1017
N4160 G1 X-0.5533 Y-0.3434
N4165 G2 X-0.5641 Y-0.344 I-0.0113 J0.1031
N4170 G1 X-0.5884 Y-0.3441
N4175 G2 X-0.5909 I-0.0005 J0.1037
N4180 G1 X-0.6071 Y-0.3437
N4185 G2 X-0.6113 Y-0.3436 I0.002 J0.1037
N4190 G1 X-0.6275 Y-0.3426
N4195 G2 X-0.6403 Y-0.341 I0.0063 J0.1036
N4200 G1 X-0.6565 Y-0.338
N4205 G2 X-0.6676 Y-0.3353 I0.019 J0.102
N4210 G1 X-0.6838 Y-0.3304
N4215 G2 X-0.6885 Y-0.3288 I0.0301 J0.0993
N4220 G1 X-0.7256 Y-0.3156
N4225 G2 X-0.7338 Y-0.3123 I0.0348 J0.0977
N4230 G1 X-0.7385 Y-0.3102
N4235 G2 X-0.7469 Y-0.3059 I0.043 J0.0944
N4240 G1 X-0.7631 Y-0.2966
N4245 G2 X-0.7714 Y-0.2913 I0.0514 J0.0901
N4250 G1 X-0.7782 Y-0.2866
N4255 G2 X-0.7817 Y-0.284 I0.0597 J0.0849
N4260 G1 X-0.8141 Y-0.2591
N4265 G2 X-0.8209 Y-0.2534 I0.0632 J0.0823
N4270 G1 X-0.8294 Y-0.2457
N4275 G2 X-0.837 Y-0.2379 I0.07 J0.0766
N4280 G1 X-0.8439 Y-0.2301
N4285 G2 X-0.8502 Y-0.2224 I0.0776 J0.0688
N4290 G1 X-0.8558 Y-0.2146
N4295 G2 X-0.8609 Y-0.2068 I0.0839 J0.0611
N4300 G1 X-0.8656 Y-0.1991
N4305 G2 X-0.8698 Y-0.1914 I0.089 J0.0533
N4310 G1 X-0.8735 Y-0.1837
N4315 G2 X-0.8769 Y-0.176 I0.0932 J0.0456
N4320 G1 X-0.8799 Y-0.1683
N4325 G2 X-0.8827 Y-0.1602 I0.0966 J0.0379
N4330 G1 X-0.8853 Y-0.1517
N4335 G2 X-0.8874 Y-0.1432 I0.0994 J0.0298
N4340 G1 X-0.8892 Y-0.1346
N4345 G2 X-0.8906 Y-0.1263 I0.1016 J0.0212
N4350 G1 X-0.8916 Y-0.1182
N4355 G2 X-0.8923 Y-0.1101 I0.1029 J0.0129
N4360 G1 X-0.8927 Y-0.102
N4365 G2 X-0.8928 Y-0.0972 I0.1036 J0.0048
N4370 G1 Y0.0843
N4375 G3 X-0.9 Y0.1063 I-0.0375 J0. F20.
N4380 G1 X-0.999 Y0.2426
N4385 X-1.0016 Y0.2463 Z-0.3247
N4390 X-1.0043 Y0.2499 Z-0.3239
N4395 X-1.0068 Y0.2534 Z-0.3226
N4400 X-1.0092 Y0.2567 Z-0.3207
N4405 X-1.0115 Y0.2598 Z-0.3184
N4410 X-1.0136 Y0.2627 Z-0.3156
N4415 X-1.0155 Y0.2653 Z-0.3124
N4420 X-1.0171 Y0.2676 Z-0.3088
N4425 X-1.0185 Y0.2695 Z-0.3049
N4430 X-1.0196 Y0.271 Z-0.3008
N4435 X-1.0204 Y0.2721 Z-0.2965
N4440 X-1.0209 Y0.2727 Z-0.292
N4445 X-1.021 Y0.2729 Z-0.2875
N4450 G0 Z0.6
(38 AD CLEARING)
N4460 M8
N4465 G0 X-0.0937 Y0.4303
N4470 Z0.6
N4475 Z0.2
N4480 Z-0.0496
N4485 G1 Z-0.0871 F10.
N4490 X-0.0939 Y0.4302 Z-0.0916
N4495 X-0.0946 Y0.4297 Z-0.0961
N4500 X-0.0958 Y0.4291 Z-0.1004
N4505 X-0.0974 Y0.4281 Z-0.1045
N4510 X-0.0994 Y0.4269 Z-0.1084
N4515 X-0.1018 Y0.4255 Z-0.112
N4520 X-0.1046 Y0.4239 Z-0.1152
N4525 X-0.1076 Y0.422 Z-0.118
N4530 X-0.111 Y0.4201 Z-0.1203
N4535 X-0.1145 Y0.418 Z-0.1222
N4540 X-0.1182 Y0.4158 Z-0.1235
N4545 X-0.1221 Y0.4135 Z-0.1243
N4550 X-0.1259 Y0.4112 Z-0.1246
N4555 G3 X-0.2911 Y0.2876 I0.4878 J-0.8238
N4560 G1 X-0.2953 Y0.2834 F20.
N4565 X-0.2981 Y0.278
N4570 X-0.3011 Y0.2705
N4575 X-0.3057 Y0.2557
N4580 X-0.307 Y0.2499
N4585 X-0.3091 Y0.2344
N4590 X-0.3083 Y0.2188
N4595 X-0.3048 Y0.2035
N4600 X-0.2986 Y0.1891
N4605 X-0.2837 Y0.1616
N4610 X-0.2814 Y0.1572
N4615 X-0.27 Y0.1348
N4620 X-0.2651 Y0.1235
N4625 X-0.2572 Y0.1011
N4630 X-0.2542 Y0.0898
N4635 X-0.2498 Y0.0674
N4640 X-0.2479 Y0.0562
N4645 X-0.2444 Y0.0337
N4650 X-0.2433 Y0.0225
N4655 X-0.2417 Y0.
N4660 X-0.2433 Y-0.0225
N4665 X-0.2444 Y-0.0337
N4670 X-0.2479 Y-0.0562
N4675 X-0.2498 Y-0.0674
N4680 X-0.2542 Y-0.0898
N4685 X-0.2572 Y-0.1011
N4690 X-0.2651 Y-0.1235
N4695 X-0.27 Y-0.1348
N4700 X-0.2814 Y-0.1572
N4705 X-0.2837 Y-0.1616
N4710 X-0.2996 Y-0.1909
N4715 X-0.3061 Y-0.1998
N4720 X-0.3174 Y-0.2143
N4725 X-0.3258 Y-0.2246
N4730 X-0.3286 Y-0.2275
N4735 X-0.3398 Y-0.2389
N4740 X-0.351 Y-0.2501
N4745 X-0.3594 Y-0.2583
N4750 X-0.3623 Y-0.2611
N4755 X-0.3725 Y-0.2695
N4760 X-0.3871 Y-0.2808
N4765 X-0.396 Y-0.2873
N4770 X-0.4253 Y-0.3032
N4775 X-0.4297 Y-0.3055
N4780 X-0.4521 Y-0.3169
N4785 X-0.4633 Y-0.3218
N4790 X-0.4858 Y-0.3297
N4795 X-0.497 Y-0.3327
N4800 X-0.5195 Y-0.3371
N4805 X-0.5307 Y-0.339
N4810 X-0.5532 Y-0.3425
N4815 X-0.5644 Y-0.3436
N4820 X-0.5869 Y-0.3452
N4825 X-0.6093 Y-0.3436
N4830 X-0.6206 Y-0.3425
N4835 X-0.643 Y-0.339
N4840 X-0.6543 Y-0.3371
N4845 X-0.6767 Y-0.3327
N4850 X-0.688 Y-0.3297
N4855 X-0.7104 Y-0.3218
N4860 X-0.7217 Y-0.3169
N4865 X-0.7441 Y-0.3055
N4870 X-0.7484 Y-0.3032
N4875 X-0.7778 Y-0.2873
N4880 X-0.7867 Y-0.2808
N4885 X-0.8012 Y-0.2695
N4890 X-0.8115 Y-0.2611
N4895 X-0.8144 Y-0.2583
N4900 X-0.8257 Y-0.2471
N4905 X-0.837 Y-0.2358
N4910 X-0.8452 Y-0.2275
N4915 X-0.848 Y-0.2246
N4920 X-0.8564 Y-0.2143
N4925 X-0.8677 Y-0.1998
N4930 X-0.8742 Y-0.1909
N4935 X-0.8901 Y-0.1616
N4940 X-0.8924 Y-0.1572
N4945 X-0.9037 Y-0.1348
N4950 X-0.9087 Y-0.1235
N4955 X-0.9166 Y-0.1011
N4960 X-0.9196 Y-0.0898
N4965 X-0.924 Y-0.0674
N4970 X-0.9259 Y-0.0562
N4975 X-0.9294 Y-0.0337
N4980 X-0.9305 Y-0.0225
N4985 X-0.9321 Y0.
N4990 X-0.9305 Y0.0225
N4995 X-0.9294 Y0.0337
N5000 X-0.9259 Y0.0562
N5005 X-0.924 Y0.0674
N5010 X-0.9196 Y0.0898
N5015 X-0.9166 Y0.1011
N5020 X-0.9087 Y0.1235
N5025 X-0.9037 Y0.1348
N5030 X-0.8924 Y0.1572
N5035 X-0.8901 Y0.1616
N5040 X-0.8742 Y0.1909
N5045 X-0.8677 Y0.1998
N5050 X-0.8564 Y0.2143
N5055 X-0.848 Y0.2246
N5060 X-0.8452 Y0.2275
N5065 X-0.834 Y0.2388
N5070 X-0.8227 Y0.2501
N5075 X-0.8144 Y0.2583
N5080 X-0.8115 Y0.2611
N5085 X-0.8012 Y0.2695
N5090 X-0.7867 Y0.2808
N5095 X-0.7778 Y0.2873
N5100 X-0.7484 Y0.3032
N5105 X-0.7441 Y0.3055
N5110 X-0.7217 Y0.3169
N5115 X-0.7104 Y0.3218
N5120 X-0.688 Y0.3297
N5125 X-0.6767 Y0.3327
N5130 X-0.6543 Y0.3371
N5135 X-0.643 Y0.339
N5140 X-0.6206 Y0.3425
N5145 X-0.6093 Y0.3436
N5150 X-0.5869 Y0.3452
N5155 X-0.5644 Y0.3436
N5160 X-0.5532 Y0.3425
N5165 X-0.5307 Y0.339
N5170 X-0.5195 Y0.3371
N5175 X-0.497 Y0.3327
N5180 X-0.4858 Y0.3297
N5185 X-0.4633 Y0.3218
N5190 X-0.4521 Y0.3169
N5195 X-0.4297 Y0.3055
N5200 X-0.4253 Y0.3032
N5205 X-0.396 Y0.2873
N5210 X-0.3871 Y0.2808
N5215 X-0.3725 Y0.2695
N5220 X-0.3623 Y0.2611
N5225 X-0.3594 Y0.2583
N5230 X-0.348 Y0.2471
N5235 X-0.3368 Y0.2358
N5240 X-0.3286 Y0.2275
N5245 X-0.3258 Y0.2246
N5250 X-0.3174 Y0.2143
N5255 X-0.3061 Y0.1998
N5260 X-0.2996 Y0.1909
N5265 X-0.2986 Y0.1891
N5270 X-0.2967 Y0.1868 Z-0.1243 F10.
N5275 X-0.2949 Y0.1845 Z-0.1234
N5280 X-0.2932 Y0.1825 Z-0.1219
N5285 X-0.2918 Y0.1807 Z-0.1198
N5290 X-0.2906 Y0.1796 Z-0.1177
N5295 X-0.2896 Y0.1788 Z-0.1152
N5300 X-0.289 Y0.1783 Z-0.1126
N5305 X-0.2889 Y0.1782 Z-0.1099
N5310 G0 Z0.2
N5315 X-0.0937 Y0.4303
N5320 Z-0.1742
N5325 G1 Z-0.2117 F10.
N5330 X-0.0939 Y0.4302 Z-0.2162
N5335 X-0.0946 Y0.4297 Z-0.2207
N5340 X-0.0958 Y0.4291 Z-0.225
N5345 X-0.0974 Y0.4281 Z-0.2291
N5350 X-0.0994 Y0.4269 Z-0.233
N5355 X-0.1018 Y0.4255 Z-0.2366
N5360 X-0.1046 Y0.4239 Z-0.2398
N5365 X-0.1076 Y0.422 Z-0.2426
N5370 X-0.111 Y0.4201 Z-0.2449
N5375 X-0.1145 Y0.418 Z-0.2468
N5380 X-0.1182 Y0.4158 Z-0.2481
N5385 X-0.1221 Y0.4135 Z-0.2489
N5390 X-0.1259 Y0.4112 Z-0.2492
N5395 G3 X-0.2911 Y0.2876 I0.4878 J-0.8238
N5400 G1 X-0.2953 Y0.2834 F20.
N5405 X-0.2981 Y0.278
N5410 X-0.3011 Y0.2705
N5415 X-0.3057 Y0.2557
N5420 X-0.307 Y0.2499
N5425 X-0.3091 Y0.2344
N5430 X-0.3083 Y0.2188
N5435 X-0.3048 Y0.2035
N5440 X-0.2986 Y0.1891
N5445 X-0.2837 Y0.1616
N5450 X-0.2814 Y0.1572
N5455 X-0.27 Y0.1348
N5460 X-0.2651 Y0.1235
N5465 X-0.2572 Y0.1011
N5470 X-0.2542 Y0.0898
N5475 X-0.2498 Y0.0674
N5480 X-0.2479 Y0.0562
N5485 X-0.2444 Y0.0337
N5490 X-0.2433 Y0.0225
N5495 X-0.2417 Y0.
N5500 X-0.2433 Y-0.0225
N5505 X-0.2444 Y-0.0337
N5510 X-0.2479 Y-0.0562
N5515 X-0.2498 Y-0.0674
N5520 X-0.2542 Y-0.0898
N5525 X-0.2572 Y-0.1011
N5530 X-0.2651 Y-0.1235
N5535 X-0.27 Y-0.1348
N5540 X-0.2814 Y-0.1572
N5545 X-0.2837 Y-0.1616
N5550 X-0.2996 Y-0.1909
N5555 X-0.3061 Y-0.1998
N5560 X-0.3174 Y-0.2143
N5565 X-0.3258 Y-0.2246
N5570 X-0.3286 Y-0.2275
N5575 X-0.3398 Y-0.2389
N5580 X-0.351 Y-0.2501
N5585 X-0.3594 Y-0.2583
N5590 X-0.3623 Y-0.2611
N5595 X-0.3725 Y-0.2695
N5600 X-0.3871 Y-0.2808
N5605 X-0.396 Y-0.2873
N5610 X-0.4253 Y-0.3032
N5615 X-0.4297 Y-0.3055
N5620 X-0.4521 Y-0.3169
N5625 X-0.4633 Y-0.3218
N5630 X-0.4858 Y-0.3297
N5635 X-0.497 Y-0.3327
N5640 X-0.5195 Y-0.3371
N5645 X-0.5307 Y-0.339
N5650 X-0.5532 Y-0.3425
N5655 X-0.5644 Y-0.3436
N5660 X-0.5869 Y-0.3452
N5665 X-0.6093 Y-0.3436
N5670 X-0.6206 Y-0.3425
N5675 X-0.643 Y-0.339
N5680 X-0.6543 Y-0.3371
N5685 X-0.6767 Y-0.3327
N5690 X-0.688 Y-0.3297
N5695 X-0.7104 Y-0.3218
N5700 X-0.7217 Y-0.3169
N5705 X-0.7441 Y-0.3055
N5710 X-0.7484 Y-0.3032
N5715 X-0.7778 Y-0.2873
N5720 X-0.7867 Y-0.2808
N5725 X-0.8012 Y-0.2695
N5730 X-0.8115 Y-0.2611
N5735 X-0.8144 Y-0.2583
N5740 X-0.8257 Y-0.2471
N5745 X-0.837 Y-0.2358
N5750 X-0.8452 Y-0.2275
N5755 X-0.848 Y-0.2246
N5760 X-0.8564 Y-0.2143
N5765 X-0.8677 Y-0.1998
N5770 X-0.8742 Y-0.1909
N5775 X-0.8901 Y-0.1616
N5780 X-0.8924 Y-0.1572
N5785 X-0.9037 Y-0.1348
N5790 X-0.9087 Y-0.1235
N5795 X-0.9166 Y-0.1011
N5800 X-0.9196 Y-0.0898
N5805 X-0.924 Y-0.0674
N5810 X-0.9259 Y-0.0562
N5815 X-0.9294 Y-0.0337
N5820 X-0.9305 Y-0.0225
N5825 X-0.9321 Y0.
N5830 X-0.9305 Y0.0225
N5835 X-0.9294 Y0.0337
N5840 X-0.9259 Y0.0562
N5845 X-0.924 Y0.0674
N5850 X-0.9196 Y0.0898
N5855 X-0.9166 Y0.1011
N5860 X-0.9087 Y0.1235
N5865 X-0.9037 Y0.1348
N5870 X-0.8924 Y0.1572
N5875 X-0.8901 Y0.1616
N5880 X-0.8742 Y0.1909
N5885 X-0.8677 Y0.1998
N5890 X-0.8564 Y0.2143
N5895 X-0.848 Y0.2246
N5900 X-0.8452 Y0.2275
N5905 X-0.834 Y0.2388
N5910 X-0.8227 Y0.2501
N5915 X-0.8144 Y0.2583
N5920 X-0.8115 Y0.2611
N5925 X-0.8012 Y0.2695
N5930 X-0.7867 Y0.2808
N5935 X-0.7778 Y0.2873
N5940 X-0.7484 Y0.3032
N5945 X-0.7441 Y0.3055
N5950 X-0.7217 Y0.3169
N5955 X-0.7104 Y0.3218
N5960 X-0.688 Y0.3297
N5965 X-0.6767 Y0.3327
N5970 X-0.6543 Y0.3371
N5975 X-0.643 Y0.339
N5980 X-0.6206 Y0.3425
N5985 X-0.6093 Y0.3436
N5990 X-0.5869 Y0.3452
N5995 X-0.5644 Y0.3436
N6000 X-0.5532 Y0.3425
N6005 X-0.5307 Y0.339
N6010 X-0.5195 Y0.3371
N6015 X-0.497 Y0.3327
N6020 X-0.4858 Y0.3297
N6025 X-0.4633 Y0.3218
N6030 X-0.4521 Y0.3169
N6035 X-0.4297 Y0.3055
N6040 X-0.4253 Y0.3032
N6045 X-0.396 Y0.2873
N6050 X-0.3871 Y0.2808
N6055 X-0.3725 Y0.2695
N6060 X-0.3623 Y0.2611
N6065 X-0.3594 Y0.2583
N6070 X-0.348 Y0.2471
N6075 X-0.3368 Y0.2358
N6080 X-0.3286 Y0.2275
N6085 X-0.3258 Y0.2246
N6090 X-0.3174 Y0.2143
N6095 X-0.3061 Y0.1998
N6100 X-0.2996 Y0.1909
N6105 X-0.2986 Y0.1891
N6110 X-0.2967 Y0.1868 Z-0.2489 F10.
N6115 X-0.2949 Y0.1845 Z-0.248
N6120 X-0.2932 Y0.1825 Z-0.2465
N6125 X-0.2918 Y0.1807 Z-0.2445
N6130 X-0.2906 Y0.1796 Z-0.2423
N6135 X-0.2896 Y0.1788 Z-0.2398
N6140 X-0.289 Y0.1783 Z-0.2372
N6145 X-0.2889 Y0.1782 Z-0.2345
N6150 G0 Z0.2
N6155 X-0.0937 Y0.4303
N6160 Z-0.2988
N6165 G1 Z-0.3363 F10.
N6170 X-0.0939 Y0.4302 Z-0.3408
N6175 X-0.0946 Y0.4297 Z-0.3453
N6180 X-0.0958 Y0.4291 Z-0.3496
N6185 X-0.0974 Y0.4281 Z-0.3537
N6190 X-0.0994 Y0.4269 Z-0.3576
N6195 X-0.1018 Y0.4255 Z-0.3612
N6200 X-0.1046 Y0.4239 Z-0.3644
N6205 X-0.1076 Y0.422 Z-0.3672
N6210 X-0.111 Y0.4201 Z-0.3695
N6215 X-0.1145 Y0.418 Z-0.3714
N6220 X-0.1182 Y0.4158 Z-0.3727
N6225 X-0.1221 Y0.4135 Z-0.3735
N6230 X-0.1259 Y0.4112 Z-0.3738
N6235 G3 X-0.2911 Y0.2876 I0.4878 J-0.8238
N6240 G1 X-0.2953 Y0.2834 F20.
N6245 X-0.2981 Y0.278
N6250 X-0.3011 Y0.2705
N6255 X-0.3057 Y0.2557
N6260 X-0.307 Y0.2499
N6265 X-0.3091 Y0.2344
N6270 X-0.3083 Y0.2188
N6275 X-0.3048 Y0.2035
N6280 X-0.2986 Y0.1891
N6285 X-0.2837 Y0.1616
N6290 X-0.2814 Y0.1572
N6295 X-0.27 Y0.1348
N6300 X-0.2651 Y0.1235
N6305 X-0.2572 Y0.1011
N6310 X-0.2542 Y0.0898
N6315 X-0.2498 Y0.0674
N6320 X-0.2479 Y0.0562
N6325 X-0.2444 Y0.0337
N6330 X-0.2433 Y0.0225
N6335 X-0.2417 Y0.
N6340 X-0.2433 Y-0.0225
N6345 X-0.2444 Y-0.0337
N6350 X-0.2479 Y-0.0562
N6355 X-0.2498 Y-0.0674
N6360 X-0.2542 Y-0.0898
N6365 X-0.2572 Y-0.1011
N6370 X-0.2651 Y-0.1235
N6375 X-0.27 Y-0.1348
N6380 X-0.2814 Y-0.1572
N6385 X-0.2837 Y-0.1616
N6390 X-0.2996 Y-0.1909
N6395 X-0.3061 Y-0.1998
N6400 X-0.3174 Y-0.2143
N6405 X-0.3258 Y-0.2246
N6410 X-0.3286 Y-0.2275
N6415 X-0.3398 Y-0.2389
N6420 X-0.351 Y-0.2501
N6425 X-0.3594 Y-0.2583
N6430 X-0.3623 Y-0.2611
N6435 X-0.3725 Y-0.2695
N6440 X-0.3871 Y-0.2808
N6445 X-0.396 Y-0.2873
N6450 X-0.4253 Y-0.3032
N6455 X-0.4297 Y-0.3055
N6460 X-0.4521 Y-0.3169
N6465 X-0.4633 Y-0.3218
N6470 X-0.4858 Y-0.3297
N6475 X-0.497 Y-0.3327
N6480 X-0.5195 Y-0.3371
N6485 X-0.5307 Y-0.339
N6490 X-0.5532 Y-0.3425
N6495 X-0.5644 Y-0.3436
N6500 X-0.5869 Y-0.3452
N6505 X-0.6093 Y-0.3436
N6510 X-0.6206 Y-0.3425
N6515 X-0.643 Y-0.339
N6520 X-0.6543 Y-0.3371
N6525 X-0.6767 Y-0.3327
N6530 X-0.688 Y-0.3297
N6535 X-0.7104 Y-0.3218
N6540 X-0.7217 Y-0.3169
N6545 X-0.7441 Y-0.3055
N6550 X-0.7484 Y-0.3032
N6555 X-0.7778 Y-0.2873
N6560 X-0.7867 Y-0.2808
N6565 X-0.8012 Y-0.2695
N6570 X-0.8115 Y-0.2611
N6575 X-0.8144 Y-0.2583
N6580 X-0.8257 Y-0.2471
N6585 X-0.837 Y-0.2358
N6590 X-0.8452 Y-0.2275
N6595 X-0.848 Y-0.2246
N6600 X-0.8564 Y-0.2143
N6605 X-0.8677 Y-0.1998
N6610 X-0.8742 Y-0.1909
N6615 X-0.8901 Y-0.1616
N6620 X-0.8924 Y-0.1572
N6625 X-0.9037 Y-0.1348
N6630 X-0.9087 Y-0.1235
N6635 X-0.9166 Y-0.1011
N6640 X-0.9196 Y-0.0898
N6645 X-0.924 Y-0.0674
N6650 X-0.9259 Y-0.0562
N6655 X-0.9294 Y-0.0337
N6660 X-0.9305 Y-0.0225
N6665 X-0.9321 Y0.
N6670 X-0.9305 Y0.0225
N6675 X-0.9294 Y0.0337
N6680 X-0.9259 Y0.0562
N6685 X-0.924 Y0.0674
N6690 X-0.9196 Y0.0898
N6695 X-0.9166 Y0.1011
N6700 X-0.9087 Y0.1235
N6705 X-0.9037 Y0.1348
N6710 X-0.8924 Y0.1572
N6715 X-0.8901 Y0.1616
N6720 X-0.8742 Y0.1909
N6725 X-0.8677 Y0.1998
N6730 X-0.8564 Y0.2143
N6735 X-0.848 Y0.2246
N6740 X-0.8452 Y0.2275
N6745 X-0.834 Y0.2388
N6750 X-0.8227 Y0.2501
N6755 X-0.8144 Y0.2583
N6760 X-0.8115 Y0.2611
N6765 X-0.8012 Y0.2695
N6770 X-0.7867 Y0.2808
N6775 X-0.7778 Y0.2873
N6780 X-0.7484 Y0.3032
N6785 X-0.7441 Y0.3055
N6790 X-0.7217 Y0.3169
N6795 X-0.7104 Y0.3218
N6800 X-0.688 Y0.3297
N6805 X-0.6767 Y0.3327
N6810 X-0.6543 Y0.3371
N6815 X-0.643 Y0.339
N6820 X-0.6206 Y0.3425
N6825 X-0.6093 Y0.3436
N6830 X-0.5869 Y0.3452
N6835 X-0.5644 Y0.3436
N6840 X-0.5532 Y0.3425
N6845 X-0.5307 Y0.339
N6850 X-0.5195 Y0.3371
N6855 X-0.497 Y0.3327
N6860 X-0.4858 Y0.3297
N6865 X-0.4633 Y0.3218
N6870 X-0.4521 Y0.3169
N6875 X-0.4297 Y0.3055
N6880 X-0.4253 Y0.3032
N6885 X-0.396 Y0.2873
N6890 X-0.3871 Y0.2808
N6895 X-0.3725 Y0.2695
N6900 X-0.3623 Y0.2611
N6905 X-0.3594 Y0.2583
N6910 X-0.348 Y0.2471
N6915 X-0.3368 Y0.2358
N6920 X-0.3286 Y0.2275
N6925 X-0.3258 Y0.2246
N6930 X-0.3174 Y0.2143
N6935 X-0.3061 Y0.1998
N6940 X-0.2996 Y0.1909
N6945 X-0.2986 Y0.1891
N6950 X-0.2967 Y0.1868 Z-0.3735 F10.
N6955 X-0.2949 Y0.1845 Z-0.3726
N6960 X-0.2932 Y0.1825 Z-0.3711
N6965 X-0.2918 Y0.1807 Z-0.3691
N6970 X-0.2906 Y0.1796 Z-0.3669
N6975 X-0.2896 Y0.1788 Z-0.3644
N6980 X-0.289 Y0.1783 Z-0.3618
N6985 X-0.2889 Y0.1782 Z-0.3591
N6990 G0 Z0.2
N6995 X-0.0937 Y0.4303
N7000 Z-0.405
N7005 G1 Z-0.4425 F10.
N7010 X-0.0939 Y0.4302 Z-0.447
N7015 X-0.0946 Y0.4297 Z-0.4515
N7020 X-0.0958 Y0.4291 Z-0.4558
N7025 X-0.0974 Y0.4281 Z-0.4599
N7030 X-0.0994 Y0.4269 Z-0.4638
N7035 X-0.1018 Y0.4255 Z-0.4674
N7040 X-0.1046 Y0.4239 Z-0.4706
N7045 X-0.1076 Y0.422 Z-0.4734
N7050 X-0.111 Y0.4201 Z-0.4757
N7055 X-0.1145 Y0.418 Z-0.4776
N7060 X-0.1182 Y0.4158 Z-0.4789
N7065 X-0.1221 Y0.4135 Z-0.4797
N7070 X-0.1259 Y0.4112 Z-0.48
N7075 G3 X-0.2911 Y0.2876 I0.4878 J-0.8238
N7080 G1 X-0.2953 Y0.2834 F20.
N7085 X-0.2981 Y0.278
N7090 X-0.3011 Y0.2705
N7095 X-0.3057 Y0.2557
N7100 X-0.307 Y0.2499
N7105 X-0.3091 Y0.2344
N7110 X-0.3083 Y0.2188
N7115 X-0.3048 Y0.2035
N7120 X-0.2986 Y0.1891
N7125 X-0.2837 Y0.1616
N7130 X-0.2814 Y0.1572
N7135 X-0.27 Y0.1348
N7140 X-0.2651 Y0.1235
N7145 X-0.2572 Y0.1011
N7150 X-0.2542 Y0.0898
N7155 X-0.2498 Y0.0674
N7160 X-0.2479 Y0.0562
N7165 X-0.2444 Y0.0337
N7170 X-0.2433 Y0.0225
N7175 X-0.2417 Y0.
N7180 X-0.2433 Y-0.0225
N7185 X-0.2444 Y-0.0337
N7190 X-0.2479 Y-0.0562
N7195 X-0.2498 Y-0.0674
N7200 X-0.2542 Y-0.0898
N7205 X-0.2572 Y-0.1011
N7210 X-0.2651 Y-0.1235
N7215 X-0.27 Y-0.1348
N7220 X-0.2814 Y-0.1572
N7225 X-0.2837 Y-0.1616
N7230 X-0.2996 Y-0.1909
N7235 X-0.3061 Y-0.1998
N7240 X-0.3174 Y-0.2143
N7245 X-0.3258 Y-0.2246
N7250 X-0.3286 Y-0.2275
N7255 X-0.3398 Y-0.2389
N7260 X-0.351 Y-0.2501
N7265 X-0.3594 Y-0.2583
N7270 X-0.3623 Y-0.2611
N7275 X-0.3725 Y-0.2695
N7280 X-0.3871 Y-0.2808
N7285 X-0.396 Y-0.2873
N7290 X-0.4253 Y-0.3032
N7295 X-0.4297 Y-0.3055
N7300 X-0.4521 Y-0.3169
N7305 X-0.4633 Y-0.3218
N7310 X-0.4858 Y-0.3297
N7315 X-0.497 Y-0.3327
N7320 X-0.5195 Y-0.3371
N7325 X-0.5307 Y-0.339
N7330 X-0.5532 Y-0.3425
N7335 X-0.5644 Y-0.3436
N7340 X-0.5869 Y-0.3452
N7345 X-0.6093 Y-0.3436
N7350 X-0.6206 Y-0.3425
N7355 X-0.643 Y-0.339
N7360 X-0.6543 Y-0.3371
N7365 X-0.6767 Y-0.3327
N7370 X-0.688 Y-0.3297
N7375 X-0.7104 Y-0.3218
N7380 X-0.7217 Y-0.3169
N7385 X-0.7441 Y-0.3055
N7390 X-0.7484 Y-0.3032
N7395 X-0.7778 Y-0.2873
N7400 X-0.7867 Y-0.2808
N7405 X-0.8012 Y-0.2695
N7410 X-0.8115 Y-0.2611
N7415 X-0.8144 Y-0.2583
N7420 X-0.8257 Y-0.2471
N7425 X-0.837 Y-0.2358
N7430 X-0.8452 Y-0.2275
N7435 X-0.848 Y-0.2246
N7440 X-0.8564 Y-0.2143
N7445 X-0.8677 Y-0.1998
N7450 X-0.8742 Y-0.1909
N7455 X-0.8901 Y-0.1616
N7460 X-0.8924 Y-0.1572
N7465 X-0.9037 Y-0.1348
N7470 X-0.9087 Y-0.1235
N7475 X-0.9166 Y-0.1011
N7480 X-0.9196 Y-0.0898
N7485 X-0.924 Y-0.0674
N7490 X-0.9259 Y-0.0562
N7495 X-0.9294 Y-0.0337
N7500 X-0.9305 Y-0.0225
N7505 X-0.9321 Y0.
N7510 X-0.9305 Y0.0225
N7515 X-0.9294 Y0.0337
N7520 X-0.9259 Y0.0562
N7525 X-0.924 Y0.0674
N7530 X-0.9196 Y0.0898
N7535 X-0.9166 Y0.1011
N7540 X-0.9087 Y0.1235
N7545 X-0.9037 Y0.1348
N7550 X-0.8924 Y0.1572
N7555 X-0.8901 Y0.1616
N7560 X-0.8742 Y0.1909
N7565 X-0.8677 Y0.1998
N7570 X-0.8564 Y0.2143
N7575 X-0.848 Y0.2246
N7580 X-0.8452 Y0.2275
N7585 X-0.834 Y0.2388
N7590 X-0.8227 Y0.2501
N7595 X-0.8144 Y0.2583
N7600 X-0.8115 Y0.2611
N7605 X-0.8012 Y0.2695
N7610 X-0.7867 Y0.2808
N7615 X-0.7778 Y0.2873
N7620 X-0.7484 Y0.3032
N7625 X-0.7441 Y0.3055
N7630 X-0.7217 Y0.3169
N7635 X-0.7104 Y0.3218
N7640 X-0.688 Y0.3297
N7645 X-0.6767 Y0.3327
N7650 X-0.6543 Y0.3371
N7655 X-0.643 Y0.339
N7660 X-0.6206 Y0.3425
N7665 X-0.6093 Y0.3436
N7670 X-0.5869 Y0.3452
N7675 X-0.5644 Y0.3436
N7680 X-0.5532 Y0.3425
N7685 X-0.5307 Y0.339
N7690 X-0.5195 Y0.3371
N7695 X-0.497 Y0.3327
N7700 X-0.4858 Y0.3297
N7705 X-0.4633 Y0.3218
N7710 X-0.4521 Y0.3169
N7715 X-0.4297 Y0.3055
N7720 X-0.4253 Y0.3032
N7725 X-0.396 Y0.2873
N7730 X-0.3871 Y0.2808
N7735 X-0.3725 Y0.2695
N7740 X-0.3623 Y0.2611
N7745 X-0.3594 Y0.2583
N7750 X-0.348 Y0.2471
N7755 X-0.3368 Y0.2358
N7760 X-0.3286 Y0.2275
N7765 X-0.3258 Y0.2246
N7770 X-0.3174 Y0.2143
N7775 X-0.3061 Y0.1998
N7780 X-0.2996 Y0.1909
N7785 X-0.2986 Y0.1891
N7790 G3 X-0.2889 Y0.1782 I0.0323 J0.019 F10.
N7795 G1 X-0.2852 Y0.1755 Z-0.4797
N7800 X-0.2817 Y0.1728 Z-0.4789
N7805 X-0.2782 Y0.1702 Z-0.4776
N7810 X-0.2749 Y0.1677 Z-0.4757
N7815 X-0.2719 Y0.1653 Z-0.4734
N7820 X-0.269 Y0.1632 Z-0.4706
N7825 X-0.2665 Y0.1613 Z-0.4674
N7830 X-0.2642 Y0.1596 Z-0.4638
N7835 X-0.2624 Y0.1582 Z-0.4599
N7840 X-0.2609 Y0.1571 Z-0.4558
N7845 X-0.2598 Y0.1562 Z-0.4515
N7850 X-0.2591 Y0.1558 Z-0.447
N7855 X-0.2589 Y0.1556 Z-0.4425
N7860 G0 Z0.6
(38 CONTOUR 1)
N7870 M8
N7875 G0 X-0.6244 Y0.4378
N7880 Z0.6
N7885 Z0.2
N7890 G1 Z0.0394 F10.
N7895 Z-0.4625 F1.
N7900 G19 G2 Y0.4003 Z-0.5 J-0.0375 K0.
N7905 G1 Y0.3628 F10.
N7910 G17 G3 X-0.5869 Y0.3253 I0.0375 J0.
N7915 G2 Y-0.3253 I0. J-0.3253 F20.
N7920 Y0.3253 I0. J0.3253
N7925 Y-0.3253 I0. J-0.3253
N7930 Y0.3253 I0. J0.3253
N7935 G3 X-0.5494 Y0.3628 I0. J0.0375 F10.
N7940 G1 Y0.4003
N7945 G19 G3 Y0.4378 Z-0.4625 J0. K0.0375
N7950 G0 Z0.6
N7955 G17
(38 CONTOUR 2)
N7960 M8
N7965 G0 X-0.6244 Y0.525
N7970 Z0.6
N7975 Z0.2
N7980 G1 Z0.0394 F10.
N7985 Z-0.565 F1.
N7990 Z0.2 F10.
N7995 Z-0.565
N8000 Y0.4875 F1.
N8005 Y0.45 F10.
N8010 G3 X-0.5869 Y0.4125 I0.0375 J0.
N8015 G2 X-0.5559 Y0.4113 I0. J-0.4125 F20.
N8020 G1 Z-0.655 F1.
N8025 G2 X-0.2462 Y0.2325 I-0.031 J-0.4113 F20.
N8030 G1 Z-0.565
N8035 G2 Y-0.2325 I-0.3407 J-0.2325
N8040 G1 Z-0.655 F1.
N8045 G2 X-0.5559 Y-0.4113 I-0.3407 J0.2325 F20.
N8050 G1 Z-0.565
N8055 G2 X-0.9586 Y-0.1788 I-0.031 J0.4113
N8060 G1 Z-0.655 F1.
N8065 G2 Y0.1788 I0.3717 J0.1788 F20.
N8070 G1 Z-0.565
N8075 G2 X-0.5869 Y0.4125 I0.3717 J-0.1788
N8080 G3 X-0.562 Y0.4219 I0. J0.0375 F10.
N8085 G1 Z-0.655 F1.
N8090 G3 X-0.5494 Y0.45 I-0.0249 J0.0281 F10.
N8095 G1 Y0.4875
N8100 G19 G3 Y0.525 Z-0.6175 J0. K0.0375
N8105 G0 Z0.6
N8110 G17
(38 CONTOUR 3)
N8115 M8
N8120 G0 X-0.1885 Y0.1339
N8125 Z0.6
N8130 Z0.2
N8135 G1 Z0.0394 F10.
N8140 Z-0.3375 F1.
N8145 G18 G3 X-0.226 Z-0.375 I-0.0375 K0.
N8150 G1 X-0.2635 F10.
N8155 G17 G3 X-0.301 Y0.0964 I0. J-0.0375
N8160 G1 Y-0.0964 F20.
N8165 G3 X-0.2635 Y-0.1339 I0.0375 J0. F10.
N8170 G1 X-0.226
N8175 G18 G2 X-0.1885 Z-0.3375 I0. K0.0375
N8180 G0 Z0.2
N8185 Y0.1339
N8190 G1 Z0.0394 F10.
N8195 Z-0.3375 F1.
N8200 G3 X-0.226 Z-0.375 I-0.0375 K0.
N8205 G1 X-0.2635 F10.
N8210 G17 G3 X-0.301 Y0.0964 I0. J-0.0375
N8215 G1 Y-0.0964 F20.
N8220 G3 X-0.2635 Y-0.1339 I0.0375 J0. F10.
N8225 G1 X-0.226
N8230 G18 G2 X-0.1885 Z-0.3375 I0. K0.0375
N8235 G0 Z0.2
N8240 X-0.9853
N8245 G1 Z0.0394 F10.
N8250 Z-0.3375 F1.
N8255 G2 X-0.9478 Z-0.375 I0.0375 K0.
N8260 G1 X-0.9103 F10.
N8265 G17 G3 X-0.8728 Y-0.0964 I0. J0.0375
N8270 G1 Y0.0964 F20.
N8275 G3 X-0.9103 Y0.1339 I-0.0375 J0. F10.
N8280 G1 X-0.9478
N8285 G18 G3 X-0.9853 Z-0.3375 I0. K0.0375
N8290 G0 Z0.2
N8295 Y-0.1339
N8300 G1 Z0.0394 F10.
N8305 Z-0.3375 F1.
N8310 G2 X-0.9478 Z-0.375 I0.0375 K0.
N8315 G1 X-0.9103 F10.
N8320 G17 G3 X-0.8728 Y-0.0964 I0. J0.0375
N8325 G1 Y0.0964 F20.
N8330 G3 X-0.9103 Y0.1339 I-0.0375 J0. F10.
N8335 G1 X-0.9478
N8340 G18 G3 X-0.9853 Z-0.3375 I0. K0.0375
N8345 G0 Z0.6
N8350 G17
(38 FACE 1)
N8355 M8
N8360 G0 X-0.2447 Y0.
N8365 Z0.6
N8370 Z0.2
N8375 G1 Z-0.1603 F10.
N8380 G18 G3 X-0.2822 Z-0.1978 I-0.0375 K0.
N8385 G1 X-0.4885
N8390 X-0.6853 F20.
N8395 G3 X-0.7228 Z-0.1603 I0. K0.0375 F10.
N8400 G0 Z0.6
N8405 G17
(38 FACE 2)
N8410 M8
N8415 G0 X1.0279 Y-0.1828
N8420 Z0.6
N8425 Z0.2
N8430 G1 Z-0.1603 F10.
N8435 G18 G3 X0.9904 Z-0.1978 I-0.0375 K0.
N8440 G1 X0.8278
N8445 X0.4278 F20.
N8450 G17 G2 Y0.0183 I0. J0.1006
N8455 G1 X0.8278
N8460 G18 G2 X0.8653 Z-0.1603 I0. K0.0375 F10.
N8465 G0 Z0.6
N8470 G17
(38 BORE NUB)
N8475 M8
N8480 G0 X1.109 Y0.0375
N8485 Z0.6
N8490 Z-0.2325
N8495 G1 Z-0.275 F10.
N8500 G18 G3 X1.0715 Z-0.3125 I-0.0375 K0.
N8505 G1 X1.0528
N8510 G17 G3 X1.0153 Y0. I0. J-0.0375
N8515 G2 X0.2403 Z-0.3322 I-0.3875 J0. F20.
N8520 X1.0153 Z-0.3519 I0.3875 J0.
N8525 X0.2403 Z-0.3716 I-0.3875 J0.
N8530 X1.0153 Z-0.3912 I0.3875 J0.
N8535 X0.2403 Z-0.4109 I-0.3875 J0.
N8540 X1.0153 Z-0.4306 I0.3875 J0.
N8545 X0.2403 Z-0.4503 I-0.3875 J0.
N8550 X1.0153 Z-0.47 I0.3875 J0.
N8555 X0.2403 Z-0.4897 I-0.3875 J0.
N8560 X0.6582 Y0.3863 Z-0.5 I0.3875 J0.
N8565 X0.5974 Y-0.3863 I-0.0304 J-0.3863
N8570 X0.6582 Y0.3863 I0.0304 J0.3863
N8575 G3 X0.6985 Y0.4207 I0.0029 J0.0374 F10.
N8580 G1 X0.7 Y0.4394
N8585 X0.7003 Y0.4439 Z-0.4997
N8590 X0.7007 Y0.4484 Z-0.4989
N8595 X0.701 Y0.4527 Z-0.4976
N8600 X0.7013 Y0.4568 Z-0.4957
N8605 X0.7016 Y0.4607 Z-0.4934
N8610 X0.7019 Y0.4642 Z-0.4906
N8615 X0.7022 Y0.4674 Z-0.4874
N8620 X0.7024 Y0.4702 Z-0.4838
N8625 X0.7026 Y0.4725 Z-0.4799
N8630 X0.7027 Y0.4744 Z-0.4758
N8635 X0.7028 Y0.4757 Z-0.4715
N8640 X0.7029 Y0.4766 Z-0.467
N8645 Y0.4768 Z-0.4625
N8650 G0 Z0.6
N8660 M9
N8665 G53 Z0.
N8670 M30
%
