%
(1001)
(316 END MILL)
(T2  D=0.125 CR=0. - ZMIN=-0.3425 - FLAT END MILL)
N10 G90 G94 G17 G91.1
N15 G20
N20 G53 G0 Z0.
(2D CONTOUR6)
N25 M9
N30 T2 M6
N35 S12000 M3
N40 G54
N45 M9
N55 G0 X0.0762 Y0.4683
N60 G43 Z0.6 H2
N65 G0 Z-0.0175
N70 G1 Z-0.1381 F5.
N75 Z-0.245 F1.
N80 X0.0764 Y0.468 Z-0.2478
N85 X0.077 Y0.4673 Z-0.2504
N90 X0.0779 Y0.4662 Z-0.2528
N95 X0.0791 Y0.4646 Z-0.2548
N100 X0.0806 Y0.4628 Z-0.2563
N105 X0.0823 Y0.4607 Z-0.2572
N110 X0.0841 Y0.4586 Z-0.2575
N115 X0.0919 Y0.4488 F5.
N120 G3 X0.1095 Y0.447 I0.0097 J0.0079
N125 G2 X0.1967 Y0.5052 I0.3617 J-0.447 F15.
N130 X0.2604 Y0.5089 I0.0358 J-0.0659
N135 X0.3081 Y0.5514 I0.069 J-0.0295
N140 X0.4109 Y0.5718 I0.1631 J-0.5514
N145 X0.4712 Y0.5509 I0.0079 J-0.0746
N150 X0.5315 Y0.5718 I0.0524 J-0.0536
N155 X0.6343 Y0.5514 I-0.0603 J-0.5718
N160 X0.682 Y0.5089 I-0.0213 J-0.0719
N165 X0.7457 Y0.5052 I0.0279 J-0.0696
N170 X0.8329 Y0.447 I-0.2745 J-0.5052
N175 X0.8607 Y0.3895 I-0.0472 J-0.0583
N180 X0.9182 Y0.3617 I-0.0008 J-0.075
N185 X0.9764 Y0.2745 I-0.447 J-0.3617
N190 X0.9801 Y0.2108 I-0.0659 J-0.0358
N195 X1.0226 Y0.1631 I-0.0295 J-0.069
N200 X1.043 Y0.0603 I-0.5514 J-0.1631
N205 X1.0221 Y0. I-0.0746 J-0.0079
N210 X1.043 Y-0.0603 I-0.0536 J-0.0524
N215 X1.0226 Y-0.1631 I-0.5718 J0.0603
N220 X0.9801 Y-0.2108 I-0.0719 J0.0213
N225 X0.9764 Y-0.2745 I-0.0696 J-0.0279
N230 X0.9182 Y-0.3617 I-0.5052 J0.2745
N235 X0.8607 Y-0.3895 I-0.0583 J0.0472
N240 X0.8329 Y-0.447 I-0.075 J0.0008
N245 X0.7457 Y-0.5052 I-0.3617 J0.447
N250 X0.682 Y-0.5089 I-0.0358 J0.0659
N255 X0.6343 Y-0.5514 I-0.069 J0.0295
N260 X0.5315 Y-0.5718 I-0.1631 J0.5514
N265 X0.4712 Y-0.5509 I-0.0079 J0.0746
N270 X0.4109 Y-0.5718 I-0.0524 J0.0536
N275 X0.3081 Y-0.5514 I0.0603 J0.5718
N280 X0.2604 Y-0.5089 I0.0213 J0.0719
N285 X0.1967 Y-0.5052 I-0.0279 J0.0696
N290 X0.1095 Y-0.447 I0.2746 J0.5052
N295 X0.0817 Y-0.3895 I0.0472 J0.0583
N300 X0.0242 Y-0.3617 I0.0008 J0.075
N305 X-0.034 Y-0.2745 I0.447 J0.3617
N310 X-0.0377 Y-0.2108 I0.0659 J0.0358
N315 X-0.0802 Y-0.1631 I0.0295 J0.069
N320 X-0.1006 Y-0.0603 I0.5514 J0.1631
N325 X-0.0797 Y0. I0.0746 J0.0079
N330 X-0.1006 Y0.0603 I0.0536 J0.0524
N335 X-0.0802 Y0.1631 I0.5718 J-0.0603
N340 X-0.0377 Y0.2108 I0.0719 J-0.0213
N345 X-0.034 Y0.2745 I0.0696 J0.0279
N350 X0.0242 Y0.3617 I0.5052 J-0.2745
N355 X0.0817 Y0.3895 I0.0583 J-0.0472
N360 X0.1095 Y0.447 I0.075 J-0.0008
N365 X0.1208 Y0.448 I0.0064 J-0.0079
N370 G3 X0.1321 Y0.4488 I0.005 J0.0092
N375 G2 X0.2026 Y0.4942 I0.3391 J-0.4488
N380 X0.2679 Y0.4908 I0.0298 J-0.0549
N385 X0.3116 Y0.5394 I0.0615 J-0.0114
N390 X0.4122 Y0.5594 I0.1596 J-0.5394
N395 X0.4712 Y0.5313 I0.0066 J-0.0622
N400 X0.5302 Y0.5594 I0.0524 J-0.034
N405 X0.6308 Y0.5394 I-0.059 J-0.5594
N410 X0.6745 Y0.4908 I-0.0177 J-0.0599
N415 X0.7398 Y0.4942 I0.0354 J-0.0515
N420 X0.825 Y0.4373 I-0.2686 J-0.4942
N425 X0.8469 Y0.3757 I-0.0393 J-0.0486
N430 X0.9085 Y0.3538 I0.013 J-0.0611
N435 X0.9654 Y0.2686 I-0.4373 J-0.3538
N440 X0.962 Y0.2033 I-0.0549 J-0.0298
N445 X1.0106 Y0.1596 I-0.0114 J-0.0615
N450 X1.0306 Y0.059 I-0.5394 J-0.1596
N455 X1.0024 Y0. I-0.0622 J-0.0066
N460 X1.0306 Y-0.059 I-0.034 J-0.0524
N465 X1.0106 Y-0.1596 I-0.5594 J0.059
N470 X0.962 Y-0.2033 I-0.0599 J0.0177
N475 X0.9654 Y-0.2686 I-0.0515 J-0.0354
N480 X0.9085 Y-0.3538 I-0.4942 J0.2686
N485 X0.8469 Y-0.3757 I-0.0486 J0.0393
N490 X0.825 Y-0.4373 I-0.0611 J-0.013
N495 X0.7398 Y-0.4942 I-0.3538 J0.4373
N500 X0.6745 Y-0.4908 I-0.0298 J0.0549
N505 X0.6308 Y-0.5394 I-0.0615 J0.0114
N510 X0.5302 Y-0.5594 I-0.1596 J0.5394
N515 X0.4712 Y-0.5313 I-0.0066 J0.0622
N520 X0.4122 Y-0.5594 I-0.0524 J0.034
N525 X0.3116 Y-0.5394 I0.059 J0.5594
N530 X0.2679 Y-0.4908 I0.0177 J0.0599
N535 X0.2026 Y-0.4942 I-0.0354 J0.0515
N540 X0.1174 Y-0.4373 I0.2686 J0.4942
N545 X0.0955 Y-0.3757 I0.0393 J0.0486
N550 X0.0339 Y-0.3538 I-0.013 J0.0611
N555 X-0.023 Y-0.2686 I0.4373 J0.3538
N560 X-0.0196 Y-0.2033 I0.0549 J0.0298
N565 X-0.0682 Y-0.1596 I0.0114 J0.0615
N570 X-0.0882 Y-0.059 I0.5394 J0.1596
N575 X-0.06 Y0. I0.0622 J0.0066
N580 X-0.0882 Y0.059 I0.034 J0.0524
N585 X-0.0682 Y0.1596 I0.5594 J-0.059
N590 X-0.0196 Y0.2033 I0.0599 J-0.0177
N595 X-0.023 Y0.2686 I0.0515 J0.0354
N600 X0.0339 Y0.3538 I0.4942 J-0.2686
N605 X0.0955 Y0.3757 I0.0486 J-0.0393
N610 X0.1174 Y0.4373 I0.0611 J0.013
N615 X0.1321 Y0.4488 I0.3538 J-0.4373
N620 G3 X0.1346 Y0.4663 I-0.0075 J0.01 F5.
N625 G1 X0.127 Y0.4763
N630 X0.1254 Y0.4785 Z-0.2572
N635 X0.1238 Y0.4806 Z-0.2563
N640 X0.1223 Y0.4825 Z-0.2548
N645 X0.1211 Y0.4841 Z-0.2528
N650 X0.1202 Y0.4853 Z-0.2504
N655 X0.1197 Y0.486 Z-0.2478
N660 X0.1195 Y0.4863 Z-0.245
N665 G0 Z0.2
N670 X0.0762 Y0.4683
N675 Z-0.0175
N680 G1 Z-0.1781 F5.
N685 Z-0.285 F1.
N690 X0.0764 Y0.468 Z-0.2878
N695 X0.077 Y0.4673 Z-0.2904
N700 X0.0779 Y0.4662 Z-0.2928
N705 X0.0791 Y0.4646 Z-0.2948
N710 X0.0806 Y0.4628 Z-0.2963
N715 X0.0823 Y0.4607 Z-0.2972
N720 X0.0841 Y0.4586 Z-0.2975
N725 X0.0919 Y0.4488 F5.
N730 G3 X0.1095 Y0.447 I0.0097 J0.0079
N735 G2 X0.1967 Y0.5052 I0.3617 J-0.447 F15.
N740 X0.2604 Y0.5089 I0.0358 J-0.0659
N745 X0.3081 Y0.5514 I0.069 J-0.0295
N750 X0.4109 Y0.5718 I0.1631 J-0.5514
N755 X0.4712 Y0.5509 I0.0079 J-0.0746
N760 X0.5315 Y0.5718 I0.0524 J-0.0536
N765 X0.6343 Y0.5514 I-0.0603 J-0.5718
N770 X0.682 Y0.5089 I-0.0213 J-0.0719
N775 X0.7457 Y0.5052 I0.0279 J-0.0696
N780 X0.8329 Y0.447 I-0.2745 J-0.5052
N785 X0.8607 Y0.3895 I-0.0472 J-0.0583
N790 X0.9182 Y0.3617 I-0.0008 J-0.075
N795 X0.9764 Y0.2745 I-0.447 J-0.3617
N800 X0.9801 Y0.2108 I-0.0659 J-0.0358
N805 X1.0226 Y0.1631 I-0.0295 J-0.069
N810 X1.043 Y0.0603 I-0.5514 J-0.1631
N815 X1.0221 Y0. I-0.0746 J-0.0079
N820 X1.043 Y-0.0603 I-0.0536 J-0.0524
N825 X1.0226 Y-0.1631 I-0.5718 J0.0603
N830 X0.9801 Y-0.2108 I-0.0719 J0.0213
N835 X0.9764 Y-0.2745 I-0.0696 J-0.0279
N840 X0.9182 Y-0.3617 I-0.5052 J0.2745
N845 X0.8607 Y-0.3895 I-0.0583 J0.0472
N850 X0.8329 Y-0.447 I-0.075 J0.0008
N855 X0.7457 Y-0.5052 I-0.3617 J0.447
N860 X0.682 Y-0.5089 I-0.0358 J0.0659
N865 X0.6343 Y-0.5514 I-0.069 J0.0295
N870 X0.5315 Y-0.5718 I-0.1631 J0.5514
N875 X0.4712 Y-0.5509 I-0.0079 J0.0746
N880 X0.4109 Y-0.5718 I-0.0524 J0.0536
N885 X0.3081 Y-0.5514 I0.0603 J0.5718
N890 X0.2604 Y-0.5089 I0.0213 J0.0719
N895 X0.1967 Y-0.5052 I-0.0279 J0.0696
N900 X0.1095 Y-0.447 I0.2746 J0.5052
N905 X0.0817 Y-0.3895 I0.0472 J0.0583
N910 X0.0242 Y-0.3617 I0.0008 J0.075
N915 X-0.034 Y-0.2745 I0.447 J0.3617
N920 X-0.0377 Y-0.2108 I0.0659 J0.0358
N925 X-0.0802 Y-0.1631 I0.0295 J0.069
N930 X-0.1006 Y-0.0603 I0.5514 J0.1631
N935 X-0.0797 Y0. I0.0746 J0.0079
N940 X-0.1006 Y0.0603 I0.0536 J0.0524
N945 X-0.0802 Y0.1631 I0.5718 J-0.0603
N950 X-0.0377 Y0.2108 I0.0719 J-0.0213
N955 X-0.034 Y0.2745 I0.0696 J0.0279
N960 X0.0242 Y0.3617 I0.5052 J-0.2745
N965 X0.0817 Y0.3895 I0.0583 J-0.0472
N970 X0.1095 Y0.447 I0.075 J-0.0008
N975 X0.1208 Y0.448 I0.0064 J-0.0079
N980 G3 X0.1321 Y0.4488 I0.005 J0.0092
N985 G2 X0.2026 Y0.4942 I0.3391 J-0.4488
N990 X0.2679 Y0.4908 I0.0298 J-0.0549
N995 X0.3116 Y0.5394 I0.0615 J-0.0114
N1000 X0.4122 Y0.5594 I0.1596 J-0.5394
N1005 X0.4712 Y0.5313 I0.0066 J-0.0622
N1010 X0.5302 Y0.5594 I0.0524 J-0.034
N1015 X0.6308 Y0.5394 I-0.059 J-0.5594
N1020 X0.6745 Y0.4908 I-0.0177 J-0.0599
N1025 X0.7398 Y0.4942 I0.0354 J-0.0515
N1030 X0.825 Y0.4373 I-0.2686 J-0.4942
N1035 X0.8469 Y0.3757 I-0.0393 J-0.0486
N1040 X0.9085 Y0.3538 I0.013 J-0.0611
N1045 X0.9654 Y0.2686 I-0.4373 J-0.3538
N1050 X0.962 Y0.2033 I-0.0549 J-0.0298
N1055 X1.0106 Y0.1596 I-0.0114 J-0.0615
N1060 X1.0306 Y0.059 I-0.5394 J-0.1596
N1065 X1.0024 Y0. I-0.0622 J-0.0066
N1070 X1.0306 Y-0.059 I-0.034 J-0.0524
N1075 X1.0106 Y-0.1596 I-0.5594 J0.059
N1080 X0.962 Y-0.2033 I-0.0599 J0.0177
N1085 X0.9654 Y-0.2686 I-0.0515 J-0.0354
N1090 X0.9085 Y-0.3538 I-0.4942 J0.2686
N1095 X0.8469 Y-0.3757 I-0.0486 J0.0393
N1100 X0.825 Y-0.4373 I-0.0611 J-0.013
N1105 X0.7398 Y-0.4942 I-0.3538 J0.4373
N1110 X0.6745 Y-0.4908 I-0.0298 J0.0549
N1115 X0.6308 Y-0.5394 I-0.0615 J0.0114
N1120 X0.5302 Y-0.5594 I-0.1596 J0.5394
N1125 X0.4712 Y-0.5313 I-0.0066 J0.0622
N1130 X0.4122 Y-0.5594 I-0.0524 J0.034
N1135 X0.3116 Y-0.5394 I0.059 J0.5594
N1140 X0.2679 Y-0.4908 I0.0177 J0.0599
N1145 X0.2026 Y-0.4942 I-0.0354 J0.0515
N1150 X0.1174 Y-0.4373 I0.2686 J0.4942
N1155 X0.0955 Y-0.3757 I0.0393 J0.0486
N1160 X0.0339 Y-0.3538 I-0.013 J0.0611
N1165 X-0.023 Y-0.2686 I0.4373 J0.3538
N1170 X-0.0196 Y-0.2033 I0.0549 J0.0298
N1175 X-0.0682 Y-0.1596 I0.0114 J0.0615
N1180 X-0.0882 Y-0.059 I0.5394 J0.1596
N1185 X-0.06 Y0. I0.0622 J0.0066
N1190 X-0.0882 Y0.059 I0.034 J0.0524
N1195 X-0.0682 Y0.1596 I0.5594 J-0.059
N1200 X-0.0196 Y0.2033 I0.0599 J-0.0177
N1205 X-0.023 Y0.2686 I0.0515 J0.0354
N1210 X0.0339 Y0.3538 I0.4942 J-0.2686
N1215 X0.0955 Y0.3757 I0.0486 J-0.0393
N1220 X0.1174 Y0.4373 I0.0611 J0.013
N1225 X0.1321 Y0.4488 I0.3538 J-0.4373
N1230 G3 X0.1346 Y0.4663 I-0.0075 J0.01 F5.
N1235 G1 X0.127 Y0.4763
N1240 X0.1254 Y0.4785 Z-0.2972
N1245 X0.1238 Y0.4806 Z-0.2963
N1250 X0.1223 Y0.4825 Z-0.2948
N1255 X0.1211 Y0.4841 Z-0.2928
N1260 X0.1202 Y0.4853 Z-0.2904
N1265 X0.1197 Y0.486 Z-0.2878
N1270 X0.1195 Y0.4863 Z-0.285
N1275 G0 Z0.2
N1280 X0.0762 Y0.4683
N1285 Z-0.0175
N1290 G1 Z-0.2181 F5.
N1295 Z-0.3075 F1.
N1300 X0.0764 Y0.468 Z-0.3103
N1305 X0.077 Y0.4673 Z-0.3129
N1310 X0.0779 Y0.4662 Z-0.3153
N1315 X0.0791 Y0.4646 Z-0.3173
N1320 X0.0806 Y0.4628 Z-0.3188
N1325 X0.0823 Y0.4607 Z-0.3197
N1330 X0.0841 Y0.4586 Z-0.32
N1335 X0.0919 Y0.4488 F5.
N1340 G3 X0.1095 Y0.447 I0.0097 J0.0079
N1345 G2 X0.1967 Y0.5052 I0.3617 J-0.447 F15.
N1350 X0.2604 Y0.5089 I0.0358 J-0.0659
N1355 X0.3081 Y0.5514 I0.069 J-0.0295
N1360 X0.4109 Y0.5718 I0.1631 J-0.5514
N1365 X0.4712 Y0.5509 I0.0079 J-0.0746
N1370 X0.5315 Y0.5718 I0.0524 J-0.0536
N1375 X0.6343 Y0.5514 I-0.0603 J-0.5718
N1380 X0.682 Y0.5089 I-0.0213 J-0.0719
N1385 X0.7457 Y0.5052 I0.0279 J-0.0696
N1390 X0.8329 Y0.447 I-0.2745 J-0.5052
N1395 X0.8607 Y0.3895 I-0.0472 J-0.0583
N1400 X0.9182 Y0.3617 I-0.0008 J-0.075
N1405 X0.9764 Y0.2745 I-0.447 J-0.3617
N1410 X0.9801 Y0.2108 I-0.0659 J-0.0358
N1415 X1.0226 Y0.1631 I-0.0295 J-0.069
N1420 X1.043 Y0.0603 I-0.5514 J-0.1631
N1425 X1.0221 Y0. I-0.0746 J-0.0079
N1430 X1.043 Y-0.0603 I-0.0536 J-0.0524
N1435 X1.0226 Y-0.1631 I-0.5718 J0.0603
N1440 X0.9801 Y-0.2108 I-0.0719 J0.0213
N1445 X0.9764 Y-0.2745 I-0.0696 J-0.0279
N1450 X0.9182 Y-0.3617 I-0.5052 J0.2745
N1455 X0.8607 Y-0.3895 I-0.0583 J0.0472
N1460 X0.8329 Y-0.447 I-0.075 J0.0008
N1465 X0.7457 Y-0.5052 I-0.3617 J0.447
N1470 X0.682 Y-0.5089 I-0.0358 J0.0659
N1475 X0.6343 Y-0.5514 I-0.069 J0.0295
N1480 X0.5315 Y-0.5718 I-0.1631 J0.5514
N1485 X0.4712 Y-0.5509 I-0.0079 J0.0746
N1490 X0.4109 Y-0.5718 I-0.0524 J0.0536
N1495 X0.3081 Y-0.5514 I0.0603 J0.5718
N1500 X0.2604 Y-0.5089 I0.0213 J0.0719
N1505 X0.1967 Y-0.5052 I-0.0279 J0.0696
N1510 X0.1095 Y-0.447 I0.2746 J0.5052
N1515 X0.0817 Y-0.3895 I0.0472 J0.0583
N1520 X0.0242 Y-0.3617 I0.0008 J0.075
N1525 X-0.034 Y-0.2745 I0.447 J0.3617
N1530 X-0.0377 Y-0.2108 I0.0659 J0.0358
N1535 X-0.0802 Y-0.1631 I0.0295 J0.069
N1540 X-0.1006 Y-0.0603 I0.5514 J0.1631
N1545 X-0.0797 Y0. I0.0746 J0.0079
N1550 X-0.1006 Y0.0603 I0.0536 J0.0524
N1555 X-0.0802 Y0.1631 I0.5718 J-0.0603
N1560 X-0.0377 Y0.2108 I0.0719 J-0.0213
N1565 X-0.034 Y0.2745 I0.0696 J0.0279
N1570 X0.0242 Y0.3617 I0.5052 J-0.2745
N1575 X0.0817 Y0.3895 I0.0583 J-0.0472
N1580 X0.1095 Y0.447 I0.075 J-0.0008
N1585 X0.1208 Y0.448 I0.0064 J-0.0079
N1590 G3 X0.1321 Y0.4488 I0.005 J0.0092
N1595 G2 X0.2026 Y0.4942 I0.3391 J-0.4488
N1600 X0.2679 Y0.4908 I0.0298 J-0.0549
N1605 X0.3116 Y0.5394 I0.0615 J-0.0114
N1610 X0.4122 Y0.5594 I0.1596 J-0.5394
N1615 X0.4712 Y0.5313 I0.0066 J-0.0622
N1620 X0.5302 Y0.5594 I0.0524 J-0.034
N1625 X0.6308 Y0.5394 I-0.059 J-0.5594
N1630 X0.6745 Y0.4908 I-0.0177 J-0.0599
N1635 X0.7398 Y0.4942 I0.0354 J-0.0515
N1640 X0.825 Y0.4373 I-0.2686 J-0.4942
N1645 X0.8469 Y0.3757 I-0.0393 J-0.0486
N1650 X0.9085 Y0.3538 I0.013 J-0.0611
N1655 X0.9654 Y0.2686 I-0.4373 J-0.3538
N1660 X0.962 Y0.2033 I-0.0549 J-0.0298
N1665 X1.0106 Y0.1596 I-0.0114 J-0.0615
N1670 X1.0306 Y0.059 I-0.5394 J-0.1596
N1675 X1.0024 Y0. I-0.0622 J-0.0066
N1680 X1.0306 Y-0.059 I-0.034 J-0.0524
N1685 X1.0106 Y-0.1596 I-0.5594 J0.059
N1690 X0.962 Y-0.2033 I-0.0599 J0.0177
N1695 X0.9654 Y-0.2686 I-0.0515 J-0.0354
N1700 X0.9085 Y-0.3538 I-0.4942 J0.2686
N1705 X0.8469 Y-0.3757 I-0.0486 J0.0393
N1710 X0.825 Y-0.4373 I-0.0611 J-0.013
N1715 X0.7398 Y-0.4942 I-0.3538 J0.4373
N1720 X0.6745 Y-0.4908 I-0.0298 J0.0549
N1725 X0.6308 Y-0.5394 I-0.0615 J0.0114
N1730 X0.5302 Y-0.5594 I-0.1596 J0.5394
N1735 X0.4712 Y-0.5313 I-0.0066 J0.0622
N1740 X0.4122 Y-0.5594 I-0.0524 J0.034
N1745 X0.3116 Y-0.5394 I0.059 J0.5594
N1750 X0.2679 Y-0.4908 I0.0177 J0.0599
N1755 X0.2026 Y-0.4942 I-0.0354 J0.0515
N1760 X0.1174 Y-0.4373 I0.2686 J0.4942
N1765 X0.0955 Y-0.3757 I0.0393 J0.0486
N1770 X0.0339 Y-0.3538 I-0.013 J0.0611
N1775 X-0.023 Y-0.2686 I0.4373 J0.3538
N1780 X-0.0196 Y-0.2033 I0.0549 J0.0298
N1785 X-0.0682 Y-0.1596 I0.0114 J0.0615
N1790 X-0.0882 Y-0.059 I0.5394 J0.1596
N1795 X-0.06 Y0. I0.0622 J0.0066
N1800 X-0.0882 Y0.059 I0.034 J0.0524
N1805 X-0.0682 Y0.1596 I0.5594 J-0.059
N1810 X-0.0196 Y0.2033 I0.0599 J-0.0177
N1815 X-0.023 Y0.2686 I0.0515 J0.0354
N1820 X0.0339 Y0.3538 I0.4942 J-0.2686
N1825 X0.0955 Y0.3757 I0.0486 J-0.0393
N1830 X0.1174 Y0.4373 I0.0611 J0.013
N1835 X0.1321 Y0.4488 I0.3538 J-0.4373
N1840 G3 X0.1346 Y0.4663 I-0.0075 J0.01 F5.
N1845 G1 X0.127 Y0.4763
N1850 X0.1254 Y0.4785 Z-0.3197
N1855 X0.1238 Y0.4806 Z-0.3188
N1860 X0.1223 Y0.4825 Z-0.3173
N1865 X0.1211 Y0.4841 Z-0.3153
N1870 X0.1202 Y0.4853 Z-0.3129
N1875 X0.1197 Y0.486 Z-0.3103
N1880 X0.1195 Y0.4863 Z-0.3075
N1885 G0 Z0.2
N1890 X0.0762 Y0.4683
N1895 Z-0.0175
N1900 G1 Z-0.2406 F5.
N1905 Z-0.33 F1.
N1910 X0.0764 Y0.468 Z-0.3328
N1915 X0.077 Y0.4673 Z-0.3354
N1920 X0.0779 Y0.4662 Z-0.3378
N1925 X0.0791 Y0.4646 Z-0.3398
N1930 X0.0806 Y0.4628 Z-0.3413
N1935 X0.0823 Y0.4607 Z-0.3422
N1940 X0.0841 Y0.4586 Z-0.3425
N1945 X0.0919 Y0.4488 F5.
N1950 G3 X0.1095 Y0.447 I0.0097 J0.0079
N1955 G2 X0.1967 Y0.5052 I0.3617 J-0.447 F15.
N1960 X0.2604 Y0.5089 I0.0358 J-0.0659
N1965 X0.3081 Y0.5514 I0.069 J-0.0295
N1970 X0.4109 Y0.5718 I0.1631 J-0.5514
N1975 X0.4712 Y0.5509 I0.0079 J-0.0746
N1980 X0.5315 Y0.5718 I0.0524 J-0.0536
N1985 X0.6343 Y0.5514 I-0.0603 J-0.5718
N1990 X0.682 Y0.5089 I-0.0213 J-0.0719
N1995 X0.7457 Y0.5052 I0.0279 J-0.0696
N2000 X0.8329 Y0.447 I-0.2745 J-0.5052
N2005 X0.8607 Y0.3895 I-0.0472 J-0.0583
N2010 X0.9182 Y0.3617 I-0.0008 J-0.075
N2015 X0.9764 Y0.2745 I-0.447 J-0.3617
N2020 X0.9801 Y0.2108 I-0.0659 J-0.0358
N2025 X1.0226 Y0.1631 I-0.0295 J-0.069
N2030 X1.043 Y0.0603 I-0.5514 J-0.1631
N2035 X1.0221 Y0. I-0.0746 J-0.0079
N2040 X1.043 Y-0.0603 I-0.0536 J-0.0524
N2045 X1.0226 Y-0.1631 I-0.5718 J0.0603
N2050 X0.9801 Y-0.2108 I-0.0719 J0.0213
N2055 X0.9764 Y-0.2745 I-0.0696 J-0.0279
N2060 X0.9182 Y-0.3617 I-0.5052 J0.2745
N2065 X0.8607 Y-0.3895 I-0.0583 J0.0472
N2070 X0.8329 Y-0.447 I-0.075 J0.0008
N2075 X0.7457 Y-0.5052 I-0.3617 J0.447
N2080 X0.682 Y-0.5089 I-0.0358 J0.0659
N2085 X0.6343 Y-0.5514 I-0.069 J0.0295
N2090 X0.5315 Y-0.5718 I-0.1631 J0.5514
N2095 X0.4712 Y-0.5509 I-0.0079 J0.0746
N2100 X0.4109 Y-0.5718 I-0.0524 J0.0536
N2105 X0.3081 Y-0.5514 I0.0603 J0.5718
N2110 X0.2604 Y-0.5089 I0.0213 J0.0719
N2115 X0.1967 Y-0.5052 I-0.0279 J0.0696
N2120 X0.1095 Y-0.447 I0.2746 J0.5052
N2125 X0.0817 Y-0.3895 I0.0472 J0.0583
N2130 X0.0242 Y-0.3617 I0.0008 J0.075
N2135 X-0.034 Y-0.2745 I0.447 J0.3617
N2140 X-0.0377 Y-0.2108 I0.0659 J0.0358
N2145 X-0.0802 Y-0.1631 I0.0295 J0.069
N2150 X-0.1006 Y-0.0603 I0.5514 J0.1631
N2155 X-0.0797 Y0. I0.0746 J0.0079
N2160 X-0.1006 Y0.0603 I0.0536 J0.0524
N2165 X-0.0802 Y0.1631 I0.5718 J-0.0603
N2170 X-0.0377 Y0.2108 I0.0719 J-0.0213
N2175 X-0.034 Y0.2745 I0.0696 J0.0279
N2180 X0.0242 Y0.3617 I0.5052 J-0.2745
N2185 X0.0817 Y0.3895 I0.0583 J-0.0472
N2190 X0.1095 Y0.447 I0.075 J-0.0008
N2195 X0.1208 Y0.448 I0.0064 J-0.0079
N2200 G3 X0.1321 Y0.4488 I0.005 J0.0092
N2205 G2 X0.2026 Y0.4942 I0.3391 J-0.4488
N2210 X0.2679 Y0.4908 I0.0298 J-0.0549
N2215 X0.3116 Y0.5394 I0.0615 J-0.0114
N2220 X0.4122 Y0.5594 I0.1596 J-0.5394
N2225 X0.4712 Y0.5313 I0.0066 J-0.0622
N2230 X0.5302 Y0.5594 I0.0524 J-0.034
N2235 X0.6308 Y0.5394 I-0.059 J-0.5594
N2240 X0.6745 Y0.4908 I-0.0177 J-0.0599
N2245 X0.7398 Y0.4942 I0.0354 J-0.0515
N2250 X0.825 Y0.4373 I-0.2686 J-0.4942
N2255 X0.8469 Y0.3757 I-0.0393 J-0.0486
N2260 X0.9085 Y0.3538 I0.013 J-0.0611
N2265 X0.9654 Y0.2686 I-0.4373 J-0.3538
N2270 X0.962 Y0.2033 I-0.0549 J-0.0298
N2275 X1.0106 Y0.1596 I-0.0114 J-0.0615
N2280 X1.0306 Y0.059 I-0.5394 J-0.1596
N2285 X1.0024 Y0. I-0.0622 J-0.0066
N2290 X1.0306 Y-0.059 I-0.034 J-0.0524
N2295 X1.0106 Y-0.1596 I-0.5594 J0.059
N2300 X0.962 Y-0.2033 I-0.0599 J0.0177
N2305 X0.9654 Y-0.2686 I-0.0515 J-0.0354
N2310 X0.9085 Y-0.3538 I-0.4942 J0.2686
N2315 X0.8469 Y-0.3757 I-0.0486 J0.0393
N2320 X0.825 Y-0.4373 I-0.0611 J-0.013
N2325 X0.7398 Y-0.4942 I-0.3538 J0.4373
N2330 X0.6745 Y-0.4908 I-0.0298 J0.0549
N2335 X0.6308 Y-0.5394 I-0.0615 J0.0114
N2340 X0.5302 Y-0.5594 I-0.1596 J0.5394
N2345 X0.4712 Y-0.5313 I-0.0066 J0.0622
N2350 X0.4122 Y-0.5594 I-0.0524 J0.034
N2355 X0.3116 Y-0.5394 I0.059 J0.5594
N2360 X0.2679 Y-0.4908 I0.0177 J0.0599
N2365 X0.2026 Y-0.4942 I-0.0354 J0.0515
N2370 X0.1174 Y-0.4373 I0.2686 J0.4942
N2375 X0.0955 Y-0.3757 I0.0393 J0.0486
N2380 X0.0339 Y-0.3538 I-0.013 J0.0611
N2385 X-0.023 Y-0.2686 I0.4373 J0.3538
N2390 X-0.0196 Y-0.2033 I0.0549 J0.0298
N2395 X-0.0682 Y-0.1596 I0.0114 J0.0615
N2400 X-0.0882 Y-0.059 I0.5394 J0.1596
N2405 X-0.06 Y0. I0.0622 J0.0066
N2410 X-0.0882 Y0.059 I0.034 J0.0524
N2415 X-0.0682 Y0.1596 I0.5594 J-0.059
N2420 X-0.0196 Y0.2033 I0.0599 J-0.0177
N2425 X-0.023 Y0.2686 I0.0515 J0.0354
N2430 X0.0339 Y0.3538 I0.4942 J-0.2686
N2435 X0.0955 Y0.3757 I0.0486 J-0.0393
N2440 X0.1174 Y0.4373 I0.0611 J0.013
N2445 X0.1321 Y0.4488 I0.3538 J-0.4373
N2450 G3 X0.1346 Y0.4663 I-0.0075 J0.01 F5.
N2455 G1 X0.127 Y0.4763
N2460 X0.1254 Y0.4785 Z-0.3422
N2465 X0.1238 Y0.4806 Z-0.3413
N2470 X0.1223 Y0.4825 Z-0.3398
N2475 X0.1211 Y0.4841 Z-0.3378
N2480 X0.1202 Y0.4853 Z-0.3354
N2485 X0.1197 Y0.486 Z-0.3328
N2490 X0.1195 Y0.4863 Z-0.33
N2495 G0 Z0.6
N2505 M9
N2510 G53 Z0.
N2515 M30
%
