%
(1001)
(316 END MILL)
(T2  D=0.125 CR=0. - ZMIN=-0.2075 - FLAT END MILL)
N10 G90 G94 G17 G91.1
N15 G20
N20 G53 G0 Z0.
(2D CONTOUR5)
N25 M9
N30 T2 M6
N35 S12000 M3
N40 G54
N45 M9
N55 G0 X-0.545 Y0.1089
N60 G43 Z0.6 H2
N65 G0 Z0.2
N70 G1 Z0.0394 F5.
N75 Z-0.195 F1.
N80 G18 G3 X-0.5575 Z-0.2075 I-0.0125 K0.
N85 G1 X-0.57 F5.
N90 G17 G3 X-0.5825 Y0.0964 I0. J-0.0125
N95 G1 Y-0.0964 F15.
N100 G3 X-0.57 Y-0.1089 I0.0125 J0. F5.
N105 G1 X-0.5575
N110 G18 G2 X-0.545 Z-0.195 I0. K0.0125
N115 G0 Z0.2
N120 X-0.9419
N125 G1 Z0.0394 F5.
N130 Z-0.195 F1.
N135 G2 X-0.9294 Z-0.2075 I0.0125 K0.
N140 G1 X-0.9169 F5.
N145 G17 G3 X-0.9044 Y-0.0964 I0. J0.0125
N150 G1 Y0.0964 F15.
N155 G3 X-0.9169 Y0.1089 I-0.0125 J0. F5.
N160 G1 X-0.9294
N165 G18 G3 X-0.9419 Z-0.195 I0. K0.0125
N170 G0 Z0.6
N175 G17
(FACE3)
N180 M9
N185 G0 X-0.5647 Y-0.107
N190 Z0.6
N195 Z0.2
N200 G1 Z-0.0175 F5.
N205 G18 G3 X-0.5772 Z-0.03 I-0.0125 K0.
N210 G1 X-0.645
N215 X-0.8419 F15.
N220 G17 G2 Y-0.0149 I0. J0.0461
N225 G1 X-0.645
N230 G3 Y0.0772 I0. J0.0461
N235 G1 X-0.8419
N240 G18 G3 X-0.8544 Z-0.0175 I0. K0.0125 F5.
N245 G0 Z0.2
N250 X0.2438 Y-0.1611
N255 G1 Z-0.0175 F5.
N260 G2 X0.2563 Z-0.03 I0.0125 K0.
N265 G1 X0.2973
N270 X0.6451 F15.
N275 X0.6712
N280 G17 G3 Y-0.0609 I0. J0.0501
N285 G1 X0.2712
N290 G2 Y0.0393 I0. J0.0501
N295 G1 X0.6712
N300 G3 Y0.1394 I0. J0.0501
N305 G1 X0.6556
N310 X0.2868
N315 G18 G3 X0.2743 Z-0.0175 I0. K0.0125 F5.
N320 G0 Z0.6
N325 G17
N330 M9
N335 G53 G0 Z0.
N340 M30
%
