%
(1001)
(316 END MILL)
(T3  D=0.125 CR=0. TAPER=118DEG - ZMIN=-0.4575 - DRILL)
N10 G90 G94 G17 G91.1
N15 G20
N20 G53 G0 Z0.
(DRILL2)
N25 M9
N30 T3 M6
N35 S800 M3
N40 G54
N45 M8
N55 G0 X-0.7434 Y0.
N60 G43 Z0.6 H3
N70 G0 Z0.2
N75 Z0.1697
N80 Z0.0497
N85 G1 Z-0.0616 F4.
N90 G0 Z-0.0576
N95 G1 Z-0.0928 F4.
N100 G0 Z-0.0888
N105 G1 Z-0.1241 F4.
N110 G0 Z-0.1201
N115 G1 Z-0.1553 F4.
N120 G0 Z-0.1513
N125 G1 Z-0.1866 F4.
N130 G0 Z-0.1826
N135 G1 Z-0.2178 F4.
N140 G0 Z-0.2138
N145 G1 Z-0.2491 F4.
N150 G0 Z-0.2451
N155 G1 Z-0.2803 F4.
N160 G0 Z-0.2763
N165 G1 Z-0.3116 F4.
N170 G0 Z-0.3076
N175 G1 Z-0.3428 F4.
N180 G0 Z-0.3388
N185 G1 Z-0.3741 F4.
N190 G0 Z-0.3701
N195 G1 Z-0.4053 F4.
N200 G0 Z0.2
N205 Z-0.3253
N210 G1 Z-0.4366 F4.
N215 G0 Z-0.4326
N220 G1 Z-0.4575 F4.
N225 G0 Z0.2
N235 X0.4712
N240 Z0.17
N245 Z0.05
N250 G1 Z-0.0613 F4.
N255 G0 Z-0.0573
N260 G1 Z-0.0925 F4.
N265 G0 Z-0.0885
N270 G1 Z-0.1237 F4.
N275 G0 Z-0.1197
N280 G1 Z-0.155 F4.
N285 G0 Z-0.151
N290 G1 Z-0.1862 F4.
N295 G0 Z-0.1822
N300 G1 Z-0.2175 F4.
N305 G0 Z-0.2135
N310 G1 Z-0.2487 F4.
N315 G0 Z-0.2447
N320 G1 Z-0.28 F4.
N325 G0 Z-0.276
N330 G1 Z-0.3112 F4.
N335 G0 Z-0.3072
N340 G1 Z-0.3425 F4.
N345 G0 Z-0.3385
N350 G1 Z-0.3425 F4.
N355 G0 Z0.2
N360 Z0.6
N370 M9
N375 G53 Z0.
N380 M30
%
