%
(1001)
(316 END MILL)
(T6  D=0.25 CR=0. - ZMIN=-0.345 - FLAT END MILL)
N10 G90 G94 G17 G91.1
N15 G20
N20 G53 G0 Z0.
(14 CLEARING)
N25 M9
N30 T6 M6
N35 S1800 M3
N40 G54
N45 M8
N55 G0 X-1.5252 Y-1.0377
N60 G43 Z0.6 H6
N65 G0 Z0.2
N70 Z-0.075
N75 G1 Z-0.1 F5.
N80 Y-1.0374 Z-0.1039
N85 X-1.5249 Y-1.0365 Z-0.1077
N90 X-1.5246 Y-1.0351 Z-0.1113
N95 X-1.5241 Y-1.0331 Z-0.1147
N100 X-1.5234 Y-1.0306 Z-0.1177
N105 X-1.5227 Y-1.0277 Z-0.1202
N110 X-1.5219 Y-1.0245 Z-0.1223
N115 X-1.521 Y-1.021 Z-0.1238
N120 X-1.52 Y-1.0173 Z-0.1247
N125 X-1.519 Y-1.0135 Z-0.125
N130 G3 X-1.4995 Y-0.8774 I-0.6183 J0.1584
N135 G1 Y-0.8714 F7.
N140 X-1.507 Y-0.8332
N145 X-1.5123 Y-0.7945
N150 X-1.5159 Y-0.7557
N155 X-1.5184 Y-0.7168
N160 X-1.5201 Y-0.6778
N165 X-1.5213 Y-0.6389
N170 X-1.5221 Y-0.5999
N175 X-1.5226 Y-0.5609
N180 X-1.523 Y-0.5219
N185 X-1.5233 Y-0.4829
N190 X-1.5235 Y-0.4439
N195 X-1.5237 Y-0.3659
N200 X-1.5239 Y-0.249
N205 X-1.5241 Y0.1019
N210 X-1.5244 Y0.6283
N215 X-1.5238 Y0.638
N220 X-1.5194 Y0.657
N225 X-1.4993 Y0.6904
N230 X-1.4692 Y0.7152
N235 X-1.4345 Y0.7331
N240 X-1.3976 Y0.7457
N245 X-1.3597 Y0.7545
N250 X-1.3212 Y0.7607
N255 X-1.2824 Y0.7649
N260 X-1.2435 Y0.7678
N265 X-1.2046 Y0.7698
N270 X-1.1656 Y0.7712
N275 X-1.1266 Y0.7721
N280 X-1.0876 Y0.7727
N285 X-1.0487 Y0.7732
N290 X-1.0097 Y0.7735
N295 X-0.9707 Y0.7737
N300 X-0.9317 Y0.7738
N305 X-0.8537 Y0.774
N310 X-0.6977 Y0.7742
N315 X0.316 Y0.7744
N320 X0.9009 Y0.7745
N325 X1.3883 Y0.7746
N330 X1.407 Y0.7691
N335 X1.4403 Y0.7489
N340 X1.4651 Y0.7187
N345 X1.4829 Y0.684
N350 X1.4955 Y0.6471
N355 X1.5043 Y0.6092
N360 X1.5104 Y0.5707
N365 X1.5147 Y0.5319
N370 X1.5176 Y0.493
N375 X1.5196 Y0.4541
N380 X1.521 Y0.4151
N385 X1.5219 Y0.3761
N390 X1.5226 Y0.3371
N395 X1.523 Y0.2982
N400 X1.5233 Y0.2592
N405 X1.5235 Y0.2202
N410 X1.5237 Y0.1812
N415 X1.5239 Y0.1032
N420 X1.5241 Y-0.0528
N425 X1.5244 Y-0.6376
N430 X1.5192 Y-0.6564
N435 X1.4994 Y-0.69
N440 X1.4694 Y-0.7149
N445 X1.4348 Y-0.7328
N450 X1.3979 Y-0.7455
N455 X1.3599 Y-0.7544
N460 X1.3214 Y-0.7606
N465 X1.2827 Y-0.7648
N470 X1.2438 Y-0.7678
N475 X1.2049 Y-0.7698
N480 X1.1659 Y-0.7711
N485 X1.1269 Y-0.7721
N490 X1.0879 Y-0.7727
N495 X1.0489 Y-0.7732
N500 X1.01 Y-0.7735
N505 X0.971 Y-0.7737
N510 X0.932 Y-0.7738
N515 X0.854 Y-0.774
N520 X0.698 Y-0.7742
N525 X-0.3157 Y-0.7744
N530 X-0.4327
N535 X-1.271 Y-0.7745
N540 X-1.2905 Y-0.7732
N545 X-1.3085 Y-0.7657
N550 X-1.3405 Y-0.7436
N555 X-1.3646 Y-0.7129
N560 X-1.3821 Y-0.6781
N565 X-1.3946 Y-0.6411
N570 X-1.4034 Y-0.6032
N575 X-1.4097 Y-0.5647
N580 X-1.414 Y-0.5259
N585 X-1.4171 Y-0.487
N590 X-1.4192 Y-0.4481
N595 X-1.4206 Y-0.4091
N600 X-1.4217 Y-0.3702
N605 X-1.4224 Y-0.3312
N610 X-1.4229 Y-0.2922
N615 X-1.4232 Y-0.2532
N620 X-1.4235 Y-0.2142
N625 X-1.4237 Y-0.1752
N630 X-1.4239 Y-0.0972
N635 X-1.424 Y0.0197
N640 X-1.4242 Y0.2927
N645 X-1.4243 Y0.5071
N650 X-1.4203 Y0.5262
N655 X-1.4048 Y0.562
N660 X-1.3789 Y0.5911
N665 X-1.3469 Y0.6134
N670 X-1.3117 Y0.6302
N675 X-1.2747 Y0.6426
N680 X-1.2368 Y0.6516
N685 X-1.1984 Y0.6581
N690 X-1.1597 Y0.6627
N695 X-1.1208 Y0.6661
N700 X-1.0819 Y0.6684
N705 X-1.0429 Y0.6701
N710 X-1.004 Y0.6713
N715 X-0.965 Y0.6722
N720 X-0.926 Y0.6728
N725 X-0.887 Y0.6732
N730 X-0.848 Y0.6735
N735 X-0.809 Y0.6737
N740 X-0.77 Y0.6738
N745 X-0.6921 Y0.674
N750 X-0.5751 Y0.6742
N755 X-0.2242 Y0.6743
N760 X0.2827 Y0.6744
N765 X1.2575 Y0.6745
N770 X1.2765 Y0.6703
N775 X1.3122 Y0.6546
N780 X1.3412 Y0.6285
N785 X1.3635 Y0.5965
N790 X1.3802 Y0.5613
N795 X1.3925 Y0.5243
N800 X1.4014 Y0.4863
N805 X1.4079 Y0.4479
N810 X1.4126 Y0.4091
N815 X1.4159 Y0.3703
N820 X1.4183 Y0.3314
N825 X1.42 Y0.2924
N830 X1.4212 Y0.2535
N835 X1.422 Y0.2145
N840 X1.4226 Y0.1755
N845 X1.423 Y0.1365
N850 X1.4234 Y0.0975
N855 X1.4236 Y0.0585
N860 X1.4237 Y0.0195
N865 X1.424 Y-0.0585
N870 X1.4241 Y-0.1754
N875 X1.4242 Y-0.2534
N880 X1.4243 Y-0.5068
N885 X1.4203 Y-0.5259
N890 X1.4049 Y-0.5617
N895 X1.379 Y-0.5909
N900 X1.3471 Y-0.6133
N905 X1.3119 Y-0.6301
N910 X1.2749 Y-0.6425
N915 X1.237 Y-0.6515
N920 X1.1986 Y-0.658
N925 X1.1599 Y-0.6627
N930 X1.121 Y-0.666
N935 X1.0821 Y-0.6684
N940 X1.0431 Y-0.6701
N945 X1.0042 Y-0.6713
N950 X0.9652 Y-0.6721
N955 X0.9262 Y-0.6727
N960 X0.8872 Y-0.6732
N965 X0.8482 Y-0.6735
N970 X0.8092 Y-0.6737
N975 X0.7702 Y-0.6738
N980 X0.6923 Y-0.674
N985 X0.5753 Y-0.6742
N990 X0.2244 Y-0.6743
N995 X-0.2435 Y-0.6744
N1000 X-1.1403 Y-0.6745
N1005 X-1.1598 Y-0.6732
N1010 X-1.1785 Y-0.6679
N1015 X-1.2136 Y-0.6509
N1020 X-1.242 Y-0.6241
N1025 X-1.2639 Y-0.5919
N1030 X-1.2803 Y-0.5565
N1035 X-1.2924 Y-0.5195
N1040 X-1.3013 Y-0.4815
N1045 X-1.3078 Y-0.443
N1050 X-1.3124 Y-0.4043
N1055 X-1.3157 Y-0.3655
N1060 X-1.3181 Y-0.3266
N1065 X-1.3198 Y-0.2876
N1070 X-1.3211 Y-0.2486
N1075 X-1.3219 Y-0.2097
N1080 X-1.3226 Y-0.1707
N1085 X-1.323 Y-0.1317
N1090 X-1.3233 Y-0.0927
N1095 X-1.3236 Y-0.0537
N1100 X-1.3237 Y-0.0147
N1105 X-1.3239 Y0.0633
N1110 X-1.3241 Y0.1802
N1115 X-1.3242 Y0.3362
N1120 X-1.3243 Y0.3752
N1125 X-1.3237 Y0.3947
N1130 X-1.3158 Y0.4329
N1135 X-1.2955 Y0.4662
N1140 X-1.2673 Y0.4931
N1145 X-1.2344 Y0.5141
N1150 X-1.1989 Y0.53
N1155 X-1.1617 Y0.5419
N1160 X-1.1238 Y0.5507
N1165 X-1.0853 Y0.5572
N1170 X-1.0466 Y0.5619
N1175 X-1.0078 Y0.5654
N1180 X-0.9688 Y0.5678
N1185 X-0.9299 Y0.5696
N1190 X-0.8909 Y0.5709
N1195 X-0.8519 Y0.5718
N1200 X-0.813 Y0.5725
N1205 X-0.774 Y0.573
N1210 X-0.735 Y0.5733
N1215 X-0.696 Y0.5736
N1220 X-0.657 Y0.5738
N1225 X-0.579 Y0.574
N1230 X-0.462 Y0.5742
N1235 X-0.1891 Y0.5743
N1240 X0.5127 Y0.5744
N1245 X1.1366 Y0.5745
N1250 X1.1559 Y0.572
N1255 X1.1931 Y0.5602
N1260 X1.2246 Y0.5372
N1265 X1.2497 Y0.5074
N1270 X1.2691 Y0.4736
N1275 X1.2837 Y0.4375
N1280 X1.2946 Y0.4
N1285 X1.3027 Y0.3619
N1290 X1.3086 Y0.3233
N1295 X1.3129 Y0.2846
N1300 X1.316 Y0.2457
N1305 X1.3183 Y0.2068
N1310 X1.3199 Y0.1678
N1315 X1.3211 Y0.1289
N1320 X1.3219 Y0.0899
N1325 X1.3226 Y0.0509
N1330 X1.323 Y0.0119
N1335 X1.3233 Y-0.0271
N1340 X1.3236 Y-0.0661
N1345 X1.3238 Y-0.1051
N1350 X1.324 Y-0.1831
N1355 X1.3242 Y-0.3
N1360 Y-0.378
N1365 X1.3232 Y-0.3975
N1370 X1.3143 Y-0.4354
N1375 X1.2934 Y-0.4683
N1380 X1.2648 Y-0.4948
N1385 X1.2317 Y-0.5154
N1390 X1.1959 Y-0.531
N1395 X1.1587 Y-0.5427
N1400 X1.1207 Y-0.5513
N1405 X1.0822 Y-0.5576
N1410 X1.0435 Y-0.5622
N1415 X1.0047 Y-0.5656
N1420 X0.9657 Y-0.568
N1425 X0.9268 Y-0.5697
N1430 X0.8878 Y-0.571
N1435 X0.8488 Y-0.5719
N1440 X0.8099 Y-0.5726
N1445 X0.7709 Y-0.573
N1450 X0.7319 Y-0.5734
N1455 X0.6929 Y-0.5736
N1460 X0.6539 Y-0.5738
N1465 X0.5759 Y-0.574
N1470 X0.4589 Y-0.5742
N1475 X0.186 Y-0.5743
N1480 X-0.9057 Y-0.5745
N1485 X-1.0227
N1490 X-1.0617 Y-0.5729
N1495 X-1.0978 Y-0.5584
N1500 X-1.1282 Y-0.5339
N1505 X-1.1523 Y-0.5033
N1510 X-1.1709 Y-0.469
N1515 X-1.185 Y-0.4326
N1520 X-1.1954 Y-0.3951
N1525 X-1.2032 Y-0.3569
N1530 X-1.2089 Y-0.3183
N1535 X-1.2131 Y-0.2795
N1540 X-1.2161 Y-0.2407
N1545 X-1.2183 Y-0.2017
N1550 X-1.2199 Y-0.1628
N1555 X-1.2211 Y-0.1238
N1560 X-1.222 Y-0.0848
N1565 X-1.2226 Y-0.0458
N1570 X-1.223 Y-0.0068
N1575 X-1.2233 Y0.0321
N1580 X-1.2236 Y0.0711
N1585 X-1.2238 Y0.1101
N1590 X-1.224 Y0.1881
N1595 X-1.2241 Y0.2661
N1600 X-1.2233 Y0.3051
N1605 X-1.2099 Y0.3417
N1610 X-1.1863 Y0.3728
N1615 X-1.1564 Y0.3977
N1620 X-1.1226 Y0.4172
N1625 X-1.0865 Y0.432
N1630 X-1.0491 Y0.4431
N1635 X-1.011 Y0.4514
N1640 X-0.9725 Y0.4575
N1645 X-0.9338 Y0.4621
N1650 X-0.895 Y0.4654
N1655 X-0.856 Y0.4678
N1660 X-0.8171 Y0.4696
N1665 X-0.7781 Y0.4708
N1670 X-0.7391 Y0.4718
N1675 X-0.7002 Y0.4724
N1680 X-0.6612 Y0.4729
N1685 X-0.6222 Y0.4733
N1690 X-0.5832 Y0.4736
N1695 X-0.5442 Y0.4737
N1700 X-0.4662 Y0.474
N1705 X-0.3882 Y0.4741
N1710 X-0.2323 Y0.4742
N1715 X0.7035 Y0.4744
N1720 X1.0154 Y0.4745
N1725 X1.0544 Y0.4735
N1730 X1.091 Y0.4601
N1735 X1.1222 Y0.4366
N1740 X1.1472 Y0.4067
N1745 X1.1667 Y0.373
N1750 X1.1815 Y0.3369
N1755 X1.1927 Y0.2995
N1760 X1.2011 Y0.2615
N1765 X1.2072 Y0.223
N1770 X1.2118 Y0.1842
N1775 X1.2151 Y0.1454
N1780 X1.2176 Y0.1065
N1785 X1.2194 Y0.0675
N1790 X1.2207 Y0.0286
N1795 X1.2217 Y-0.0104
N1800 X1.2224 Y-0.0494
N1805 X1.2229 Y-0.0884
N1810 X1.2232 Y-0.1274
N1815 X1.2235 Y-0.1664
N1820 X1.2237 Y-0.2054
N1825 X1.224 Y-0.2833
N1830 X1.2178 Y-0.3218
N1835 X1.1995 Y-0.3562
N1840 X1.1728 Y-0.3847
N1845 X1.1409 Y-0.4071
N1850 X1.1059 Y-0.4243
N1855 X1.0692 Y-0.4373
N1860 X1.0314 Y-0.4471
N1865 X0.9931 Y-0.4544
N1870 X0.9545 Y-0.4597
N1875 X0.9157 Y-0.4636
N1880 X0.8768 Y-0.4665
N1885 X0.8379 Y-0.4686
N1890 X0.7989 Y-0.4702
N1895 X0.7599 Y-0.4713
N1900 X0.721 Y-0.4721
N1905 X0.682 Y-0.4727
N1910 X0.643 Y-0.4731
N1915 X0.604 Y-0.4734
N1920 X0.565 Y-0.4736
N1925 X0.526 Y-0.4738
N1930 X0.448 Y-0.474
N1935 X0.3311 Y-0.4742
N1940 X0.0581 Y-0.4743
N1945 X-0.4098 Y-0.4744
N1950 X-0.9166 Y-0.4745
N1955 X-0.9556 Y-0.4733
N1960 X-0.992 Y-0.4594
N1965 X-1.023 Y-0.4357
N1970 X-1.0478 Y-0.4056
N1975 X-1.067 Y-0.3717
N1980 X-1.0818 Y-0.3356
N1985 X-1.0928 Y-0.2982
N1990 X-1.1011 Y-0.2601
N1995 X-1.1073 Y-0.2216
N2000 X-1.1118 Y-0.1829
N2005 X-1.1151 Y-0.144
N2010 X-1.1176 Y-0.1051
N2015 X-1.1194 Y-0.0661
N2020 X-1.1207 Y-0.0272
N2025 X-1.1216 Y0.0118
N2030 X-1.1223 Y0.0508
N2035 X-1.1228 Y0.0898
N2040 X-1.1232 Y0.1288
N2045 X-1.1235 Y0.1678
N2050 X-1.1214 Y0.2067
N2055 X-1.1068 Y0.2428
N2060 X-1.0826 Y0.2734
N2065 X-1.0523 Y0.298
N2070 X-1.0183 Y0.3171
N2075 X-0.9822 Y0.3317
N2080 X-0.9448 Y0.3428
N2085 X-0.9067 Y0.351
N2090 X-0.8682 Y0.3572
N2095 X-0.8295 Y0.3617
N2100 X-0.7906 Y0.3651
N2105 X-0.7517 Y0.3675
N2110 X-0.7128 Y0.3693
N2115 X-0.6738 Y0.3707
N2120 X-0.6348 Y0.3716
N2125 X-0.5958 Y0.3723
N2130 X-0.5569 Y0.3729
N2135 X-0.5179 Y0.3732
N2140 X-0.4789 Y0.3735
N2145 X-0.4399 Y0.3737
N2150 X-0.3619 Y0.374
N2155 X-0.2449 Y0.3742
N2160 X-0.011 Y0.3743
N2165 X0.9248 Y0.3745
N2170 X0.9635 Y0.3701
N2175 X0.9988 Y0.3534
N2180 X1.0282 Y0.3278
N2185 X1.0517 Y0.2966
N2190 X1.0699 Y0.2622
N2195 X1.0838 Y0.2258
N2200 X1.0943 Y0.1882
N2205 X1.1021 Y0.15
N2210 X1.108 Y0.1115
N2215 X1.1123 Y0.0727
N2220 X1.1155 Y0.0338
N2225 X1.1178 Y-0.0051
N2230 X1.1195 Y-0.044
N2235 X1.1208 Y-0.083
N2240 X1.1217 Y-0.122
N2245 X1.1224 Y-0.161
N2250 X1.1221 Y-0.2
N2255 X1.1096 Y-0.2369
N2260 X1.0868 Y-0.2685
N2265 X1.0574 Y-0.2941
N2270 X1.0239 Y-0.3141
N2275 X0.9881 Y-0.3295
N2280 X0.9509 Y-0.3411
N2285 X0.9129 Y-0.3498
N2290 X0.8744 Y-0.3562
N2295 X0.8357 Y-0.361
N2300 X0.7969 Y-0.3646
N2305 X0.758 Y-0.3672
N2310 X0.719 Y-0.3691
N2315 X0.6801 Y-0.3705
N2320 X0.6411 Y-0.3715
N2325 X0.6021 Y-0.3722
N2330 X0.5631 Y-0.3728
N2335 X0.5241 Y-0.3732
N2340 X0.4852 Y-0.3735
N2345 X0.4462 Y-0.3737
N2350 X0.4072 Y-0.3738
N2355 X0.3292 Y-0.374
N2360 X0.2122 Y-0.3742
N2365 X-0.0607 Y-0.3743
N2370 X-0.7236 Y-0.3744
N2375 X-0.8015 Y-0.3745
N2380 X-0.8405 Y-0.3744
N2385 X-0.8783 Y-0.3646
N2390 X-0.9112 Y-0.3438
N2395 X-0.9382 Y-0.3157
N2400 X-0.9595 Y-0.283
N2405 X-0.9758 Y-0.2476
N2410 X-0.9883 Y-0.2106
N2415 X-0.9976 Y-0.1728
N2420 X-1.0046 Y-0.1344
N2425 X-1.0098 Y-0.0957
N2430 X-1.0136 Y-0.0569
N2435 X-1.0164 Y-0.0181
N2440 X-1.0185 Y0.0209
N2445 X-1.02 Y0.0598
N2450 X-1.0201 Y0.0988
N2455 X-1.0077 Y0.1358
N2460 X-0.985 Y0.1675
N2465 X-0.9557 Y0.1932
N2470 X-0.9456 Y0.1992
N2475 X-0.942 Y0.2016
N2480 X-0.9385 Y0.2042
N2485 X-0.9353 Y0.2071
N2490 X-0.9342 Y0.2082
N2495 X-0.9245 Y0.2161
N2500 X-0.9114 Y0.2259
N2505 X-0.9068 Y0.2293
N2510 X-0.8891 Y0.2419
N2515 X-0.8865 Y0.2436
N2520 X-0.8803 Y0.2471
N2525 X-0.8626 Y0.2556
N2530 X-0.8537 Y0.2596
N2535 X-0.8272 Y0.2688
N2540 X-0.8183 Y0.2715
N2545 X-0.8095 Y0.2741
N2550 X-0.8006 Y0.2767
N2555 X-0.7829 Y0.2795
N2560 X-0.7741 Y0.2807
N2565 X-0.7476 Y0.2814
N2570 X-0.721
N2575 X-0.7122 Y0.2804
N2580 X-0.6733 Y0.278
N2585 X-0.6343 Y0.2763
N2590 X-0.5953 Y0.2754
N2595 X-0.5563 Y0.2748
N2600 X-0.5173 Y0.2745
N2605 X-0.4784 Y0.2743
N2610 X-0.4394 Y0.2742
N2615 X-0.3614 Y0.2741
N2620 X0.1455 Y0.2743
N2625 X0.2463 Y0.2744
N2630 X0.2582 Y0.2756
N2635 X0.2696 Y0.2792
N2640 X0.28 Y0.285
N2645 X0.2875 Y0.2904
N2650 X0.2968 Y0.2968
N2655 X0.3052 Y0.3021
N2660 X0.3141 Y0.3068
N2665 X0.3229 Y0.3109
N2670 X0.3406 Y0.3176
N2675 X0.3495 Y0.3209
N2680 X0.3671 Y0.3272
N2685 X0.376 Y0.3302
N2690 X0.3937 Y0.3355
N2695 X0.4025 Y0.3379
N2700 X0.4202 Y0.34
N2705 X0.4291 Y0.3411
N2710 X0.4556 Y0.3429
N2715 X0.4822 Y0.3444
N2720 X0.491 Y0.3439
N2725 X0.5087 Y0.3424
N2730 X0.5159 Y0.3411
N2735 X0.5441 Y0.3353
N2740 X0.5618 Y0.3316
N2745 X0.5706 Y0.3297
N2750 X0.5795 Y0.3274
N2755 X0.591 Y0.3234
N2760 X0.5972 Y0.3205
N2765 X0.6168 Y0.3121
N2770 X0.6432 Y0.3032
N2775 X0.6803 Y0.294
N2780 X0.7188 Y0.2877
N2785 X0.7576 Y0.2834
N2790 X0.7965 Y0.2806
N2795 X0.8354 Y0.2786
N2800 X0.8732 Y0.2692
N2805 X0.9067 Y0.2492
N2810 X0.9343 Y0.2216
N2815 X0.9561 Y0.1893
N2820 X0.9731 Y0.1542
N2825 X0.9861 Y0.1175
N2830 X0.9959 Y0.0797
N2835 X1.0033 Y0.0414
N2840 X1.0088 Y0.0028
N2845 X1.0128 Y-0.0359
N2850 X1.0158 Y-0.0748
N2855 X1.0124 Y-0.1137
N2860 X0.996 Y-0.149
N2865 X0.9704 Y-0.1785
N2870 X0.9393 Y-0.202
N2875 X0.9048 Y-0.2202
N2880 X0.8684 Y-0.234
N2885 X0.8308 Y-0.2444
N2890 X0.7926 Y-0.2522
N2895 X0.7541 Y-0.258
N2900 X0.7153 Y-0.2623
N2905 X0.7101 Y-0.2628
N2910 X0.6981 Y-0.265
N2915 X0.6868 Y-0.2698
N2920 X0.6768 Y-0.2768
N2925 X0.6736 Y-0.2791
N2930 X0.6502 Y-0.2935
N2935 X0.6443 Y-0.2968
N2940 X0.6237 Y-0.3074
N2945 X0.6149 Y-0.3119
N2950 X0.5972 Y-0.3205
N2955 X0.591 Y-0.3234
N2960 X0.5795 Y-0.3274
N2965 X0.5706 Y-0.3297
N2970 X0.5618 Y-0.3316
N2975 X0.5352 Y-0.3372
N2980 X0.5159 Y-0.3411
N2985 X0.5087 Y-0.3424
N2990 X0.491 Y-0.3439
N2995 X0.4822 Y-0.3444
N3000 X0.4556 Y-0.3429
N3005 X0.4291 Y-0.3411
N3010 X0.4202 Y-0.34
N3015 X0.4025 Y-0.3379
N3020 X0.3937 Y-0.3355
N3025 X0.376 Y-0.3302
N3030 X0.3671 Y-0.3272
N3035 X0.3495 Y-0.3209
N3040 X0.3406 Y-0.3176
N3045 X0.3325 Y-0.3145
N3050 X0.2954 Y-0.3025
N3055 X0.2575 Y-0.2933
N3060 X0.219 Y-0.2871
N3065 X0.1802 Y-0.283
N3070 X0.1413 Y-0.2802
N3075 X0.1024 Y-0.2783
N3080 X0.0634 Y-0.277
N3085 X0.0244 Y-0.2762
N3090 X-0.0146 Y-0.2756
N3095 X-0.0536 Y-0.2752
N3100 X-0.0925 Y-0.2749
N3105 X-0.1315 Y-0.2747
N3110 X-0.1705 Y-0.2746
N3115 X-0.2485 Y-0.2745
N3120 X-0.4045 Y-0.2744
N3125 X-0.6718
N3130 X-0.6769 Y-0.2746
N3135 X-0.6818 Y-0.2753
N3140 X-0.6867 Y-0.2764
N3145 X-0.6945 Y-0.2784
N3150 X-0.7122 Y-0.2804
N3155 X-0.721 Y-0.2814
N3160 X-0.7476
N3165 X-0.7741 Y-0.2807
N3170 X-0.7829 Y-0.2795
N3175 X-0.8006 Y-0.2767
N3180 X-0.8095 Y-0.2741
N3185 X-0.8226 Y-0.2702
N3190 X-0.8272 Y-0.2688
N3195 X-0.8537 Y-0.2596
N3200 X-0.8626 Y-0.2556
N3205 X-0.8803 Y-0.2471
N3210 X-0.8865 Y-0.2436
N3215 X-0.8891 Y-0.2419
N3220 X-0.9068 Y-0.2293
N3225 X-0.9114 Y-0.2259
N3230 X-0.9245 Y-0.2161
N3235 X-0.9342 Y-0.2082
N3240 X-0.9422 Y-0.2005
N3245 X-0.952 Y-0.1905
N3250 X-0.9589 Y-0.1816
N3255 X-0.9599 Y-0.1804
N3260 X-0.9649 Y-0.1728
N3265 X-0.9702 Y-0.1639
N3270 X-0.9743 Y-0.155
N3275 X-0.9776 Y-0.147
N3280 X-0.9809 Y-0.1373
N3285 X-0.9832 Y-0.1285
N3290 X-0.9848 Y-0.1196
N3295 X-0.9858 Y-0.1107
N3300 X-0.9866 Y-0.093
N3305 X-0.9869 Y-0.0842
N3310 Y0.0842
N3315 X-0.9866 Y0.093
N3320 X-0.9858 Y0.1107
N3325 G3 X-0.9877 Y0.1203 I-0.025 J0.0002 F5.
N3330 G1 X-0.9891 Y0.124 Z-0.1247
N3335 X-0.9906 Y0.1275 Z-0.1238
N3340 X-0.9919 Y0.1309 Z-0.1223
N3345 X-0.9932 Y0.134 Z-0.1202
N3350 X-0.9943 Y0.1367 Z-0.1177
N3355 X-0.9952 Y0.1391 Z-0.1147
N3360 X-0.996 Y0.141 Z-0.1113
N3365 X-0.9966 Y0.1424 Z-0.1077
N3370 X-0.9969 Y0.1432 Z-0.1039
N3375 X-0.997 Y0.1435 Z-0.1
N3380 G0 Z0.2
N3385 X-0.7204 Y0.3126
N3390 Z-0.075
N3395 G1 Z-0.1 F5.
N3400 Y0.3123 Z-0.1039
N3405 Y0.3114 Z-0.1077
N3410 X-0.7203 Y0.3099 Z-0.1113
N3415 X-0.7201 Y0.3078 Z-0.1147
N3420 X-0.72 Y0.3053 Z-0.1177
N3425 X-0.7198 Y0.3023 Z-0.1202
N3430 X-0.7196 Y0.299 Z-0.1223
N3435 X-0.7193 Y0.2954 Z-0.1238
N3440 X-0.7191 Y0.2915 Z-0.1247
N3445 X-0.7188 Y0.2876 Z-0.125
N3450 G3 X-0.7122 Y0.2804 I0.0078 J0.0005
N3455 G1 X-0.6945 Y0.2784 F7.
N3460 X-0.6679 Y0.2714
N3465 X-0.6644 Y0.2702
N3470 X-0.6414 Y0.2627
N3475 X-0.6379 Y0.2614
N3480 X-0.6149 Y0.2516
N3485 X-0.606 Y0.2467
N3490 X-0.6008 Y0.2436
N3495 X-0.5972 Y0.2413
N3500 X-0.5883 Y0.2351
N3505 X-0.5766 Y0.2278
N3510 X-0.561 Y0.2197
N3515 X-0.5406 Y0.2111
N3520 X-0.5134 Y0.2022
N3525 X-0.4755 Y0.193
N3530 X-0.437 Y0.1869
N3535 X-0.3982 Y0.1828
N3540 X-0.3593 Y0.18
N3545 X-0.3204 Y0.1782
N3550 X-0.2814 Y0.1769
N3555 X-0.2424 Y0.1761
N3560 X-0.2034 Y0.1755
N3565 X-0.1644 Y0.1751
N3570 X-0.1254 Y0.1748
N3575 X-0.0865 Y0.1747
N3580 X-0.0085 Y0.1745
N3585 X0.1085 Y0.1744
N3590 X0.1431
N3595 X0.156 Y0.1758
N3600 X0.1683 Y0.1801
N3605 X0.1793 Y0.187
N3610 X0.1886 Y0.1961
N3615 X0.2079 Y0.2201
N3620 X0.2127 Y0.2259
N3625 X0.2277 Y0.2436
N3630 X0.2344 Y0.2508
N3635 X0.2362 Y0.2525
N3640 X0.2477 Y0.2614
N3645 X0.261 Y0.2715
N3650 X0.2715 Y0.2791
N3655 X0.28 Y0.285
N3660 G3 X0.2864 Y0.2923 I-0.0151 J0.0199 F5.
N3665 X0.2634 Y0.3299 I-0.0216 J0.0126 F7.
N3670 G1 X-0.5748 Y0.2801
N3675 G3 X-0.5948 Y0.2424 I0.0015 J-0.025
N3680 X-0.5883 Y0.2351 I0.0215 J0.0127 F5.
N3685 G1 X-0.5758 Y0.2259 F7.
N3690 X-0.5618 Y0.2156
N3695 X-0.5528 Y0.2082
N3700 X-0.5441 Y0.2003
N3705 X-0.5348 Y0.1905
N3710 X-0.528 Y0.1816
N3715 X-0.5264 Y0.1795
N3720 X-0.5215 Y0.1729
N3725 X-0.5152 Y0.1657
N3730 X-0.5074 Y0.158
N3735 X-0.4973 Y0.1496
N3740 X-0.4851 Y0.1409
N3745 X-0.4694 Y0.1316
N3750 X-0.4499 Y0.1222
N3755 X-0.4245 Y0.1122
N3760 X-0.3908 Y0.102
N3765 X-0.3527 Y0.0938
N3770 X-0.3141 Y0.088
N3775 X-0.2753 Y0.084
N3780 X-0.2365 Y0.0811
N3785 X-0.1975 Y0.0791
N3790 X-0.1586 Y0.0777
N3795 X-0.1196 Y0.0767
N3800 X-0.0806 Y0.076
N3805 X-0.0416 Y0.0755
N3810 X-0.0026 Y0.0751
N3815 X0.0364 Y0.0749
N3820 X0.0754 Y0.075
N3825 X0.096 Y0.0765
N3830 X0.1086 Y0.0787
N3835 X0.1203 Y0.0836
N3840 X0.1307 Y0.091
N3845 X0.1393 Y0.1005
N3850 X0.1456 Y0.1115
N3855 X0.1567 Y0.1373
N3860 X0.1683 Y0.1639
N3865 G3 X0.1701 Y0.1735 I-0.0232 J0.0092 F5.
N3870 X0.1458 Y0.1981 I-0.025 J-0.0004 F7.
N3875 G1 X-0.5043 Y0.2175
N3880 G3 X-0.5298 Y0.1886 I-0.0007 J-0.025
N3885 X-0.5264 Y0.1795 I0.0247 J0.0039 F5.
N3890 G1 X-0.5219 Y0.1728 F7.
N3895 X-0.5175 Y0.1653
N3900 X-0.5168 Y0.1639
N3905 X-0.5087 Y0.1452
N3910 X-0.506 Y0.1373
N3915 X-0.5037 Y0.1285
N3920 X-0.5022 Y0.1227
N3925 X-0.4993 Y0.1156
N3930 X-0.4958 Y0.1084
N3935 X-0.491 Y0.1004
N3940 X-0.4845 Y0.0913
N3945 X-0.477 Y0.0824
N3950 X-0.4673 Y0.0728
N3955 X-0.4551 Y0.0623
N3960 X-0.4409 Y0.052
N3965 X-0.4227 Y0.0409
N3970 X-0.4008 Y0.0299
N3975 X-0.373 Y0.0185
N3980 X-0.3366 Y0.007
N3985 X-0.2986 Y-0.0017
N3990 X-0.2602 Y-0.0081
N3995 X-0.2215 Y-0.0129
N4000 X-0.1826 Y-0.0163
N4005 X-0.1437 Y-0.0189
N4010 X-0.1048 Y-0.0208
N4015 X-0.0658 Y-0.0221
N4020 X-0.0268 Y-0.023
N4025 X0.0122 Y-0.0233
N4030 X0.0429 Y-0.0221
N4035 X0.0663 Y-0.0192
N4040 X0.0859 Y-0.0152
N4045 X0.0878 Y-0.0147
N4050 X0.0982 Y-0.0105
N4055 X0.1077 Y-0.0045
N4060 X0.1158 Y0.0032
N4065 X0.1222 Y0.0123
N4070 X0.1269 Y0.0225
N4075 X0.1294 Y0.0334
N4080 X0.1328 Y0.0576
N4085 X0.1354 Y0.0753
N4090 G3 X0.1346 Y0.085 I-0.0248 J0.0028 F5.
N4095 X0.1129 Y0.103 I-0.024 J-0.0069 F7.
N4100 G1 X-0.4767 Y0.1571
N4105 G3 X-0.5032 Y0.1382 I-0.0023 J-0.0249
N4110 X-0.5037 Y0.1285 I0.0243 J-0.006 F5.
N4115 G1 X-0.502 Y0.1196 F7.
N4120 X-0.501 Y0.1107
N4125 X-0.5003 Y0.093
N4130 X-0.5 Y0.0842
N4135 Y0.0793
N4140 X-0.4996 Y0.0715
N4145 X-0.4993 Y0.0655
N4150 X-0.4985 Y0.0596
N4155 X-0.4973 Y0.0537
N4160 X-0.4957 Y0.0479
N4165 X-0.4938 Y0.0422
N4170 X-0.4915 Y0.0367
N4175 X-0.4891 Y0.0312
N4180 X-0.4863 Y0.0259
N4185 X-0.4833 Y0.0207
N4190 X-0.4802 Y0.0156
N4195 X-0.4768 Y0.0106
N4200 X-0.4732 Y0.0058
N4205 X-0.4695 Y0.0011
N4210 X-0.4656 Y-0.0035
N4215 X-0.4616 Y-0.0079
N4220 X-0.4574 Y-0.0122
N4225 X-0.4531 Y-0.0164
N4230 X-0.4487 Y-0.0205
N4235 X-0.4442 Y-0.0245
N4240 X-0.4396 Y-0.0283
N4245 X-0.4349 Y-0.032
N4250 X-0.4301 Y-0.0356
N4255 X-0.4252 Y-0.0391
N4260 X-0.4202 Y-0.0425
N4265 X-0.4152 Y-0.0458
N4270 X-0.4101 Y-0.049
N4275 X-0.405 Y-0.0521
N4280 X-0.3998 Y-0.055
N4285 X-0.3945 Y-0.0579
N4290 X-0.3892 Y-0.0607
N4295 X-0.3838 Y-0.0634
N4300 X-0.3784 Y-0.066
N4305 X-0.373 Y-0.0685
N4310 X-0.3675 Y-0.0709
N4315 X-0.362 Y-0.0733
N4320 X-0.3564 Y-0.0755
N4325 X-0.3508 Y-0.0777
N4330 X-0.3452 Y-0.0799
N4335 X-0.3396 Y-0.0819
N4340 X-0.3339 Y-0.0839
N4345 X-0.3282 Y-0.0858
N4350 X-0.3225 Y-0.0876
N4355 X-0.3168 Y-0.0894
N4360 X-0.311 Y-0.0911
N4365 X-0.3053 Y-0.0927
N4370 X-0.2995 Y-0.0943
N4375 X-0.2937 Y-0.0959
N4380 X-0.2879 Y-0.0974
N4385 X-0.282 Y-0.0988
N4390 X-0.2762 Y-0.1002
N4395 X-0.2703 Y-0.1015
N4400 X-0.2645 Y-0.1028
N4405 X-0.2586 Y-0.104
N4410 X-0.2527 Y-0.1052
N4415 X-0.2467 Y-0.1064
N4420 X-0.2403 Y-0.1076
N4425 X-0.2335 Y-0.1088
N4430 X-0.2266 Y-0.1099
N4435 X-0.2197 Y-0.1111
N4440 X-0.2123 Y-0.1122
N4445 X-0.2045 Y-0.1134
N4450 X-0.1961 Y-0.1146
N4455 X-0.1874 Y-0.1157
N4460 X-0.1786 Y-0.1168
N4465 X-0.1692 Y-0.118
N4470 X-0.1589 Y-0.1191
N4475 X-0.1482 Y-0.1202
N4480 X-0.1382 Y-0.1212
N4485 X-0.1273 Y-0.1222
N4490 X-0.1153 Y-0.1231
N4495 X-0.1046 Y-0.1239
N4500 X-0.0963 Y-0.1245
N4505 X-0.0873 Y-0.125
N4510 X-0.0776 Y-0.1255
N4515 X-0.069 Y-0.1259
N4520 X-0.063 Y-0.1261
N4525 X-0.057 Y-0.1263
N4530 X-0.0508 Y-0.1265
N4535 X-0.0443 Y-0.1266
N4540 X-0.038
N4545 X-0.032
N4550 X-0.026
N4555 X-0.02 Y-0.1264
N4560 X-0.014 Y-0.1263
N4565 X-0.008 Y-0.1261
N4570 X-0.002 Y-0.1258
N4575 X0.0039 Y-0.1255
N4580 X0.0099 Y-0.125
N4585 X0.0159 Y-0.1245
N4590 X0.0219 Y-0.1239
N4595 X0.0278 Y-0.1232
N4600 X0.0338 Y-0.1225
N4605 X0.0397 Y-0.1216
N4610 X0.0456 Y-0.1206
N4615 X0.0515 Y-0.1194
N4620 X0.0574 Y-0.1182
N4625 X0.0632 Y-0.1168
N4630 X0.069 Y-0.1153
N4635 X0.0748 Y-0.1136
N4640 X0.0805 Y-0.1118
N4645 X0.0862 Y-0.1098
N4650 X0.0918 Y-0.1077
N4655 X0.0952 Y-0.1064
N4660 X0.1064 Y-0.1003
N4665 X0.1161 Y-0.0918
N4670 X0.1237 Y-0.0815
N4675 X0.1288 Y-0.0698
N4680 X0.1313 Y-0.0572
N4685 X0.1309 Y-0.0444
N4690 X0.1279 Y-0.0221
N4695 X0.1271 Y-0.0133
N4700 X0.1266 Y-0.0044
N4705 G3 X0.1237 Y0.0049 I-0.0249 J-0.0025 F5.
N4710 X0.1053 Y0.0178 I-0.022 J-0.0119 F7.
N4715 G1 X-0.4714 Y0.1032
N4720 G3 X-0.4978 Y0.0888 I-0.0037 J-0.0247
N4725 X-0.5 Y0.0793 I0.0227 J-0.0104 F5.
N4730 G1 Y-0.0004 F7.
N4735 X-0.4996 Y-0.0084
N4740 X-0.4986 Y-0.0161
N4745 X-0.4977 Y-0.0204
N4750 X-0.4953 Y-0.0298
N4755 X-0.4945 Y-0.0395
N4760 X-0.4953 Y-0.0493
N4765 X-0.4976 Y-0.0585
N4770 X-0.499 Y-0.0639
N4775 X-0.4998 Y-0.0694
N4780 X-0.5 Y-0.075
N4785 G3 X-0.4978 Y-0.0845 I0.025 J0.0009 F5.
N4790 X-0.45 Y-0.0733 I0.0227 J0.0104 F7.
N4795 X-0.4842 Y0.0058 I-0.118 J-0.0041
N4800 X-0.495 Y0.0075 I-0.0066 J-0.0065
N4805 X-0.5 Y-0.0004 I0.0042 J-0.0082 F5.
N4810 G1 Y-0.0842 F7.
N4815 X-0.5003 Y-0.093
N4820 X-0.501 Y-0.1107
N4825 X-0.502 Y-0.1196
N4830 X-0.5037 Y-0.1285
N4835 X-0.506 Y-0.1373
N4840 X-0.5087 Y-0.1452
N4845 X-0.5168 Y-0.1639
N4850 X-0.5175 Y-0.1653
N4855 X-0.5219 Y-0.1728
N4860 X-0.5264 Y-0.1795
N4865 X-0.528 Y-0.1816
N4870 X-0.5348 Y-0.1905
N4875 X-0.5441 Y-0.2003
N4880 X-0.5529 Y-0.2083
N4885 X-0.5618 Y-0.2156
N4890 X-0.5795 Y-0.2286
N4895 X-0.5883 Y-0.2351
N4900 X-0.5972 Y-0.2413
N4905 X-0.6008 Y-0.2436
N4910 X-0.606 Y-0.2467
N4915 X-0.6149 Y-0.2516
N4920 X-0.6379 Y-0.2614
N4925 X-0.6414 Y-0.2627
N4930 X-0.6644 Y-0.2702
N4935 X-0.6679 Y-0.2714
N4940 X-0.6867 Y-0.2764
N4945 G3 X-0.6953 Y-0.2809 I0.0072 J-0.0239 F5.
N4950 X-0.6804 Y-0.3253 I0.0158 J-0.0194 F7.
N4955 G1 X0.3218 Y-0.3625
N4960 G3 X0.3405 Y-0.32 I0.0009 J0.025
N4965 X0.3325 Y-0.3145 I-0.0178 J-0.0176 F5.
N4970 G1 X0.3229 Y-0.3109 F7.
N4975 X0.3141 Y-0.3068
N4980 X0.3052 Y-0.3021
N4985 X0.2964 Y-0.2965
N4990 X0.2875 Y-0.2904
N4995 X0.2698 Y-0.2779
N5000 X0.261 Y-0.2715
N5005 X0.2433 Y-0.258
N5010 X0.2362 Y-0.2525
N5015 X0.2344 Y-0.2508
N5020 X0.2277 Y-0.2436
N5025 X0.2127 Y-0.2259
N5030 X0.2079 Y-0.2201
N5035 X0.184 Y-0.1905
N5040 X0.1814 Y-0.1867
N5045 X0.1781 Y-0.1816
N5050 X0.1729 Y-0.1728
N5055 X0.1683 Y-0.1639
N5060 X0.1548 Y-0.1329
N5065 X0.1453 Y-0.1107
N5070 X0.142 Y-0.1019
N5075 X0.1391 Y-0.093
N5080 X0.1369 Y-0.0842
N5085 X0.1354 Y-0.0753
N5090 X0.1328 Y-0.0576
N5095 X0.1309 Y-0.0444
N5100 G3 X0.1274 Y-0.0353 I-0.0246 J-0.0043 F5.
N5105 G1 X0.1253 Y-0.032 Z-0.1247
N5110 X0.1233 Y-0.0288 Z-0.1238
N5115 X0.1214 Y-0.0257 Z-0.1223
N5120 X0.1196 Y-0.0229 Z-0.1202
N5125 X0.118 Y-0.0204 Z-0.1177
N5130 X0.1166 Y-0.0182 Z-0.1147
N5135 X0.1155 Y-0.0165 Z-0.1113
N5140 X0.1147 Y-0.0152 Z-0.1077
N5145 X0.1142 Y-0.0144 Z-0.1039
N5150 X0.1141 Y-0.0142 Z-0.1
N5155 G0 Z0.2
N5160 X0.6002 Y0.3536
N5165 Z-0.075
N5170 G1 Z-0.1 F5.
N5175 X0.6001 Y0.3533 Z-0.1039
N5180 X0.5998 Y0.3524 Z-0.1077
N5185 X0.5994 Y0.351 Z-0.1113
N5190 X0.5988 Y0.349 Z-0.1147
N5195 X0.5982 Y0.3466 Z-0.1177
N5200 X0.5973 Y0.3437 Z-0.1202
N5205 X0.5964 Y0.3405 Z-0.1223
N5210 X0.5954 Y0.337 Z-0.1238
N5215 X0.5944 Y0.3333 Z-0.1247
N5220 X0.5933 Y0.3296 Z-0.125
N5225 G3 X0.5972 Y0.3205 I0.0075 J-0.0021
N5230 G1 X0.6149 Y0.3119 F7.
N5235 X0.6237 Y0.3074
N5240 X0.6443 Y0.2968
N5245 X0.6502 Y0.2935
N5250 X0.6736 Y0.2791
N5255 X0.6768 Y0.2768
N5260 X0.6844 Y0.2702
N5265 X0.7033 Y0.2527
N5270 X0.71 Y0.2471
N5275 X0.7213 Y0.239
N5280 X0.7547 Y0.2189
N5285 X0.7875 Y0.1979
N5290 X0.8163 Y0.1715
N5295 X0.8403 Y0.1408
N5300 X0.8597 Y0.107
N5305 X0.8751 Y0.0712
N5310 X0.887 Y0.034
N5315 X0.8897 Y0.0147
N5320 X0.8881 Y-0.0047
N5325 X0.8771 Y-0.0421
N5330 X0.8541 Y-0.0736
N5335 X0.8242 Y-0.0986
N5340 X0.8144 Y-0.1043
N5345 X0.8056 Y-0.1104
N5350 X0.7981 Y-0.118
N5355 X0.7922 Y-0.1268
N5360 X0.7879 Y-0.1365
N5365 X0.7877 Y-0.1373
N5370 X0.7856 Y-0.1418
N5375 X0.7833 Y-0.1462
N5380 X0.7741 Y-0.1623
N5385 X0.7731 Y-0.1639
N5390 X0.7564 Y-0.1914
N5395 X0.7387 Y-0.2175
N5400 X0.7315 Y-0.2259
N5405 X0.7299 Y-0.2277
N5410 X0.7122 Y-0.2444
N5415 X0.7033 Y-0.2527
N5420 X0.6844 Y-0.2702
N5425 X0.6768 Y-0.2768
N5430 G3 X0.6711 Y-0.2847 I0.0171 J-0.0183 F5.
N5435 G1 X0.6695 Y-0.2883 Z-0.1247
N5440 X0.6679 Y-0.2918 Z-0.1238
N5445 X0.6664 Y-0.2951 Z-0.1223
N5450 X0.665 Y-0.2981 Z-0.1202
N5455 X0.6638 Y-0.3008 Z-0.1177
N5460 X0.6627 Y-0.3031 Z-0.1147
N5465 X0.6619 Y-0.305 Z-0.1113
N5470 X0.6612 Y-0.3064 Z-0.1077
N5475 X0.6609 Y-0.3072 Z-0.1039
N5480 X0.6607 Y-0.3075 Z-0.1
N5485 G0 Z0.2
N5490 X0.7159 Y0.2835
N5495 Z-0.075
N5500 G1 Z-0.1 F5.
N5505 X0.7157 Y0.2832 Z-0.1039
N5510 X0.7152 Y0.2825 Z-0.1077
N5515 X0.7144 Y0.2812 Z-0.1113
N5520 X0.7133 Y0.2795 Z-0.1147
N5525 X0.7119 Y0.2773 Z-0.1177
N5530 X0.7103 Y0.2748 Z-0.1202
N5535 X0.7085 Y0.272 Z-0.1223
N5540 X0.7065 Y0.269 Z-0.1238
N5545 X0.7044 Y0.2658 Z-0.1247
N5550 X0.7023 Y0.2625 Z-0.125
N5555 G3 X0.7033 Y0.2527 I0.0066 J-0.0042
N5560 G1 X0.713 Y0.2436 F7.
N5565 X0.7299 Y0.2277
N5570 X0.7315 Y0.2259
N5575 X0.7387 Y0.2175
N5580 X0.7564 Y0.1914
N5585 X0.7731 Y0.1639
N5590 X0.7782 Y0.155
N5595 X0.7833 Y0.1462
N5600 X0.7856 Y0.1418
N5605 X0.7877 Y0.1373
N5610 X0.7965 Y0.1107
N5615 X0.8006 Y0.096
N5620 X0.804 Y0.0842
N5625 X0.8063 Y0.0753
N5630 X0.8109 Y0.0576
N5635 X0.8123 Y0.0487
N5640 X0.814 Y0.031
N5645 X0.8143 Y0.0221
N5650 Y-0.0221
N5655 X0.814 Y-0.031
N5660 X0.8123 Y-0.0487
N5665 X0.8109 Y-0.0576
N5670 X0.8063 Y-0.0753
N5675 X0.804 Y-0.0842
N5680 X0.799 Y-0.1019
N5685 X0.7965 Y-0.1107
N5690 X0.7879 Y-0.1365
N5695 X0.7876 Y-0.1385 Z-0.1248 F5.
N5700 X0.7874 Y-0.1404 Z-0.1242
N5705 X0.7871 Y-0.1421 Z-0.1232
N5710 X0.7869 Y-0.1436 Z-0.1219
N5715 X0.787 Y-0.145 Z-0.1199
N5720 Y-0.146 Z-0.1176
N5725 Y-0.1463 Z-0.1152
N5730 G0 Z0.2
N5735 X-0.8482 Y0.3098
N5740 Z0.025
N5745 G1 Z0. F5.
N5750 X-0.8481 Y0.3096 Z-0.0039
N5755 X-0.8476 Y0.3088 Z-0.0077
N5760 X-0.8467 Y0.3076 Z-0.0113
N5765 X-0.8456 Y0.3059 Z-0.0147
N5770 X-0.8441 Y0.3038 Z-0.0177
N5775 X-0.8425 Y0.3013 Z-0.0202
N5780 X-0.8406 Y0.2985 Z-0.0223
N5785 X-0.8386 Y0.2955 Z-0.0238
N5790 X-0.8364 Y0.2924 Z-0.0247
N5795 X-0.8342 Y0.2892 Z-0.025
N5800 X-0.8214 Y0.2702
N5805 X-0.8195 Y0.2645 F7.
N5810 X-0.8159 Y0.2597
N5815 X-0.8119 Y0.2552
N5820 X-0.8077 Y0.251
N5825 X-0.8032 Y0.247
N5830 X-0.7986 Y0.2431
N5835 X-0.7939 Y0.2394
N5840 X-0.7891 Y0.2358
N5845 X-0.7843 Y0.2322
N5850 X-0.7794 Y0.2288
N5855 X-0.7744 Y0.2254
N5860 X-0.7694 Y0.2221
N5865 X-0.7644 Y0.2188
N5870 X-0.7315 Y0.1978
N5875 X-0.6991 Y0.1762
N5880 X-0.6721 Y0.148
N5885 X-0.6529 Y0.1141
N5890 X-0.6394 Y0.0775
N5895 X-0.63 Y0.0396
N5900 X-0.6235 Y0.0012
N5905 X-0.6253 Y-0.0378
N5910 X-0.6402 Y-0.0738
N5915 X-0.666 Y-0.1031
N5920 X-0.6995 Y-0.1229
N5925 X-0.7376 Y-0.1315
N5930 X-0.7473 Y-0.1307
N5935 X-0.7567 Y-0.1283
N5940 X-0.7745 Y-0.1203
N5945 X-0.8051 Y-0.0962
N5950 X-0.8271 Y-0.064
N5955 X-0.8427 Y-0.0282
N5960 X-0.848 Y-0.0095
N5965 X-0.8487 Y-0.0046
N5970 X-0.8492 Y0.0002
N5975 X-0.8501 Y0.0077 F5.
N5980 G3 X-0.8505 Y0.0099 I-0.0248 J-0.0031
N5985 X-0.8993 Y-0.0009 I-0.0244 J-0.0054 F7.
N5990 X-0.8712 Y-0.0202 I0.0244 J0.0054
N5995 G1 X0.1625 Y0.134
N6000 G3 X0.1551 Y0.1834 I-0.0037 J0.0247
N6005 X0.146 Y0.1372 I0.0037 J-0.0247
N6010 X0.1481 Y0.1361 I0.0127 J0.0215 F5.
N6015 G1 X0.1549 Y0.1329
N6020 X0.1604 Y0.1305 F7.
N6025 X0.1664 Y0.1306
N6030 X0.1723 Y0.131
N6035 X0.1783 Y0.1319
N6040 X0.1842 Y0.133
N6045 X0.19 Y0.1343
N6050 X0.1958 Y0.1359
N6055 X0.2015 Y0.1377
N6060 X0.2072 Y0.1397
N6065 X0.2129 Y0.1417
N6070 X0.2185 Y0.1438
N6075 X0.2241 Y0.146
N6080 X0.2296 Y0.1482
N6085 X0.2352 Y0.1506
N6090 X0.2407 Y0.153
N6095 X0.2461 Y0.1554
N6100 X0.2816 Y0.1716
N6105 X0.3173 Y0.1873
N6110 X0.3538 Y0.2011
N6115 X0.3913 Y0.2116
N6120 X0.4299 Y0.2171
N6125 X0.4689 Y0.2175
N6130 X0.5075 Y0.212
N6135 X0.5446 Y0.2001
N6140 X0.5793 Y0.1823
N6145 X0.6104 Y0.1588
N6150 X0.6367 Y0.1299
N6155 X0.6575 Y0.097
N6160 X0.6721 Y0.0608
N6165 X0.6795 Y0.0225
N6170 X0.6799 Y-0.0164
N6175 X0.6732 Y-0.0549
N6180 X0.6593 Y-0.0913
N6185 X0.639 Y-0.1246
N6190 X0.6132 Y-0.1538
N6195 X0.5821 Y-0.1773
N6200 X0.5472 Y-0.1947
N6205 X0.5098 Y-0.2056
N6210 X0.4709 Y-0.2091
N6215 X0.4321 Y-0.2052
N6220 X0.3946 Y-0.1945
N6225 X0.3598 Y-0.1769
N6230 X0.329 Y-0.153
N6235 X0.303 Y-0.124
N6240 X0.2929 Y-0.1074
N6245 X0.2842 Y-0.0899
N6250 X0.2816 Y-0.0706
N6255 X0.2873 Y-0.032
N6260 X0.3058 Y0.0023
N6265 X0.3317 Y0.0315
N6270 X0.3631 Y0.0546
N6275 X0.3989 Y0.0699
N6280 X0.4183 Y0.072
N6285 X0.4378 Y0.0707
N6290 X0.4565 Y0.0653
N6295 X0.4607 Y0.0627
N6300 X0.4685 Y0.057
N6305 X0.4754 Y0.05
N6310 X0.4809 Y0.042
N6315 X0.483 Y0.0376
N6320 X0.4843 Y0.0359 Z-0.0247 F5.
N6325 X0.4856 Y0.0343 Z-0.024
N6330 X0.4867 Y0.0328 Z-0.0229
N6335 X0.4877 Y0.0316 Z-0.0213
N6340 X0.4884 Y0.0306 Z-0.0195
N6345 X0.4889 Y0.0302 Z-0.0174
N6350 X0.4891 Y0.03 Z-0.0152
N6355 G0 Z0.2
N6360 X-1.5252 Y-1.0377
N6365 Z-0.2
N6370 G1 Z-0.225 F5.
N6375 Y-1.0374 Z-0.2289
N6380 X-1.5249 Y-1.0365 Z-0.2327
N6385 X-1.5246 Y-1.0351 Z-0.2363
N6390 X-1.5241 Y-1.0331 Z-0.2397
N6395 X-1.5234 Y-1.0306 Z-0.2427
N6400 X-1.5227 Y-1.0277 Z-0.2452
N6405 X-1.5219 Y-1.0245 Z-0.2473
N6410 X-1.521 Y-1.021 Z-0.2488
N6415 X-1.52 Y-1.0173 Z-0.2497
N6420 X-1.519 Y-1.0135 Z-0.25
N6425 G3 X-1.4995 Y-0.8774 I-0.6183 J0.1584
N6430 G1 Y-0.8714 F7.
N6435 X-1.507 Y-0.8332
N6440 X-1.5123 Y-0.7945
N6445 X-1.5159 Y-0.7557
N6450 X-1.5184 Y-0.7168
N6455 X-1.5201 Y-0.6778
N6460 X-1.5213 Y-0.6389
N6465 X-1.5221 Y-0.5999
N6470 X-1.5226 Y-0.5609
N6475 X-1.523 Y-0.5219
N6480 X-1.5233 Y-0.4829
N6485 X-1.5235 Y-0.4439
N6490 X-1.5237 Y-0.3659
N6495 X-1.5239 Y-0.249
N6500 X-1.5241 Y0.1019
N6505 X-1.5244 Y0.6283
N6510 X-1.5238 Y0.638
N6515 X-1.5194 Y0.657
N6520 X-1.4993 Y0.6904
N6525 X-1.4692 Y0.7152
N6530 X-1.4345 Y0.7331
N6535 X-1.3976 Y0.7457
N6540 X-1.3597 Y0.7545
N6545 X-1.3212 Y0.7607
N6550 X-1.2824 Y0.7649
N6555 X-1.2435 Y0.7678
N6560 X-1.2046 Y0.7698
N6565 X-1.1656 Y0.7712
N6570 X-1.1266 Y0.7721
N6575 X-1.0876 Y0.7727
N6580 X-1.0487 Y0.7732
N6585 X-1.0097 Y0.7735
N6590 X-0.9707 Y0.7737
N6595 X-0.9317 Y0.7738
N6600 X-0.8537 Y0.774
N6605 X-0.6977 Y0.7742
N6610 X0.316 Y0.7744
N6615 X0.9009 Y0.7745
N6620 X1.3883 Y0.7746
N6625 X1.407 Y0.7691
N6630 X1.4403 Y0.7489
N6635 X1.4651 Y0.7187
N6640 X1.4829 Y0.684
N6645 X1.4955 Y0.6471
N6650 X1.5043 Y0.6092
N6655 X1.5104 Y0.5707
N6660 X1.5147 Y0.5319
N6665 X1.5176 Y0.493
N6670 X1.5196 Y0.4541
N6675 X1.521 Y0.4151
N6680 X1.5219 Y0.3761
N6685 X1.5226 Y0.3371
N6690 X1.523 Y0.2982
N6695 X1.5233 Y0.2592
N6700 X1.5235 Y0.2202
N6705 X1.5237 Y0.1812
N6710 X1.5239 Y0.1032
N6715 X1.5241 Y-0.0528
N6720 X1.5244 Y-0.6376
N6725 X1.5192 Y-0.6564
N6730 X1.4994 Y-0.69
N6735 X1.4694 Y-0.7149
N6740 X1.4348 Y-0.7328
N6745 X1.3979 Y-0.7455
N6750 X1.3599 Y-0.7544
N6755 X1.3214 Y-0.7606
N6760 X1.2827 Y-0.7648
N6765 X1.2438 Y-0.7678
N6770 X1.2049 Y-0.7698
N6775 X1.1659 Y-0.7711
N6780 X1.1269 Y-0.7721
N6785 X1.0879 Y-0.7727
N6790 X1.0489 Y-0.7732
N6795 X1.01 Y-0.7735
N6800 X0.971 Y-0.7737
N6805 X0.932 Y-0.7738
N6810 X0.854 Y-0.774
N6815 X0.698 Y-0.7742
N6820 X-0.3157 Y-0.7744
N6825 X-0.4327
N6830 X-1.271 Y-0.7745
N6835 X-1.2905 Y-0.7732
N6840 X-1.3085 Y-0.7657
N6845 X-1.3405 Y-0.7436
N6850 X-1.3646 Y-0.7129
N6855 X-1.3821 Y-0.6781
N6860 X-1.3946 Y-0.6411
N6865 X-1.4034 Y-0.6032
N6870 X-1.4097 Y-0.5647
N6875 X-1.414 Y-0.5259
N6880 X-1.4171 Y-0.487
N6885 X-1.4192 Y-0.4481
N6890 X-1.4206 Y-0.4091
N6895 X-1.4217 Y-0.3702
N6900 X-1.4224 Y-0.3312
N6905 X-1.4229 Y-0.2922
N6910 X-1.4232 Y-0.2532
N6915 X-1.4235 Y-0.2142
N6920 X-1.4237 Y-0.1752
N6925 X-1.4239 Y-0.0972
N6930 X-1.424 Y0.0197
N6935 X-1.4242 Y0.2927
N6940 X-1.4243 Y0.5071
N6945 X-1.4203 Y0.5262
N6950 X-1.4048 Y0.562
N6955 X-1.3789 Y0.5911
N6960 X-1.3469 Y0.6134
N6965 X-1.3117 Y0.6302
N6970 X-1.2747 Y0.6426
N6975 X-1.2368 Y0.6516
N6980 X-1.1984 Y0.6581
N6985 X-1.1597 Y0.6627
N6990 X-1.1208 Y0.6661
N6995 X-1.0819 Y0.6684
N7000 X-1.0429 Y0.6701
N7005 X-1.004 Y0.6713
N7010 X-0.965 Y0.6722
N7015 X-0.926 Y0.6728
N7020 X-0.887 Y0.6732
N7025 X-0.848 Y0.6735
N7030 X-0.809 Y0.6737
N7035 X-0.77 Y0.6738
N7040 X-0.6921 Y0.674
N7045 X-0.5751 Y0.6742
N7050 X-0.2242 Y0.6743
N7055 X0.2827 Y0.6744
N7060 X1.2575 Y0.6745
N7065 X1.2765 Y0.6703
N7070 X1.3122 Y0.6546
N7075 X1.3412 Y0.6285
N7080 X1.3635 Y0.5965
N7085 X1.3802 Y0.5613
N7090 X1.3925 Y0.5243
N7095 X1.4014 Y0.4863
N7100 X1.4079 Y0.4479
N7105 X1.4126 Y0.4091
N7110 X1.4159 Y0.3703
N7115 X1.4183 Y0.3314
N7120 X1.42 Y0.2924
N7125 X1.4212 Y0.2535
N7130 X1.422 Y0.2145
N7135 X1.4226 Y0.1755
N7140 X1.423 Y0.1365
N7145 X1.4234 Y0.0975
N7150 X1.4236 Y0.0585
N7155 X1.4237 Y0.0195
N7160 X1.424 Y-0.0585
N7165 X1.4241 Y-0.1754
N7170 X1.4242 Y-0.2534
N7175 X1.4243 Y-0.5068
N7180 X1.4203 Y-0.5259
N7185 X1.4049 Y-0.5617
N7190 X1.379 Y-0.5909
N7195 X1.3471 Y-0.6133
N7200 X1.3119 Y-0.6301
N7205 X1.2749 Y-0.6425
N7210 X1.237 Y-0.6515
N7215 X1.1986 Y-0.658
N7220 X1.1599 Y-0.6627
N7225 X1.121 Y-0.666
N7230 X1.0821 Y-0.6684
N7235 X1.0431 Y-0.6701
N7240 X1.0042 Y-0.6713
N7245 X0.9652 Y-0.6721
N7250 X0.9262 Y-0.6727
N7255 X0.8872 Y-0.6732
N7260 X0.8482 Y-0.6735
N7265 X0.8092 Y-0.6737
N7270 X0.7702 Y-0.6738
N7275 X0.6923 Y-0.674
N7280 X0.5753 Y-0.6742
N7285 X0.2244 Y-0.6743
N7290 X-0.2435 Y-0.6744
N7295 X-1.1403 Y-0.6745
N7300 X-1.1598 Y-0.6732
N7305 X-1.1785 Y-0.6679
N7310 X-1.2136 Y-0.6509
N7315 X-1.242 Y-0.6241
N7320 X-1.2639 Y-0.5919
N7325 X-1.2803 Y-0.5565
N7330 X-1.2924 Y-0.5195
N7335 X-1.3013 Y-0.4815
N7340 X-1.3078 Y-0.443
N7345 X-1.3124 Y-0.4043
N7350 X-1.3157 Y-0.3655
N7355 X-1.3181 Y-0.3266
N7360 X-1.3198 Y-0.2876
N7365 X-1.3211 Y-0.2486
N7370 X-1.3219 Y-0.2097
N7375 X-1.3226 Y-0.1707
N7380 X-1.323 Y-0.1317
N7385 X-1.3233 Y-0.0927
N7390 X-1.3236 Y-0.0537
N7395 X-1.3237 Y-0.0147
N7400 X-1.3239 Y0.0633
N7405 X-1.3241 Y0.1802
N7410 X-1.3242 Y0.3362
N7415 X-1.3243 Y0.3752
N7420 X-1.3237 Y0.3947
N7425 X-1.3158 Y0.4329
N7430 X-1.2955 Y0.4662
N7435 X-1.2673 Y0.4931
N7440 X-1.2344 Y0.5141
N7445 X-1.1989 Y0.53
N7450 X-1.1617 Y0.5419
N7455 X-1.1238 Y0.5507
N7460 X-1.0853 Y0.5572
N7465 X-1.0466 Y0.5619
N7470 X-1.0078 Y0.5654
N7475 X-0.9688 Y0.5678
N7480 X-0.9299 Y0.5696
N7485 X-0.8909 Y0.5709
N7490 X-0.8519 Y0.5718
N7495 X-0.813 Y0.5725
N7500 X-0.774 Y0.573
N7505 X-0.735 Y0.5733
N7510 X-0.696 Y0.5736
N7515 X-0.657 Y0.5738
N7520 X-0.579 Y0.574
N7525 X-0.462 Y0.5742
N7530 X-0.1891 Y0.5743
N7535 X0.1702
N7540 X0.1765 Y0.5747
N7545 X0.1828 Y0.5757
N7550 X0.1889 Y0.5774
N7555 X0.1902 Y0.5779
N7560 X0.1991 Y0.5803
N7565 X0.2079 Y0.5821
N7570 X0.2167 Y0.5835
N7575 X0.2256 Y0.5847
N7580 X0.23 Y0.5864
N7585 X0.2322 Y0.5876
N7590 X0.2345 Y0.5892
N7595 X0.2433 Y0.596
N7600 X0.261 Y0.6072
N7605 X0.2698 Y0.6115
N7610 X0.2787 Y0.6151
N7615 X0.2875 Y0.6182
N7620 X0.2964 Y0.6207
N7625 X0.3141 Y0.6254
N7630 X0.3406 Y0.6314
N7635 X0.3515 Y0.6335
N7640 X0.3671 Y0.6364
N7645 X0.376 Y0.6378
N7650 X0.3937 Y0.6402
N7655 X0.4025 Y0.641
N7660 X0.4202 Y0.6418
N7665 X0.4291 Y0.6415
N7670 X0.4468 Y0.6392
N7675 X0.4556 Y0.6373
N7680 X0.4645 Y0.6349
N7685 X0.4667 Y0.6344
N7690 X0.4689 Y0.6341
N7695 X0.4733
N7700 X0.4755 Y0.6344
N7705 X0.4777 Y0.6348
N7710 X0.4822 Y0.6362
N7715 X0.491 Y0.6385
N7720 X0.4998 Y0.6402
N7725 X0.5087 Y0.6413
N7730 X0.5175 Y0.6418
N7735 X0.5352 Y0.6413
N7740 X0.5441 Y0.6408
N7745 X0.5618 Y0.6384
N7750 X0.5706 Y0.6371
N7755 X0.5972 Y0.6323
N7760 X0.6237 Y0.6265
N7765 X0.6325 Y0.6243
N7770 X0.6502 Y0.6196
N7775 X0.6591 Y0.6168
N7780 X0.6621 Y0.6157
N7785 X0.6679 Y0.6135
N7790 X0.684 Y0.6075
N7795 X0.7154 Y0.5984
N7800 X0.7536 Y0.5906
N7805 X0.7923 Y0.5854
N7810 X0.8311 Y0.5819
N7815 X0.87 Y0.5795
N7820 X0.909 Y0.5779
N7825 X0.948 Y0.5768
N7830 X0.9869 Y0.5761
N7835 X1.0259 Y0.5756
N7840 X1.0649 Y0.5752
N7845 X1.1039 Y0.575
N7850 X1.1429 Y0.5749
N7855 X1.1812 Y0.5673
N7860 X1.2147 Y0.5474
N7865 X1.2419 Y0.5195
N7870 X1.263 Y0.4867
N7875 X1.2792 Y0.4512
N7880 X1.2912 Y0.4141
N7885 X1.3002 Y0.3762
N7890 X1.3067 Y0.3378
N7895 X1.3115 Y0.2991
N7900 X1.315 Y0.2602
N7905 X1.3176 Y0.2213
N7910 X1.3194 Y0.1824
N7915 X1.3207 Y0.1434
N7920 X1.3217 Y0.1044
N7925 X1.3224 Y0.0654
N7930 X1.3229 Y0.0264
N7935 X1.3232 Y-0.0125
N7940 X1.3235 Y-0.0515
N7945 X1.3237 Y-0.0905
N7950 X1.324 Y-0.1685
N7955 X1.3242 Y-0.2855
N7960 X1.3243 Y-0.4024
N7965 X1.3135 Y-0.4399
N7970 X1.2913 Y-0.472
N7975 X1.262 Y-0.4977
N7980 X1.2284 Y-0.5176
N7985 X1.1925 Y-0.5326
N7990 X1.1551 Y-0.5438
N7995 X1.117 Y-0.5521
N8000 X1.0785 Y-0.5582
N8005 X1.0398 Y-0.5626
N8010 X1.0009 Y-0.5659
N8015 X0.962 Y-0.5682
N8020 X0.923 Y-0.5699
N8025 X0.8841 Y-0.5711
N8030 X0.8451 Y-0.572
N8035 X0.8061 Y-0.5726
N8040 X0.7755 Y-0.573
N8045 X0.769 Y-0.5734
N8050 X0.7626 Y-0.5746
N8055 X0.7564 Y-0.5766
N8060 X0.7476 Y-0.5792
N8065 X0.7436 Y-0.5803
N8070 X0.7387 Y-0.5813
N8075 X0.7299 Y-0.5829
N8080 X0.721 Y-0.5839
N8085 X0.7188 Y-0.5842
N8090 X0.7166 Y-0.5848
N8095 X0.7122 Y-0.5865
N8100 X0.71 Y-0.5877
N8105 X0.7079 Y-0.5892
N8110 X0.7033 Y-0.5929
N8115 X0.6962 Y-0.598
N8120 X0.6945 Y-0.5992
N8125 X0.6856 Y-0.6048
N8130 X0.6819 Y-0.6069
N8135 X0.6768 Y-0.6096
N8140 X0.6679 Y-0.6135
N8145 X0.6621 Y-0.6157
N8150 X0.6591 Y-0.6168
N8155 X0.6502 Y-0.6196
N8160 X0.6312 Y-0.6246
N8165 X0.6237 Y-0.6265
N8170 X0.5972 Y-0.6323
N8175 X0.5706 Y-0.6371
N8180 X0.5618 Y-0.6384
N8185 X0.5441 Y-0.6408
N8190 X0.5352 Y-0.6413
N8195 X0.5175 Y-0.6418
N8200 X0.5087 Y-0.6413
N8205 X0.4998 Y-0.6402
N8210 X0.491 Y-0.6385
N8215 X0.4822 Y-0.6362
N8220 X0.4777 Y-0.6348
N8225 X0.4755 Y-0.6344
N8230 X0.4733 Y-0.6341
N8235 X0.4689
N8240 X0.4667 Y-0.6344
N8245 X0.4645 Y-0.6349
N8250 X0.4556 Y-0.6373
N8255 X0.4468 Y-0.6392
N8260 X0.4291 Y-0.6415
N8265 X0.4202 Y-0.6418
N8270 X0.4025 Y-0.641
N8275 X0.3937 Y-0.6402
N8280 X0.376 Y-0.6378
N8285 X0.3671 Y-0.6364
N8290 X0.3495 Y-0.6331
N8295 X0.3406 Y-0.6314
N8300 X0.3141 Y-0.6254
N8305 X0.2964 Y-0.6207
N8310 X0.2875 Y-0.6182
N8315 X0.2787 Y-0.6151
N8320 X0.2698 Y-0.6115
N8325 X0.2643 Y-0.6092
N8330 X0.2351 Y-0.6002
N8335 X0.197 Y-0.5918
N8340 X0.1584 Y-0.5861
N8345 X0.1196 Y-0.5823
N8350 X0.0807 Y-0.5798
N8355 X0.0418 Y-0.578
N8360 X0.0028 Y-0.5768
N8365 X-0.0362 Y-0.576
N8370 X-0.0752 Y-0.5755
N8375 X-0.1142 Y-0.5751
N8380 X-0.1532 Y-0.5749
N8385 X-0.1921 Y-0.5747
N8390 X-0.2701 Y-0.5745
N8395 X-0.3871 Y-0.5744
N8400 X-0.738
N8405 X-1.0499 Y-0.5745
N8410 X-1.0874 Y-0.5638
N8415 X-1.1197 Y-0.5419
N8420 X-1.1456 Y-0.5128
N8425 X-1.1658 Y-0.4794
N8430 X-1.1812 Y-0.4436
N8435 X-1.1926 Y-0.4063
N8440 X-1.2011 Y-0.3683
N8445 X-1.2074 Y-0.3298
N8450 X-1.212 Y-0.2911
N8455 X-1.2153 Y-0.2522
N8460 X-1.2178 Y-0.2133
N8465 X-1.2195 Y-0.1743
N8470 X-1.2208 Y-0.1354
N8475 X-1.2217 Y-0.0964
N8480 X-1.2224 Y-0.0574
N8485 X-1.2229 Y-0.0184
N8490 X-1.2233 Y0.0206
N8495 X-1.2235 Y0.0596
N8500 X-1.2237 Y0.0986
N8505 X-1.224 Y0.1765
N8510 X-1.2241 Y0.2545
N8515 Y0.2935
N8520 X-1.2145 Y0.3313
N8525 X-1.1937 Y0.3643
N8530 X-1.1653 Y0.391
N8535 X-1.1325 Y0.412
N8540 X-1.0969 Y0.428
N8545 X-1.0599 Y0.4401
N8550 X-1.0219 Y0.4492
N8555 X-0.9835 Y0.4559
N8560 X-0.9449 Y0.4609
N8565 X-0.906 Y0.4645
N8570 X-0.8671 Y0.4671
N8575 X-0.8282 Y0.4691
N8580 X-0.7892 Y0.4705
N8585 X-0.7503 Y0.4715
N8590 X-0.7113 Y0.4723
N8595 X-0.6723 Y0.4728
N8600 X-0.6333 Y0.4732
N8605 X-0.5943 Y0.4735
N8610 X-0.5553 Y0.4737
N8615 X-0.5163 Y0.4738
N8620 X-0.4383 Y0.474
N8625 X-0.3214 Y0.4742
N8630 X-0.0094 Y0.4743
N8635 X0.0137
N8640 X0.0252 Y0.4755
N8645 X0.0363 Y0.4789
N8650 X0.0465 Y0.4844
N8655 X0.0554 Y0.4919
N8660 X0.0575 Y0.494
N8665 X0.0647 Y0.5006
N8670 X0.0759 Y0.5094
N8675 X0.0876 Y0.5183
N8680 X0.1017 Y0.5282
N8685 X0.1129 Y0.536
N8690 X0.1194 Y0.5403
N8695 X0.1411 Y0.5537
N8700 X0.146 Y0.5567
N8705 X0.156 Y0.5626
N8710 X0.1637 Y0.5668
N8715 X0.1725 Y0.5713
N8720 X0.1814 Y0.5749
N8725 X0.1889 Y0.5774
N8730 X0.1902 Y0.5779 F5.
N8735 X0.1983 Y0.5801
N8740 X0.199 Y0.5803 F7.
N8745 X0.2079 Y0.5821
N8750 X0.2167 Y0.5835
N8755 X0.2256 Y0.5847
N8760 X0.23 Y0.5864
N8765 X0.2322 Y0.5876
N8770 X0.2344 Y0.5891
N8775 X0.2433 Y0.596
N8780 X0.261 Y0.6072
N8785 X0.2698 Y0.6115
N8790 X0.2787 Y0.6151
N8795 X0.2804 Y0.6157
N8800 X0.2875 Y0.6182
N8805 X0.2964 Y0.6207
N8810 X0.3141 Y0.6254
N8815 X0.3406 Y0.6314
N8820 X0.3495 Y0.6331
N8825 X0.3671 Y0.6364
N8830 X0.376 Y0.6378
N8835 X0.3937 Y0.6402
N8840 X0.4025 Y0.641
N8845 X0.4202 Y0.6418
N8850 X0.4291 Y0.6415
N8855 X0.4468 Y0.6392
N8860 X0.4556 Y0.6373
N8865 X0.4645 Y0.6349
N8870 X0.4667 Y0.6344
N8875 X0.4689 Y0.6341
N8880 X0.4733
N8885 X0.4755 Y0.6344
N8890 X0.4777 Y0.6348
N8895 X0.4822 Y0.6362
N8900 X0.491 Y0.6385
N8905 X0.4998 Y0.6402
N8910 X0.5087 Y0.6413
N8915 X0.5175 Y0.6418
N8920 X0.5352 Y0.6413
N8925 X0.5441 Y0.6408
N8930 X0.5618 Y0.6384
N8935 X0.5706 Y0.6371
N8940 X0.5909 Y0.6335
N8945 X0.5972 Y0.6323
N8950 X0.6237 Y0.6265
N8955 X0.6312 Y0.6246
N8960 X0.6414 Y0.6219
N8965 X0.6502 Y0.6196
N8970 X0.6587 Y0.6169
N8975 X0.6591 Y0.6168 F5.
N8980 X0.6621 Y0.6157
N8985 X0.6679 Y0.6135
N8990 X0.6768 Y0.6096 F7.
N8995 X0.6819 Y0.6069
N9000 X0.6856 Y0.6048
N9005 X0.6945 Y0.5992
N9010 X0.6962 Y0.598
N9015 X0.7033 Y0.5929
N9020 X0.7079 Y0.5892
N9025 X0.71 Y0.5877
N9030 X0.7122 Y0.5865
N9035 X0.7166 Y0.5848
N9040 X0.7188 Y0.5842
N9045 X0.721 Y0.5839
N9050 X0.7299 Y0.5829
N9055 X0.7387 Y0.5813
N9060 X0.7436 Y0.5803
N9065 X0.7476 Y0.5792
N9070 X0.7564 Y0.5766
N9075 X0.7653 Y0.5732
N9080 X0.7693 Y0.5714
N9085 X0.7829 Y0.5646
N9090 X0.7864 Y0.5626
N9095 X0.7918 Y0.5594
N9100 X0.8012 Y0.5537
N9105 X0.8183 Y0.5433
N9110 X0.8272 Y0.5376
N9115 X0.8417 Y0.5289
N9120 X0.8591 Y0.5202
N9125 X0.8818 Y0.5111
N9130 X0.9123 Y0.5017
N9135 X0.9503 Y0.4932
N9140 X0.9889 Y0.4874
N9145 X1.0277 Y0.4834
N9150 X1.0662 Y0.4773
N9155 X1.101 Y0.4598
N9160 X1.1301 Y0.4338
N9165 X1.1533 Y0.4024
N9170 X1.1713 Y0.3678
N9175 X1.1849 Y0.3313
N9180 X1.1952 Y0.2937
N9185 X1.2029 Y0.2555
N9190 X1.2086 Y0.2169
N9195 X1.2128 Y0.1781
N9200 X1.2158 Y0.1393
N9205 X1.2181 Y0.1003
N9210 X1.2197 Y0.0614
N9215 X1.221 Y0.0224
N9220 X1.2218 Y-0.0166
N9225 X1.2225 Y-0.0556
N9230 X1.223 Y-0.0945
N9235 X1.2233 Y-0.1335
N9240 X1.2236 Y-0.1725
N9245 X1.2238 Y-0.2115
N9250 X1.224 Y-0.2895
N9255 X1.216 Y-0.3277
N9260 X1.1961 Y-0.3612
N9265 X1.1684 Y-0.3886
N9270 X1.1359 Y-0.4101
N9275 X1.1006 Y-0.4266
N9280 X1.0636 Y-0.4391
N9285 X1.0258 Y-0.4484
N9290 X0.9874 Y-0.4553
N9295 X0.9487 Y-0.4604
N9300 X0.9354 Y-0.4617
N9305 X0.9245 Y-0.4638
N9310 X0.9143 Y-0.4679
N9315 X0.905 Y-0.4738
N9320 X0.897 Y-0.4814
N9325 X0.8958 Y-0.4828
N9330 X0.8803 Y-0.4983
N9335 X0.8779 Y-0.5006
N9340 X0.8714 Y-0.5056
N9345 X0.8665 Y-0.5094
N9350 X0.8537 Y-0.5191
N9355 X0.8449 Y-0.5254
N9360 X0.8296 Y-0.536
N9365 X0.8272 Y-0.5376
N9370 X0.8183 Y-0.5433
N9375 X0.8006 Y-0.5541
N9380 X0.7918 Y-0.5594
N9385 X0.7864 Y-0.5626
N9390 X0.7829 Y-0.5646
N9395 X0.7693 Y-0.5714
N9400 X0.7653 Y-0.5732
N9405 X0.7564 Y-0.5766
N9410 X0.7476 Y-0.5792 F5.
N9415 X0.747 Y-0.5793
N9420 X0.7436 Y-0.5803 F7.
N9425 X0.7387 Y-0.5813
N9430 X0.7299 Y-0.5829
N9435 X0.721 Y-0.5839
N9440 X0.7188 Y-0.5842
N9445 X0.7166 Y-0.5848
N9450 X0.7122 Y-0.5865
N9455 X0.71 Y-0.5877
N9460 X0.7079 Y-0.5892
N9465 X0.7033 Y-0.5929
N9470 X0.6962 Y-0.598
N9475 X0.6945 Y-0.5992
N9480 X0.6856 Y-0.6048
N9485 X0.6819 Y-0.6069
N9490 X0.6768 Y-0.6096
N9495 X0.6679 Y-0.6135
N9500 X0.6621 Y-0.6157
N9505 X0.6591 Y-0.6168
N9510 X0.6502 Y-0.6196
N9515 X0.6414 Y-0.6219
N9520 X0.6312 Y-0.6246
N9525 X0.6237 Y-0.6265
N9530 X0.5972 Y-0.6323
N9535 X0.5909 Y-0.6335
N9540 X0.5706 Y-0.6371
N9545 X0.5618 Y-0.6384
N9550 X0.5441 Y-0.6408
N9555 X0.5352 Y-0.6413
N9560 X0.5175 Y-0.6418
N9565 X0.5087 Y-0.6413
N9570 X0.4998 Y-0.6402
N9575 X0.491 Y-0.6385
N9580 X0.4822 Y-0.6362
N9585 X0.4777 Y-0.6348
N9590 X0.4755 Y-0.6344
N9595 X0.4733 Y-0.6341
N9600 X0.4689
N9605 X0.4667 Y-0.6344
N9610 X0.4645 Y-0.6349
N9615 X0.4556 Y-0.6373
N9620 X0.4468 Y-0.6392
N9625 X0.4291 Y-0.6415
N9630 X0.4202 Y-0.6418
N9635 X0.4025 Y-0.641
N9640 X0.3937 Y-0.6402
N9645 X0.376 Y-0.6378
N9650 X0.3671 Y-0.6364
N9655 X0.3495 Y-0.6331
N9660 X0.3406 Y-0.6314
N9665 X0.3141 Y-0.6254
N9670 X0.2964 Y-0.6207
N9675 X0.2875 Y-0.6182
N9680 X0.2804 Y-0.6157
N9685 X0.2789 Y-0.6152
N9690 X0.2787 Y-0.6151 F5.
N9695 X0.2698 Y-0.6115
N9700 X0.261 Y-0.6072 F7.
N9705 X0.2433 Y-0.596
N9710 X0.2344 Y-0.5891
N9715 X0.2322 Y-0.5876
N9720 X0.23 Y-0.5864
N9725 X0.2256 Y-0.5847
N9730 X0.2167 Y-0.5835
N9735 X0.2079 Y-0.5821
N9740 X0.199 Y-0.5803
N9745 X0.1902 Y-0.5779
N9750 X0.1814 Y-0.5749
N9755 X0.1725 Y-0.5713
N9760 X0.1637 Y-0.5668
N9765 X0.156 Y-0.5626
N9770 X0.146 Y-0.5567
N9775 X0.1371 Y-0.5513
N9780 X0.1194 Y-0.5403
N9785 X0.1129 Y-0.536
N9790 X0.1043 Y-0.5306
N9795 X0.088 Y-0.5221
N9800 X0.0667 Y-0.5131
N9805 X0.0384 Y-0.5038
N9810 X0.0005 Y-0.4945
N9815 X-0.038 Y-0.4883
N9820 X-0.0768 Y-0.4839
N9825 X-0.1156 Y-0.481
N9830 X-0.1546 Y-0.4789
N9835 X-0.1935 Y-0.4775
N9840 X-0.2325 Y-0.4766
N9845 X-0.2715 Y-0.4759
N9850 X-0.3105 Y-0.4754
N9855 X-0.3495 Y-0.4751
N9860 X-0.3885 Y-0.4749
N9865 X-0.4275 Y-0.4747
N9870 X-0.5054 Y-0.4746
N9875 X-0.6224 Y-0.4745
N9880 X-0.9343
N9885 X-0.9727 Y-0.4677
N9890 X-1.0069 Y-0.4488
N9895 X-1.035 Y-0.4219
N9900 X-1.0572 Y-0.3898
N9905 X-1.0743 Y-0.3548
N9910 X-1.0873 Y-0.318
N9915 X-1.097 Y-0.2802
N9920 X-1.1042 Y-0.2419
N9925 X-1.1095 Y-0.2033
N9930 X-1.1135 Y-0.1645
N9935 X-1.1164 Y-0.1256
N9940 X-1.1185 Y-0.0867
N9945 X-1.12 Y-0.0477
N9950 X-1.1212 Y-0.0087
N9955 X-1.122 Y0.0302
N9960 X-1.1226 Y0.0692
N9965 X-1.123 Y0.1082
N9970 X-1.1234 Y0.1472
N9975 X-1.1236 Y0.1862
N9980 X-1.1156 Y0.2244
N9985 X-1.096 Y0.2581
N9990 X-1.0686 Y0.2858
N9995 X-1.0363 Y0.3076
N10000 X-1.0011 Y0.3245
N10005 X-0.9643 Y0.3373
N10010 X-0.9265 Y0.347
N10015 X-0.8882 Y0.3541
N10020 X-0.8496 Y0.3595
N10025 X-0.8108 Y0.3634
N10030 X-0.7719 Y0.3663
N10035 X-0.733 Y0.3684
N10040 X-0.694 Y0.37
N10045 X-0.655 Y0.3711
N10050 X-0.6161 Y0.372
N10055 X-0.5771 Y0.3726
N10060 X-0.5381 Y0.373
N10065 X-0.4991 Y0.3734
N10070 X-0.4601 Y0.3736
N10075 X-0.4211 Y0.3738
N10080 X-0.3431 Y0.374
N10085 X-0.2262 Y0.3742
N10090 X-0.083 Y0.3743
N10095 X-0.07 Y0.3757
N10100 X-0.0577 Y0.3801
N10105 X-0.0466 Y0.387
N10110 X-0.0374 Y0.3963
N10115 X-0.031 Y0.4044
N10120 X-0.0248 Y0.412
N10125 X-0.016 Y0.4208
N10130 X-0.0133 Y0.4231
N10135 X-0.0044 Y0.4302
N10140 X0.0044 Y0.4366
N10145 X0.0075 Y0.4386
N10150 X0.0133 Y0.4419
N10155 X0.0175 Y0.4442
N10160 X0.0197 Y0.4456
N10165 X0.0221 Y0.4477
N10170 X0.0242 Y0.4498
N10175 X0.0259 Y0.452
N10180 X0.0284 Y0.4563
N10185 X0.031 Y0.4606
N10190 G3 X0.0338 Y0.47 I-0.022 J0.0119 F5.
N10195 G1 X0.0343 Y0.4738 Z-0.2497
N10200 X0.0347 Y0.4776 Z-0.2488
N10205 X0.035 Y0.4812 Z-0.2473
N10210 X0.0354 Y0.4846 Z-0.2452
N10215 X0.0357 Y0.4875 Z-0.2427
N10220 X0.0359 Y0.4901 Z-0.2397
N10225 X0.0362 Y0.4921 Z-0.2363
N10230 X0.0363 Y0.4936 Z-0.2327
N10235 X0.0364 Y0.4945 Z-0.2289
N10240 Y0.4948 Z-0.225
N10245 G0 Z0.2
N10250 X0.8347 Y0.57
N10255 Z-0.2
N10260 G1 Z-0.225 F5.
N10265 X0.8345 Y0.5697 Z-0.2289
N10270 X0.8342 Y0.5688 Z-0.2327
N10275 X0.8336 Y0.5675 Z-0.2363
N10280 X0.8327 Y0.5656 Z-0.2397
N10285 X0.8317 Y0.5633 Z-0.2427
N10290 X0.8305 Y0.5605 Z-0.2452
N10295 X0.8292 Y0.5575 Z-0.2473
N10300 X0.8277 Y0.5541 Z-0.2488
N10305 X0.8262 Y0.5507 Z-0.2497
N10310 X0.8246 Y0.5471 Z-0.25
N10315 G3 X0.8272 Y0.5376 I0.0072 J-0.0031
N10320 G1 X0.8296 Y0.536 F7.
N10325 X0.8449 Y0.5254
N10330 X0.8537 Y0.5191
N10335 X0.8665 Y0.5094
N10340 X0.8714 Y0.5056
N10345 X0.8779 Y0.5006
N10350 X0.8803 Y0.4983
N10355 X0.8958 Y0.4828
N10360 X0.898 Y0.4803
N10365 X0.9029 Y0.474
N10370 X0.9065 Y0.4692
N10375 X0.9135 Y0.462
N10380 X0.9225 Y0.4539
N10385 X0.9354 Y0.4441
N10390 X0.9683 Y0.4232
N10395 X0.9993 Y0.3995
N10400 X1.0262 Y0.3713
N10405 X1.0483 Y0.3392
N10410 X1.0661 Y0.3045
N10415 X1.0801 Y0.2681
N10420 X1.0909 Y0.2306
N10425 X1.0992 Y0.1925
N10430 X1.1055 Y0.1541
N10435 X1.1103 Y0.1154
N10440 X1.1139 Y0.0765
N10445 X1.1165 Y0.0376
N10450 X1.1185 Y-0.0013
N10455 X1.12 Y-0.0403
N10460 X1.1211 Y-0.0792
N10465 X1.122 Y-0.1182
N10470 X1.1226 Y-0.1572
N10475 X1.1228 Y-0.1962
N10480 X1.1115 Y-0.2335
N10485 X1.0895 Y-0.2657
N10490 X1.0606 Y-0.2919
N10495 X1.0523 Y-0.297
N10500 X1.0446 Y-0.3027
N10505 X1.038 Y-0.3095
N10510 X1.0326 Y-0.3172
N10515 X1.0218 Y-0.3357
N10520 X1.0185 Y-0.3411
N10525 X1.0041 Y-0.3629
N10530 X1.001 Y-0.3677
N10535 X0.9947 Y-0.3765
N10540 X0.9881 Y-0.3854
N10545 X0.9814 Y-0.3943
N10550 X0.9742 Y-0.4031
N10555 X0.9669 Y-0.412
N10560 X0.9599 Y-0.4194
N10565 X0.9584 Y-0.4208
N10570 X0.9422 Y-0.4336
N10575 X0.9349 Y-0.4386
N10580 X0.9333 Y-0.4395
N10585 X0.9245 Y-0.4444
N10590 X0.9205 Y-0.4474
N10595 X0.9177 Y-0.4503
N10600 X0.9156 Y-0.4532
N10605 X0.914 Y-0.4563
N10610 X0.9068 Y-0.468
N10615 X0.9029 Y-0.474
N10620 X0.898 Y-0.4803
N10625 X0.897 Y-0.4814
N10630 G3 X0.8925 Y-0.49 I0.0194 J-0.0158 F5.
N10635 G1 X0.8913 Y-0.4937 Z-0.2497
N10640 X0.8903 Y-0.4974 Z-0.2488
N10645 X0.8892 Y-0.5009 Z-0.2473
N10650 X0.8883 Y-0.5041 Z-0.2452
N10655 X0.8874 Y-0.5069 Z-0.2427
N10660 X0.8867 Y-0.5094 Z-0.2397
N10665 X0.8861 Y-0.5113 Z-0.2363
N10670 X0.8857 Y-0.5128 Z-0.2327
N10675 X0.8854 Y-0.5137 Z-0.2289
N10680 X0.8853 Y-0.514 Z-0.225
N10685 G0 Z0.2
N10690 X0.1048 Y-0.5682
N10695 Z-0.2
N10700 G1 Z-0.225 F5.
N10705 X0.1049 Y-0.5679 Z-0.2289
N10710 X0.1053 Y-0.5671 Z-0.2327
N10715 X0.1059 Y-0.5657 Z-0.2363
N10720 X0.1068 Y-0.5639 Z-0.2397
N10725 X0.1078 Y-0.5616 Z-0.2427
N10730 X0.1091 Y-0.5589 Z-0.2452
N10735 X0.1105 Y-0.5558 Z-0.2473
N10740 X0.112 Y-0.5525 Z-0.2488
N10745 X0.1136 Y-0.5491 Z-0.2497
N10750 X0.1152 Y-0.5455 Z-0.25
N10755 G3 X0.1129 Y-0.536 I-0.0071 J0.0033
N10760 G1 X0.0929 Y-0.522 F7.
N10765 X0.0876 Y-0.5183
N10770 X0.0752 Y-0.5089
N10775 X0.0647 Y-0.5006
N10780 X0.0575 Y-0.494
N10785 X0.0466 Y-0.4828
N10790 X0.0398 Y-0.474
N10795 X0.0351 Y-0.4683
N10800 X0.0278 Y-0.4608
N10805 X0.0183 Y-0.4525
N10810 X0.0069 Y-0.4441
N10815 X-0.0078 Y-0.4349
N10820 X-0.0259 Y-0.4255
N10825 X-0.0495 Y-0.4157
N10830 X-0.0804 Y-0.4055
N10835 X-0.1183 Y-0.3964
N10840 X-0.1568 Y-0.3899
N10845 X-0.1955 Y-0.3854
N10850 X-0.2344 Y-0.3822
N10855 X-0.2733 Y-0.3799
N10860 X-0.3123 Y-0.3783
N10865 X-0.3512 Y-0.3771
N10870 X-0.3902 Y-0.3763
N10875 X-0.4292 Y-0.3758
N10880 X-0.4682 Y-0.3754
N10885 X-0.5072 Y-0.3751
N10890 X-0.5462 Y-0.3749
N10895 X-0.5852 Y-0.3748
N10900 X-0.6631 Y-0.3746
N10905 X-0.7801 Y-0.3745
N10910 X-0.8191
N10915 X-0.858 Y-0.3716
N10920 X-0.8939 Y-0.3563
N10925 X-0.9241 Y-0.3317
N10930 X-0.9485 Y-0.3013
N10935 X-0.9674 Y-0.2672
N10940 X-0.9819 Y-0.231
N10945 X-0.9928 Y-0.1935
N10950 X-1.001 Y-0.1554
N10955 X-1.0071 Y-0.1169
N10960 X-1.0095 Y-0.0962
N10965 X-1.0101 Y-0.0923
N10970 X-1.011 Y-0.0884
N10975 X-1.0121 Y-0.0846
N10980 X-1.013 Y-0.082
N10985 X-1.015 Y-0.0753
N10990 X-1.0177 Y-0.0664
N10995 X-1.0199 Y-0.0576
N11000 X-1.0216 Y-0.0487
N11005 X-1.024 Y-0.031
N11010 X-1.0246 Y-0.0221
N11015 X-1.025 Y-0.0044
N11020 Y0.0044
N11025 X-1.0248 Y0.0133
N11030 X-1.0259 Y0.0523
N11035 X-1.0251 Y0.0912
N11040 X-1.0144 Y0.1287
N11045 X-0.9931 Y0.1614
N11050 X-0.9648 Y0.1882
N11055 X-0.9388 Y0.2049
N11060 X-0.9369 Y0.2062
N11065 X-0.935 Y0.2075
N11070 X-0.9333 Y0.2089
N11075 G3 X-0.9273 Y0.2167 I-0.0166 J0.0187 F5.
N11080 X-0.939 Y0.2502 I-0.0225 J0.011 F7.
N11085 X-0.9724 Y0.2383 I-0.0108 J-0.0226
N11090 G1 X-1.0724 Y0.0254
N11095 G3 X-1.0273 Y0.0038 I0.0226 J-0.0106
N11100 X-1.0248 Y0.0133 I-0.0225 J0.0109 F5.
N11105 G1 X-1.0246 Y0.0221 F7.
N11110 X-1.024 Y0.031
N11115 X-1.0216 Y0.0487
N11120 X-1.0199 Y0.0576
N11125 X-1.0177 Y0.0664
N11130 X-1.015 Y0.0753
N11135 X-1.013 Y0.082
N11140 X-1.0064 Y0.1019
N11145 X-1.0041 Y0.1085
N11150 X-0.9948 Y0.1285
N11155 X-0.9903 Y0.1373
N11160 X-0.9776 Y0.1564
N11165 X-0.9725 Y0.1639
N11170 X-0.9662 Y0.1728
N11175 X-0.9594 Y0.1816
N11180 X-0.952 Y0.1905
N11185 X-0.9422 Y0.2005
N11190 X-0.9342 Y0.2082
N11195 X-0.9245 Y0.2162
N11200 X-0.9122 Y0.2259
N11205 X-0.9068 Y0.23
N11210 X-0.8891 Y0.2421
N11215 X-0.8867 Y0.2436
N11220 X-0.8803 Y0.2471
N11225 X-0.8626 Y0.2556
N11230 X-0.8537 Y0.2596
N11235 X-0.836 Y0.2662
N11240 X-0.8272 Y0.2694
N11245 X-0.8095 Y0.2744
N11250 X-0.8006 Y0.2767
N11255 X-0.7829 Y0.2795
N11260 X-0.7741 Y0.2807
N11265 X-0.7476 Y0.2818
N11270 X-0.721 Y0.2817
N11275 X-0.7122 Y0.2806
N11280 X-0.6733 Y0.2778
N11285 X-0.6343 Y0.2762
N11290 X-0.5953 Y0.2753
N11295 X-0.5564 Y0.2747
N11300 X-0.5174 Y0.2744
N11305 X-0.4784 Y0.2742
N11310 X-0.4394
N11315 X-0.3614 Y0.2741
N11320 X-0.1665 Y0.2742
N11325 X-0.1458 Y0.275
N11330 X-0.1337 Y0.2767
N11335 X-0.1223 Y0.2809
N11340 X-0.1119 Y0.2874
N11345 X-0.1031 Y0.2959
N11350 X-0.0963 Y0.3061
N11355 X-0.0929 Y0.3126
N11360 X-0.0814 Y0.3322
N11365 X-0.0761 Y0.3411
N11370 X-0.0586 Y0.3677
N11375 X-0.0524 Y0.3765
N11380 X-0.039 Y0.3943
N11385 X-0.0374 Y0.3963
N11390 G3 X-0.0332 Y0.4051 I-0.0201 J0.0149 F5.
N11395 X-0.0615 Y0.4358 I-0.0243 J0.0061 F7.
N11400 G1 X-0.7122 Y0.33
N11405 G3 X-0.7213 Y0.284 I0.004 J-0.0247
N11410 X-0.7122 Y0.2806 I0.0131 J0.0213 F5.
N11415 G1 X-0.6945 Y0.2784 F7.
N11420 X-0.6679 Y0.2714
N11425 X-0.6639 Y0.2702
N11430 X-0.6591 Y0.2688
N11435 X-0.6414 Y0.2631
N11440 X-0.637 Y0.2614
N11445 X-0.6149 Y0.2517
N11450 X-0.606 Y0.2467
N11455 X-0.6008 Y0.2436
N11460 X-0.5972 Y0.2413
N11465 X-0.5883 Y0.2351
N11470 X-0.5765 Y0.2277
N11475 X-0.5609 Y0.2196
N11480 X-0.5405 Y0.2111
N11485 X-0.5133 Y0.2022
N11490 X-0.4754 Y0.193
N11495 X-0.4368 Y0.1869
N11500 X-0.3981 Y0.1828
N11505 X-0.3592 Y0.18
N11510 X-0.3202 Y0.1782
N11515 X-0.2813 Y0.1769
N11520 X-0.2423 Y0.1761
N11525 X-0.2055 Y0.1765
N11530 X-0.1807 Y0.1788
N11535 X-0.1778 Y0.1793
N11540 X-0.1654 Y0.1829
N11545 X-0.1541 Y0.1891
N11550 X-0.1445 Y0.1977
N11555 X-0.1369 Y0.2081
N11560 X-0.1319 Y0.2171
N11565 X-0.1283 Y0.2229
N11570 X-0.1196 Y0.2348
N11575 X-0.1162 Y0.2393
N11580 X-0.1141 Y0.2436
N11585 X-0.1134 Y0.2459
N11590 X-0.1129 Y0.2481
N11595 X-0.1125 Y0.2525
N11600 X-0.1112 Y0.2614
N11605 X-0.1094 Y0.2702
N11610 G3 X-0.1096 Y0.28 I-0.0246 J0.0043 F5.
N11615 X-0.1351 Y0.2995 I-0.0244 J-0.0054 F7.
N11620 G1 X-0.5744 Y0.2801
N11625 G3 X-0.5948 Y0.2424 I0.0011 J-0.025
N11630 X-0.5883 Y0.2351 I0.0215 J0.0127 F5.
N11635 G1 X-0.5706 Y0.2224 F7.
N11640 X-0.5618 Y0.216
N11645 X-0.5526 Y0.2082
N11650 X-0.5441 Y0.2003
N11655 X-0.5348 Y0.1905
N11660 X-0.5279 Y0.1816
N11665 X-0.5264 Y0.1795
N11670 X-0.517 Y0.1681
N11675 X-0.51 Y0.1608
N11680 X-0.5007 Y0.1526
N11685 X-0.4893 Y0.144
N11690 X-0.475 Y0.135
N11695 X-0.4569 Y0.1256
N11700 X-0.4338 Y0.1157
N11705 X-0.4037 Y0.1057
N11710 X-0.3658 Y0.0964
N11715 X-0.3274 Y0.0898
N11720 X-0.2886 Y0.0855
N11725 X-0.2546 Y0.0838
N11730 X-0.2297 Y0.0846
N11735 X-0.209 Y0.0869
N11740 X-0.2058 Y0.0875
N11745 X-0.1948 Y0.0908
N11750 X-0.1846 Y0.0962
N11755 X-0.1757 Y0.1034
N11760 X-0.1684 Y0.1123
N11765 X-0.163 Y0.1224
N11770 X-0.1597 Y0.1334
N11775 X-0.1589 Y0.1373
N11780 X-0.1568 Y0.1462
N11785 X-0.1523 Y0.1639
N11790 X-0.1499 Y0.1728
N11795 X-0.1444 Y0.1905
N11800 X-0.1413 Y0.1993
N11805 X-0.1371 Y0.2078
N11810 X-0.1369 Y0.2081
N11815 G3 X-0.1342 Y0.2175 I-0.0222 J0.0115 F5.
N11820 X-0.161 Y0.2446 I-0.0249 J0.0021 F7.
N11825 G1 X-0.5076 Y0.2186
N11830 G3 X-0.5302 Y0.1885 I0.0019 J-0.0249
N11835 X-0.5264 Y0.1795 I0.0245 J0.0052 F5.
N11840 G1 X-0.5148 Y0.1639 F7.
N11845 X-0.5084 Y0.155
N11850 X-0.5024 Y0.1462
N11855 X-0.4967 Y0.1373
N11860 X-0.4917 Y0.1285
N11865 X-0.491 Y0.1271
N11870 X-0.4874 Y0.1196
N11875 X-0.4855 Y0.1147
N11880 X-0.4817 Y0.1064
N11885 X-0.4777 Y0.0992
N11890 X-0.4725 Y0.0916
N11895 X-0.4656 Y0.0828
N11900 X-0.4571 Y0.0737
N11905 X-0.4469 Y0.0644
N11910 X-0.4337 Y0.0541
N11915 X-0.4186 Y0.0442
N11920 X-0.399 Y0.0335
N11925 X-0.377 Y0.0237
N11930 X-0.3514 Y0.0147
N11935 X-0.3243 Y0.0075
N11940 X-0.2969 Y0.0026
N11945 X-0.2743 Y0.0004
N11950 X-0.2554 Y0.0001
N11955 X-0.2375 Y0.0012
N11960 X-0.2222 Y0.0034
N11965 X-0.2179 Y0.0044
N11970 X-0.206 Y0.0084
N11975 X-0.1951 Y0.0149
N11980 X-0.1858 Y0.0234
N11985 X-0.1785 Y0.0337
N11990 X-0.1734 Y0.0452
N11995 X-0.1708 Y0.0576
N12000 X-0.1699 Y0.0664
N12005 X-0.168 Y0.0842
N12010 X-0.1669 Y0.093
N12015 X-0.1656 Y0.1019
N12020 X-0.1637 Y0.1133
N12025 X-0.1597 Y0.1334
N12030 G3 X-0.16 Y0.1432 I-0.0247 J0.004 F5.
N12035 X-0.1856 Y0.1624 I-0.0243 J-0.0057 F7.
N12040 G1 X-0.4632 Y0.1481
N12045 G3 X-0.4869 Y0.1244 I0.0013 J-0.025
N12050 X-0.4855 Y0.1147 I0.025 J-0.0012 F5.
N12055 G1 X-0.4839 Y0.1107 F7.
N12060 X-0.4822 Y0.1059
N12065 X-0.478 Y0.093
N12070 X-0.4751 Y0.0842
N12075 X-0.4733 Y0.0784
N12080 X-0.4672 Y0.0576
N12085 X-0.4653 Y0.0487
N12090 X-0.4641 Y0.0429
N12095 X-0.4617 Y0.0357
N12100 X-0.4582 Y0.0275
N12105 X-0.4539 Y0.0193
N12110 X-0.448 Y0.0101
N12115 X-0.4408 Y0.0006
N12120 X-0.432 Y-0.0093
N12125 X-0.4213 Y-0.0195
N12130 X-0.4087 Y-0.0298
N12135 X-0.3942 Y-0.0398
N12140 X-0.3773 Y-0.0495
N12145 X-0.3591 Y-0.0582
N12150 X-0.3399 Y-0.0655
N12155 X-0.3195 Y-0.0713
N12160 X-0.2995 Y-0.0754
N12165 X-0.281 Y-0.0777
N12170 X-0.2646 Y-0.0784
N12175 X-0.2485 Y-0.0777
N12180 X-0.2344 Y-0.076
N12185 X-0.2204 Y-0.0732
N12190 X-0.2078 Y-0.0696
N12195 X-0.2048 Y-0.0684
N12200 X-0.1942 Y-0.0631
N12205 X-0.1849 Y-0.0558
N12210 X-0.1773 Y-0.0468
N12215 X-0.1716 Y-0.0364
N12220 X-0.1682 Y-0.025
N12225 X-0.1676 Y-0.0221
N12230 X-0.1656 Y-0.0133
N12235 X-0.1637 Y-0.0067
N12240 X-0.1631 Y-0.0044
N12245 X-0.1629 Y-0.0022
N12250 X-0.1628 Y0.
N12255 X-0.1629 Y0.0022
N12260 X-0.1631 Y0.0044
N12265 X-0.1637 Y0.0067
N12270 X-0.1656 Y0.0133
N12275 G3 X-0.1704 Y0.0218 I-0.0238 J-0.0078 F5.
N12280 X-0.1849 Y0.0301 I-0.019 J-0.0163 F7.
N12285 G1 X-0.436 Y0.0758
N12290 G3 X-0.4644 Y0.0584 I-0.0045 J-0.0246
N12295 X-0.4653 Y0.0487 I0.0239 J-0.0072 F5.
N12300 G1 X-0.4629 Y0.031 F7.
N12305 X-0.4624 Y0.0221
N12310 X-0.4623 Y0.0044
N12315 Y-0.0044
N12320 X-0.4624 Y-0.0093
N12325 X-0.4621 Y-0.0153
N12330 X-0.4617 Y-0.0213
N12335 X-0.4608 Y-0.0272
N12340 X-0.4595 Y-0.0331
N12345 X-0.4579 Y-0.0389
N12350 X-0.456 Y-0.0445
N12355 X-0.4537 Y-0.0501
N12360 X-0.4512 Y-0.0556
N12365 X-0.4485 Y-0.0609
N12370 X-0.4455 Y-0.0661
N12375 X-0.4422 Y-0.0711
N12380 X-0.4388 Y-0.0761
N12385 X-0.4352 Y-0.0809
N12390 X-0.4314 Y-0.0855
N12395 X-0.4275 Y-0.09
N12400 X-0.4234 Y-0.0944
N12405 X-0.4191 Y-0.0986
N12410 X-0.4147 Y-0.1027
N12415 X-0.4102 Y-0.1067
N12420 X-0.4056 Y-0.1105
N12425 X-0.4008 Y-0.1142
N12430 X-0.396 Y-0.1177
N12435 X-0.391 Y-0.1211
N12440 X-0.386 Y-0.1244
N12445 X-0.3809 Y-0.1275
N12450 X-0.3757 Y-0.1304
N12455 X-0.3704 Y-0.1333
N12460 X-0.365 Y-0.136
N12465 X-0.3596 Y-0.1385
N12470 X-0.3541 Y-0.1409
N12475 X-0.3485 Y-0.1432
N12480 X-0.3429 Y-0.1454
N12485 X-0.3373 Y-0.1473
N12490 X-0.3316 Y-0.1492
N12495 X-0.3258 Y-0.1509
N12500 X-0.32 Y-0.1525
N12505 X-0.3142 Y-0.1539
N12510 X-0.3083 Y-0.1552
N12515 X-0.3024 Y-0.1563
N12520 X-0.2965 Y-0.1573
N12525 X-0.2906 Y-0.1581
N12530 X-0.2846 Y-0.1588
N12535 X-0.2786 Y-0.1594
N12540 X-0.2727 Y-0.1598
N12545 X-0.2667 Y-0.16
N12550 X-0.2607
N12555 X-0.2547 Y-0.1599
N12560 X-0.2487 Y-0.1597
N12565 X-0.2427 Y-0.1592
N12570 X-0.2367 Y-0.1586
N12575 X-0.2308 Y-0.1578
N12580 X-0.2249 Y-0.1568
N12585 X-0.219 Y-0.1556
N12590 X-0.2131 Y-0.1542
N12595 X-0.2096 Y-0.1532
N12600 X-0.1985 Y-0.1488
N12605 X-0.1885 Y-0.1423
N12610 X-0.18 Y-0.1339
N12615 X-0.1735 Y-0.124
N12620 X-0.1691 Y-0.1129
N12625 X-0.167 Y-0.1011
N12630 X-0.1674 Y-0.0892
N12635 X-0.168 Y-0.0842
N12640 X-0.1702 Y-0.0638
N12645 X-0.1708 Y-0.0576
N12650 X-0.17 Y-0.0399
N12655 X-0.1693 Y-0.031
N12660 X-0.1682 Y-0.025
N12665 G3 X-0.1685 Y-0.0153 I-0.0247 J0.0039 F5.
N12670 X-0.1917 Y0.0039 I-0.0243 J-0.0058 F7.
N12675 G1 X-0.4363 Y0.0146
N12680 G3 X-0.4601 Y0.0002 I-0.0011 J-0.025
N12685 X-0.4624 Y-0.0093 I0.0227 J-0.0105 F5.
N12690 G1 Y-0.0221 F7.
N12695 X-0.4629 Y-0.031
N12700 X-0.4653 Y-0.0487
N12705 X-0.4672 Y-0.0576
N12710 X-0.468 Y-0.0603
N12715 X-0.4694 Y-0.0661
N12720 X-0.4706 Y-0.072
N12725 X-0.4713 Y-0.0779
N12730 X-0.4715 Y-0.0839
N12735 X-0.4713 Y-0.0899
N12740 X-0.4707 Y-0.0959
N12745 X-0.4698 Y-0.1018
N12750 X-0.4685 Y-0.1077
N12755 X-0.4669 Y-0.1135
N12760 X-0.465 Y-0.1191
N12765 X-0.4628 Y-0.1247
N12770 X-0.4604 Y-0.1302
N12775 X-0.4577 Y-0.1356
N12780 X-0.4543 Y-0.1447
N12785 X-0.4524 Y-0.1543
N12790 X-0.4522 Y-0.1641
N12795 X-0.4536 Y-0.1737
N12800 X-0.4566 Y-0.183
N12805 X-0.4611 Y-0.1916
N12810 X-0.467 Y-0.1994
N12815 X-0.4812 Y-0.2128
N12820 X-0.5166 Y-0.229
N12825 X-0.5539 Y-0.2403
N12830 X-0.5921 Y-0.2481
N12835 X-0.6058 Y-0.2501
N12840 X-0.611 Y-0.251
N12845 X-0.6161 Y-0.2525
N12850 X-0.6211 Y-0.2544
N12855 G3 X-0.6289 Y-0.2602 I0.0108 J-0.0225 F5.
N12860 G1 X-0.6315 Y-0.2632 Z-0.2497
N12865 X-0.634 Y-0.266 Z-0.2488
N12870 X-0.6364 Y-0.2687 Z-0.2473
N12875 X-0.6387 Y-0.2712 Z-0.2452
N12880 X-0.6406 Y-0.2734 Z-0.2427
N12885 X-0.6423 Y-0.2753 Z-0.2397
N12890 X-0.6437 Y-0.2768 Z-0.2363
N12895 X-0.6447 Y-0.278 Z-0.2327
N12900 X-0.6453 Y-0.2786 Z-0.2289
N12905 X-0.6455 Y-0.2789 Z-0.225
N12910 G0 Z0.2
N12915 X-0.4349 Y-0.0577
N12920 Z-0.2
N12925 G1 Z-0.225 F5.
N12930 X-0.4352 Z-0.2289
N12935 X-0.4361 Y-0.0576 Z-0.2327
N12940 X-0.4376 Y-0.0574 Z-0.2363
N12945 X-0.4396 Y-0.0572 Z-0.2397
N12950 X-0.4421 Y-0.0569 Z-0.2427
N12955 X-0.4451 Y-0.0566 Z-0.2452
N12960 X-0.4484 Y-0.0562 Z-0.2473
N12965 X-0.452 Y-0.0558 Z-0.2488
N12970 X-0.4558 Y-0.0554 Z-0.2497
N12975 X-0.4597 Y-0.055 Z-0.25
N12980 G3 X-0.468 Y-0.0603 I-0.0009 J-0.0078
N12985 G1 X-0.4733 Y-0.0784 F7.
N12990 X-0.4751 Y-0.0842
N12995 X-0.478 Y-0.093
N13000 X-0.4822 Y-0.1059
N13005 X-0.4839 Y-0.1107
N13010 X-0.4874 Y-0.1196
N13015 X-0.491 Y-0.1271
N13020 X-0.4917 Y-0.1285
N13025 X-0.4967 Y-0.1373
N13030 X-0.5024 Y-0.1462
N13035 X-0.5087 Y-0.1554
N13040 X-0.5148 Y-0.1639
N13045 X-0.5279 Y-0.1816
N13050 X-0.5348 Y-0.1905
N13055 X-0.5441 Y-0.2003
N13060 X-0.5529 Y-0.2085
N13065 X-0.5618 Y-0.216
N13070 X-0.5878 Y-0.2348
N13075 X-0.5972 Y-0.2413
N13080 X-0.6008 Y-0.2436
N13085 X-0.606 Y-0.2467
N13090 X-0.6149 Y-0.2517
N13095 X-0.637 Y-0.2614
N13100 X-0.6414 Y-0.2631
N13105 X-0.6591 Y-0.2688
N13110 X-0.6639 Y-0.2702
N13115 X-0.6679 Y-0.2714
N13120 X-0.6945 Y-0.2784
N13125 X-0.7122 Y-0.2806
N13130 X-0.721 Y-0.2817
N13135 X-0.7476 Y-0.2818
N13140 X-0.7741 Y-0.2807
N13145 X-0.7829 Y-0.2795
N13150 X-0.8006 Y-0.2767
N13155 X-0.8095 Y-0.2744
N13160 X-0.8272 Y-0.2694
N13165 X-0.836 Y-0.2662
N13170 X-0.8537 Y-0.2596
N13175 X-0.8626 Y-0.2556
N13180 X-0.8803 Y-0.2471
N13185 X-0.8867 Y-0.2436
N13190 X-0.8891 Y-0.2421
N13195 X-0.9068 Y-0.23
N13200 X-0.9122 Y-0.2259
N13205 X-0.9245 Y-0.2162
N13210 X-0.9342 Y-0.2082
N13215 X-0.9422 Y-0.2005
N13220 X-0.952 Y-0.1905
N13225 X-0.9599 Y-0.1811
N13230 X-0.9662 Y-0.1728
N13235 X-0.9725 Y-0.1639
N13240 X-0.9785 Y-0.155
N13245 X-0.9903 Y-0.1373
N13250 X-0.9948 Y-0.1285
N13255 X-1.0041 Y-0.1085
N13260 X-1.0064 Y-0.1019
N13265 X-1.0121 Y-0.0846
N13270 G3 X-1.0172 Y-0.0763 I-0.0234 J-0.0087 F5.
N13275 G1 X-1.0198 Y-0.0735 Z-0.2497
N13280 X-1.0224 Y-0.0707 Z-0.2488
N13285 X-1.0249 Y-0.068 Z-0.2473
N13290 X-1.0272 Y-0.0656 Z-0.2452
N13295 X-1.0292 Y-0.0634 Z-0.2427
N13300 X-1.0309 Y-0.0615 Z-0.2397
N13305 X-1.0323 Y-0.06 Z-0.2363
N13310 X-1.0333 Y-0.0589 Z-0.2327
N13315 X-1.034 Y-0.0582 Z-0.2289
N13320 X-1.0342 Y-0.058 Z-0.225
N13325 G0 Z0.2
N13330 X0.022 Y-0.5021
N13335 Z-0.2
N13340 G1 Z-0.225 F5.
N13345 X0.0222 Y-0.5019 Z-0.2289
N13350 X0.0229 Y-0.5012 Z-0.2327
N13355 X0.0239 Y-0.5001 Z-0.2363
N13360 X0.0253 Y-0.4986 Z-0.2397
N13365 X0.027 Y-0.4967 Z-0.2427
N13370 X0.0291 Y-0.4945 Z-0.2452
N13375 X0.0313 Y-0.4921 Z-0.2473
N13380 X0.0338 Y-0.4895 Z-0.2488
N13385 X0.0364 Y-0.4867 Z-0.2497
N13390 X0.0391 Y-0.4838 Z-0.25
N13395 G3 X0.0398 Y-0.474 I-0.0057 J0.0053
N13400 G1 X0.0336 Y-0.4651 F7.
N13405 X0.0284 Y-0.4563
N13410 X0.0259 Y-0.452
N13415 X0.0242 Y-0.4498
N13420 X0.0221 Y-0.4477
N13425 X0.0197 Y-0.4456
N13430 X0.0175 Y-0.4442
N13435 X0.0133 Y-0.4419
N13440 X0.0075 Y-0.4386
N13445 X0.0044 Y-0.4366
N13450 X-0.0044 Y-0.4302
N13455 X-0.0133 Y-0.4231
N13460 X-0.016 Y-0.4208
N13465 X-0.0248 Y-0.412
N13470 X-0.032 Y-0.4031
N13475 X-0.039 Y-0.3943
N13480 X-0.0457 Y-0.3854
N13485 X-0.0558 Y-0.3734
N13490 X-0.0642 Y-0.3649
N13495 X-0.0716 Y-0.3585
N13500 X-0.0778 Y-0.351
N13505 X-0.0827 Y-0.3426
N13510 X-0.0894 Y-0.3244
N13515 X-0.0908 Y-0.3189
N13520 X-0.0927 Y-0.3136
N13525 X-0.0951 Y-0.3084
N13530 G3 X-0.1015 Y-0.3011 I-0.0217 J-0.0124 F5.
N13535 X-0.1385 Y-0.3333 I-0.0153 J-0.0198 F7.
N13540 X-0.0499 Y-0.3919 I0.1025 J0.0587
N13545 G1 X-0.0496 F5.
N13550 G3 X-0.0457 Y-0.3854 I0.0005 J0.0041
N13555 G1 X-0.0524 Y-0.3765 F7.
N13560 X-0.0586 Y-0.3677
N13565 X-0.0761 Y-0.3411
N13570 X-0.0814 Y-0.3322
N13575 X-0.0929 Y-0.3126
N13580 X-0.0965 Y-0.3057
N13585 X-0.1009 Y-0.2968
N13590 X-0.1044 Y-0.2879
N13595 X-0.1073 Y-0.2791
N13600 X-0.1094 Y-0.2702
N13605 X-0.1112 Y-0.2614
N13610 X-0.1125 Y-0.2525
N13615 X-0.1129 Y-0.2481
N13620 X-0.1134 Y-0.2459
N13625 X-0.1141 Y-0.2436
N13630 X-0.1162 Y-0.2393
N13635 X-0.1283 Y-0.2229
N13640 X-0.1319 Y-0.2171
N13645 X-0.1371 Y-0.2078
N13650 X-0.1413 Y-0.1993
N13655 X-0.1444 Y-0.1905
N13660 X-0.1499 Y-0.1728
N13665 X-0.1523 Y-0.1639
N13670 X-0.1568 Y-0.1462
N13675 X-0.1589 Y-0.1373
N13680 X-0.1637 Y-0.1133
N13685 X-0.1656 Y-0.1019
N13690 X-0.1671 Y-0.0909
N13695 X-0.1674 Y-0.0892
N13700 G3 X-0.1708 Y-0.0801 I-0.0246 J-0.0042 F5.
N13705 G1 X-0.1729 Y-0.0768 Z-0.2497
N13710 X-0.1749 Y-0.0736 Z-0.2488
N13715 X-0.1769 Y-0.0705 Z-0.2473
N13720 X-0.1787 Y-0.0677 Z-0.2452
N13725 X-0.1802 Y-0.0651 Z-0.2427
N13730 X-0.1816 Y-0.063 Z-0.2397
N13735 X-0.1827 Y-0.0613 Z-0.2363
N13740 X-0.1835 Y-0.06 Z-0.2327
N13745 X-0.184 Y-0.0592 Z-0.2289
N13750 X-0.1841 Y-0.0589 Z-0.225
N13755 G0 Z0.2
N13760 X0.9224 Y0.5009
N13765 Z-0.2
N13770 G1 Z-0.225 F5.
N13775 X0.9222 Y0.5006 Z-0.2289
N13780 X0.9215 Y0.5 Z-0.2327
N13785 X0.9204 Y0.499 Z-0.2363
N13790 X0.9189 Y0.4976 Z-0.2397
N13795 X0.9171 Y0.4958 Z-0.2427
N13800 X0.9149 Y0.4938 Z-0.2452
N13805 X0.9125 Y0.4915 Z-0.2473
N13810 X0.9098 Y0.489 Z-0.2488
N13815 X0.907 Y0.4864 Z-0.2497
N13820 X0.9042 Y0.4837 Z-0.25
N13825 G3 X0.9029 Y0.474 I0.0054 J-0.0057
N13830 G1 X0.9068 Y0.468 F7.
N13835 X0.914 Y0.4563
N13840 X0.9156 Y0.4532
N13845 X0.9177 Y0.4503
N13850 X0.9205 Y0.4474
N13855 X0.9245 Y0.4444
N13860 X0.9333 Y0.4395
N13865 X0.9349 Y0.4386
N13870 X0.9422 Y0.4336
N13875 X0.9584 Y0.4208
N13880 X0.9599 Y0.4194
N13885 X0.9669 Y0.412
N13890 X0.9776 Y0.399
N13895 X0.9814 Y0.3943
N13900 X0.9881 Y0.3854
N13905 X0.9953 Y0.3757
N13910 X1.001 Y0.3677
N13915 X1.0068 Y0.3588
N13920 X1.0185 Y0.3411
N13925 X1.0218 Y0.3357
N13930 X1.0342 Y0.3145
N13935 X1.039 Y0.3057
N13940 X1.0433 Y0.2968
N13945 X1.0468 Y0.2879
N13950 X1.0484 Y0.2835
N13955 X1.0496 Y0.2791
N13960 X1.052 Y0.2702
N13965 X1.0537 Y0.2614
N13970 X1.0549 Y0.2525
N13975 X1.0553 Y0.2481
N13980 X1.0558 Y0.2459
N13985 X1.0565 Y0.2436
N13990 X1.0572 Y0.2421
N13995 X1.0592 Y0.2384
N14000 X1.062 Y0.2348
N14005 X1.066 Y0.2293
N14010 X1.0685 Y0.2259
N14015 X1.0745 Y0.2171
N14020 X1.0749 Y0.2163
N14025 X1.0794 Y0.2082
N14030 X1.0837 Y0.1989
N14035 X1.0868 Y0.1905
N14040 X1.0926 Y0.1718
N14045 X1.0947 Y0.1639
N14050 X1.0992 Y0.1462
N14055 X1.1013 Y0.1373
N14060 X1.1048 Y0.1196
N14065 X1.1065 Y0.1107
N14070 X1.1103 Y0.0854
N14075 X1.1104 Y0.0842
N14080 X1.1123 Y0.0664
N14085 X1.1132 Y0.0576
N14090 X1.1124 Y0.0399
N14095 X1.1118 Y0.031
N14100 X1.1101 Y0.0221
N14105 X1.1079 Y0.0133
N14110 X1.1055 Y0.0044
N14115 X1.1053 Y0.0022
N14120 X1.1052 Y0.
N14125 X1.1053 Y-0.0022
N14130 X1.1055 Y-0.0044
N14135 X1.108 Y-0.0133
N14140 X1.1101 Y-0.0221
N14145 X1.1118 Y-0.031
N14150 X1.1124 Y-0.0399
N14155 X1.1132 Y-0.0576
N14160 X1.1123 Y-0.0664
N14165 X1.1104 Y-0.0842
N14170 X1.1103 Y-0.0854
N14175 X1.1065 Y-0.1107
N14180 X1.1048 Y-0.1196
N14185 X1.1013 Y-0.1373
N14190 X1.0992 Y-0.1462
N14195 X1.0947 Y-0.1639
N14200 X1.0926 Y-0.1718
N14205 X1.0868 Y-0.1905
N14210 X1.0837 Y-0.1989
N14215 X1.0794 Y-0.2082
N14220 X1.0749 Y-0.2163
N14225 X1.0745 Y-0.2171
N14230 X1.0685 Y-0.2259
N14235 X1.066 Y-0.2293
N14240 X1.062 Y-0.2348
N14245 X1.0592 Y-0.2384
N14250 X1.0572 Y-0.2421
N14255 X1.0565 Y-0.2436
N14260 X1.0558 Y-0.2459
N14265 X1.0553 Y-0.2481
N14270 X1.0549 Y-0.2525
N14275 X1.0537 Y-0.2614
N14280 X1.0536 Y-0.2638 Z-0.2497 F5.
N14285 X1.0538 Y-0.2658 Z-0.2489
N14290 X1.0541 Y-0.2676 Z-0.2477
N14295 X1.0543 Y-0.269 Z-0.2462
N14300 X1.0545 Y-0.2701 Z-0.2444
N14305 X1.0546 Y-0.2708 Z-0.2423
N14310 Y-0.2711 Z-0.2402
N14315 G0 Z0.2
N14320 X1.1064 Y0.4981
N14325 Z-0.1625
N14330 G1 Z-0.1875 F5.
N14335 X1.1061 Y0.498 Z-0.1914
N14340 X1.1053 Y0.4976 Z-0.1952
N14345 X1.104 Y0.4969 Z-0.1988
N14350 X1.1021 Y0.496 Z-0.2022
N14355 X1.0998 Y0.4949 Z-0.2052
N14360 X1.0971 Y0.4936 Z-0.2077
N14365 X1.0941 Y0.4921 Z-0.2098
N14370 X1.0909 Y0.4905 Z-0.2113
N14375 X1.0875 Y0.4888 Z-0.2122
N14380 X1.084 Y0.4871 Z-0.2125
N14385 G3 X0.9678 Y0.4135 I0.2815 J-0.5728
N14390 G1 X0.9647 Y0.4108 F7.
N14395 X0.9619 Y0.4055
N14400 X0.9598 Y0.3999
N14405 X0.9579 Y0.393
N14410 X0.9562 Y0.3837
N14415 X0.955 Y0.3716
N14420 X0.9541 Y0.3338
N14425 X0.9556 Y0.3067
N14430 X0.9584 Y0.2868
N14435 X0.9668 Y0.2487
N14440 X0.9773 Y0.2112
N14445 X0.9871 Y0.1735
N14450 X0.995 Y0.1353
N14455 X0.9984 Y0.0964
N14460 X1.0013 Y0.0576
N14465 X1.0046 Y0.0187
N14470 X1.0049 Y-0.0203
N14475 X1.0021 Y-0.0592
N14480 X0.994 Y-0.0973
N14485 X0.9834 Y-0.1348
N14490 X0.9738 Y-0.1726
N14495 X0.9607 Y-0.2094
N14500 X0.9448 Y-0.2449
N14505 X0.9247 Y-0.2784
N14510 X0.8774 Y-0.3404
N14515 X0.8524 Y-0.3703
N14520 X0.8249 Y-0.398
N14525 X0.7953 Y-0.4232
N14530 X0.762 Y-0.4436
N14535 X0.7281 Y-0.4628
N14540 X0.6941 Y-0.482
N14545 X0.6586 Y-0.4981
N14550 X0.6219 Y-0.5112
N14555 X0.5837 Y-0.519
N14560 X0.545 Y-0.5239
N14565 X0.5064 Y-0.5294
N14570 X0.4675 Y-0.5319
N14575 X0.4285 Y-0.5311
N14580 X0.3899 Y-0.5258
N14585 X0.3522 Y-0.516
N14590 X0.3145 Y-0.5061
N14595 X0.2772 Y-0.4946
N14600 X0.241 Y-0.48
N14605 X0.2062 Y-0.4624
N14610 X0.1745 Y-0.4398
N14615 X0.1438 Y-0.4158
N14620 X0.113 Y-0.3918
N14625 X0.0844 Y-0.3654
N14630 X0.058 Y-0.3366
N14635 X0.0359 Y-0.3045
N14640 X0.0165 Y-0.2707
N14645 X-0.0034 Y-0.2372
N14650 X-0.0207 Y-0.2022
N14655 X-0.0351 Y-0.166
N14660 X-0.0455 Y-0.1284
N14665 X-0.0509 Y-0.0898
N14670 X-0.0559 Y-0.0511
N14675 X-0.0598 Y-0.0123
N14680 X-0.0605 Y0.0267
N14685 X-0.0577 Y0.0656
N14690 X-0.0492 Y0.1036
N14695 X-0.0387 Y0.1412
N14700 X-0.0287 Y0.1788
N14705 X-0.0153 Y0.2155
N14710 X0.001 Y0.2509
N14715 X0.0219 Y0.2838
N14720 X0.0458 Y0.3147
N14725 X0.0691 Y0.3459
N14730 X0.0946 Y0.3754
N14735 X0.1225 Y0.4026
N14740 X0.153 Y0.427
N14745 X0.1864 Y0.4469
N14750 X0.2203 Y0.4663
N14755 X0.2545 Y0.4849
N14760 X0.2903 Y0.5005
N14765 X0.3272 Y0.5131
N14770 X0.3655 Y0.52
N14775 X0.4042 Y0.5248
N14780 X0.4429 Y0.53
N14785 X0.4818 Y0.5319
N14790 X0.5208 Y0.5305
N14795 X0.5593 Y0.5242
N14800 X0.5969 Y0.5141
N14805 X0.6347 Y0.5044
N14810 X0.6718 Y0.4923
N14815 X0.7077 Y0.4772
N14820 X0.742 Y0.4587
N14825 X0.7734 Y0.4355
N14830 X0.7975 Y0.4049
N14835 X0.8156 Y0.3704
N14840 X0.8305 Y0.3343
N14845 X0.8434 Y0.2975
N14850 X0.8556 Y0.2605
N14855 X0.8669 Y0.2232
N14860 X0.8765 Y0.1854
N14865 X0.8841 Y0.1471
N14870 X0.8903 Y0.1086
N14875 X0.8948 Y0.0699
N14880 X0.8966 Y0.031
N14885 X0.8949 Y-0.008
N14890 X0.8905 Y-0.0467
N14895 X0.8837 Y-0.0851
N14900 X0.8736 Y-0.1228
N14905 X0.8595 Y-0.1591
N14910 X0.8423 Y-0.1941
N14915 X0.8226 Y-0.2278
N14920 X0.8001 Y-0.2596
N14925 X0.7743 Y-0.2888
N14930 X0.7456 Y-0.3153
N14935 X0.7151 Y-0.3395
N14940 X0.6826 Y-0.3611
N14945 X0.6481 Y-0.3792
N14950 X0.6118 Y-0.3934
N14955 X0.5745 Y-0.4048
N14960 X0.5364 Y-0.4131
N14965 X0.4977 Y-0.4176
N14970 X0.4587 Y-0.4177
N14975 X0.4198 Y-0.4145
N14980 X0.3813 Y-0.4082
N14985 X0.3435 Y-0.3985
N14990 X0.3072 Y-0.3845
N14995 X0.2722 Y-0.3672
N15000 X0.2387 Y-0.3473
N15005 X0.2071 Y-0.3245
N15010 X0.1783 Y-0.2982
N15015 X0.1521 Y-0.2693
N15020 X0.1281 Y-0.2386
N15025 X0.1069 Y-0.2059
N15030 X0.0895 Y-0.171
N15035 X0.0758 Y-0.1345
N15040 X0.0649 Y-0.097
N15045 X0.0571 Y-0.0588
N15050 X0.0534 Y-0.02
N15055 X0.0539 Y0.019
N15060 X0.0575 Y0.0578
N15065 X0.0642 Y0.0962
N15070 X0.0748 Y0.1337
N15075 X0.0895 Y0.1698
N15080 X0.1071 Y0.2047
N15085 X0.1274 Y0.2379
N15090 X0.1507 Y0.2692
N15095 X0.1775 Y0.2975
N15100 X0.2068 Y0.3233
N15105 X0.2379 Y0.3467
N15110 X0.271 Y0.3674
N15115 X0.3062 Y0.3842
N15120 X0.3429 Y0.3974
N15125 X0.3804 Y0.4078
N15130 X0.4188 Y0.4151
N15135 X0.4576 Y0.4179
N15140 X0.4966 Y0.4169
N15145 X0.5354 Y0.4127
N15150 X0.5737 Y0.4055
N15155 X0.611 Y0.3943
N15160 X0.6448 Y0.3748
N15165 X0.6738 Y0.3487
N15170 X0.6983 Y0.3184
N15175 X0.7192 Y0.2855
N15180 X0.737 Y0.2508
N15185 X0.7518 Y0.2147
N15190 X0.7611 Y0.1865
N15195 X0.7627 Y0.1824
N15200 X0.7645 Y0.1784
N15205 X0.7667 Y0.1745
N15210 X0.7731 Y0.1639
N15215 X0.7782 Y0.155
N15220 X0.7833 Y0.1462
N15225 X0.7856 Y0.1418
N15230 X0.7877 Y0.1373
N15235 X0.7965 Y0.1107
N15240 X0.8006 Y0.096
N15245 X0.804 Y0.0842
N15250 X0.8063 Y0.0753
N15255 X0.8109 Y0.0576
N15260 X0.8123 Y0.0487
N15265 X0.814 Y0.031
N15270 X0.8143 Y0.0221
N15275 Y-0.0221
N15280 X0.814 Y-0.031
N15285 X0.8123 Y-0.0487
N15290 X0.8109 Y-0.0576
N15295 X0.8063 Y-0.0753
N15300 X0.804 Y-0.0842
N15305 X0.799 Y-0.1019
N15310 X0.7965 Y-0.1107
N15315 X0.7877 Y-0.1373
N15320 X0.7856 Y-0.1418
N15325 X0.7833 Y-0.1462
N15330 X0.7741 Y-0.1623
N15335 X0.7731 Y-0.1639
N15340 X0.7564 Y-0.1914
N15345 X0.7387 Y-0.2175
N15350 X0.7315 Y-0.2259
N15355 X0.7299 Y-0.2277
N15360 X0.7122 Y-0.2444
N15365 X0.7033 Y-0.2527
N15370 X0.6844 Y-0.2702
N15375 X0.6768 Y-0.2768
N15380 X0.6736 Y-0.2791
N15385 X0.6502 Y-0.2935
N15390 X0.6443 Y-0.2968
N15395 X0.6237 Y-0.3074
N15400 X0.6149 Y-0.3119
N15405 X0.5972 Y-0.3205
N15410 X0.591 Y-0.3234
N15415 X0.5795 Y-0.3274
N15420 X0.5706 Y-0.3297
N15425 X0.5618 Y-0.3316
N15430 X0.5352 Y-0.3372
N15435 X0.5159 Y-0.3411
N15440 X0.5087 Y-0.3424
N15445 X0.491 Y-0.3439
N15450 X0.4822 Y-0.3444
N15455 X0.4556 Y-0.3429
N15460 X0.4291 Y-0.3411
N15465 X0.4202 Y-0.34
N15470 X0.4025 Y-0.3379
N15475 X0.3937 Y-0.3355
N15480 X0.376 Y-0.3302
N15485 X0.3671 Y-0.3272
N15490 X0.3495 Y-0.3209
N15495 X0.3406 Y-0.3176
N15500 X0.3229 Y-0.3109
N15505 X0.3141 Y-0.3068
N15510 X0.3052 Y-0.3021
N15515 X0.2964 Y-0.2965
N15520 X0.2875 Y-0.2904
N15525 X0.2698 Y-0.2779
N15530 X0.261 Y-0.2715
N15535 X0.2433 Y-0.258
N15540 X0.2362 Y-0.2525
N15545 X0.2344 Y-0.2508
N15550 X0.2277 Y-0.2436
N15555 X0.2127 Y-0.2259
N15560 X0.2079 Y-0.2201
N15565 X0.184 Y-0.1905
N15570 X0.1814 Y-0.1867
N15575 X0.1781 Y-0.1816
N15580 X0.1729 Y-0.1728
N15585 X0.1683 Y-0.1639
N15590 X0.1548 Y-0.1329
N15595 X0.1453 Y-0.1107
N15600 X0.142 Y-0.1019
N15605 X0.1391 Y-0.093
N15610 X0.1369 Y-0.0842
N15615 X0.1354 Y-0.0753
N15620 X0.1328 Y-0.0576
N15625 X0.1303 Y-0.0399
N15630 X0.1279 Y-0.0221
N15635 X0.1271 Y-0.0133
N15640 X0.1266 Y-0.0044
N15645 Y0.0044
N15650 X0.1271 Y0.0133
N15655 X0.1279 Y0.0221
N15660 X0.1315 Y0.0487
N15665 X0.1328 Y0.0576
N15670 X0.1354 Y0.0753
N15675 X0.1369 Y0.0842
N15680 X0.1391 Y0.093
N15685 X0.142 Y0.1019
N15690 X0.1453 Y0.1107
N15695 X0.1567 Y0.1373
N15700 X0.1683 Y0.1639
N15705 X0.1729 Y0.1728
N15710 X0.1781 Y0.1816
N15715 X0.1814 Y0.1867
N15720 X0.184 Y0.1905
N15725 X0.2079 Y0.2201
N15730 X0.2127 Y0.2259
N15735 X0.2277 Y0.2436
N15740 X0.2344 Y0.2508
N15745 X0.2362 Y0.2525
N15750 X0.2477 Y0.2614
N15755 X0.261 Y0.2715
N15760 X0.2715 Y0.2791
N15765 X0.2875 Y0.2904
N15770 X0.2968 Y0.2968
N15775 X0.3052 Y0.3021
N15780 X0.3141 Y0.3068
N15785 X0.3229 Y0.3109
N15790 X0.3406 Y0.3176
N15795 X0.3495 Y0.3209
N15800 X0.3671 Y0.3272
N15805 X0.376 Y0.3302
N15810 X0.3937 Y0.3355
N15815 X0.4025 Y0.3379
N15820 X0.4202 Y0.34
N15825 X0.4291 Y0.3411
N15830 X0.4556 Y0.3429
N15835 X0.4822 Y0.3444
N15840 X0.491 Y0.3439
N15845 X0.5087 Y0.3424
N15850 X0.5159 Y0.3411
N15855 X0.5441 Y0.3353
N15860 X0.5618 Y0.3316
N15865 X0.5706 Y0.3297
N15870 X0.5795 Y0.3274
N15875 X0.591 Y0.3234
N15880 X0.5972 Y0.3205
N15885 X0.6149 Y0.3119
N15890 X0.6237 Y0.3074
N15895 X0.6443 Y0.2968
N15900 X0.6502 Y0.2935
N15905 X0.6736 Y0.2791
N15910 X0.6768 Y0.2768
N15915 X0.6844 Y0.2702
N15920 X0.7036 Y0.2525
N15925 X0.713 Y0.2436
N15930 X0.7299 Y0.2277
N15935 X0.7315 Y0.2259
N15940 X0.7387 Y0.2175
N15945 X0.7564 Y0.1914
N15950 X0.7667 Y0.1745
N15955 X0.7682 Y0.173 Z-0.2122 F5.
N15960 X0.7696 Y0.1715 Z-0.2115
N15965 X0.7708 Y0.1701 Z-0.2104
N15970 X0.7719 Y0.169 Z-0.2088
N15975 X0.7727 Y0.1681 Z-0.207
N15980 X0.7733 Y0.1677 Z-0.2049
N15985 X0.7735 Y0.1676 Z-0.2027
N15990 G0 Z0.2
N15995 X-0.5934 Y0.3274
N16000 Z-0.15
N16005 G1 Z-0.175 F5.
N16010 X-0.5933 Y0.3271 Z-0.1789
N16015 X-0.593 Y0.3262 Z-0.1827
N16020 X-0.5925 Y0.3248 Z-0.1863
N16025 X-0.5918 Y0.3229 Z-0.1897
N16030 X-0.591 Y0.3205 Z-0.1927
N16035 X-0.59 Y0.3177 Z-0.1952
N16040 X-0.5889 Y0.3145 Z-0.1973
N16045 X-0.5877 Y0.3111 Z-0.1988
N16050 X-0.5865 Y0.3075 Z-0.1997
N16055 X-0.5852 Y0.3038 Z-0.2
N16060 G3 X-0.5264 Y0.1795 I0.6029 J0.2093
N16065 G1 X-0.5219 Y0.1728 F7.
N16070 X-0.5175 Y0.1653
N16075 X-0.5168 Y0.1639
N16080 X-0.5087 Y0.1452
N16085 X-0.506 Y0.1373
N16090 X-0.5037 Y0.1285
N16095 X-0.502 Y0.1196
N16100 X-0.501 Y0.1107
N16105 X-0.5003 Y0.093
N16110 X-0.5 Y0.0842
N16115 Y-0.0842
N16120 X-0.5003 Y-0.093
N16125 X-0.501 Y-0.1107
N16130 X-0.502 Y-0.1196
N16135 X-0.5037 Y-0.1285
N16140 X-0.506 Y-0.1373
N16145 X-0.5087 Y-0.1452
N16150 X-0.5129 Y-0.155
N16155 G3 X-0.5147 Y-0.1646 I0.0233 J-0.0091 F5.
N16160 G1 X-0.5146 Y-0.1686 Z-0.1997
N16165 X-0.5145 Y-0.1724 Z-0.1988
N16170 X-0.5144 Y-0.176 Z-0.1973
N16175 Y-0.1793 Z-0.1952
N16180 X-0.5143 Y-0.1823 Z-0.1927
N16185 Y-0.1849 Z-0.1897
N16190 X-0.5142 Y-0.1869 Z-0.1863
N16195 Y-0.1884 Z-0.1827
N16200 Y-0.1893 Z-0.1789
N16205 Y-0.1896 Z-0.175
N16210 G0 Z0.2
N16215 X-0.8729 Y-0.3323
N16220 Z-0.15
N16225 G1 Z-0.175 F5.
N16230 X-0.8731 Y-0.3321 Z-0.1789
N16235 X-0.8734 Y-0.3312 Z-0.1827
N16240 X-0.874 Y-0.3298 Z-0.1863
N16245 X-0.8749 Y-0.328 Z-0.1897
N16250 X-0.8759 Y-0.3256 Z-0.1927
N16255 X-0.8771 Y-0.3229 Z-0.1952
N16260 X-0.8785 Y-0.3199 Z-0.1973
N16265 X-0.8799 Y-0.3165 Z-0.1988
N16270 X-0.8815 Y-0.3131 Z-0.1997
N16275 X-0.8831 Y-0.3095 Z-0.2
N16280 G3 X-0.952 Y-0.1905 I-0.5836 J-0.2584
N16285 G1 X-0.9589 Y-0.1816 F7.
N16290 X-0.9599 Y-0.1804
N16295 X-0.9649 Y-0.1728
N16300 X-0.9702 Y-0.1639
N16305 X-0.9743 Y-0.155
N16310 X-0.9776 Y-0.147
N16315 X-0.9809 Y-0.1373
N16320 X-0.9832 Y-0.1285
N16325 X-0.9848 Y-0.1196
N16330 X-0.9858 Y-0.1107
N16335 X-0.9866 Y-0.093
N16340 X-0.9869 Y-0.0842
N16345 Y0.0842
N16350 X-0.9866 Y0.093
N16355 X-0.9858 Y0.1107
N16360 X-0.9848 Y0.1196
N16365 X-0.9832 Y0.1285
N16370 X-0.9809 Y0.1373
N16375 X-0.9779 Y0.1462
N16380 X-0.9776 Y0.1482 Z-0.1998 F5.
N16385 X-0.9773 Y0.1501 Z-0.1991
N16390 X-0.977 Y0.1519 Z-0.1981
N16395 X-0.9768 Y0.1534 Z-0.1968
N16400 X-0.9769 Y0.1547 Z-0.1948
N16405 Y0.1556 Z-0.1926
N16410 Y0.1559 Z-0.1902
N16415 G0 Z0.2
N16420 X-1.5252 Y-1.0377
N16425 Z-0.295
N16430 G1 Z-0.32 F5.
N16435 Y-1.0374 Z-0.3239
N16440 X-1.5249 Y-1.0365 Z-0.3277
N16445 X-1.5246 Y-1.0351 Z-0.3313
N16450 X-1.5241 Y-1.0331 Z-0.3347
N16455 X-1.5234 Y-1.0306 Z-0.3377
N16460 X-1.5227 Y-1.0277 Z-0.3402
N16465 X-1.5219 Y-1.0245 Z-0.3423
N16470 X-1.521 Y-1.021 Z-0.3438
N16475 X-1.52 Y-1.0173 Z-0.3447
N16480 X-1.519 Y-1.0135 Z-0.345
N16485 G3 X-1.4995 Y-0.8774 I-0.6183 J0.1584
N16490 G1 Y-0.8714 F7.
N16495 X-1.507 Y-0.8332
N16500 X-1.5123 Y-0.7945
N16505 X-1.5159 Y-0.7557
N16510 X-1.5184 Y-0.7168
N16515 X-1.5201 Y-0.6778
N16520 X-1.5213 Y-0.6389
N16525 X-1.5221 Y-0.5999
N16530 X-1.5226 Y-0.5609
N16535 X-1.523 Y-0.5219
N16540 X-1.5233 Y-0.4829
N16545 X-1.5235 Y-0.4439
N16550 X-1.5237 Y-0.3659
N16555 X-1.5239 Y-0.249
N16560 X-1.5241 Y0.1019
N16565 X-1.5244 Y0.6283
N16570 X-1.5238 Y0.638
N16575 X-1.5194 Y0.657
N16580 X-1.4993 Y0.6904
N16585 X-1.4692 Y0.7152
N16590 X-1.4345 Y0.7331
N16595 X-1.3976 Y0.7457
N16600 X-1.3597 Y0.7545
N16605 X-1.3212 Y0.7607
N16610 X-1.2824 Y0.7649
N16615 X-1.2435 Y0.7678
N16620 X-1.2046 Y0.7698
N16625 X-1.1656 Y0.7712
N16630 X-1.1266 Y0.7721
N16635 X-1.0876 Y0.7727
N16640 X-1.0487 Y0.7732
N16645 X-1.0097 Y0.7735
N16650 X-0.9707 Y0.7737
N16655 X-0.9317 Y0.7738
N16660 X-0.8537 Y0.774
N16665 X-0.6977 Y0.7742
N16670 X0.316 Y0.7744
N16675 X0.9009 Y0.7745
N16680 X1.3883 Y0.7746
N16685 X1.407 Y0.7691
N16690 X1.4403 Y0.7489
N16695 X1.4651 Y0.7187
N16700 X1.4829 Y0.684
N16705 X1.4955 Y0.6471
N16710 X1.5043 Y0.6092
N16715 X1.5104 Y0.5707
N16720 X1.5147 Y0.5319
N16725 X1.5176 Y0.493
N16730 X1.5196 Y0.4541
N16735 X1.521 Y0.4151
N16740 X1.5219 Y0.3761
N16745 X1.5226 Y0.3371
N16750 X1.523 Y0.2982
N16755 X1.5233 Y0.2592
N16760 X1.5235 Y0.2202
N16765 X1.5237 Y0.1812
N16770 X1.5239 Y0.1032
N16775 X1.5241 Y-0.0528
N16780 X1.5244 Y-0.6376
N16785 X1.5192 Y-0.6564
N16790 X1.4994 Y-0.69
N16795 X1.4694 Y-0.7149
N16800 X1.4348 Y-0.7328
N16805 X1.3979 Y-0.7455
N16810 X1.3599 Y-0.7544
N16815 X1.3214 Y-0.7606
N16820 X1.2827 Y-0.7648
N16825 X1.2438 Y-0.7678
N16830 X1.2049 Y-0.7698
N16835 X1.1659 Y-0.7711
N16840 X1.1269 Y-0.7721
N16845 X1.0879 Y-0.7727
N16850 X1.0489 Y-0.7732
N16855 X1.01 Y-0.7735
N16860 X0.971 Y-0.7737
N16865 X0.932 Y-0.7738
N16870 X0.854 Y-0.774
N16875 X0.698 Y-0.7742
N16880 X-0.3157 Y-0.7744
N16885 X-0.4327
N16890 X-1.271 Y-0.7745
N16895 X-1.2905 Y-0.7732
N16900 X-1.3085 Y-0.7657
N16905 X-1.3405 Y-0.7436
N16910 X-1.3646 Y-0.7129
N16915 X-1.3821 Y-0.6781
N16920 X-1.3946 Y-0.6411
N16925 X-1.4034 Y-0.6032
N16930 X-1.4097 Y-0.5647
N16935 X-1.414 Y-0.5259
N16940 X-1.4171 Y-0.487
N16945 X-1.4192 Y-0.4481
N16950 X-1.4206 Y-0.4091
N16955 X-1.4217 Y-0.3702
N16960 X-1.4224 Y-0.3312
N16965 X-1.4229 Y-0.2922
N16970 X-1.4232 Y-0.2532
N16975 X-1.4235 Y-0.2142
N16980 X-1.4237 Y-0.1752
N16985 X-1.4239 Y-0.0972
N16990 X-1.424 Y0.0197
N16995 X-1.4242 Y0.2927
N17000 X-1.4243 Y0.5071
N17005 X-1.4203 Y0.5262
N17010 X-1.4048 Y0.562
N17015 X-1.3789 Y0.5911
N17020 X-1.3469 Y0.6134
N17025 X-1.3117 Y0.6302
N17030 X-1.2747 Y0.6426
N17035 X-1.2368 Y0.6516
N17040 X-1.1984 Y0.6581
N17045 X-1.1597 Y0.6627
N17050 X-1.1208 Y0.6661
N17055 X-1.0819 Y0.6684
N17060 X-1.0429 Y0.6701
N17065 X-1.004 Y0.6713
N17070 X-0.965 Y0.6722
N17075 X-0.926 Y0.6728
N17080 X-0.887 Y0.6732
N17085 X-0.848 Y0.6735
N17090 X-0.809 Y0.6737
N17095 X-0.77 Y0.6738
N17100 X-0.6921 Y0.674
N17105 X-0.5751 Y0.6742
N17110 X-0.2242 Y0.6743
N17115 X0.2827 Y0.6744
N17120 X1.2575 Y0.6745
N17125 X1.2765 Y0.6703
N17130 X1.3122 Y0.6546
N17135 X1.3412 Y0.6285
N17140 X1.3635 Y0.5965
N17145 X1.3802 Y0.5613
N17150 X1.3925 Y0.5243
N17155 X1.4014 Y0.4863
N17160 X1.4079 Y0.4479
N17165 X1.4126 Y0.4091
N17170 X1.4159 Y0.3703
N17175 X1.4183 Y0.3314
N17180 X1.42 Y0.2924
N17185 X1.4212 Y0.2535
N17190 X1.422 Y0.2145
N17195 X1.4226 Y0.1755
N17200 X1.423 Y0.1365
N17205 X1.4234 Y0.0975
N17210 X1.4236 Y0.0585
N17215 X1.4237 Y0.0195
N17220 X1.424 Y-0.0585
N17225 X1.4241 Y-0.1754
N17230 X1.4242 Y-0.2534
N17235 X1.4243 Y-0.5068
N17240 X1.4203 Y-0.5259
N17245 X1.4049 Y-0.5617
N17250 X1.379 Y-0.5909
N17255 X1.3471 Y-0.6133
N17260 X1.3119 Y-0.6301
N17265 X1.2749 Y-0.6425
N17270 X1.237 Y-0.6515
N17275 X1.1986 Y-0.658
N17280 X1.1599 Y-0.6627
N17285 X1.121 Y-0.666
N17290 X1.0821 Y-0.6684
N17295 X1.0431 Y-0.6701
N17300 X1.0042 Y-0.6713
N17305 X0.9652 Y-0.6721
N17310 X0.9262 Y-0.6727
N17315 X0.8872 Y-0.6732
N17320 X0.8482 Y-0.6735
N17325 X0.8092 Y-0.6737
N17330 X0.7702 Y-0.6738
N17335 X0.6923 Y-0.674
N17340 X0.5753 Y-0.6742
N17345 X0.2244 Y-0.6743
N17350 X-0.2435 Y-0.6744
N17355 X-1.1403 Y-0.6745
N17360 X-1.1598 Y-0.6732
N17365 X-1.1785 Y-0.6679
N17370 X-1.2136 Y-0.6509
N17375 X-1.242 Y-0.6241
N17380 X-1.2639 Y-0.5919
N17385 X-1.2803 Y-0.5565
N17390 X-1.2924 Y-0.5195
N17395 X-1.3013 Y-0.4815
N17400 X-1.3078 Y-0.443
N17405 X-1.3124 Y-0.4043
N17410 X-1.3157 Y-0.3655
N17415 X-1.3181 Y-0.3266
N17420 X-1.3198 Y-0.2876
N17425 X-1.3211 Y-0.2486
N17430 X-1.3219 Y-0.2097
N17435 X-1.3226 Y-0.1707
N17440 X-1.323 Y-0.1317
N17445 X-1.3233 Y-0.0927
N17450 X-1.3236 Y-0.0537
N17455 X-1.3237 Y-0.0147
N17460 X-1.3239 Y0.0633
N17465 X-1.3241 Y0.1802
N17470 X-1.3242 Y0.3362
N17475 X-1.3243 Y0.3752
N17480 X-1.3237 Y0.3947
N17485 X-1.3158 Y0.4329
N17490 X-1.2955 Y0.4662
N17495 X-1.2673 Y0.4931
N17500 X-1.2344 Y0.5141
N17505 X-1.1989 Y0.53
N17510 X-1.1617 Y0.5419
N17515 X-1.1238 Y0.5507
N17520 X-1.0853 Y0.5572
N17525 X-1.0466 Y0.5619
N17530 X-1.0078 Y0.5654
N17535 X-0.9688 Y0.5678
N17540 X-0.9299 Y0.5696
N17545 X-0.8909 Y0.5709
N17550 X-0.8519 Y0.5718
N17555 X-0.813 Y0.5725
N17560 X-0.774 Y0.573
N17565 X-0.735 Y0.5733
N17570 X-0.696 Y0.5736
N17575 X-0.657 Y0.5738
N17580 X-0.579 Y0.574
N17585 X-0.462 Y0.5742
N17590 X-0.1891 Y0.5743
N17595 X0.1702
N17600 X0.1765 Y0.5747
N17605 X0.1828 Y0.5757
N17610 X0.1889 Y0.5774
N17615 X0.1902 Y0.5779
N17620 X0.1991 Y0.5803
N17625 X0.2079 Y0.5821
N17630 X0.2167 Y0.5835
N17635 X0.2256 Y0.5847
N17640 X0.23 Y0.5864
N17645 X0.2322 Y0.5876
N17650 X0.2345 Y0.5892
N17655 X0.2433 Y0.596
N17660 X0.261 Y0.6072
N17665 X0.2698 Y0.6115
N17670 X0.2787 Y0.6151
N17675 X0.2875 Y0.6182
N17680 X0.2964 Y0.6207
N17685 X0.3141 Y0.6254
N17690 X0.3406 Y0.6314
N17695 X0.3515 Y0.6335
N17700 X0.3671 Y0.6364
N17705 X0.376 Y0.6378
N17710 X0.3937 Y0.6402
N17715 X0.4025 Y0.641
N17720 X0.4202 Y0.6418
N17725 X0.4291 Y0.6415
N17730 X0.4468 Y0.6392
N17735 X0.4556 Y0.6373
N17740 X0.4645 Y0.6349
N17745 X0.4667 Y0.6344
N17750 X0.4689 Y0.6341
N17755 X0.4733
N17760 X0.4755 Y0.6344
N17765 X0.4777 Y0.6348
N17770 X0.4822 Y0.6362
N17775 X0.491 Y0.6385
N17780 X0.4998 Y0.6402
N17785 X0.5087 Y0.6413
N17790 X0.5175 Y0.6418
N17795 X0.5352 Y0.6413
N17800 X0.5441 Y0.6408
N17805 X0.5618 Y0.6384
N17810 X0.5706 Y0.6371
N17815 X0.5972 Y0.6323
N17820 X0.6237 Y0.6265
N17825 X0.6325 Y0.6243
N17830 X0.6502 Y0.6196
N17835 X0.6591 Y0.6168
N17840 X0.6621 Y0.6157
N17845 X0.6679 Y0.6135
N17850 X0.684 Y0.6075
N17855 X0.7154 Y0.5984
N17860 X0.7536 Y0.5906
N17865 X0.7923 Y0.5854
N17870 X0.8311 Y0.5819
N17875 X0.87 Y0.5795
N17880 X0.909 Y0.5779
N17885 X0.948 Y0.5768
N17890 X0.9869 Y0.5761
N17895 X1.0259 Y0.5756
N17900 X1.0649 Y0.5752
N17905 X1.1039 Y0.575
N17910 X1.1429 Y0.5749
N17915 X1.1812 Y0.5673
N17920 X1.2147 Y0.5474
N17925 X1.2419 Y0.5195
N17930 X1.263 Y0.4867
N17935 X1.2792 Y0.4512
N17940 X1.2912 Y0.4141
N17945 X1.3002 Y0.3762
N17950 X1.3067 Y0.3378
N17955 X1.3115 Y0.2991
N17960 X1.315 Y0.2602
N17965 X1.3176 Y0.2213
N17970 X1.3194 Y0.1824
N17975 X1.3207 Y0.1434
N17980 X1.3217 Y0.1044
N17985 X1.3224 Y0.0654
N17990 X1.3229 Y0.0264
N17995 X1.3232 Y-0.0125
N18000 X1.3235 Y-0.0515
N18005 X1.3237 Y-0.0905
N18010 X1.324 Y-0.1685
N18015 X1.3242 Y-0.2855
N18020 X1.3243 Y-0.4024
N18025 X1.3135 Y-0.4399
N18030 X1.2913 Y-0.472
N18035 X1.262 Y-0.4977
N18040 X1.2284 Y-0.5176
N18045 X1.1925 Y-0.5326
N18050 X1.1551 Y-0.5438
N18055 X1.117 Y-0.5521
N18060 X1.0785 Y-0.5582
N18065 X1.0398 Y-0.5626
N18070 X1.0009 Y-0.5659
N18075 X0.962 Y-0.5682
N18080 X0.923 Y-0.5699
N18085 X0.8841 Y-0.5711
N18090 X0.8451 Y-0.572
N18095 X0.8061 Y-0.5726
N18100 X0.7755 Y-0.573
N18105 X0.769 Y-0.5734
N18110 X0.7626 Y-0.5746
N18115 X0.7564 Y-0.5766
N18120 X0.7476 Y-0.5792
N18125 X0.7436 Y-0.5803
N18130 X0.7387 Y-0.5813
N18135 X0.7299 Y-0.5829
N18140 X0.721 Y-0.5839
N18145 X0.7188 Y-0.5842
N18150 X0.7166 Y-0.5848
N18155 X0.7122 Y-0.5865
N18160 X0.71 Y-0.5877
N18165 X0.7079 Y-0.5892
N18170 X0.7033 Y-0.5929
N18175 X0.6962 Y-0.598
N18180 X0.6945 Y-0.5992
N18185 X0.6856 Y-0.6048
N18190 X0.6819 Y-0.6069
N18195 X0.6768 Y-0.6096
N18200 X0.6679 Y-0.6135
N18205 X0.6621 Y-0.6157
N18210 X0.6591 Y-0.6168
N18215 X0.6502 Y-0.6196
N18220 X0.6312 Y-0.6246
N18225 X0.6237 Y-0.6265
N18230 X0.5972 Y-0.6323
N18235 X0.5706 Y-0.6371
N18240 X0.5618 Y-0.6384
N18245 X0.5441 Y-0.6408
N18250 X0.5352 Y-0.6413
N18255 X0.5175 Y-0.6418
N18260 X0.5087 Y-0.6413
N18265 X0.4998 Y-0.6402
N18270 X0.491 Y-0.6385
N18275 X0.4822 Y-0.6362
N18280 X0.4777 Y-0.6348
N18285 X0.4755 Y-0.6344
N18290 X0.4733 Y-0.6341
N18295 X0.4689
N18300 X0.4667 Y-0.6344
N18305 X0.4645 Y-0.6349
N18310 X0.4556 Y-0.6373
N18315 X0.4468 Y-0.6392
N18320 X0.4291 Y-0.6415
N18325 X0.4202 Y-0.6418
N18330 X0.4025 Y-0.641
N18335 X0.3937 Y-0.6402
N18340 X0.376 Y-0.6378
N18345 X0.3671 Y-0.6364
N18350 X0.3495 Y-0.6331
N18355 X0.3406 Y-0.6314
N18360 X0.3141 Y-0.6254
N18365 X0.2964 Y-0.6207
N18370 X0.2875 Y-0.6182
N18375 X0.2787 Y-0.6151
N18380 X0.2698 Y-0.6115
N18385 X0.2643 Y-0.6092
N18390 X0.2351 Y-0.6002
N18395 X0.197 Y-0.5918
N18400 X0.1584 Y-0.5861
N18405 X0.1196 Y-0.5823
N18410 X0.0807 Y-0.5798
N18415 X0.0418 Y-0.578
N18420 X0.0028 Y-0.5768
N18425 X-0.0362 Y-0.576
N18430 X-0.0752 Y-0.5755
N18435 X-0.1142 Y-0.5751
N18440 X-0.1532 Y-0.5749
N18445 X-0.1921 Y-0.5747
N18450 X-0.2701 Y-0.5745
N18455 X-0.3871 Y-0.5744
N18460 X-0.738
N18465 X-1.0499 Y-0.5745
N18470 X-1.0874 Y-0.5638
N18475 X-1.1197 Y-0.5419
N18480 X-1.1456 Y-0.5128
N18485 X-1.1658 Y-0.4794
N18490 X-1.1812 Y-0.4436
N18495 X-1.1926 Y-0.4063
N18500 X-1.2011 Y-0.3683
N18505 X-1.2074 Y-0.3298
N18510 X-1.212 Y-0.2911
N18515 X-1.2153 Y-0.2522
N18520 X-1.2178 Y-0.2133
N18525 X-1.2195 Y-0.1743
N18530 X-1.2208 Y-0.1354
N18535 X-1.2217 Y-0.0964
N18540 X-1.2224 Y-0.0574
N18545 X-1.2229 Y-0.0184
N18550 X-1.2233 Y0.0206
N18555 X-1.2235 Y0.0596
N18560 X-1.2237 Y0.0986
N18565 X-1.224 Y0.1765
N18570 X-1.2241 Y0.2545
N18575 Y0.2935
N18580 X-1.2145 Y0.3313
N18585 X-1.1937 Y0.3643
N18590 X-1.1653 Y0.391
N18595 X-1.1325 Y0.412
N18600 X-1.0969 Y0.428
N18605 X-1.0599 Y0.4401
N18610 X-1.0219 Y0.4492
N18615 X-0.9835 Y0.4559
N18620 X-0.9449 Y0.4609
N18625 X-0.906 Y0.4645
N18630 X-0.8671 Y0.4671
N18635 X-0.8282 Y0.4691
N18640 X-0.7892 Y0.4705
N18645 X-0.7503 Y0.4715
N18650 X-0.7113 Y0.4723
N18655 X-0.6723 Y0.4728
N18660 X-0.6333 Y0.4732
N18665 X-0.5943 Y0.4735
N18670 X-0.5553 Y0.4737
N18675 X-0.5163 Y0.4738
N18680 X-0.4383 Y0.474
N18685 X-0.3214 Y0.4742
N18690 X-0.0094 Y0.4743
N18695 X0.0137
N18700 X0.0252 Y0.4755
N18705 X0.0363 Y0.4789
N18710 X0.0465 Y0.4844
N18715 X0.0554 Y0.4919
N18720 X0.0575 Y0.494
N18725 X0.0647 Y0.5006
N18730 X0.0759 Y0.5094
N18735 X0.0876 Y0.5183
N18740 X0.1017 Y0.5282
N18745 X0.1129 Y0.536
N18750 X0.1194 Y0.5403
N18755 X0.1411 Y0.5537
N18760 X0.146 Y0.5567
N18765 X0.156 Y0.5626
N18770 X0.1637 Y0.5668
N18775 X0.1725 Y0.5713
N18780 X0.1814 Y0.5749
N18785 X0.1889 Y0.5774
N18790 X0.1902 Y0.5779 F5.
N18795 X0.1983 Y0.5801
N18800 X0.199 Y0.5803 F7.
N18805 X0.2079 Y0.5821
N18810 X0.2167 Y0.5835
N18815 X0.2256 Y0.5847
N18820 X0.23 Y0.5864
N18825 X0.2322 Y0.5876
N18830 X0.2344 Y0.5891
N18835 X0.2433 Y0.596
N18840 X0.261 Y0.6072
N18845 X0.2698 Y0.6115
N18850 X0.2787 Y0.6151
N18855 X0.2804 Y0.6157
N18860 X0.2875 Y0.6182
N18865 X0.2964 Y0.6207
N18870 X0.3141 Y0.6254
N18875 X0.3406 Y0.6314
N18880 X0.3495 Y0.6331
N18885 X0.3671 Y0.6364
N18890 X0.376 Y0.6378
N18895 X0.3937 Y0.6402
N18900 X0.4025 Y0.641
N18905 X0.4202 Y0.6418
N18910 X0.4291 Y0.6415
N18915 X0.4468 Y0.6392
N18920 X0.4556 Y0.6373
N18925 X0.4645 Y0.6349
N18930 X0.4667 Y0.6344
N18935 X0.4689 Y0.6341
N18940 X0.4733
N18945 X0.4755 Y0.6344
N18950 X0.4777 Y0.6348
N18955 X0.4822 Y0.6362
N18960 X0.491 Y0.6385
N18965 X0.4998 Y0.6402
N18970 X0.5087 Y0.6413
N18975 X0.5175 Y0.6418
N18980 X0.5352 Y0.6413
N18985 X0.5441 Y0.6408
N18990 X0.5618 Y0.6384
N18995 X0.5706 Y0.6371
N19000 X0.5909 Y0.6335
N19005 X0.5972 Y0.6323
N19010 X0.6237 Y0.6265
N19015 X0.6312 Y0.6246
N19020 X0.6414 Y0.6219
N19025 X0.6502 Y0.6196
N19030 X0.6587 Y0.6169
N19035 X0.6591 Y0.6168 F5.
N19040 X0.6621 Y0.6157
N19045 X0.6679 Y0.6135
N19050 X0.6768 Y0.6096 F7.
N19055 X0.6819 Y0.6069
N19060 X0.6856 Y0.6048
N19065 X0.6945 Y0.5992
N19070 X0.6962 Y0.598
N19075 X0.7033 Y0.5929
N19080 X0.7079 Y0.5892
N19085 X0.71 Y0.5877
N19090 X0.7122 Y0.5865
N19095 X0.7166 Y0.5848
N19100 X0.7188 Y0.5842
N19105 X0.721 Y0.5839
N19110 X0.7299 Y0.5829
N19115 X0.7387 Y0.5813
N19120 X0.7436 Y0.5803
N19125 X0.7476 Y0.5792
N19130 X0.7564 Y0.5766
N19135 X0.7653 Y0.5732
N19140 X0.7693 Y0.5714
N19145 X0.7829 Y0.5646
N19150 X0.7864 Y0.5626
N19155 X0.7918 Y0.5594
N19160 X0.8012 Y0.5537
N19165 X0.8183 Y0.5433
N19170 X0.8272 Y0.5376
N19175 X0.8417 Y0.5289
N19180 X0.8591 Y0.5202
N19185 X0.8818 Y0.5111
N19190 X0.9123 Y0.5017
N19195 X0.9503 Y0.4932
N19200 X0.9889 Y0.4874
N19205 X1.0277 Y0.4834
N19210 X1.0662 Y0.4773
N19215 X1.101 Y0.4598
N19220 X1.1301 Y0.4338
N19225 X1.1533 Y0.4024
N19230 X1.1713 Y0.3678
N19235 X1.1849 Y0.3313
N19240 X1.1952 Y0.2937
N19245 X1.2029 Y0.2555
N19250 X1.2086 Y0.2169
N19255 X1.2128 Y0.1781
N19260 X1.2158 Y0.1393
N19265 X1.2181 Y0.1003
N19270 X1.2197 Y0.0614
N19275 X1.221 Y0.0224
N19280 X1.2218 Y-0.0166
N19285 X1.2225 Y-0.0556
N19290 X1.223 Y-0.0945
N19295 X1.2233 Y-0.1335
N19300 X1.2236 Y-0.1725
N19305 X1.2238 Y-0.2115
N19310 X1.224 Y-0.2895
N19315 X1.216 Y-0.3277
N19320 X1.1961 Y-0.3612
N19325 X1.1684 Y-0.3886
N19330 X1.1359 Y-0.4101
N19335 X1.1006 Y-0.4266
N19340 X1.0636 Y-0.4391
N19345 X1.0258 Y-0.4484
N19350 X0.9874 Y-0.4553
N19355 X0.9487 Y-0.4604
N19360 X0.9354 Y-0.4617
N19365 X0.9245 Y-0.4638
N19370 X0.9143 Y-0.4679
N19375 X0.905 Y-0.4738
N19380 X0.897 Y-0.4814
N19385 X0.8958 Y-0.4828
N19390 X0.8803 Y-0.4983
N19395 X0.8779 Y-0.5006
N19400 X0.8714 Y-0.5056
N19405 X0.8665 Y-0.5094
N19410 X0.8537 Y-0.5191
N19415 X0.8449 Y-0.5254
N19420 X0.8296 Y-0.536
N19425 X0.8272 Y-0.5376
N19430 X0.8183 Y-0.5433
N19435 X0.8006 Y-0.5541
N19440 X0.7918 Y-0.5594
N19445 X0.7864 Y-0.5626
N19450 X0.7829 Y-0.5646
N19455 X0.7693 Y-0.5714
N19460 X0.7653 Y-0.5732
N19465 X0.7564 Y-0.5766
N19470 X0.7476 Y-0.5792 F5.
N19475 X0.747 Y-0.5793
N19480 X0.7436 Y-0.5803 F7.
N19485 X0.7387 Y-0.5813
N19490 X0.7299 Y-0.5829
N19495 X0.721 Y-0.5839
N19500 X0.7188 Y-0.5842
N19505 X0.7166 Y-0.5848
N19510 X0.7122 Y-0.5865
N19515 X0.71 Y-0.5877
N19520 X0.7079 Y-0.5892
N19525 X0.7033 Y-0.5929
N19530 X0.6962 Y-0.598
N19535 X0.6945 Y-0.5992
N19540 X0.6856 Y-0.6048
N19545 X0.6819 Y-0.6069
N19550 X0.6768 Y-0.6096
N19555 X0.6679 Y-0.6135
N19560 X0.6621 Y-0.6157
N19565 X0.6591 Y-0.6168
N19570 X0.6502 Y-0.6196
N19575 X0.6414 Y-0.6219
N19580 X0.6312 Y-0.6246
N19585 X0.6237 Y-0.6265
N19590 X0.5972 Y-0.6323
N19595 X0.5909 Y-0.6335
N19600 X0.5706 Y-0.6371
N19605 X0.5618 Y-0.6384
N19610 X0.5441 Y-0.6408
N19615 X0.5352 Y-0.6413
N19620 X0.5175 Y-0.6418
N19625 X0.5087 Y-0.6413
N19630 X0.4998 Y-0.6402
N19635 X0.491 Y-0.6385
N19640 X0.4822 Y-0.6362
N19645 X0.4777 Y-0.6348
N19650 X0.4755 Y-0.6344
N19655 X0.4733 Y-0.6341
N19660 X0.4689
N19665 X0.4667 Y-0.6344
N19670 X0.4645 Y-0.6349
N19675 X0.4556 Y-0.6373
N19680 X0.4468 Y-0.6392
N19685 X0.4291 Y-0.6415
N19690 X0.4202 Y-0.6418
N19695 X0.4025 Y-0.641
N19700 X0.3937 Y-0.6402
N19705 X0.376 Y-0.6378
N19710 X0.3671 Y-0.6364
N19715 X0.3495 Y-0.6331
N19720 X0.3406 Y-0.6314
N19725 X0.3141 Y-0.6254
N19730 X0.2964 Y-0.6207
N19735 X0.2875 Y-0.6182
N19740 X0.2804 Y-0.6157
N19745 X0.2789 Y-0.6152
N19750 X0.2787 Y-0.6151 F5.
N19755 X0.2698 Y-0.6115
N19760 X0.261 Y-0.6072 F7.
N19765 X0.2433 Y-0.596
N19770 X0.2344 Y-0.5891
N19775 X0.2322 Y-0.5876
N19780 X0.23 Y-0.5864
N19785 X0.2256 Y-0.5847
N19790 X0.2167 Y-0.5835
N19795 X0.2079 Y-0.5821
N19800 X0.199 Y-0.5803
N19805 X0.1902 Y-0.5779
N19810 X0.1814 Y-0.5749
N19815 X0.1725 Y-0.5713
N19820 X0.1637 Y-0.5668
N19825 X0.156 Y-0.5626
N19830 X0.146 Y-0.5567
N19835 X0.1371 Y-0.5513
N19840 X0.1194 Y-0.5403
N19845 X0.1129 Y-0.536
N19850 X0.1043 Y-0.5306
N19855 X0.088 Y-0.5221
N19860 X0.0667 Y-0.5131
N19865 X0.0384 Y-0.5038
N19870 X0.0005 Y-0.4945
N19875 X-0.038 Y-0.4883
N19880 X-0.0768 Y-0.4839
N19885 X-0.1156 Y-0.481
N19890 X-0.1546 Y-0.4789
N19895 X-0.1935 Y-0.4775
N19900 X-0.2325 Y-0.4766
N19905 X-0.2715 Y-0.4759
N19910 X-0.3105 Y-0.4754
N19915 X-0.3495 Y-0.4751
N19920 X-0.3885 Y-0.4749
N19925 X-0.4275 Y-0.4747
N19930 X-0.5054 Y-0.4746
N19935 X-0.6224 Y-0.4745
N19940 X-0.9343
N19945 X-0.9727 Y-0.4677
N19950 X-1.0069 Y-0.4488
N19955 X-1.035 Y-0.4219
N19960 X-1.0572 Y-0.3898
N19965 X-1.0743 Y-0.3548
N19970 X-1.0873 Y-0.318
N19975 X-1.097 Y-0.2802
N19980 X-1.1042 Y-0.2419
N19985 X-1.1095 Y-0.2033
N19990 X-1.1135 Y-0.1645
N19995 X-1.1164 Y-0.1256
N20000 X-1.1185 Y-0.0867
N20005 X-1.12 Y-0.0477
N20010 X-1.1212 Y-0.0087
N20015 X-1.122 Y0.0302
N20020 X-1.1226 Y0.0692
N20025 X-1.123 Y0.1082
N20030 X-1.1234 Y0.1472
N20035 X-1.1236 Y0.1862
N20040 X-1.1156 Y0.2244
N20045 X-1.096 Y0.2581
N20050 X-1.0686 Y0.2858
N20055 X-1.0363 Y0.3076
N20060 X-1.0011 Y0.3245
N20065 X-0.9643 Y0.3373
N20070 X-0.9265 Y0.347
N20075 X-0.8882 Y0.3541
N20080 X-0.8496 Y0.3595
N20085 X-0.8108 Y0.3634
N20090 X-0.7933 Y0.3647
N20095 X-0.7911 Y0.365
N20100 X-0.7741 Y0.3672
N20105 X-0.7564 Y0.369
N20110 X-0.7476 Y0.3698
N20115 X-0.7461
N20120 X-0.7071 Y0.3695
N20125 X-0.6681 Y0.3708
N20130 X-0.6291 Y0.3717
N20135 X-0.5902 Y0.3724
N20140 X-0.5512 Y0.3729
N20145 X-0.5122 Y0.3733
N20150 X-0.4732 Y0.3735
N20155 X-0.4342 Y0.3737
N20160 X-0.3562 Y0.374
N20165 X-0.2393 Y0.3742
N20170 X-0.0821 Y0.3743
N20175 X-0.0693 Y0.3759
N20180 X-0.0573 Y0.3803
N20185 X-0.0465 Y0.3872
N20190 X-0.0374 Y0.3963
N20195 X-0.031 Y0.4044
N20200 X-0.0248 Y0.412
N20205 X-0.016 Y0.4208
N20210 X-0.0133 Y0.4231
N20215 X-0.0044 Y0.4302
N20220 X0.0044 Y0.4366
N20225 X0.0075 Y0.4386
N20230 X0.0133 Y0.4419
N20235 X0.0175 Y0.4442
N20240 X0.0197 Y0.4456
N20245 X0.0221 Y0.4477
N20250 X0.0242 Y0.4498
N20255 X0.0259 Y0.452
N20260 X0.0284 Y0.4563
N20265 X0.031 Y0.4606
N20270 G3 X0.0338 Y0.47 I-0.022 J0.0119 F5.
N20275 X0.0064 Y0.4974 I-0.0249 J0.0026 F7.
N20280 G1 X-0.7464 Y0.4195
N20285 G3 X-0.7554 Y0.3725 I0.0026 J-0.0249
N20290 X-0.7461 Y0.3698 I0.0117 J0.0221 F5.
N20295 G1 X-0.721 Y0.3683 F7.
N20300 X-0.6679 Y0.3613
N20305 X-0.6591 Y0.3597
N20310 X-0.6502 Y0.3578
N20315 X-0.6414 Y0.3555
N20320 X-0.6325 Y0.3522
N20325 X-0.6149 Y0.3451
N20330 X-0.6051 Y0.3411
N20335 X-0.5795 Y0.3305
N20340 X-0.5706 Y0.3263
N20345 X-0.5648 Y0.3234
N20350 X-0.5418 Y0.3131
N20355 X-0.5171 Y0.3044
N20360 X-0.483 Y0.2953
N20365 X-0.4446 Y0.2884
N20370 X-0.4059 Y0.2838
N20375 X-0.367 Y0.2807
N20380 X-0.3281 Y0.2786
N20385 X-0.2891 Y0.2772
N20390 X-0.2501 Y0.2762
N20395 X-0.2111 Y0.2756
N20400 X-0.1722 Y0.2752
N20405 X-0.1464 Y0.2757
N20410 X-0.1341 Y0.2772
N20415 X-0.1224 Y0.2814
N20420 X-0.1118 Y0.2879
N20425 X-0.1029 Y0.2965
N20430 X-0.096 Y0.3068
N20435 X-0.0929 Y0.3126
N20440 X-0.0814 Y0.3322
N20445 X-0.0761 Y0.3411
N20450 X-0.0586 Y0.3677
N20455 X-0.0524 Y0.3765
N20460 X-0.039 Y0.3943
N20465 X-0.0374 Y0.3963
N20470 G3 X-0.0332 Y0.4051 I-0.0201 J0.0149 F5.
N20475 X-0.0608 Y0.4359 I-0.0243 J0.0061 F7.
N20480 G1 X-0.556 Y0.37
N20485 G3 X-0.5723 Y0.3297 I0.0033 J-0.0248
N20490 X-0.5648 Y0.3234 I0.0195 J0.0156 F5.
N20495 G1 X-0.5618 Y0.3218 F7.
N20500 X-0.5529 Y0.3167
N20505 X-0.5352 Y0.3041
N20510 X-0.5256 Y0.2968
N20515 X-0.4998 Y0.277
N20520 X-0.491 Y0.2698
N20525 X-0.4822 Y0.2617
N20530 X-0.4818 Y0.2614
N20535 X-0.4745 Y0.2543
N20540 X-0.4646 Y0.2463
N20545 X-0.4525 Y0.2379
N20550 X-0.437 Y0.229
N20555 X-0.4176 Y0.2198
N20560 X-0.3921 Y0.2101
N20565 X-0.3579 Y0.2002
N20570 X-0.3197 Y0.1924
N20575 X-0.2811 Y0.1869
N20580 X-0.2423 Y0.1832
N20585 X-0.2103 Y0.1818
N20590 X-0.1861 Y0.1827
N20595 X-0.1783 Y0.1836
N20600 X-0.1675 Y0.1859
N20605 X-0.1574 Y0.1902
N20610 X-0.1483 Y0.1963
N20615 X-0.1405 Y0.2039
N20620 X-0.1342 Y0.2129
N20625 X-0.1319 Y0.2171
N20630 X-0.1283 Y0.2229
N20635 X-0.1196 Y0.2348
N20640 X-0.1162 Y0.2393
N20645 X-0.1141 Y0.2436
N20650 X-0.1134 Y0.2459
N20655 X-0.1129 Y0.2481
N20660 X-0.1125 Y0.2525
N20665 X-0.1112 Y0.2614
N20670 X-0.1094 Y0.2702
N20675 G3 X-0.1096 Y0.28 I-0.0246 J0.0043 F5.
N20680 X-0.1337 Y0.2995 I-0.0244 J-0.0054 F7.
N20685 G1 X-0.4628 Y0.3029
N20690 G3 X-0.4867 Y0.2698 I-0.0003 J-0.025
N20695 X-0.4818 Y0.2614 I0.0237 J0.0081 F5.
