%
(1001)
(316 END MILL)
(T5  D=0.2362 CR=0. - ZMIN=-0.345 - FLAT END MILL)
N10 G90 G94 G17 G91.1
N15 G20
N20 G53 G0 Z0.
(6MM CLEARING)
N25 M9
N30 T5 M6
N35 S10000 M3
N40 G54
N45 M8
N55 G0 X-1.5236 Y-1.0188
N60 G43 Z0.6 H5
N65 G0 Z0.2
N70 Z-0.0778
N75 G1 Z-0.1014 F56.693
N80 X-1.5235 Y-1.0186 Z-0.1051
N85 X-1.5233 Y-1.0177 Z-0.1087
N90 X-1.5229 Y-1.0163 Z-0.1121
N95 X-1.5224 Y-1.0145 Z-0.1153
N100 X-1.5218 Y-1.0121 Z-0.1181
N105 X-1.5211 Y-1.0094 Z-0.1205
N110 X-1.5204 Y-1.0063 Z-0.1224
N115 X-1.5195 Y-1.003 Z-0.1238
N120 X-1.5186 Y-0.9995 Z-0.1247
N125 X-1.5177 Y-0.996 Z-0.125
N130 G3 X-1.4992 Y-0.8674 I-0.5842 J0.1496
N135 G1 Y-0.8614
N140 X-1.5068 Y-0.8241
N145 X-1.512 Y-0.7864
N150 X-1.5155 Y-0.7485
N155 X-1.5179 Y-0.7105
N160 X-1.5195 Y-0.6725
N165 X-1.5206 Y-0.6345
N170 X-1.5213 Y-0.5965
N175 X-1.5218 Y-0.5584
N180 X-1.5222 Y-0.5204
N185 X-1.5224 Y-0.4823
N190 X-1.5225 Y-0.4443
N195 X-1.5227 Y-0.3682
N200 X-1.5228 Y-0.254
N205 Y0.2025
N210 Y0.6401
N215 X-1.5192 Y0.6587
N220 X-1.5102 Y0.6755
N225 X-1.4858 Y0.7047
N230 X-1.4542 Y0.7258
N235 X-1.4191 Y0.7407
N240 X-1.3825 Y0.751
N245 X-1.3451 Y0.758
N250 X-1.3074 Y0.7628
N255 X-1.2695 Y0.7661
N260 X-1.2315 Y0.7683
N265 X-1.1935 Y0.7698
N270 X-1.1555 Y0.7708
N275 X-1.1174 Y0.7715
N280 X-1.0794 Y0.7719
N285 X-1.0413 Y0.7722
N290 X-1.0033 Y0.7724
N295 X-0.9652 Y0.7726
N300 X-0.8891 Y0.7727
N305 X-0.7369 Y0.7728
N310 X0.8991 Y0.7729
N315 X1.3937
N320 X1.412 Y0.7679
N325 X1.4283 Y0.7581
N330 X1.4568 Y0.7329
N335 X1.4773 Y0.7008
N340 X1.4917 Y0.6656
N345 X1.5017 Y0.6289
N350 X1.5085 Y0.5914
N355 X1.5131 Y0.5537
N360 X1.5163 Y0.5158
N365 X1.5184 Y0.4778
N370 X1.5199 Y0.4398
N375 X1.5208 Y0.4017
N380 X1.5215 Y0.3637
N385 X1.5219 Y0.3256
N390 X1.5222 Y0.2876
N395 X1.5224 Y0.2496
N400 X1.5226 Y0.2115
N405 X1.5227 Y0.1354
N410 X1.5228 Y-0.0168
N415 Y-0.6445
N420 X1.5176 Y-0.6628
N425 X1.4977 Y-0.6953
N430 X1.468 Y-0.7191
N435 X1.4339 Y-0.736
N440 X1.3978 Y-0.7477
N445 X1.3606 Y-0.7558
N450 X1.3229 Y-0.7613
N455 X1.2851 Y-0.7651
N460 X1.2471 Y-0.7676
N465 X1.2091 Y-0.7693
N470 X1.1711 Y-0.7705
N475 X1.133 Y-0.7713
N480 X1.095 Y-0.7718
N485 X1.057 Y-0.7721
N490 X1.0189 Y-0.7724
N495 X0.9809 Y-0.7725
N500 X0.9048 Y-0.7727
N505 X0.7906 Y-0.7728
N510 X0.3721 Y-0.7729
N515 X-0.4269
N520 X-1.2829
N525 X-1.3019 Y-0.7719
N530 X-1.3195 Y-0.7647
N535 X-1.3507 Y-0.743
N540 X-1.3739 Y-0.7128
N545 X-1.3905 Y-0.6785
N550 X-1.4022 Y-0.6424
N555 X-1.4104 Y-0.6052
N560 X-1.416 Y-0.5676
N565 X-1.4199 Y-0.5297
N570 X-1.4226 Y-0.4918
N575 X-1.4244 Y-0.4538
N580 X-1.4257 Y-0.4157
N585 X-1.4265 Y-0.3777
N590 X-1.4271 Y-0.3397
N595 X-1.4275 Y-0.3016
N600 X-1.4278 Y-0.2636
N605 X-1.428 Y-0.2255
N610 X-1.4282 Y-0.1494
N615 X-1.4283 Y-0.0353
N620 Y0.2691
N625 Y0.3071
N630 Y0.5164
N635 X-1.4252 Y0.5351
N640 X-1.4113 Y0.5706
N645 X-1.3864 Y0.5993
N650 X-1.3553 Y0.6213
N655 X-1.3209 Y0.6376
N660 X-1.2848 Y0.6494
N665 X-1.2477 Y0.658
N670 X-1.2101 Y0.664
N675 X-1.1723 Y0.6683
N680 X-1.1344 Y0.6714
N685 X-1.0964 Y0.6735
N690 X-1.0584 Y0.675
N695 X-1.0204 Y0.676
N700 X-0.9823 Y0.6767
N705 X-0.9443 Y0.6772
N710 X-0.9062 Y0.6776
N715 X-0.8682 Y0.6778
N720 X-0.8301 Y0.678
N725 X-0.7541 Y0.6782
N730 X-0.6399 Y0.6783
N735 X-0.3355 Y0.6784
N740 X0.2732
N745 X1.2624
N750 X1.2813 Y0.676
N755 X1.2993 Y0.6698
N760 X1.3324 Y0.651
N765 X1.3585 Y0.6233
N770 X1.3781 Y0.5908
N775 X1.3926 Y0.5556
N780 X1.4031 Y0.519
N785 X1.4106 Y0.4817
N790 X1.4159 Y0.444
N795 X1.4196 Y0.4062
N800 X1.4223 Y0.3682
N805 X1.4241 Y0.3302
N810 X1.4254 Y0.2922
N815 X1.4263 Y0.2541
N820 X1.4269 Y0.2161
N825 X1.4274 Y0.1781
N830 X1.4277 Y0.14
N835 X1.4279 Y0.102
N840 X1.428 Y0.0639
N845 X1.4282 Y-0.0122
N850 X1.4283 Y-0.1263
N855 Y-0.2405
N860 Y-0.5068
N865 X1.4275 Y-0.5258
N870 X1.4224 Y-0.5441
N875 X1.4055 Y-0.5782
N880 X1.3788 Y-0.6053
N885 X1.3468 Y-0.6258
N890 X1.3119 Y-0.641
N895 X1.2754 Y-0.6519
N900 X1.2382 Y-0.6597
N905 X1.2006 Y-0.6653
N910 X1.1627 Y-0.6692
N915 X1.1248 Y-0.672
N920 X1.0868 Y-0.674
N925 X1.0488 Y-0.6753
N930 X1.0107 Y-0.6762
N935 X0.9727 Y-0.6769
N940 X0.9346 Y-0.6774
N945 X0.8966 Y-0.6777
N950 X0.8585 Y-0.6779
N955 X0.8205 Y-0.678
N960 X0.7444 Y-0.6782
N965 X0.6303 Y-0.6783
N970 X0.2879 Y-0.6784
N975 X-0.2068
N980 X-1.1579
N985 X-1.1769 Y-0.6777
N990 X-1.1954 Y-0.673
N995 X-1.2298 Y-0.6568
N1000 X-1.2575 Y-0.6307
N1005 X-1.2786 Y-0.5991
N1010 X-1.2943 Y-0.5644
N1015 X-1.3057 Y-0.5281
N1020 X-1.3139 Y-0.491
N1025 X-1.3198 Y-0.4534
N1030 X-1.324 Y-0.4156
N1035 X-1.3269 Y-0.3776
N1040 X-1.329 Y-0.3396
N1045 X-1.3305 Y-0.3016
N1050 X-1.3315 Y-0.2636
N1055 X-1.3322 Y-0.2255
N1060 X-1.3327 Y-0.1875
N1065 X-1.3331 Y-0.1494
N1070 X-1.3333 Y-0.1114
N1075 X-1.3335 Y-0.0734
N1080 X-1.3337 Y0.0027
N1085 X-1.3338 Y0.1169
N1090 Y0.2691
N1095 Y0.4212
N1100 X-1.3236 Y0.4579
N1105 X-1.3017 Y0.489
N1110 X-1.2728 Y0.5138
N1115 X-1.2398 Y0.5327
N1120 X-1.2045 Y0.5468
N1125 X-1.1679 Y0.5572
N1130 X-1.1306 Y0.5648
N1135 X-1.0929 Y0.5702
N1140 X-1.0551 Y0.5742
N1145 X-1.0171 Y0.577
N1150 X-0.9792 Y0.579
N1155 X-0.9411 Y0.5804
N1160 X-0.9031 Y0.5814
N1165 X-0.8651 Y0.5822
N1170 X-0.827 Y0.5827
N1175 X-0.789 Y0.583
N1180 X-0.7509 Y0.5833
N1185 X-0.7129 Y0.5835
N1190 X-0.6368 Y0.5837
N1195 X-0.5227 Y0.5838
N1200 X-0.2563 Y0.5839
N1205 X0.4285
N1210 X1.1514
N1215 X1.1703 Y0.5822
N1220 X1.2071 Y0.5722
N1225 X1.2384 Y0.5507
N1230 X1.2633 Y0.5219
N1235 X1.2823 Y0.4889
N1240 X1.2965 Y0.4536
N1245 X1.3069 Y0.417
N1250 X1.3146 Y0.3797
N1255 X1.3201 Y0.3421
N1260 X1.3241 Y0.3043
N1265 X1.3269 Y0.2663
N1270 X1.3289 Y0.2283
N1275 X1.3304 Y0.1903
N1280 X1.3314 Y0.1523
N1285 X1.3321 Y0.1142
N1290 X1.3326 Y0.0762
N1295 X1.333 Y0.0382
N1300 X1.3333 Y0.0001
N1305 X1.3334 Y-0.0379
N1310 X1.3336 Y-0.114
N1315 X1.3338 Y-0.2282
N1320 Y-0.4184
N1325 X1.3246 Y-0.4553
N1330 X1.3035 Y-0.487
N1335 X1.2749 Y-0.5121
N1340 X1.2421 Y-0.5314
N1345 X1.2069 Y-0.5459
N1350 X1.1704 Y-0.5565
N1355 X1.1332 Y-0.5643
N1360 X1.0955 Y-0.5699
N1365 X1.0577 Y-0.5739
N1370 X1.0198 Y-0.5768
N1375 X0.9818 Y-0.5789
N1380 X0.9438 Y-0.5803
N1385 X0.9057 Y-0.5814
N1390 X0.8677 Y-0.5821
N1395 X0.8297 Y-0.5826
N1400 X0.7916 Y-0.583
N1405 X0.7536 Y-0.5833
N1410 X0.7155 Y-0.5835
N1415 X0.6394 Y-0.5837
N1420 X0.5253 Y-0.5838
N1425 X0.259 Y-0.5839
N1430 X-0.7683
N1435 X-1.0727
N1440 X-1.1096 Y-0.5745
N1445 X-1.1413 Y-0.5535
N1450 X-1.1666 Y-0.5251
N1455 X-1.186 Y-0.4924
N1460 X-1.2006 Y-0.4573
N1465 X-1.2114 Y-0.4208
N1470 X-1.2193 Y-0.3835
N1475 X-1.225 Y-0.3459
N1480 X-1.2291 Y-0.3081
N1485 X-1.2321 Y-0.2702
N1490 X-1.2342 Y-0.2322
N1495 X-1.2357 Y-0.1942
N1500 X-1.2368 Y-0.1561
N1505 X-1.2375 Y-0.1181
N1510 X-1.2381 Y-0.0801
N1515 X-1.2384 Y-0.042
N1520 X-1.2387 Y-0.004
N1525 X-1.2389 Y0.0341
N1530 X-1.2391 Y0.1102
N1535 X-1.2393 Y0.2243
N1540 Y0.3004
N1545 X-1.238 Y0.3194
N1550 X-1.229 Y0.3564
N1555 X-1.2083 Y0.3883
N1560 X-1.1802 Y0.4139
N1565 X-1.1477 Y0.4337
N1570 X-1.1127 Y0.4487
N1575 X-1.0763 Y0.4598
N1580 X-1.0392 Y0.468
N1585 X-1.0016 Y0.4739
N1590 X-0.9638 Y0.4783
N1595 X-0.9259 Y0.4814
N1600 X-0.8879 Y0.4837
N1605 X-0.8499 Y0.4853
N1610 X-0.8119 Y0.4865
N1615 X-0.7738 Y0.4873
N1620 X-0.7358 Y0.4879
N1625 X-0.6977 Y0.4883
N1630 X-0.6597 Y0.4886
N1635 X-0.6217 Y0.4889
N1640 X-0.5836 Y0.489
N1645 X-0.5075 Y0.4892
N1650 X-0.3934 Y0.4893
N1655 X-0.089 Y0.4894
N1660 X1.0524
N1665 X1.0903 Y0.4857
N1670 X1.1246 Y0.4694
N1675 X1.153 Y0.444
N1680 X1.1753 Y0.4132
N1685 X1.1923 Y0.3791
N1690 X1.205 Y0.3433
N1695 X1.2144 Y0.3064
N1700 X1.2214 Y0.269
N1705 X1.2264 Y0.2313
N1710 X1.2301 Y0.1934
N1715 X1.2327 Y0.1555
N1720 X1.2346 Y0.1175
N1725 X1.236 Y0.0795
N1730 X1.2369 Y0.0414
N1735 X1.2376 Y0.0034
N1740 X1.2381 Y-0.0347
N1745 X1.2385 Y-0.0727
N1750 X1.2387 Y-0.1108
N1755 X1.2389 Y-0.1488
N1760 X1.2391 Y-0.2249
N1765 X1.2393 Y-0.301
N1770 X1.2378 Y-0.32
N1775 X1.2286 Y-0.3569
N1780 X1.2077 Y-0.3887
N1785 X1.1795 Y-0.4142
N1790 X1.147 Y-0.434
N1795 X1.112 Y-0.4488
N1800 X1.0756 Y-0.4599
N1805 X1.0384 Y-0.4681
N1810 X1.0009 Y-0.474
N1815 X0.9631 Y-0.4783
N1820 X0.9251 Y-0.4815
N1825 X0.8872 Y-0.4837
N1830 X0.8491 Y-0.4853
N1835 X0.8111 Y-0.4865
N1840 X0.7731 Y-0.4873
N1845 X0.735 Y-0.4879
N1850 X0.697 Y-0.4884
N1855 X0.6589 Y-0.4887
N1860 X0.6209 Y-0.4889
N1865 X0.5829 Y-0.489
N1870 X0.5068 Y-0.4892
N1875 X0.3926 Y-0.4893
N1880 X0.0882 Y-0.4894
N1885 X-0.14
N1890 X-0.9771
N1895 X-1.0137 Y-0.479
N1900 X-1.0451 Y-0.4576
N1905 X-1.0703 Y-0.4291
N1910 X-1.0898 Y-0.3964
N1915 X-1.1045 Y-0.3613
N1920 X-1.1155 Y-0.3249
N1925 X-1.1236 Y-0.2877
N1930 X-1.1295 Y-0.2501
N1935 X-1.1338 Y-0.2123
N1940 X-1.1369 Y-0.1744
N1945 X-1.1392 Y-0.1364
N1950 X-1.1408 Y-0.0984
N1955 X-1.1419 Y-0.0604
N1960 X-1.1428 Y-0.0223
N1965 X-1.1434 Y0.0157
N1970 X-1.1438 Y0.0537
N1975 X-1.1441 Y0.0918
N1980 X-1.1443 Y0.1298
N1985 X-1.1445 Y0.1679
N1990 X-1.1446 Y0.2059
N1995 X-1.1407 Y0.2438
N2000 X-1.1245 Y0.2782
N2005 X-1.0992 Y0.3066
N2010 X-1.0685 Y0.3291
N2015 X-1.0346 Y0.3463
N2020 X-0.9988 Y0.3593
N2025 X-0.962 Y0.3689
N2030 X-0.9246 Y0.376
N2035 X-0.8869 Y0.3812
N2040 X-0.8491 Y0.385
N2045 X-0.8111 Y0.3878
N2050 X-0.7732 Y0.3898
N2055 X-0.7351 Y0.3912
N2060 X-0.6971 Y0.3923
N2065 X-0.6591 Y0.393
N2070 X-0.621 Y0.3935
N2075 X-0.583 Y0.3939
N2080 X-0.5449 Y0.3942
N2085 X-0.5069 Y0.3944
N2090 X-0.4688 Y0.3946
N2095 X-0.3927 Y0.3947
N2100 X-0.2786 Y0.3948
N2105 X0.0258 Y0.3949
N2110 X0.9389
N2115 X0.9769 Y0.3947
N2120 X1.0133 Y0.3835
N2125 X1.0445 Y0.3617
N2130 X1.0696 Y0.3331
N2135 X1.0891 Y0.3005
N2140 X1.1038 Y0.2654
N2145 X1.1149 Y0.229
N2150 X1.123 Y0.1918
N2155 X1.129 Y0.1543
N2160 X1.1334 Y0.1165
N2165 X1.1366 Y0.0785
N2170 X1.1389 Y0.0406
N2175 X1.1406 Y0.0026
N2180 X1.1418 Y-0.0355
N2185 X1.1427 Y-0.0735
N2190 X1.1433 Y-0.1115
N2195 X1.1437 Y-0.1496
N2200 X1.1441 Y-0.1876
N2205 X1.144 Y-0.2257
N2210 X1.1334 Y-0.2622
N2215 X1.112 Y-0.2937
N2220 X1.0836 Y-0.319
N2225 X1.051 Y-0.3386
N2230 X1.016 Y-0.3535
N2235 X0.9796 Y-0.3646
N2240 X0.9424 Y-0.3728
N2245 X0.9049 Y-0.3789
N2250 X0.8671 Y-0.3833
N2255 X0.8292 Y-0.3865
N2260 X0.7912 Y-0.3889
N2265 X0.7532 Y-0.3906
N2270 X0.7152 Y-0.3918
N2275 X0.6771 Y-0.3927
N2280 X0.6391 Y-0.3933
N2285 X0.601 Y-0.3938
N2290 X0.563 Y-0.3941
N2295 X0.525 Y-0.3943
N2300 X0.4869 Y-0.3945
N2305 X0.4108 Y-0.3947
N2310 X0.2967 Y-0.3948
N2315 X0.0303 Y-0.3949
N2320 X-0.236
N2325 X-0.8828
N2330 X-0.9191 Y-0.3836
N2335 X-0.9502 Y-0.3617
N2340 X-0.9753 Y-0.3331
N2345 X-0.9946 Y-0.3003
N2350 X-1.0093 Y-0.2652
N2355 X-1.0203 Y-0.2288
N2360 X-1.0285 Y-0.1917
N2365 X-1.0345 Y-0.1541
N2370 X-1.0388 Y-0.1163
N2375 X-1.042 Y-0.0784
N2380 X-1.0444 Y-0.0404
N2385 X-1.046 Y-0.0024
N2390 X-1.0473 Y0.0356
N2395 X-1.0481 Y0.0737
N2400 X-1.0488 Y0.1117
N2405 X-1.0444 Y0.1495
N2410 X-1.0278 Y0.1837
N2415 X-1.0024 Y0.2121
N2420 X-0.9716 Y0.2344
N2425 X-0.9376 Y0.2516
N2430 X-0.9019 Y0.2645
N2435 X-0.8651 Y0.2741
N2440 X-0.8277 Y0.2812
N2445 X-0.79 Y0.2865
N2450 X-0.7521 Y0.2903
N2455 X-0.7142 Y0.2931
N2460 X-0.6762 Y0.2951
N2465 X-0.6382 Y0.2966
N2470 X-0.6002 Y0.2977
N2475 X-0.5621 Y0.2984
N2480 X-0.5241 Y0.299
N2485 X-0.486 Y0.2994
N2490 X-0.448 Y0.2997
N2495 X-0.4099 Y0.2999
N2500 X-0.3719 Y0.3
N2505 X-0.2958 Y0.3002
N2510 X-0.1817 Y0.3003
N2515 X0.0847 Y0.3004
N2520 X0.3054
N2525 X0.3128 Y0.3009
N2530 X0.3202 Y0.3025
N2535 X0.3273 Y0.305
N2540 X0.337 Y0.3092
N2545 X0.363 Y0.3184
N2550 X0.3716 Y0.3214
N2555 X0.3889 Y0.3272
N2560 X0.3975 Y0.3298
N2565 X0.4062 Y0.3317
N2570 X0.4087 Y0.3321
N2575 X0.4148 Y0.3329
N2580 X0.4235 Y0.3338
N2585 X0.4753 Y0.3373
N2590 X0.4839 Y0.3375
N2595 X0.4926 Y0.3373
N2600 X0.5012 Y0.3366
N2605 X0.5099 Y0.3351
N2610 X0.5272 Y0.3318
N2615 X0.5531 Y0.3264
N2620 X0.5617 Y0.3244
N2625 X0.599 Y0.3169
N2630 X0.6367 Y0.3114
N2635 X0.6745 Y0.3078
N2640 X0.7125 Y0.3053
N2645 X0.7505 Y0.3037
N2650 X0.7886 Y0.3026
N2655 X0.8266 Y0.3019
N2660 X0.8646 Y0.3014
N2665 X0.9022 Y0.2956
N2670 X0.936 Y0.278
N2675 X0.9637 Y0.252
N2680 X0.9857 Y0.2209
N2685 X1.0025 Y0.1868
N2690 X1.0152 Y0.1509
N2695 X1.0246 Y0.1141
N2700 X1.0316 Y0.0767
N2705 X1.0367 Y0.039
N2710 X1.0405 Y0.0011
N2715 X1.0432 Y-0.0369
N2720 X1.0452 Y-0.0748
N2725 X1.0466 Y-0.1129
N2730 X1.0424 Y-0.1507
N2735 X1.0256 Y-0.1848
N2740 X1. Y-0.213
N2745 X0.9691 Y-0.2352
N2750 X0.9351 Y-0.2522
N2755 X0.8992 Y-0.265
N2760 X0.8624 Y-0.2745
N2765 X0.825 Y-0.2815
N2770 X0.7873 Y-0.2867
N2775 X0.7494 Y-0.2905
N2780 X0.7115 Y-0.2932
N2785 X0.6735 Y-0.2952
N2790 X0.6414 Y-0.2964
N2795 X0.6334 Y-0.2973
N2800 X0.6256 Y-0.2994
N2805 X0.6181 Y-0.3026
N2810 X0.6049 Y-0.3094
N2815 X0.5876 Y-0.317
N2820 X0.579 Y-0.32
N2825 X0.5617 Y-0.3244
N2830 X0.5531 Y-0.3264
N2835 X0.5272 Y-0.3318
N2840 X0.5099 Y-0.3351
N2845 X0.5012 Y-0.3366
N2850 X0.4926 Y-0.3373
N2855 X0.4839 Y-0.3375
N2860 X0.4753 Y-0.3373
N2865 X0.4235 Y-0.3338
N2870 X0.4148 Y-0.3329
N2875 X0.4087 Y-0.3321
N2880 X0.4062 Y-0.3317
N2885 X0.3975 Y-0.3298
N2890 X0.3889 Y-0.3272
N2895 X0.3711 Y-0.3222
N2900 X0.3338 Y-0.3149
N2905 X0.296 Y-0.31
N2910 X0.2581 Y-0.3068
N2915 X0.2201 Y-0.3047
N2920 X0.1821 Y-0.3033
N2925 X0.1441 Y-0.3023
N2930 X0.106 Y-0.3017
N2935 X0.068 Y-0.3013
N2940 X0.0299 Y-0.301
N2945 X-0.0081 Y-0.3008
N2950 X-0.0462 Y-0.3007
N2955 X-0.1222 Y-0.3005
N2960 X-0.2744 Y-0.3004
N2965 X-0.769
N2970 X-0.8067 Y-0.2953
N2975 X-0.8406 Y-0.278
N2980 X-0.8686 Y-0.2522
N2985 X-0.8694 Y-0.251
N2990 X-0.8736 Y-0.2458
N2995 X-0.8784 Y-0.2411
N3000 X-0.8838 Y-0.2371
N3005 X-0.8901 Y-0.2328
N3010 X-0.8962 Y-0.2286
N3015 X-0.9193 Y-0.2113
N3020 X-0.9247 Y-0.2071
N3025 X-0.9333 Y-0.1998
N3030 X-0.9391 Y-0.1941
N3035 X-0.942 Y-0.1911
N3040 X-0.9474 Y-0.1855
N3045 X-0.9539 Y-0.1768
N3050 X-0.9592 Y-0.1688
N3055 X-0.9646 Y-0.1596
N3060 X-0.9686 Y-0.151
N3065 X-0.972 Y-0.1423
N3070 X-0.9769 Y-0.1251
N3075 X-0.9784 Y-0.1165
N3080 X-0.9794 Y-0.1078
N3085 X-0.9799 Y-0.0992
N3090 X-0.98 Y-0.0561
N3095 Y0.0819
N3100 X-0.9799 Y0.0992
N3105 X-0.9794 Y0.1078
N3110 X-0.9784 Y0.1165
N3115 X-0.9769 Y0.1251
N3120 X-0.972 Y0.1423
N3125 X-0.9686 Y0.151
N3130 X-0.9646 Y0.1596
N3135 X-0.9592 Y0.1688
N3140 X-0.9539 Y0.1768
N3145 X-0.9474 Y0.1855
N3150 X-0.942 Y0.1911
N3155 X-0.9391 Y0.1941
N3160 X-0.9333 Y0.1998
N3165 X-0.9247 Y0.2071
N3170 X-0.9193 Y0.2113
N3175 X-0.8962 Y0.2286
N3180 X-0.8901 Y0.2328
N3185 X-0.8815 Y0.2386
N3190 X-0.8728 Y0.2435
N3195 X-0.8686 Y0.2458
N3200 X-0.8642 Y0.2478
N3205 X-0.8555 Y0.2516
N3210 X-0.8469 Y0.2548
N3215 X-0.8383 Y0.2579
N3220 X-0.821 Y0.2636
N3225 X-0.8123 Y0.2662
N3230 X-0.7901 Y0.2717
N3235 X-0.7864 Y0.2723
N3240 X-0.7691 Y0.2738
N3245 X-0.7605 Y0.2744
N3250 X-0.7346 Y0.2745
N3255 X-0.7086 Y0.2735
N3260 X-0.6827 Y0.2685
N3265 X-0.6568 Y0.2605
N3270 X-0.6393 Y0.2545
N3275 X-0.6309 Y0.2516
N3280 X-0.6222 Y0.2476
N3285 X-0.602 Y0.2392
N3290 X-0.5767 Y0.2311
N3295 X-0.5408 Y0.2226
N3300 X-0.5032 Y0.2168
N3305 X-0.4654 Y0.213
N3310 X-0.4274 Y0.2106
N3315 X-0.3894 Y0.209
N3320 X-0.3514 Y0.2079
N3325 X-0.3133 Y0.2072
N3330 X-0.2753 Y0.2068
N3335 X-0.2372 Y0.2065
N3340 X-0.1992 Y0.2063
N3345 X-0.1611 Y0.2062
N3350 X-0.085 Y0.206
N3355 X0.0671 Y0.2059
N3360 X0.1791
N3365 X0.1912 Y0.2073
N3370 X0.2027 Y0.2113
N3375 X0.2131 Y0.2177
N3380 X0.2218 Y0.2263
N3385 X0.2247 Y0.2298
N3390 X0.231 Y0.2372
N3395 X0.2333 Y0.2399
N3400 X0.2492 Y0.2545
N3405 X0.2506 Y0.2557
N3410 X0.2593 Y0.262
N3415 X0.2853 Y0.2804
N3420 X0.2938 Y0.2861
N3425 X0.3114 Y0.2976
N3430 X0.3197 Y0.3017
N3435 X0.3273 Y0.305
N3440 G3 X0.3157 Y0.3499 I-0.0102 J0.0213
N3445 G1 X-0.6128 Y0.2922
N3450 G3 X-0.6222 Y0.2476 I0.0015 J-0.0236
N3455 G1 X-0.6185 Y0.2458
N3460 X-0.6136 Y0.2432
N3465 X-0.6034 Y0.2372
N3470 X-0.5876 Y0.2261
N3475 X-0.579 Y0.2198
N3480 X-0.5704 Y0.2131
N3485 X-0.5531 Y0.1994
N3490 X-0.5476 Y0.1941
N3495 X-0.5458 Y0.1922
N3500 X-0.54 Y0.1866
N3505 X-0.5312 Y0.1793
N3510 X-0.5199 Y0.1714
N3515 X-0.506 Y0.1632
N3520 X-0.4879 Y0.1546
N3525 X-0.4648 Y0.1456
N3530 X-0.4336 Y0.1363
N3535 X-0.3964 Y0.1285
N3540 X-0.3587 Y0.1231
N3545 X-0.3209 Y0.1194
N3550 X-0.2829 Y0.1169
N3555 X-0.2449 Y0.1152
N3560 X-0.2069 Y0.114
N3565 X-0.1688 Y0.1132
N3570 X-0.1308 Y0.1126
N3575 X-0.0927 Y0.1123
N3580 X-0.0547 Y0.112
N3585 X-0.0166 Y0.1118
N3590 X0.0595 Y0.1116
N3595 X0.0975
N3600 X0.1188 Y0.1122
N3605 X0.1311 Y0.1139
N3610 X0.1426 Y0.1184
N3615 X0.1529 Y0.1253
N3620 X0.1613 Y0.1343
N3625 X0.1676 Y0.145
N3630 X0.1702 Y0.151
N3635 X0.1783 Y0.1682
N3640 X0.1797 Y0.1712
N3645 X0.1815 Y0.1742
N3650 X0.1988 Y0.1976
N3655 X0.2027 Y0.2027
N3660 X0.2218 Y0.2263
N3665 G3 X0.2019 Y0.2641 I-0.0188 J0.0143
N3670 G1 X-0.5291 Y0.2313
N3675 G3 X-0.5458 Y0.1922 I0.0011 J-0.0236
N3680 G1 X-0.5395 Y0.1855
N3685 X-0.5358 Y0.1806
N3690 X-0.5329 Y0.1768
N3695 X-0.5272 Y0.1682
N3700 X-0.5225 Y0.1596
N3705 X-0.5183 Y0.151
N3710 X-0.5164 Y0.1462
N3715 X-0.5134 Y0.1394
N3720 X-0.5097 Y0.1325
N3725 X-0.5051 Y0.1256
N3730 X-0.4993 Y0.1181
N3735 X-0.4915 Y0.1095
N3740 X-0.4822 Y0.1009
N3745 X-0.4709 Y0.0919
N3750 X-0.4564 Y0.0823
N3755 X-0.4391 Y0.0726
N3760 X-0.417 Y0.0625
N3765 X-0.3885 Y0.0521
N3770 X-0.3518 Y0.042
N3775 X-0.3144 Y0.0348
N3780 X-0.2767 Y0.0297
N3785 X-0.2389 Y0.026
N3790 X-0.2009 Y0.0234
N3795 X-0.1629 Y0.0215
N3800 X-0.1249 Y0.0202
N3805 X-0.0868 Y0.0192
N3810 X-0.0488 Y0.0186
N3815 X-0.0108 Y0.0181
N3820 X0.0273 Y0.0178
N3825 X0.0632 Y0.0185
N3830 X0.0873 Y0.0209
N3835 X0.0967 Y0.0226
N3840 X0.1074 Y0.0257
N3845 X0.1172 Y0.0309
N3850 X0.1259 Y0.0379
N3855 X0.1329 Y0.0465
N3860 X0.138 Y0.0563
N3865 X0.1411 Y0.067
N3870 X0.1422 Y0.0733
N3875 X0.1458 Y0.0906
N3880 X0.1469 Y0.0952
N3885 X0.1515 Y0.1078
N3890 X0.1642 Y0.1372
N3895 X0.1676 Y0.145
N3900 G3 X0.1457 Y0.1774 I-0.0219 J0.0088
N3905 G1 X-0.4941 Y0.1776
N3910 G3 X-0.5164 Y0.1462 I0. J-0.0236
N3915 G1 X-0.5149 Y0.1423
N3920 X-0.5122 Y0.1337
N3925 X-0.5099 Y0.1247
N3930 X-0.5085 Y0.1165
N3935 X-0.5075 Y0.1078
N3940 X-0.507 Y0.0992
N3945 X-0.5066 Y0.0932
N3950 X-0.5058 Y0.0873
N3955 X-0.5046 Y0.0814
N3960 X-0.5029 Y0.0756
N3965 X-0.5009 Y0.07
N3970 X-0.4986 Y0.0645
N3975 X-0.4959 Y0.0591
N3980 X-0.493 Y0.0538
N3985 X-0.4898 Y0.0487
N3990 X-0.4864 Y0.0438
N3995 X-0.4828 Y0.039
N4000 X-0.479 Y0.0343
N4005 X-0.4751 Y0.0298
N4010 X-0.4709 Y0.0255
N4015 X-0.4667 Y0.0213
N4020 X-0.4623 Y0.0172
N4025 X-0.4578 Y0.0132
N4030 X-0.4532 Y0.0094
N4035 X-0.4484 Y0.0057
N4040 X-0.4436 Y0.0021
N4045 X-0.4387 Y-0.0013
N4050 X-0.4337 Y-0.0046
N4055 X-0.4286 Y-0.0078
N4060 X-0.4235 Y-0.0109
N4065 X-0.4183 Y-0.0139
N4070 X-0.413 Y-0.0168
N4075 X-0.4077 Y-0.0196
N4080 X-0.4023 Y-0.0222
N4085 X-0.3969 Y-0.0248
N4090 X-0.3914 Y-0.0273
N4095 X-0.3859 Y-0.0296
N4100 X-0.3803 Y-0.0319
N4105 X-0.3748 Y-0.0341
N4110 X-0.3692 Y-0.0362
N4115 X-0.3635 Y-0.0383
N4120 X-0.3578 Y-0.0402
N4125 X-0.3521 Y-0.0421
N4130 X-0.3464 Y-0.0439
N4135 X-0.3407 Y-0.0457
N4140 X-0.3349 Y-0.0473
N4145 X-0.3291 Y-0.049
N4150 X-0.3233 Y-0.0505
N4155 X-0.3175 Y-0.052
N4160 X-0.3117 Y-0.0534
N4165 X-0.3059 Y-0.0548
N4170 X-0.3 Y-0.0561
N4175 X-0.2941 Y-0.0574
N4180 X-0.2883 Y-0.0586
N4185 X-0.2824 Y-0.0597
N4190 X-0.2765 Y-0.0608
N4195 X-0.2706 Y-0.0619
N4200 X-0.2645 Y-0.063
N4205 X-0.2547 Y-0.0646
N4210 X-0.2477 Y-0.0657
N4215 X-0.2403 Y-0.0667
N4220 X-0.233 Y-0.0678
N4225 X-0.2252 Y-0.0688
N4230 X-0.2167 Y-0.0699
N4235 X-0.2075 Y-0.0709
N4240 X-0.1981 Y-0.072
N4245 X-0.1881 Y-0.073
N4250 X-0.1772 Y-0.074
N4255 X-0.1651 Y-0.0751
N4260 X-0.1526 Y-0.0761
N4265 X-0.1385 Y-0.0771
N4270 X-0.1229 Y-0.0781
N4275 X-0.1061 Y-0.0791
N4280 X-0.0872 Y-0.0801
N4285 X-0.0736 Y-0.0807
N4290 X-0.0582 Y-0.0812
N4295 X-0.0445 Y-0.0816
N4300 X-0.0373 Y-0.0818
N4305 X-0.0299 Y-0.0819
N4310 X-0.0219
N4315 X-0.0141
N4320 X-0.0081
N4325 X-0.0021 Y-0.0818
N4330 X0.0039 Y-0.0817
N4335 X0.0099 Y-0.0815
N4340 X0.0159 Y-0.0812
N4345 X0.0219 Y-0.0809
N4350 X0.0279 Y-0.0804
N4355 X0.0339 Y-0.08
N4360 X0.0398 Y-0.0794
N4365 X0.0458 Y-0.0787
N4370 X0.0517 Y-0.0779
N4375 X0.0577 Y-0.077
N4380 X0.0636 Y-0.0759
N4385 X0.0695 Y-0.0748
N4390 X0.0753 Y-0.0735
N4395 X0.0811 Y-0.0721
N4400 X0.0869 Y-0.0705
N4405 X0.0927 Y-0.0687
N4410 X0.096 Y-0.0677
N4415 X0.1068 Y-0.0627
N4420 X0.1164 Y-0.0555
N4425 X0.1241 Y-0.0465
N4430 X0.1298 Y-0.0359
N4435 X0.133 Y-0.0245
N4440 X0.1337 Y-0.0125
N4445 X0.1333 Y-0.0043
N4450 Y0.0043
N4455 X0.1337 Y0.0129
N4460 X0.1371 Y0.0388
N4465 X0.1407 Y0.0647
N4470 X0.1411 Y0.067
N4475 G3 X0.1188 Y0.094 I-0.0234 J0.0034
N4480 G1 X-0.4823 Y0.122
N4485 G3 X-0.507 Y0.0992 I-0.0011 J-0.0236
N4490 G1 X-0.5069 Y0.0561
N4495 Y0.0302
N4500 X-0.5066 Y0.0242
N4505 X-0.5055 Y0.017
N4510 X-0.5036 Y0.0091
N4515 X-0.5009 Y0.0004
N4520 X-0.497 Y-0.0088
N4525 X-0.492 Y-0.0188
N4530 X-0.4854 Y-0.0293
N4535 X-0.4773 Y-0.0405
N4540 X-0.4671 Y-0.0522
N4545 X-0.4609 Y-0.0583
N4550 X-0.4575 Y-0.0614
N4555 X-0.4539 Y-0.0646
N4560 X-0.4389 Y-0.0771
N4565 X-0.4207 Y-0.0901
N4570 X-0.3984 Y-0.1034
N4575 X-0.371 Y-0.1168
N4580 X-0.3666 Y-0.1186
N4585 X-0.3622 Y-0.1203
N4590 G3 X-0.3378 Y-0.0812 I0.0077 J0.0223
N4595 G1 X-0.4667 Y0.0462
N4600 G3 X-0.5069 Y0.0302 I-0.0166 J-0.0168
N4605 G1 Y-0.0388
N4610 X-0.5064 Y-0.0499
N4615 X-0.5054 Y-0.0575
N4620 X-0.5034 Y-0.0668
N4625 X-0.503 Y-0.0763
N4630 X-0.5043 Y-0.0857
N4635 X-0.5045 Y-0.0865
N4640 X-0.5057 Y-0.0907
N4645 X-0.5065 Y-0.0951
N4650 X-0.507 Y-0.0995
N4655 G3 X-0.4838 Y-0.1239 I0.0236 J-0.0007
N4660 X-0.4598 Y-0.1003 I0.0004 J0.0236
N4665 G1 X-0.4597 Y-0.0397
N4670 G3 X-0.5069 Y-0.0388 I-0.0236 J0.
N4675 G1 Y-0.0819
N4680 X-0.507 Y-0.0992
N4685 X-0.5075 Y-0.1078
N4690 X-0.5085 Y-0.1165
N4695 X-0.5099 Y-0.1247
N4700 X-0.5122 Y-0.1337
N4705 X-0.5149 Y-0.1423
N4710 X-0.5183 Y-0.151
N4715 X-0.5225 Y-0.1596
N4720 X-0.5272 Y-0.1682
N4725 X-0.5329 Y-0.1768
N4730 X-0.5358 Y-0.1806
N4735 X-0.5395 Y-0.1855
N4740 X-0.5476 Y-0.1941
N4745 X-0.5531 Y-0.1994
N4750 X-0.5704 Y-0.2131
N4755 X-0.5793 Y-0.22
N4760 X-0.5876 Y-0.2261
N4765 X-0.6034 Y-0.2372
N4770 X-0.6136 Y-0.2432
N4775 X-0.6185 Y-0.2458
N4780 X-0.6222 Y-0.2476
N4785 X-0.6309 Y-0.2516
N4790 X-0.6481 Y-0.2575
N4795 X-0.6568 Y-0.2605
N4800 X-0.6827 Y-0.2685
N4805 X-0.7086 Y-0.2735
N4810 X-0.7346 Y-0.2745
N4815 X-0.7605 Y-0.2744
N4820 X-0.7691 Y-0.2738
N4825 X-0.7864 Y-0.2723
N4830 X-0.7901 Y-0.2717
N4835 X-0.8123 Y-0.2662
N4840 X-0.821 Y-0.2636
N4845 X-0.8383 Y-0.2579
N4850 X-0.8478 Y-0.2545
N4855 X-0.8555 Y-0.2516
N4860 X-0.8655 Y-0.2472
N4865 X-0.8686 Y-0.2458
N4870 X-0.8728 Y-0.2435
N4875 X-0.8815 Y-0.2386
N4880 X-0.8838 Y-0.2371
N4885 G3 X-0.8924 Y-0.2339 I-0.0124 J-0.0201
N4890 G1 X-0.896 Y-0.2333 Z-0.1247
N4895 X-0.8996 Y-0.2327 Z-0.1238
N4900 X-0.903 Y-0.2321 Z-0.1224
N4905 X-0.9061 Y-0.2316 Z-0.1205
N4910 X-0.9089 Y-0.2312 Z-0.1181
N4915 X-0.9113 Y-0.2308 Z-0.1153
N4920 X-0.9132 Y-0.2305 Z-0.1121
N4925 X-0.9146 Y-0.2303 Z-0.1087
N4930 X-0.9154 Y-0.2301 Z-0.1051
N4935 X-0.9157 Z-0.1014
N4940 G0 Z0.2
N4945 X0.3901 Y-0.3585
N4950 Z-0.0778
N4955 G1 Z-0.1014 F56.693
N4960 X0.3902 Y-0.3583 Z-0.1051
N4965 X0.3903 Y-0.3574 Z-0.1087
N4970 X0.3905 Y-0.356 Z-0.1121
N4975 X0.3908 Y-0.3541 Z-0.1153
N4980 X0.3912 Y-0.3517 Z-0.1181
N4985 X0.3916 Y-0.3489 Z-0.1205
N4990 X0.392 Y-0.3458 Z-0.1224
N4995 X0.3925 Y-0.3424 Z-0.1238
N5000 X0.3931 Y-0.3388 Z-0.1247
N5005 X0.3936 Y-0.3352 Z-0.125
N5010 G3 X0.3889 Y-0.3272 I-0.0073 J0.0011
N5015 G1 X0.3716 Y-0.3214
N5020 X0.363 Y-0.3184
N5025 X0.337 Y-0.3092
N5030 X0.3197 Y-0.3017
N5035 X0.3114 Y-0.2976
N5040 X0.2938 Y-0.2861
N5045 X0.2852 Y-0.2803
N5050 X0.2679 Y-0.2681
N5055 X0.2543 Y-0.2594
N5060 X0.2466 Y-0.2554
N5065 X0.2423 Y-0.2534
N5070 X0.2239 Y-0.2451
N5075 X0.2149 Y-0.2419
N5080 X0.2066 Y-0.2372
N5085 X0.1993 Y-0.2311
N5090 X0.1931 Y-0.2239
N5095 X0.1882 Y-0.2157
N5100 X0.1849 Y-0.2068
N5105 X0.1831 Y-0.1975
N5110 X0.1829 Y-0.1894
N5115 X0.1822 Y-0.1817
N5120 X0.1805 Y-0.1743
N5125 X0.1778 Y-0.1671
N5130 G3 X0.1434 Y-0.1583 I-0.0211 J-0.0107
N5135 X0.1391 Y-0.1935 I0.0133 J-0.0195
N5140 G1 X0.236 Y-0.3026
N5145 G3 X0.2709 Y-0.3029 I0.0177 J0.0157
N5150 X0.2679 Y-0.2681 I-0.0173 J0.016
N5155 G1 X0.2593 Y-0.262
N5160 X0.2506 Y-0.2557
N5165 X0.2492 Y-0.2545
N5170 X0.2333 Y-0.2399
N5175 X0.231 Y-0.2372
N5180 X0.2247 Y-0.2298
N5185 X0.2027 Y-0.2027
N5190 X0.1988 Y-0.1976
N5195 X0.1815 Y-0.1742
N5200 X0.1797 Y-0.1712
N5205 X0.1776 Y-0.1668
N5210 X0.1702 Y-0.151
N5215 X0.1664 Y-0.1423
N5220 X0.1552 Y-0.1165
N5225 X0.1515 Y-0.1078
N5230 X0.1469 Y-0.0952
N5235 X0.1458 Y-0.0906
N5240 X0.1422 Y-0.0733
N5245 X0.1407 Y-0.0647
N5250 X0.1371 Y-0.0388
N5255 X0.1337 Y-0.0129
N5260 Y-0.0125
N5265 G3 X0.1312 Y-0.0037 I-0.0235 J-0.002
N5270 G1 X0.1295 Y-0.0004 Z-0.1247
N5275 X0.1278 Y0.0028 Z-0.1238
N5280 X0.1262 Y0.0058 Z-0.1224
N5285 X0.1248 Y0.0086 Z-0.1205
N5290 X0.1235 Y0.0112 Z-0.1181
N5295 X0.1224 Y0.0133 Z-0.1153
N5300 X0.1215 Y0.015 Z-0.1121
N5305 X0.1208 Y0.0163 Z-0.1087
N5310 X0.1204 Y0.017 Z-0.1051
N5315 X0.1203 Y0.0173 Z-0.1014
N5320 G0 Z0.2
N5325 X0.5581 Y0.3556
N5330 Z-0.0778
N5335 G1 Z-0.1014 F56.693
N5340 X0.558 Y0.3553 Z-0.1051
N5345 Y0.3544 Z-0.1087
N5350 X0.5579 Y0.353 Z-0.1121
N5355 X0.5577 Y0.3511 Z-0.1153
N5360 X0.5576 Y0.3487 Z-0.1181
N5365 X0.5574 Y0.3458 Z-0.1205
N5370 X0.5572 Y0.3427 Z-0.1224
N5375 X0.5569 Y0.3393 Z-0.1238
N5380 X0.5567 Y0.3357 Z-0.1247
N5385 X0.5564 Y0.332 Z-0.125
N5390 G3 X0.5617 Y0.3244 I0.0074 J-0.0005
N5395 G1 X0.579 Y0.32
N5400 X0.5876 Y0.317
N5405 X0.6049 Y0.3094
N5410 X0.6309 Y0.296
N5415 X0.6395 Y0.2915
N5420 X0.6568 Y0.2822
N5425 X0.6599 Y0.2804
N5430 X0.6654 Y0.2763
N5435 X0.6709 Y0.2717
N5440 X0.6768 Y0.2673
N5445 X0.6887 Y0.2597
N5450 X0.7038 Y0.2517
N5455 X0.7235 Y0.2432
N5460 X0.7504 Y0.2342
N5465 X0.7873 Y0.2249
N5470 X0.8224 Y0.2102
N5475 X0.8527 Y0.1872
N5480 X0.8775 Y0.1583
N5485 X0.8969 Y0.1256
N5490 X0.912 Y0.0907
N5495 X0.9233 Y0.0544
N5500 X0.9319 Y0.0173
N5505 X0.9383 Y-0.0202
N5510 X0.937 Y-0.0392
N5515 X0.9272 Y-0.0759
N5520 X0.9056 Y-0.1073
N5525 X0.8769 Y-0.1322
N5530 X0.844 Y-0.1514
N5535 X0.8088 Y-0.1659
N5540 X0.774 Y-0.1762
N5545 X0.7648 Y-0.1799
N5550 X0.7564 Y-0.1851
N5555 X0.7491 Y-0.1919
N5560 X0.7432 Y-0.1998
N5565 X0.7413 Y-0.2027
N5570 X0.7346 Y-0.2117
N5575 X0.7274 Y-0.22
N5580 X0.7191 Y-0.2286
N5585 X0.6913 Y-0.2545
N5590 X0.6812 Y-0.2631
N5595 X0.6654 Y-0.2763
N5600 X0.6599 Y-0.2804
N5605 X0.6568 Y-0.2822
N5610 X0.6395 Y-0.2915
N5615 X0.6181 Y-0.3026
N5620 G3 X0.6111 Y-0.3086 I0.0116 J-0.0206
N5625 G1 X0.6089 Y-0.3115 Z-0.1247
N5630 X0.6066 Y-0.3143 Z-0.1238
N5635 X0.6045 Y-0.317 Z-0.1224
N5640 X0.6026 Y-0.3195 Z-0.1205
N5645 X0.6008 Y-0.3217 Z-0.1181
N5650 X0.5993 Y-0.3236 Z-0.1153
N5655 X0.5981 Y-0.3251 Z-0.1121
N5660 X0.5973 Y-0.3263 Z-0.1087
N5665 X0.5967 Y-0.3269 Z-0.1051
N5670 X0.5966 Y-0.3272 Z-0.1014
N5675 G0 Z0.2
N5680 X0.6812 Y0.3014
N5685 Z-0.0778
N5690 G1 Z-0.1014 F56.693
N5695 X0.681 Y0.3011 Z-0.1051
N5700 X0.6806 Y0.3004 Z-0.1087
N5705 X0.6799 Y0.2991 Z-0.1121
N5710 X0.6789 Y0.2975 Z-0.1153
N5715 X0.6778 Y0.2954 Z-0.1181
N5720 X0.6764 Y0.2929 Z-0.1205
N5725 X0.6748 Y0.2902 Z-0.1224
N5730 X0.6731 Y0.2872 Z-0.1238
N5735 X0.6713 Y0.2841 Z-0.1247
N5740 X0.6695 Y0.2809 Z-0.125
N5745 G3 X0.6709 Y0.2717 I0.0064 J-0.0037
N5750 G1 X0.6827 Y0.2619
N5755 X0.6914 Y0.2545
N5760 X0.7191 Y0.2286
N5765 X0.7274 Y0.22
N5770 X0.7346 Y0.2117
N5775 X0.7413 Y0.2027
N5780 X0.7432 Y0.1998
N5785 X0.7691 Y0.1572
N5790 X0.7729 Y0.151
N5795 X0.7778 Y0.1418
N5800 X0.7817 Y0.1337
N5805 X0.7849 Y0.1251
N5810 X0.7993 Y0.0898
N5815 X0.8059 Y0.072
N5820 X0.8075 Y0.0531
N5825 X0.8069 Y0.0503
N5830 X0.8064 Y0.0465
N5835 Y0.0427
N5840 X0.8068 Y0.0388
N5845 G3 X0.8333 Y0.0186 I0.0234 J0.0032
N5850 X0.8536 Y0.0451 I-0.0032 J0.0234
N5855 X0.7941 Y0.1325 I-0.1171 J-0.0158
N5860 X0.7849 Y0.1251 I-0.0031 J-0.0055
N5865 G1 X0.7864 Y0.1209
N5870 X0.795 Y0.0905
N5875 X0.7999 Y0.0733
N5880 X0.8021 Y0.0647
N5885 X0.8054 Y0.0474
N5890 X0.8068 Y0.0388
N5895 X0.8072 Y0.0216
N5900 X0.8074 Y0.0129
N5905 Y-0.0129
N5910 X0.807 Y-0.0302
N5915 X0.8068 Y-0.0388
N5920 X0.8054 Y-0.0474
N5925 X0.8021 Y-0.0647
N5930 X0.7999 Y-0.0733
N5935 X0.7926 Y-0.0992
N5940 X0.7864 Y-0.1209
N5945 X0.7849 Y-0.1251
N5950 X0.7817 Y-0.1337
N5955 X0.7775 Y-0.1423
N5960 X0.7729 Y-0.151
N5965 X0.7677 Y-0.1596
N5970 X0.7432 Y-0.1998
N5975 X0.7425 Y-0.2019 Z-0.1247
N5980 X0.7418 Y-0.2038 Z-0.124
N5985 X0.7412 Y-0.2055 Z-0.1227
N5990 X0.7408 Y-0.2069 Z-0.1211
N5995 X0.7404 Y-0.2079 Z-0.1192
N6000 Y-0.2084 Z-0.1175
N6005 X0.7403 Y-0.2086 Z-0.1157
N6010 G0 Z0.2
N6015 X-0.9112 Y-0.2247
N6020 Z0.0222
N6025 G1 Z-0.0014 F56.693
N6030 X-0.9115 Y-0.2248 Z-0.0051
N6035 X-0.9124 Z-0.0087
N6040 X-0.9138 Z-0.0121
N6045 X-0.9157 Y-0.2249 Z-0.0153
N6050 X-0.9181 Y-0.225 Z-0.0181
N6055 X-0.9209 Z-0.0205
N6060 X-0.9241 Y-0.2251 Z-0.0224
N6065 X-0.9275 Y-0.2252 Z-0.0238
N6070 X-0.9311 Y-0.2254 Z-0.0247
N6075 X-0.9348 Y-0.2255 Z-0.025
N6080 G2 X-0.9796 Y-0.1035 I-0.0021 J0.0684
N6085 G1 X-0.9736 Y-0.1031
N6090 X-0.9682 Y-0.1005
N6095 X-0.9632 Y-0.0972
N6100 X-0.9585 Y-0.0935
N6105 X-0.9541 Y-0.0894
N6110 X-0.9499 Y-0.0851
N6115 X-0.946 Y-0.0806
N6120 X-0.9423 Y-0.0758
N6125 X-0.9388 Y-0.071
N6130 X-0.9355 Y-0.0659
N6135 X-0.9324 Y-0.0608
N6140 X-0.9295 Y-0.0556
N6145 X-0.9267 Y-0.0503
N6150 X-0.9241 Y-0.0449
N6155 X-0.9216 Y-0.0394
N6160 X-0.9192 Y-0.0339
N6165 X-0.917 Y-0.0283
N6170 X-0.9149 Y-0.0227
N6175 X-0.9129 Y-0.017
N6180 X-0.911 Y-0.0113
N6185 X-0.8997 Y0.025
N6190 X-0.8839 Y0.0596
N6195 X-0.8614 Y0.0903
N6200 X-0.8327 Y0.1153
N6205 X-0.799 Y0.1328
N6210 X-0.7619 Y0.1412
N6215 X-0.7428 Y0.1405
N6220 X-0.724 Y0.1377
N6225 X-0.7069 Y0.1295
N6230 X-0.6772 Y0.1057
N6235 X-0.6562 Y0.074
N6240 X-0.6415 Y0.0389
N6245 X-0.6314 Y0.0022
N6250 X-0.63 Y-0.0168
N6255 X-0.6322 Y-0.0357
N6260 X-0.6376 Y-0.0539
N6265 X-0.6462 Y-0.0709
N6270 X-0.6689 Y-0.1015
N6275 X-0.6847 Y-0.112
N6280 X-0.6933 Y-0.116
N6285 X-0.6978 Y-0.1177
N6290 X-0.7023 Y-0.1192
N6295 X-0.7114 Y-0.1219
N6300 X-0.7207 Y-0.1239
N6305 X-0.7302 Y-0.1242
N6310 X-0.7396 Y-0.1229
N6315 X-0.7487 Y-0.12
N6320 X-0.7571 Y-0.1156
N6325 X-0.7646 Y-0.1098
N6330 X-0.7711 Y-0.1028
N6335 X-0.7736 Y-0.0988
N6340 X-0.7758 Y-0.0946
N6345 X-0.7774 Y-0.0919
N6350 G3 X-0.7952 Y-0.102 I-0.0089 J-0.0051
N6355 X-0.785 Y-0.1071 I0.0089 J0.0051
N6360 G1 X0.1319 Y0.0045
N6365 G3 X0.1294 Y0.0248 I-0.0012 J0.0102
N6370 X0.1303 Y0.0044 I0.0012 J-0.0102
N6375 G1 X0.1333 Y0.0043
N6380 X0.1393
N6385 X0.145 Y0.0063
N6390 X0.1504 Y0.0089
N6395 X0.1556 Y0.0119
N6400 X0.1606 Y0.0153
N6405 X0.1654 Y0.0188
N6410 X0.1702 Y0.0224
N6415 X0.1748 Y0.0263
N6420 X0.1794 Y0.0302
N6425 X0.1838 Y0.0342
N6430 X0.1881 Y0.0384
N6435 X0.1924 Y0.0426
N6440 X0.1966 Y0.047
N6445 X0.2011 Y0.0516
N6450 X0.2072 Y0.058
N6455 X0.2155 Y0.0669
N6460 X0.2247 Y0.0769
N6465 X0.2503 Y0.105
N6470 X0.2773 Y0.1319
N6475 X0.306 Y0.1568
N6480 X0.3375 Y0.1782
N6485 X0.3715 Y0.1952
N6490 X0.4075 Y0.2077
N6495 X0.445 Y0.2138
N6500 X0.4831 Y0.2137
N6505 X0.5206 Y0.2077
N6510 X0.5565 Y0.1949
N6515 X0.5896 Y0.1762
N6520 X0.6192 Y0.1522
N6525 X0.6436 Y0.1231
N6530 X0.6627 Y0.0902
N6535 X0.6759 Y0.0545
N6540 X0.682 Y0.0169
N6545 X0.6816 Y-0.0211
N6550 X0.6747 Y-0.0585
N6555 X0.6607 Y-0.0939
N6560 X0.6408 Y-0.1263
N6565 X0.6155 Y-0.1548
N6570 X0.5853 Y-0.1779
N6575 X0.5516 Y-0.1956
N6580 X0.5153 Y-0.2069
N6585 X0.4775 Y-0.2113
N6590 X0.4395 Y-0.209
N6595 X0.4025 Y-0.2001
N6600 X0.3679 Y-0.1843
N6605 X0.3364 Y-0.1629
N6610 X0.3229 Y-0.1495
N6615 X0.3131 Y-0.1333
N6620 X0.304 Y-0.0963
N6625 X0.308 Y-0.0585
N6630 X0.3203 Y-0.0225
N6635 X0.3391 Y0.0106
N6640 X0.3639 Y0.0394
N6645 X0.3948 Y0.0617
N6650 X0.4128 Y0.0678
N6655 X0.4316 Y0.0709
N6660 X0.4506 Y0.0703
N6665 X0.469 Y0.0656
N6670 X0.4731 Y0.0632
N6675 X0.4891 Y0.0528
N6680 X0.495 Y0.0454
N6685 X0.4995 Y0.037
N6690 X0.5026 Y0.028
N6695 X0.504 Y0.0186
N6700 X0.5038 Y0.0091
N6705 X0.5029 Y0.0044
N6710 X0.5028 Y0.0025 Z-0.0248
N6715 X0.5026 Y0.0007 Z-0.0242
N6720 X0.5028 Y-0.0011 Z-0.0231
N6725 X0.503 Y-0.0027 Z-0.0217
N6730 X0.5031 Y-0.0038 Z-0.0199
N6735 X0.5032 Y-0.0045 Z-0.0178
N6740 X0.5033 Y-0.0048 Z-0.0157
N6745 G0 Z0.2
N6750 X-1.5236 Y-1.0188
N6755 Z-0.2028
N6760 G1 Z-0.2264 F56.693
N6765 X-1.5235 Y-1.0186 Z-0.2301
N6770 X-1.5233 Y-1.0177 Z-0.2337
N6775 X-1.5229 Y-1.0163 Z-0.2371
N6780 X-1.5224 Y-1.0145 Z-0.2403
N6785 X-1.5218 Y-1.0121 Z-0.2431
N6790 X-1.5211 Y-1.0094 Z-0.2455
N6795 X-1.5204 Y-1.0063 Z-0.2474
N6800 X-1.5195 Y-1.003 Z-0.2488
N6805 X-1.5186 Y-0.9995 Z-0.2497
N6810 X-1.5177 Y-0.996 Z-0.25
N6815 G3 X-1.4992 Y-0.8674 I-0.5842 J0.1496
N6820 G1 Y-0.8614
N6825 X-1.5068 Y-0.8241
N6830 X-1.512 Y-0.7864
N6835 X-1.5155 Y-0.7485
N6840 X-1.5179 Y-0.7105
N6845 X-1.5195 Y-0.6725
N6850 X-1.5206 Y-0.6345
N6855 X-1.5213 Y-0.5965
N6860 X-1.5218 Y-0.5584
N6865 X-1.5222 Y-0.5204
N6870 X-1.5224 Y-0.4823
N6875 X-1.5225 Y-0.4443
N6880 X-1.5227 Y-0.3682
N6885 X-1.5228 Y-0.254
N6890 Y0.2025
N6895 Y0.6401
N6900 X-1.5192 Y0.6587
N6905 X-1.5102 Y0.6755
N6910 X-1.4858 Y0.7047
N6915 X-1.4542 Y0.7258
N6920 X-1.4191 Y0.7407
N6925 X-1.3825 Y0.751
N6930 X-1.3451 Y0.758
N6935 X-1.3074 Y0.7628
N6940 X-1.2695 Y0.7661
N6945 X-1.2315 Y0.7683
N6950 X-1.1935 Y0.7698
N6955 X-1.1555 Y0.7708
N6960 X-1.1174 Y0.7715
N6965 X-1.0794 Y0.7719
N6970 X-1.0413 Y0.7722
N6975 X-1.0033 Y0.7724
N6980 X-0.9652 Y0.7726
N6985 X-0.8891 Y0.7727
N6990 X-0.7369 Y0.7728
N6995 X0.8991 Y0.7729
N7000 X1.3937
N7005 X1.412 Y0.7679
N7010 X1.4283 Y0.7581
N7015 X1.4568 Y0.7329
N7020 X1.4773 Y0.7008
N7025 X1.4917 Y0.6656
N7030 X1.5017 Y0.6289
N7035 X1.5085 Y0.5914
N7040 X1.5131 Y0.5537
N7045 X1.5163 Y0.5158
N7050 X1.5184 Y0.4778
N7055 X1.5199 Y0.4398
N7060 X1.5208 Y0.4017
N7065 X1.5215 Y0.3637
N7070 X1.5219 Y0.3256
N7075 X1.5222 Y0.2876
N7080 X1.5224 Y0.2496
N7085 X1.5226 Y0.2115
N7090 X1.5227 Y0.1354
N7095 X1.5228 Y-0.0168
N7100 Y-0.6445
N7105 X1.5176 Y-0.6628
N7110 X1.4977 Y-0.6953
N7115 X1.468 Y-0.7191
N7120 X1.4339 Y-0.736
N7125 X1.3978 Y-0.7477
N7130 X1.3606 Y-0.7558
N7135 X1.3229 Y-0.7613
N7140 X1.2851 Y-0.7651
N7145 X1.2471 Y-0.7676
N7150 X1.2091 Y-0.7693
N7155 X1.1711 Y-0.7705
N7160 X1.133 Y-0.7713
N7165 X1.095 Y-0.7718
N7170 X1.057 Y-0.7721
N7175 X1.0189 Y-0.7724
N7180 X0.9809 Y-0.7725
N7185 X0.9048 Y-0.7727
N7190 X0.7906 Y-0.7728
N7195 X0.3721 Y-0.7729
N7200 X-0.4269
N7205 X-1.2829
N7210 X-1.3019 Y-0.7719
N7215 X-1.3195 Y-0.7647
N7220 X-1.3507 Y-0.743
N7225 X-1.3739 Y-0.7128
N7230 X-1.3905 Y-0.6785
N7235 X-1.4022 Y-0.6424
N7240 X-1.4104 Y-0.6052
N7245 X-1.416 Y-0.5676
N7250 X-1.4199 Y-0.5297
N7255 X-1.4226 Y-0.4918
N7260 X-1.4244 Y-0.4538
N7265 X-1.4257 Y-0.4157
N7270 X-1.4265 Y-0.3777
N7275 X-1.4271 Y-0.3397
N7280 X-1.4275 Y-0.3016
N7285 X-1.4278 Y-0.2636
N7290 X-1.428 Y-0.2255
N7295 X-1.4282 Y-0.1494
N7300 X-1.4283 Y-0.0353
N7305 Y0.2691
N7310 Y0.3071
N7315 Y0.5164
N7320 X-1.4252 Y0.5351
N7325 X-1.4113 Y0.5706
N7330 X-1.3864 Y0.5993
N7335 X-1.3553 Y0.6213
N7340 X-1.3209 Y0.6376
N7345 X-1.2848 Y0.6494
N7350 X-1.2477 Y0.658
N7355 X-1.2101 Y0.664
N7360 X-1.1723 Y0.6683
N7365 X-1.1344 Y0.6714
N7370 X-1.0964 Y0.6735
N7375 X-1.0584 Y0.675
N7380 X-1.0204 Y0.676
N7385 X-0.9823 Y0.6767
N7390 X-0.9443 Y0.6772
N7395 X-0.9062 Y0.6776
N7400 X-0.8682 Y0.6778
N7405 X-0.8301 Y0.678
N7410 X-0.7541 Y0.6782
N7415 X-0.6399 Y0.6783
N7420 X-0.3355 Y0.6784
N7425 X0.2732
N7430 X1.2624
N7435 X1.2813 Y0.676
N7440 X1.2993 Y0.6698
N7445 X1.3324 Y0.651
N7450 X1.3585 Y0.6233
N7455 X1.3781 Y0.5908
N7460 X1.3926 Y0.5556
N7465 X1.4031 Y0.519
N7470 X1.4106 Y0.4817
N7475 X1.4159 Y0.444
N7480 X1.4196 Y0.4062
N7485 X1.4223 Y0.3682
N7490 X1.4241 Y0.3302
N7495 X1.4254 Y0.2922
N7500 X1.4263 Y0.2541
N7505 X1.4269 Y0.2161
N7510 X1.4274 Y0.1781
N7515 X1.4277 Y0.14
N7520 X1.4279 Y0.102
N7525 X1.428 Y0.0639
N7530 X1.4282 Y-0.0122
N7535 X1.4283 Y-0.1263
N7540 Y-0.2405
N7545 Y-0.5068
N7550 X1.4275 Y-0.5258
N7555 X1.4224 Y-0.5441
N7560 X1.4055 Y-0.5782
N7565 X1.3788 Y-0.6053
N7570 X1.3468 Y-0.6258
N7575 X1.3119 Y-0.641
N7580 X1.2754 Y-0.6519
N7585 X1.2382 Y-0.6597
N7590 X1.2006 Y-0.6653
N7595 X1.1627 Y-0.6692
N7600 X1.1248 Y-0.672
N7605 X1.0868 Y-0.674
N7610 X1.0488 Y-0.6753
N7615 X1.0107 Y-0.6762
N7620 X0.9727 Y-0.6769
N7625 X0.9346 Y-0.6774
N7630 X0.8966 Y-0.6777
N7635 X0.8585 Y-0.6779
N7640 X0.8205 Y-0.678
N7645 X0.7444 Y-0.6782
N7650 X0.6303 Y-0.6783
N7655 X0.2879 Y-0.6784
N7660 X-0.2068
N7665 X-1.1579
N7670 X-1.1769 Y-0.6777
N7675 X-1.1954 Y-0.673
N7680 X-1.2298 Y-0.6568
N7685 X-1.2575 Y-0.6307
N7690 X-1.2786 Y-0.5991
N7695 X-1.2943 Y-0.5644
N7700 X-1.3057 Y-0.5281
N7705 X-1.3139 Y-0.491
N7710 X-1.3198 Y-0.4534
N7715 X-1.324 Y-0.4156
N7720 X-1.3269 Y-0.3776
N7725 X-1.329 Y-0.3396
N7730 X-1.3305 Y-0.3016
N7735 X-1.3315 Y-0.2636
N7740 X-1.3322 Y-0.2255
N7745 X-1.3327 Y-0.1875
N7750 X-1.3331 Y-0.1494
N7755 X-1.3333 Y-0.1114
N7760 X-1.3335 Y-0.0734
N7765 X-1.3337 Y0.0027
N7770 X-1.3338 Y0.1169
N7775 Y0.2691
N7780 Y0.4212
N7785 X-1.3236 Y0.4579
N7790 X-1.3017 Y0.489
N7795 X-1.2728 Y0.5138
N7800 X-1.2398 Y0.5327
N7805 X-1.2045 Y0.5468
N7810 X-1.1679 Y0.5572
N7815 X-1.1306 Y0.5648
N7820 X-1.0929 Y0.5702
N7825 X-1.0551 Y0.5742
N7830 X-1.0171 Y0.577
N7835 X-0.9792 Y0.579
N7840 X-0.9411 Y0.5804
N7845 X-0.9031 Y0.5814
N7850 X-0.8651 Y0.5822
N7855 X-0.827 Y0.5827
N7860 X-0.789 Y0.583
N7865 X-0.7509 Y0.5833
N7870 X-0.7129 Y0.5835
N7875 X-0.6368 Y0.5837
N7880 X-0.5227 Y0.5838
N7885 X-0.2563 Y0.5839
N7890 X0.2208
N7895 X0.2316 Y0.585
N7900 X0.242 Y0.5881
N7905 X0.2515 Y0.5932
N7910 X0.2593 Y0.5984
N7915 X0.2679 Y0.603
N7920 X0.2765 Y0.6069
N7925 X0.2795 Y0.6081
N7930 X0.2852 Y0.61
N7935 X0.3085 Y0.6168
N7940 X0.3284 Y0.6216
N7945 X0.337 Y0.6237
N7950 X0.363 Y0.6288
N7955 X0.3716 Y0.6301
N7960 X0.3889 Y0.6325
N7965 X0.3975 Y0.6335
N7970 X0.4148 Y0.635
N7975 X0.4235 Y0.6351
N7980 X0.4321 Y0.6346
N7985 X0.4407 Y0.6335
N7990 X0.4494 Y0.6317
N7995 X0.458 Y0.6296
N8000 X0.4667 Y0.6271
N8005 X0.4688 Y0.6268
N8010 X0.471 Y0.6266
N8015 X0.4731 Y0.6267
N8020 X0.4753 Y0.627
N8025 X0.4839 Y0.6294
N8030 X0.4926 Y0.6317
N8035 X0.5012 Y0.6334
N8040 X0.5052 Y0.634
N8045 X0.5099 Y0.6345
N8050 X0.5185 Y0.6352
N8055 X0.5272
N8060 X0.5358 Y0.6346
N8065 X0.5531 Y0.6325
N8070 X0.5617 Y0.6314
N8075 X0.579 Y0.6286
N8080 X0.5876 Y0.6272
N8085 X0.6136 Y0.622
N8090 X0.6395 Y0.6153
N8095 X0.6481 Y0.6126
N8100 X0.6765 Y0.6049
N8105 X0.7139 Y0.5978
N8110 X0.7516 Y0.5932
N8115 X0.7895 Y0.5901
N8120 X0.8275 Y0.5881
N8125 X0.8656 Y0.5867
N8130 X0.9036 Y0.5858
N8135 X0.9416 Y0.5851
N8140 X0.9797 Y0.5847
N8145 X1.0177 Y0.5844
N8150 X1.0558 Y0.5843
N8155 X1.0938 Y0.5841
N8160 X1.1699 Y0.584
N8165 X1.2066 Y0.5739
N8170 X1.238 Y0.5524
N8175 X1.2629 Y0.5236
N8180 X1.2819 Y0.4907
N8185 X1.2962 Y0.4554
N8190 X1.3067 Y0.4189
N8195 X1.3144 Y0.3816
N8200 X1.32 Y0.344
N8205 X1.324 Y0.3061
N8210 X1.3268 Y0.2682
N8215 X1.3289 Y0.2302
N8220 X1.3303 Y0.1922
N8225 X1.3314 Y0.1541
N8230 X1.3321 Y0.1161
N8235 X1.3326 Y0.0781
N8240 X1.333 Y0.04
N8245 X1.3332 Y0.002
N8250 X1.3334 Y-0.0361
N8255 X1.3336 Y-0.1122
N8260 X1.3338 Y-0.2263
N8265 Y-0.4165
N8270 X1.3253 Y-0.4536
N8275 X1.3047 Y-0.4856
N8280 X1.2764 Y-0.5111
N8285 X1.2438 Y-0.5306
N8290 X1.2087 Y-0.5453
N8295 X1.1722 Y-0.5561
N8300 X1.135 Y-0.564
N8305 X1.0973 Y-0.5697
N8310 X1.0595 Y-0.5738
N8315 X1.0216 Y-0.5767
N8320 X0.9836 Y-0.5788
N8325 X0.9456 Y-0.5803
N8330 X0.9075 Y-0.5813
N8335 X0.8695 Y-0.5821
N8340 X0.8315 Y-0.5826
N8345 X0.7934 Y-0.583
N8350 X0.7554 Y-0.5833
N8355 X0.7216 Y-0.5834
N8360 X0.7109 Y-0.5846
N8365 X0.7007 Y-0.5879
N8370 X0.6913 Y-0.5932
N8375 X0.6827 Y-0.5986
N8380 X0.6741 Y-0.603
N8385 X0.6654 Y-0.6069
N8390 X0.6481 Y-0.6126
N8395 X0.6395 Y-0.6153
N8400 X0.6136 Y-0.622
N8405 X0.5876 Y-0.6272
N8410 X0.579 Y-0.6286
N8415 X0.5617 Y-0.6314
N8420 X0.5531 Y-0.6325
N8425 X0.5358 Y-0.6346
N8430 X0.5272 Y-0.6352
N8435 X0.5185
N8440 X0.5099 Y-0.6345
N8445 X0.5052 Y-0.634
N8450 X0.5012 Y-0.6334
N8455 X0.4926 Y-0.6317
N8460 X0.4839 Y-0.6294
N8465 X0.4753 Y-0.627
N8470 X0.4731 Y-0.6267
N8475 X0.471 Y-0.6266
N8480 X0.4688 Y-0.6268
N8485 X0.4667 Y-0.6271
N8490 X0.458 Y-0.6296
N8495 X0.4494 Y-0.6317
N8500 X0.4407 Y-0.6335
N8505 X0.4321 Y-0.6346
N8510 X0.4235 Y-0.6351
N8515 X0.4148 Y-0.635
N8520 X0.3975 Y-0.6335
N8525 X0.3889 Y-0.6325
N8530 X0.3716 Y-0.6301
N8535 X0.363 Y-0.6288
N8540 X0.337 Y-0.6237
N8545 X0.3111 Y-0.6174
N8550 X0.3085 Y-0.6168
N8555 X0.3025 Y-0.615
N8560 X0.2654 Y-0.6063
N8565 X0.2281 Y-0.5988
N8570 X0.1904 Y-0.5938
N8575 X0.1525 Y-0.5905
N8580 X0.1145 Y-0.5883
N8585 X0.0765 Y-0.5869
N8590 X0.0385 Y-0.5859
N8595 X0.0004 Y-0.5852
N8600 X-0.0376 Y-0.5848
N8605 X-0.0757 Y-0.5845
N8610 X-0.1137 Y-0.5843
N8615 X-0.1517 Y-0.5842
N8620 X-0.2278 Y-0.584
N8625 X-0.38 Y-0.5839
N8630 X-1.0649
N8635 X-1.0836 Y-0.5807
N8640 X-1.1194 Y-0.5679
N8645 X-1.1494 Y-0.5444
N8650 X-1.1729 Y-0.5145
N8655 X-1.1909 Y-0.481
N8660 X-1.2042 Y-0.4453
N8665 X-1.214 Y-0.4086
N8670 X-1.2212 Y-0.3712
N8675 X-1.2264 Y-0.3335
N8680 X-1.2301 Y-0.2957
N8685 X-1.2328 Y-0.2577
N8690 X-1.2347 Y-0.2197
N8695 X-1.2361 Y-0.1817
N8700 X-1.237 Y-0.1437
N8705 X-1.2377 Y-0.1056
N8710 X-1.2382 Y-0.0676
N8715 X-1.2385 Y-0.0295
N8720 X-1.2388 Y0.0085
N8725 X-1.239 Y0.0466
N8730 X-1.2392 Y0.1227
N8735 X-1.2393 Y0.2368
N8740 Y0.3129
N8745 X-1.2323 Y0.3503
N8750 X-1.2132 Y0.3832
N8755 X-1.1861 Y0.4099
N8760 X-1.1542 Y0.4306
N8765 X-1.1196 Y0.4464
N8770 X-1.0834 Y0.4581
N8775 X-1.0463 Y0.4667
N8780 X-1.0088 Y0.473
N8785 X-0.971 Y0.4776
N8790 X-0.9331 Y0.4809
N8795 X-0.8952 Y0.4833
N8800 X-0.8571 Y0.4851
N8805 X-0.8191 Y0.4863
N8810 X-0.7811 Y0.4872
N8815 X-0.743 Y0.4878
N8820 X-0.705 Y0.4883
N8825 X-0.667 Y0.4886
N8830 X-0.6289 Y0.4888
N8835 X-0.5909 Y0.489
N8840 X-0.5148 Y0.4892
N8845 X-0.4006 Y0.4893
N8850 X-0.1343 Y0.4894
N8855 X0.0431
N8860 X0.0556 Y0.4908
N8865 X0.0674 Y0.495
N8870 X0.078 Y0.5018
N8875 X0.0864 Y0.5087
N8880 X0.0923 Y0.5133
N8885 X0.1123 Y0.5273
N8890 X0.117 Y0.5305
N8895 X0.13 Y0.5391
N8900 X0.1383 Y0.5442
N8905 X0.1469 Y0.5493
N8910 X0.1642 Y0.5592
N8915 X0.1728 Y0.5637
N8920 X0.1815 Y0.5676
N8925 X0.1901 Y0.5706
N8930 X0.1988 Y0.5731
N8935 X0.201 Y0.5736
N8940 X0.2074 Y0.5751
N8945 X0.216 Y0.5763
N8950 X0.2247 Y0.5772
N8955 X0.2268 Y0.5776
N8960 X0.229 Y0.5781
N8965 X0.2312 Y0.5788
N8970 X0.2333 Y0.5798
N8975 X0.2352 Y0.5809
N8980 X0.2371 Y0.5823
N8985 X0.242 Y0.5863
N8990 X0.2481 Y0.5909
N8995 X0.2515 Y0.5932
N9000 X0.2518 Y0.5935
N9005 G2 X0.2582 Y0.5997 I0.2087 J-0.2097
N9010 X0.2914 Y0.6265 I0.2023 J-0.216
N9015 X0.3037 Y0.6307 I0.0135 J-0.0194
N9020 G1 X0.5922 Y0.6449
N9025 G2 X0.6049 Y0.642 I0.0012 J-0.0236
N9030 X0.6408 Y0.6183 I-0.1444 J-0.2583
N9035 X0.6475 Y0.613 I-0.1803 J-0.2346
N9040 G1 X0.6481 Y0.6126
N9045 X0.6654 Y0.6069
N9050 X0.6741 Y0.603
N9055 X0.6827 Y0.5986
N9060 X0.6913 Y0.5932
N9065 X0.6945 Y0.5909
N9070 X0.7 Y0.5867
N9075 X0.7054 Y0.5823
N9080 X0.7086 Y0.5801
N9085 X0.7108 Y0.579
N9090 X0.713 Y0.5782
N9095 X0.7151 Y0.5777
N9100 X0.7173 Y0.5773
N9105 X0.7259 Y0.5763
N9110 X0.7346 Y0.5751
N9115 X0.7432 Y0.5733
N9120 X0.7518 Y0.5708
N9125 X0.7605 Y0.5677
N9130 X0.7778 Y0.5593
N9135 X0.7833 Y0.5564
N9140 X0.8037 Y0.5445
N9145 X0.8183 Y0.5365
N9150 X0.8367 Y0.5282
N9155 X0.861 Y0.5195
N9160 X0.8944 Y0.5106
N9165 X0.9319 Y0.5037
N9170 X0.9696 Y0.4991
N9175 X1.0075 Y0.496
N9180 X1.0455 Y0.4939
N9185 X1.0835 Y0.4913
N9190 X1.1186 Y0.4767
N9195 X1.148 Y0.4525
N9200 X1.1713 Y0.4225
N9205 X1.1892 Y0.3889
N9210 X1.2027 Y0.3533
N9215 X1.2127 Y0.3166
N9220 X1.22 Y0.2793
N9225 X1.2254 Y0.2416
N9230 X1.2293 Y0.2037
N9235 X1.2322 Y0.1658
N9240 X1.2342 Y0.1278
N9245 X1.2357 Y0.0898
N9250 X1.2367 Y0.0518
N9255 X1.2375 Y0.0137
N9260 X1.238 Y-0.0243
N9265 X1.2384 Y-0.0624
N9270 X1.2387 Y-0.1004
N9275 X1.2389 Y-0.1385
N9280 X1.239 Y-0.1765
N9285 X1.2392 Y-0.2526
N9290 Y-0.2906
N9295 X1.239 Y-0.3287
N9300 X1.2264 Y-0.3646
N9305 X1.2034 Y-0.3949
N9310 X1.174 Y-0.419
N9315 X1.1408 Y-0.4375
N9320 X1.1054 Y-0.4515
N9325 X1.0688 Y-0.4619
N9330 X1.0315 Y-0.4695
N9335 X0.9939 Y-0.475
N9340 X0.956 Y-0.4791
N9345 X0.9181 Y-0.482
N9350 X0.9048 Y-0.4827
N9355 X0.8932 Y-0.4846
N9360 X0.8822 Y-0.489
N9365 X0.8724 Y-0.4956
N9370 X0.8642 Y-0.5025
N9375 X0.8501 Y-0.5133
N9380 X0.8381 Y-0.5219
N9385 X0.8296 Y-0.5277
N9390 X0.8123 Y-0.5391
N9395 X0.8037 Y-0.5445
N9400 X0.7833 Y-0.5564
N9405 X0.7778 Y-0.5593
N9410 X0.7605 Y-0.5677
N9415 X0.7518 Y-0.5708
N9420 X0.7432 Y-0.5733
N9425 X0.7346 Y-0.5751
N9430 X0.7259 Y-0.5763
N9435 X0.7173 Y-0.5773
N9440 X0.7151 Y-0.5777
N9445 X0.713 Y-0.5782
N9450 X0.7108 Y-0.579
N9455 X0.7086 Y-0.5801
N9460 X0.7054 Y-0.5823
N9465 X0.7 Y-0.5867
N9470 X0.6945 Y-0.5909
N9475 X0.6913 Y-0.5932
N9480 X0.6911 Y-0.5934
N9485 G2 X0.6848 Y-0.5998 I-0.2057 J0.1956
N9490 X0.654 Y-0.6261 I-0.1994 J0.202
N9495 X0.6413 Y-0.6307 I-0.014 J0.019
N9500 G1 X0.3569 Y-0.6469
N9505 G2 X0.3438 Y-0.6438 I-0.0013 J0.0236
N9510 X0.3097 Y-0.6208 I0.1416 J0.246
N9515 X0.3032 Y-0.6154 I0.1756 J0.223
N9520 G1 X0.3025 Y-0.615
N9525 X0.2852 Y-0.61
N9530 X0.2795 Y-0.6081
N9535 X0.2765 Y-0.6069
N9540 X0.2679 Y-0.603
N9545 X0.2593 Y-0.5984
N9550 X0.2506 Y-0.5926
N9555 X0.2481 Y-0.5909
N9560 X0.242 Y-0.5863
N9565 X0.2371 Y-0.5823
N9570 X0.2352 Y-0.5809
N9575 X0.2333 Y-0.5798
N9580 X0.2312 Y-0.5788
N9585 X0.229 Y-0.5781
N9590 X0.2268 Y-0.5776
N9595 X0.2247 Y-0.5772
N9600 X0.216 Y-0.5763
N9605 X0.2074 Y-0.5751
N9610 X0.201 Y-0.5736
N9615 X0.1988 Y-0.5731
N9620 X0.1901 Y-0.5706
N9625 X0.1815 Y-0.5676
N9630 X0.1728 Y-0.5637
N9635 X0.1642 Y-0.5592
N9640 X0.1443 Y-0.5478
N9645 X0.1383 Y-0.5442
N9650 X0.1248 Y-0.5368
N9655 X0.1064 Y-0.5285
N9660 X0.0823 Y-0.5198
N9665 X0.049 Y-0.5108
N9670 X0.0116 Y-0.5039
N9675 X-0.0261 Y-0.4992
N9680 X-0.0641 Y-0.4961
N9685 X-0.102 Y-0.4939
N9690 X-0.1401 Y-0.4925
N9695 X-0.1781 Y-0.4915
N9700 X-0.2161 Y-0.4908
N9705 X-0.2542 Y-0.4904
N9710 X-0.2922 Y-0.4901
N9715 X-0.3303 Y-0.4898
N9720 X-0.3683 Y-0.4897
N9725 X-0.4444 Y-0.4895
N9730 X-0.5585 Y-0.4894
N9735 X-0.939
N9740 X-0.9771 Y-0.4893
N9745 X-1.0136 Y-0.4788
N9750 X-1.045 Y-0.4573
N9755 X-1.0702 Y-0.4288
N9760 X-1.0897 Y-0.3962
N9765 X-1.1045 Y-0.3611
N9770 X-1.1155 Y-0.3247
N9775 X-1.1235 Y-0.2875
N9780 X-1.1295 Y-0.2499
N9785 X-1.1338 Y-0.2121
N9790 X-1.1369 Y-0.1742
N9795 X-1.1392 Y-0.1362
N9800 X-1.1408 Y-0.0982
N9805 X-1.1419 Y-0.0602
N9810 X-1.1428 Y-0.0221
N9815 X-1.1434 Y0.0159
N9820 X-1.1438 Y0.054
N9825 X-1.1441 Y0.092
N9830 X-1.1443 Y0.1301
N9835 X-1.1445 Y0.1681
N9840 X-1.1446 Y0.2062
N9845 X-1.1407 Y0.244
N9850 X-1.1244 Y0.2784
N9855 X-1.0991 Y0.3068
N9860 X-1.0684 Y0.3293
N9865 X-1.0345 Y0.3465
N9870 X-0.9987 Y0.3594
N9875 X-0.9619 Y0.369
N9880 X-0.9245 Y0.3761
N9885 X-0.8868 Y0.3813
N9890 X-0.849 Y0.385
N9895 X-0.811 Y0.3878
N9900 X-0.773 Y0.3898
N9905 X-0.735 Y0.3912
N9910 X-0.697 Y0.3923
N9915 X-0.6589 Y0.393
N9920 X-0.6209 Y0.3935
N9925 X-0.5829 Y0.3939
N9930 X-0.5448 Y0.3942
N9935 X-0.5068 Y0.3944
N9940 X-0.4687 Y0.3946
N9945 X-0.3926 Y0.3947
N9950 X-0.2785 Y0.3948
N9955 X-0.0547 Y0.3949
N9960 X-0.0441 Y0.3959
N9965 X-0.034 Y0.399
N9970 X-0.0245 Y0.4039
N9975 X-0.0162 Y0.4106
N9980 X-0.0086 Y0.418
N9985 X0. Y0.4252
N9990 X0.0024 Y0.427
N9995 X0.0086 Y0.431
N10000 X0.0162 Y0.4356
N10005 X0.0216 Y0.4385
N10010 X0.0238 Y0.4397
N10015 X0.0259 Y0.4413
N10020 X0.0291 Y0.4442
N10025 X0.0308 Y0.4464
N10030 X0.0322 Y0.4486
N10035 X0.0346 Y0.4532
N10040 X0.0394 Y0.4615
N10045 X0.0432 Y0.467
N10050 X0.0454 Y0.4701
N10055 X0.0519 Y0.4782
N10060 X0.0603 Y0.4874
N10065 X0.078 Y0.5018
N10070 X0.0782 Y0.5021
N10075 G2 X0.084 Y0.5089 I0.3825 J-0.318
N10080 X0.2484 Y0.634 I0.3768 J-0.3248
N10085 X0.2571 Y0.6362 I0.0101 J-0.0214
N10090 G1 X0.61 Y0.6569
N10095 G2 X0.6189 Y0.6557 I0.0014 J-0.0236
N10100 X0.7969 Y0.5508 I-0.1581 J-0.4716
N10105 X0.8034 Y0.5447 I-0.3361 J-0.3667
N10110 G1 X0.8037 Y0.5445
N10115 X0.8123 Y0.5391
N10120 X0.8296 Y0.5277
N10125 X0.8383 Y0.5218
N10130 X0.8501 Y0.5133
N10135 X0.8642 Y0.5025
N10140 X0.8821 Y0.4874
N10145 X0.8863 Y0.4831
N10150 X0.8901 Y0.4789
N10155 X0.8941 Y0.4744
N10160 X0.9026 Y0.467
N10165 X0.9137 Y0.4589
N10170 X0.9271 Y0.4507
N10175 X0.9447 Y0.4417
N10180 X0.9799 Y0.4272
N10185 X1.014 Y0.4104
N10190 X1.0436 Y0.3865
N10195 X1.0678 Y0.3572
N10200 X1.087 Y0.3243
N10205 X1.1017 Y0.2892
N10210 X1.1129 Y0.2529
N10215 X1.1214 Y0.2158
N10220 X1.1277 Y0.1782
N10225 X1.1323 Y0.1405
N10230 X1.1357 Y0.1026
N10235 X1.1382 Y0.0646
N10240 X1.14 Y0.0266
N10245 X1.1414 Y-0.0114
N10250 X1.1424 Y-0.0494
N10255 X1.1431 Y-0.0875
N10260 X1.1436 Y-0.1255
N10265 X1.1439 Y-0.1636
N10270 X1.1442 Y-0.2016
N10275 X1.1419 Y-0.2396
N10280 X1.127 Y-0.2746
N10285 X1.1026 Y-0.3038
N10290 X1.0723 Y-0.3269
N10295 X1.0387 Y-0.3446
N10300 X1.0139 Y-0.354
N10305 X1.0039 Y-0.3589
N10310 X0.9951 Y-0.3658
N10315 X0.9879 Y-0.3743
N10320 X0.9872 Y-0.3752
N10325 X0.9741 Y-0.3925
N10330 X0.9674 Y-0.4011
N10335 X0.9591 Y-0.4097
N10340 X0.9506 Y-0.4184
N10345 X0.942 Y-0.4255
N10350 X0.9399 Y-0.427
N10355 X0.9247 Y-0.4365
N10360 X0.916 Y-0.4416
N10365 X0.9133 Y-0.4442
N10370 X0.9116 Y-0.4464
N10375 X0.9102 Y-0.4486
N10380 X0.9074 Y-0.454
N10385 X0.903 Y-0.4615
N10390 X0.8967 Y-0.4701
N10395 X0.8901 Y-0.4789
N10400 X0.8863 Y-0.4831
N10405 X0.8821 Y-0.4874
N10410 X0.8724 Y-0.4956
N10415 X0.8721 Y-0.4958
N10420 G2 X0.8665 Y-0.5027 I-0.3892 J0.3142
N10425 X0.7029 Y-0.6309 I-0.3836 J0.3211
N10430 X0.6941 Y-0.6333 I-0.0104 J0.0212
N10435 G1 X0.3332 Y-0.6572
N10440 G2 X0.3241 Y-0.656 I-0.0016 J0.0236
N10445 X0.1451 Y-0.5505 I0.1588 J0.4743
N10450 X0.1386 Y-0.5445 I0.3378 J0.3689
N10455 G1 X0.1383 Y-0.5442
N10460 X0.1296 Y-0.5389
N10465 X0.117 Y-0.5305
N10470 X0.1123 Y-0.5273
N10475 X0.0923 Y-0.5133
N10480 X0.0864 Y-0.5087
N10485 X0.0603 Y-0.4874
N10490 X0.0523 Y-0.4788
N10495 X0.0477 Y-0.4741
N10500 X0.039 Y-0.4666
N10505 X0.0279 Y-0.4586
N10510 X0.0143 Y-0.4502
N10515 X-0.0033 Y-0.4414
N10520 X-0.0257 Y-0.4322
N10525 X-0.0554 Y-0.4228
N10530 X-0.0925 Y-0.4142
N10535 X-0.1301 Y-0.4083
N10540 X-0.1679 Y-0.4042
N10545 X-0.2059 Y-0.4014
N10550 X-0.2439 Y-0.3994
N10555 X-0.2819 Y-0.398
N10560 X-0.3199 Y-0.3971
N10565 X-0.358 Y-0.3964
N10570 X-0.396 Y-0.396
N10575 X-0.434 Y-0.3956
N10580 X-0.4721 Y-0.3954
N10585 X-0.5101 Y-0.3953
N10590 X-0.5862 Y-0.3951
N10595 X-0.7004 Y-0.395
N10600 X-0.8526 Y-0.3949
N10605 X-0.8906 Y-0.3935
N10610 X-0.926 Y-0.3796
N10615 X-0.9559 Y-0.356
N10620 X-0.9797 Y-0.3263
N10625 X-0.998 Y-0.293
N10630 X-1.0119 Y-0.2576
N10635 X-1.0222 Y-0.221
N10640 X-1.0299 Y-0.1837
N10645 X-1.0355 Y-0.1461
N10650 X-1.0396 Y-0.1082
N10655 X-1.0426 Y-0.0703
N10660 X-1.0448 Y-0.0323
N10665 X-1.0463 Y0.0057
N10670 X-1.0475 Y0.0437
N10675 X-1.0483 Y0.0818
N10680 X-1.0489 Y0.1198
N10685 X-1.0419 Y0.1572
N10690 X-1.0232 Y0.1903
N10695 X-0.9964 Y0.2173
N10700 X-0.9648 Y0.2385
N10705 X-0.9303 Y0.2546
N10710 X-0.8943 Y0.2668
N10715 X-0.8573 Y0.2758
N10720 X-0.8198 Y0.2825
N10725 X-0.7821 Y0.2874
N10730 X-0.7442 Y0.291
N10735 X-0.7063 Y0.2936
N10740 X-0.6683 Y0.2955
N10745 X-0.6303 Y0.2968
N10750 X-0.5922 Y0.2978
N10755 X-0.5542 Y0.2986
N10760 X-0.5161 Y0.2991
N10765 X-0.4781 Y0.2995
N10770 X-0.4401 Y0.2997
N10775 X-0.402 Y0.2999
N10780 X-0.3259 Y0.3002
N10785 X-0.2118 Y0.3003
N10790 X-0.1357 Y0.3004
N10795 X-0.1215 Y0.3008
N10800 X-0.1107 Y0.3023
N10805 X-0.1004 Y0.3058
N10810 X-0.091 Y0.3113
N10815 X-0.0828 Y0.3185
N10820 X-0.0762 Y0.3272
N10825 X-0.0679 Y0.3407
N10830 X-0.0625 Y0.3494
N10835 X-0.0519 Y0.3653
N10840 X-0.0448 Y0.3752
N10845 X-0.0251 Y0.4011
N10850 X-0.0171 Y0.4097
N10855 X-0.0162 Y0.4106
N10860 G3 X-0.0113 Y0.4183 I-0.0171 J0.0163
N10865 G1 X-0.01 Y0.4218 Z-0.2497
N10870 X-0.0087 Y0.4252 Z-0.2488
N10875 X-0.0074 Y0.4283 Z-0.2474
N10880 X-0.0063 Y0.4313 Z-0.2455
N10885 X-0.0053 Y0.4339 Z-0.2431
N10890 X-0.0044 Y0.4362 Z-0.2403
N10895 X-0.0037 Y0.438 Z-0.2371
N10900 X-0.0032 Y0.4393 Z-0.2337
N10905 X-0.0029 Y0.4401 Z-0.2301
N10910 X-0.0028 Y0.4404 Z-0.2264
N10915 G0 Z0.2
N10920 X0.038 Y-0.5067
N10925 Z-0.2028
N10930 G1 Z-0.2264 F56.693
N10935 X0.0381 Y-0.5064 Z-0.2301
N10940 X0.0387 Y-0.5058 Z-0.2337
N10945 X0.0395 Y-0.5046 Z-0.2371
N10950 X0.0407 Y-0.5031 Z-0.2403
N10955 X0.0422 Y-0.5012 Z-0.2431
N10960 X0.044 Y-0.499 Z-0.2455
N10965 X0.0459 Y-0.4965 Z-0.2474
N10970 X0.048 Y-0.4938 Z-0.2488
N10975 X0.0502 Y-0.4909 Z-0.2497
N10980 X0.0525 Y-0.488 Z-0.25
N10985 G3 X0.0523 Y-0.4788 I-0.0058 J0.0045
N10990 G1 X0.0519 Y-0.4782
N10995 X0.0454 Y-0.4701
N11000 X0.0432 Y-0.467
N11005 X0.0394 Y-0.4615
N11010 X0.0344 Y-0.4529
N11015 X0.0322 Y-0.4486
N11020 X0.0308 Y-0.4464
N11025 X0.0291 Y-0.4442
N11030 X0.0259 Y-0.4413
N11035 X0.0238 Y-0.4397
N11040 X0.0216 Y-0.4385
N11045 X0.0162 Y-0.4356
N11050 X0.0086 Y-0.431
N11055 X0.0024 Y-0.427
N11060 X0. Y-0.4252
N11065 X-0.0086 Y-0.418
N11070 X-0.0173 Y-0.4095
N11075 X-0.0251 Y-0.4011
N11080 X-0.0259 Y-0.4
N11085 X-0.0321 Y-0.3927
N11090 X-0.04 Y-0.3847
N11095 X-0.0494 Y-0.3767
N11100 X-0.0614 Y-0.368
N11105 X-0.0763 Y-0.3589
N11110 X-0.0951 Y-0.3494
N11115 X-0.119 Y-0.3397
N11120 X-0.1507 Y-0.3297
N11125 X-0.1878 Y-0.3211
N11130 X-0.2253 Y-0.3151
N11135 X-0.2632 Y-0.3108
N11140 X-0.3011 Y-0.3078
N11145 X-0.3391 Y-0.3057
N11150 X-0.3771 Y-0.3041
N11155 X-0.4151 Y-0.303
N11160 X-0.4532 Y-0.3023
N11165 X-0.4912 Y-0.3017
N11170 X-0.5292 Y-0.3013
N11175 X-0.5673 Y-0.3011
N11180 X-0.6053 Y-0.3009
N11185 X-0.6434 Y-0.3007
N11190 X-0.7195 Y-0.3006
N11195 X-0.7575 Y-0.3005
N11200 X-0.7955 Y-0.2988
N11205 X-0.8309 Y-0.2847
N11210 X-0.8607 Y-0.2611
N11215 X-0.8705 Y-0.2488
N11220 X-0.875 Y-0.2439
N11225 X-0.8801 Y-0.2395
N11230 X-0.8857 Y-0.2357
N11235 X-0.8901 Y-0.2331
N11240 X-0.8972 Y-0.2286
N11245 X-0.8988 Y-0.2275
N11250 X-0.9085 Y-0.22
N11255 X-0.9195 Y-0.2113
N11260 X-0.9247 Y-0.2071
N11265 X-0.9333 Y-0.1998
N11270 X-0.9391 Y-0.1941
N11275 X-0.9474 Y-0.1855
N11280 X-0.9544 Y-0.1768
N11285 X-0.9592 Y-0.1706
N11290 X-0.9733 Y-0.151
N11295 X-0.9765 Y-0.1463
N11300 X-0.9788 Y-0.1423
N11305 X-0.9888 Y-0.1251
N11310 X-0.9933 Y-0.1165
N11315 X-1.0002 Y-0.0992
N11320 X-1.003 Y-0.0906
N11325 X-1.0084 Y-0.0733
N11330 X-1.011 Y-0.0647
N11335 X-1.0147 Y-0.0474
N11340 X-1.0165 Y-0.0388
N11345 X-1.0177 Y-0.0216
N11350 X-1.0183 Y-0.0129
N11355 Y0.0129
N11360 X-1.0177 Y0.0216
N11365 X-1.0165 Y0.0388
N11370 X-1.0147 Y0.0474
N11375 X-1.011 Y0.0647
N11380 X-1.0084 Y0.0733
N11385 X-1.0025 Y0.0922
N11390 X-1.0002 Y0.0992
N11395 X-0.9933 Y0.1165
N11400 X-0.9888 Y0.1251
N11405 X-0.9788 Y0.1423
N11410 X-0.9765 Y0.1463
N11415 X-0.9733 Y0.151
N11420 X-0.9592 Y0.1706
N11425 X-0.9544 Y0.1768
N11430 X-0.9474 Y0.1855
N11435 X-0.9391 Y0.1941
N11440 X-0.9333 Y0.1998
N11445 X-0.9247 Y0.2071
N11450 X-0.9195 Y0.2113
N11455 X-0.9074 Y0.2208
N11460 X-0.8988 Y0.2275
N11465 X-0.8972 Y0.2286
N11470 X-0.8901 Y0.2331
N11475 X-0.8685 Y0.2458
N11480 X-0.8642 Y0.2478
N11485 X-0.8555 Y0.2516
N11490 X-0.8469 Y0.2549
N11495 X-0.8383 Y0.258
N11500 X-0.821 Y0.264
N11505 X-0.8123 Y0.2668
N11510 X-0.7904 Y0.2717
N11515 X-0.7864 Y0.2723
N11520 X-0.7691 Y0.2738
N11525 X-0.7605 Y0.2744
N11530 X-0.7432 Y0.2749
N11535 X-0.7346 Y0.275
N11540 X-0.7086 Y0.2735
N11545 X-0.6827 Y0.2686
N11550 X-0.6568 Y0.2609
N11555 X-0.6481 Y0.2579
N11560 X-0.6309 Y0.2517
N11565 X-0.6261 Y0.2493
N11570 X-0.6118 Y0.2427
N11575 X-0.5897 Y0.2347
N11580 X-0.5592 Y0.2263
N11585 X-0.5218 Y0.2192
N11590 X-0.4841 Y0.2146
N11595 X-0.4462 Y0.2116
N11600 X-0.4082 Y0.2097
N11605 X-0.3701 Y0.2084
N11610 X-0.3321 Y0.2075
N11615 X-0.2941 Y0.207
N11620 X-0.256 Y0.2066
N11625 X-0.218 Y0.2064
N11630 X-0.1799 Y0.2069
N11635 X-0.1558 Y0.2091
N11640 X-0.1478 Y0.2105
N11645 X-0.1383 Y0.213
N11650 X-0.1293 Y0.2172
N11655 X-0.1213 Y0.223
N11660 X-0.1144 Y0.23
N11665 X-0.1105 Y0.2349
N11670 X-0.109 Y0.2372
N11675 X-0.1079 Y0.2394
N11680 X-0.1071 Y0.2415
N11685 X-0.1062 Y0.2458
N11690 X-0.1053 Y0.2545
N11695 X-0.1039 Y0.2631
N11700 X-0.1037 Y0.2645
N11705 X-0.1021 Y0.2717
N11710 X-0.0998 Y0.2804
N11715 X-0.0966 Y0.289
N11720 X-0.0951 Y0.2929
N11725 X-0.0834 Y0.3149
N11730 X-0.0785 Y0.3235
N11735 X-0.0762 Y0.3272
N11740 G3 X-0.0999 Y0.3622 I-0.0206 J0.0116
N11745 G1 X-0.6176 Y0.2933
N11750 G3 X-0.6261 Y0.2493 I0.0031 J-0.0234
N11755 G1 X-0.6222 Y0.2473
N11760 X-0.6036 Y0.2372
N11765 X-0.5963 Y0.2323
N11770 X-0.5876 Y0.2262
N11775 X-0.5788 Y0.22
N11780 X-0.5704 Y0.2134
N11785 X-0.5516 Y0.1982
N11790 X-0.5501 Y0.1968
N11795 X-0.5489 Y0.1953
N11800 X-0.5445 Y0.1907
N11805 X-0.5366 Y0.1835
N11810 X-0.5269 Y0.176
N11815 X-0.5146 Y0.168
N11820 X-0.499 Y0.1596
N11825 X-0.479 Y0.1508
N11830 X-0.453 Y0.1417
N11835 X-0.4171 Y0.1324
N11840 X-0.3796 Y0.1258
N11845 X-0.3418 Y0.1213
N11850 X-0.3039 Y0.1182
N11855 X-0.2659 Y0.1162
N11860 X-0.2278 Y0.1157
N11865 X-0.2 Y0.1171
N11870 X-0.1927 Y0.1181
N11875 X-0.1821 Y0.1205
N11880 X-0.1723 Y0.125
N11885 X-0.1635 Y0.1313
N11890 X-0.1561 Y0.1392
N11895 X-0.1504 Y0.1485
N11900 X-0.1466 Y0.1586
N11905 X-0.1418 Y0.1768
N11910 X-0.1391 Y0.1855
N11915 G3 X-0.1607 Y0.2153 I-0.0228 J0.0063
N11920 G1 X-0.5292 Y0.2335
N11925 G3 X-0.5489 Y0.1953 I-0.0012 J-0.0236
N11930 G1 X-0.5332 Y0.1768
N11935 X-0.5272 Y0.1693
N11940 X-0.5185 Y0.1573
N11945 X-0.5099 Y0.1452
N11950 X-0.503 Y0.1337
N11955 X-0.4953 Y0.1222
N11960 X-0.4896 Y0.115
N11965 X-0.4821 Y0.107
N11970 X-0.4724 Y0.0982
N11975 X-0.4613 Y0.0896
N11980 X-0.4467 Y0.0801
N11985 X-0.4292 Y0.0706
N11990 X-0.4066 Y0.0605
N11995 X-0.378 Y0.0505
N12000 X-0.3425 Y0.0412
N12005 X-0.3051 Y0.0345
N12010 X-0.2724 Y0.0312
N12015 X-0.2483 Y0.0307
N12020 X-0.2282 Y0.0318
N12025 X-0.2114 Y0.0342
N12030 X-0.204 Y0.0358
N12035 X-0.1934 Y0.0394
N12040 X-0.1837 Y0.0449
N12045 X-0.1754 Y0.0524
N12050 X-0.1687 Y0.0613
N12055 X-0.164 Y0.0714
N12060 X-0.1614 Y0.0822
N12065 X-0.1602 Y0.0906
N12070 X-0.159 Y0.0992
N12075 X-0.1543 Y0.1251
N12080 X-0.1486 Y0.151
N12085 X-0.1466 Y0.1586
N12090 G3 X-0.1711 Y0.1874 I-0.023 J0.0053
N12095 G1 X-0.4837 Y0.1687
N12100 G3 X-0.503 Y0.1337 I0.0014 J-0.0236
N12105 G1 X-0.4978 Y0.1251
N12110 X-0.4954 Y0.1208
N12115 X-0.4926 Y0.1132
N12120 X-0.4875 Y0.0992
N12125 X-0.4844 Y0.0906
N12130 X-0.4789 Y0.0733
N12135 X-0.476 Y0.0653
N12140 X-0.4728 Y0.0584
N12145 X-0.4683 Y0.0505
N12150 X-0.4625 Y0.0418
N12155 X-0.4556 Y0.0332
N12160 X-0.4465 Y0.0234
N12165 X-0.4356 Y0.0135
N12170 X-0.4226 Y0.0035
N12175 X-0.4063 Y-0.0072
N12180 X-0.3879 Y-0.0172
N12185 X-0.3665 Y-0.0266
N12190 X-0.343 Y-0.0348
N12195 X-0.3186 Y-0.0412
N12200 X-0.2942 Y-0.0456
N12205 X-0.2724 Y-0.0476
N12210 X-0.2532 Y-0.0479
N12215 X-0.2362 Y-0.0468
N12220 X-0.2216 Y-0.0447
N12225 X-0.2072 Y-0.0414
N12230 X-0.1949 Y-0.0375
N12235 X-0.1943 Y-0.0372
N12240 X-0.1834 Y-0.0313
N12245 X-0.1742 Y-0.0232
N12250 X-0.167 Y-0.0132
N12255 X-0.1622 Y-0.0018
N12260 X-0.16 Y0.0103
N12265 X-0.1606 Y0.0226
N12270 X-0.1632 Y0.0388
N12275 X-0.1638 Y0.0474
N12280 G3 X-0.1843 Y0.0684 I-0.0235 J-0.0025
N12285 G1 X-0.4531 Y0.103
N12290 G3 X-0.4789 Y0.0733 I-0.003 J-0.0234
N12295 G1 X-0.4762 Y0.0647
N12300 X-0.4703 Y0.0388
N12305 X-0.4698 Y0.0302
N12310 X-0.4695 Y0.0216
N12315 X-0.4688 Y0.0135
N12320 X-0.4683 Y0.0075
N12325 X-0.4672 Y0.0016
N12330 X-0.4658 Y-0.0042
N12335 X-0.464 Y-0.01
N12340 X-0.4619 Y-0.0156
N12345 X-0.4594 Y-0.021
N12350 X-0.4567 Y-0.0264
N12355 X-0.4537 Y-0.0316
N12360 X-0.4505 Y-0.0367
N12365 X-0.4471 Y-0.0416
N12370 X-0.4435 Y-0.0464
N12375 X-0.4397 Y-0.051
N12380 X-0.4357 Y-0.0555
N12385 X-0.4316 Y-0.0599
N12390 X-0.4273 Y-0.0641
N12395 X-0.4229 Y-0.0682
N12400 X-0.4184 Y-0.0721
N12405 X-0.4137 Y-0.0759
N12410 X-0.409 Y-0.0795
N12415 X-0.4041 Y-0.0831
N12420 X-0.3991 Y-0.0864
N12425 X-0.3941 Y-0.0897
N12430 X-0.389 Y-0.0928
N12435 X-0.3838 Y-0.0958
N12440 X-0.3785 Y-0.0987
N12445 X-0.3731 Y-0.1014
N12450 X-0.3677 Y-0.104
N12455 X-0.3623 Y-0.1064
N12460 X-0.3567 Y-0.1088
N12465 X-0.3512 Y-0.111
N12470 X-0.3455 Y-0.1131
N12475 X-0.3399 Y-0.115
N12480 X-0.3341 Y-0.1168
N12485 X-0.3284 Y-0.1185
N12490 X-0.3226 Y-0.1201
N12495 X-0.3168 Y-0.1215
N12500 X-0.3109 Y-0.1228
N12505 X-0.305 Y-0.124
N12510 X-0.2991 Y-0.1251
N12515 X-0.2932 Y-0.126
N12520 X-0.2872 Y-0.1267
N12525 X-0.2813 Y-0.1274
N12530 X-0.2753 Y-0.1279
N12535 X-0.2693 Y-0.1282
N12540 X-0.2633 Y-0.1285
N12545 X-0.2573
N12550 X-0.2513
N12555 X-0.2453 Y-0.1282
N12560 X-0.2393 Y-0.1278
N12565 X-0.2334 Y-0.1272
N12570 X-0.2274 Y-0.1265
N12575 X-0.2215 Y-0.1256
N12580 X-0.2156 Y-0.1244
N12585 X-0.2097 Y-0.1231
N12590 X-0.2039 Y-0.1216
N12595 X-0.2005 Y-0.1206
N12600 X-0.1894 Y-0.1159
N12605 X-0.1796 Y-0.1087
N12610 X-0.1718 Y-0.0994
N12615 X-0.1664 Y-0.0886
N12620 X-0.1636 Y-0.0768
N12625 Y-0.0647
N12630 X-0.1637 Y-0.0561
N12635 X-0.1638 Y-0.0474
N12640 X-0.1632 Y-0.0388
N12645 X-0.1605 Y-0.0216
N12650 X-0.1584 Y-0.0129
N12655 X-0.1558 Y-0.0043
N12660 X-0.1556 Y-0.0025
N12665 X-0.1554 Y0.
N12670 X-0.1556 Y0.0025
N12675 X-0.1558 Y0.0043
N12680 X-0.1582 Y0.0129
N12685 X-0.1605 Y0.0216
N12690 X-0.1606 Y0.0226
N12695 G3 X-0.1835 Y0.0416 I-0.0232 J-0.0046
N12700 G1 X-0.4455 Y0.0452
N12705 G3 X-0.4695 Y0.0216 I-0.0003 J-0.0236
N12710 G1 X-0.4692 Y0.0129
N12715 Y-0.0129
N12720 X-0.4698 Y-0.0302
N12725 X-0.4703 Y-0.0388
N12730 X-0.4706 Y-0.0403
N12735 X-0.4717 Y-0.0462
N12740 Y-0.0523
N12745 X-0.4711 Y-0.0591
N12750 X-0.4696 Y-0.0684
N12755 Y-0.078
N12760 X-0.4714 Y-0.0873
N12765 X-0.478 Y-0.1051
N12770 X-0.501 Y-0.1354
N12775 X-0.5042 Y-0.1384
N12780 X-0.5072 Y-0.1417
N12785 X-0.5099 Y-0.1452
N12790 G3 X-0.5009 Y-0.1792 I0.0197 J-0.013
N12795 X-0.4681 Y-0.1666 I0.0107 J0.021
N12800 G1 X-0.4257 Y-0.0546
N12805 G3 X-0.4406 Y-0.0237 I-0.0221 J0.0084
N12810 X-0.4706 Y-0.0403 I-0.0072 J-0.0225
N12815 G1 X-0.4762 Y-0.0647
N12820 X-0.4789 Y-0.0733
N12825 X-0.4844 Y-0.0906
N12830 X-0.4875 Y-0.0992
N12835 X-0.4938 Y-0.1165
N12840 X-0.4954 Y-0.1208
N12845 X-0.4978 Y-0.1251
N12850 X-0.5099 Y-0.1452
N12855 X-0.5202 Y-0.1596
N12860 X-0.5272 Y-0.1693
N12865 X-0.5332 Y-0.1768
N12870 X-0.5501 Y-0.1968
N12875 X-0.5516 Y-0.1982
N12880 X-0.5704 Y-0.2134
N12885 X-0.579 Y-0.2201
N12890 X-0.591 Y-0.2286
N12895 X-0.5963 Y-0.2323
N12900 X-0.6036 Y-0.2372
N12905 X-0.6222 Y-0.2473
N12910 X-0.6309 Y-0.2517
N12915 X-0.6481 Y-0.2579
N12920 X-0.6568 Y-0.2609
N12925 X-0.6827 Y-0.2686
N12930 X-0.7086 Y-0.2735
N12935 X-0.7346 Y-0.275
N12940 X-0.7518 Y-0.2746
N12945 X-0.7605 Y-0.2744
N12950 X-0.7691 Y-0.2738
N12955 X-0.7864 Y-0.2723
N12960 X-0.7904 Y-0.2717
N12965 X-0.8123 Y-0.2667
N12970 X-0.821 Y-0.264
N12975 X-0.8383 Y-0.258
N12980 X-0.848 Y-0.2545
N12985 X-0.8555 Y-0.2516
N12990 X-0.8642 Y-0.2478
N12995 X-0.8685 Y-0.2458
N13000 X-0.8857 Y-0.2357
N13005 G3 X-0.9192 Y-0.2487 I-0.0112 J-0.0208
N13010 X-0.9012 Y-0.2798 I0.0223 J-0.0079
N13015 G1 X-0.0495 Y-0.4369
N13020 G3 X-0.0259 Y-0.4 I0.0043 J0.0232
N13025 G1 X-0.0448 Y-0.3752
N13030 X-0.0519 Y-0.3653
N13035 X-0.0625 Y-0.3494
N13040 X-0.0679 Y-0.3407
N13045 X-0.0785 Y-0.3235
N13050 X-0.0834 Y-0.3149
N13055 X-0.0951 Y-0.2929
N13060 X-0.0966 Y-0.289
N13065 X-0.0998 Y-0.2804
N13070 X-0.1021 Y-0.2717
N13075 X-0.1037 Y-0.2645
N13080 X-0.1039 Y-0.2631
N13085 X-0.1053 Y-0.2545
N13090 X-0.1062 Y-0.2458
N13095 X-0.1071 Y-0.2415
N13100 X-0.1079 Y-0.2394
N13105 X-0.109 Y-0.2372
N13110 X-0.1105 Y-0.2349
N13115 X-0.1156 Y-0.2286
N13120 X-0.1219 Y-0.22
N13125 X-0.1274 Y-0.2113
N13130 X-0.1296 Y-0.2074
N13135 X-0.1321 Y-0.2027
N13140 X-0.136 Y-0.1941
N13145 X-0.1383 Y-0.1879
N13150 X-0.1391 Y-0.1855
N13155 X-0.1418 Y-0.1768
N13160 X-0.1469 Y-0.1576
N13165 X-0.1486 Y-0.151
N13170 X-0.1543 Y-0.1251
N13175 X-0.159 Y-0.0992
N13180 X-0.1602 Y-0.0906
N13185 X-0.1626 Y-0.0733
N13190 X-0.1636 Y-0.0647
N13195 G3 X-0.1667 Y-0.056 I-0.0233 J-0.0036
N13200 G1 X-0.1687 Y-0.0529 Z-0.2497
N13205 X-0.1705 Y-0.0498 Z-0.2488
N13210 X-0.1723 Y-0.0469 Z-0.2474
N13215 X-0.1739 Y-0.0442 Z-0.2455
N13220 X-0.1754 Y-0.0418 Z-0.2431
N13225 X-0.1766 Y-0.0397 Z-0.2403
N13230 X-0.1776 Y-0.038 Z-0.2371
N13235 X-0.1784 Y-0.0368 Z-0.2337
N13240 X-0.1788 Y-0.0361 Z-0.2301
N13245 X-0.179 Y-0.0358 Z-0.2264
N13250 G0 Z0.2
N13255 X0.9069 Y0.5054
N13260 Z-0.2028
N13265 G1 Z-0.2264 F56.693
N13270 X0.9067 Y0.5052 Z-0.2301
N13275 X0.9061 Y0.5046 Z-0.2337
N13280 X0.9052 Y0.5035 Z-0.2371
N13285 X0.9039 Y0.5021 Z-0.2403
N13290 X0.9022 Y0.5003 Z-0.2431
N13295 X0.9003 Y0.4983 Z-0.2455
N13300 X0.8981 Y0.496 Z-0.2474
N13305 X0.8958 Y0.4935 Z-0.2488
N13310 X0.8933 Y0.4909 Z-0.2497
N13315 X0.8908 Y0.4882 Z-0.25
N13320 G3 X0.8901 Y0.4789 I0.0054 J-0.005
N13325 G1 X0.8988 Y0.4673
N13330 X0.903 Y0.4615
N13335 X0.9074 Y0.454
N13340 X0.9102 Y0.4486
N13345 X0.9116 Y0.4464
N13350 X0.9133 Y0.4442
N13355 X0.916 Y0.4416
N13360 X0.9247 Y0.4365
N13365 X0.9399 Y0.427
N13370 X0.942 Y0.4255
N13375 X0.9506 Y0.4184
N13380 X0.9592 Y0.4096
N13385 X0.9674 Y0.4011
N13390 X0.9765 Y0.3893
N13395 X0.9872 Y0.3752
N13400 X1.0025 Y0.3531
N13405 X1.0049 Y0.3494
N13410 X1.0111 Y0.3395
N13415 X1.0209 Y0.3235
N13420 X1.026 Y0.3149
N13425 X1.0284 Y0.3108
N13430 X1.031 Y0.3062
N13435 X1.037 Y0.2939
N13440 X1.039 Y0.289
N13445 X1.0422 Y0.2804
N13450 X1.0445 Y0.2717
N13455 X1.0457 Y0.2668
N13460 X1.0463 Y0.2631
N13465 X1.0477 Y0.2545
N13470 X1.0485 Y0.2458
N13475 X1.0495 Y0.2415
N13480 X1.0504 Y0.2394
N13485 X1.0514 Y0.2372
N13490 X1.0527 Y0.2352
N13495 X1.0543 Y0.2331
N13500 X1.0581 Y0.2286
N13505 X1.0629 Y0.2217
N13510 X1.0716 Y0.2079
N13515 X1.0745 Y0.2027
N13520 X1.0784 Y0.1941
N13525 X1.0802 Y0.1892
N13530 X1.0815 Y0.1855
N13535 X1.0842 Y0.1768
N13540 X1.0889 Y0.1593
N13545 X1.091 Y0.151
N13550 X1.0967 Y0.1251
N13555 X1.1014 Y0.0992
N13560 X1.1026 Y0.0906
N13565 X1.105 Y0.0733
N13570 X1.1059 Y0.0647
N13575 X1.1062 Y0.0608
N13580 X1.1065 Y0.0561
N13585 X1.1063 Y0.0474
N13590 X1.1062 Y0.0431
N13595 X1.1057 Y0.0388
N13600 X1.1046 Y0.0302
N13605 X1.103 Y0.0216
N13610 X1.0982 Y0.0043
N13615 X1.0979 Y0.0022
N13620 X1.0978 Y0.
N13625 X1.0979 Y-0.0022
N13630 X1.0982 Y-0.0043
N13635 X1.1008 Y-0.0129
N13640 X1.103 Y-0.0216
N13645 X1.1046 Y-0.0302
N13650 X1.1057 Y-0.0388
N13655 X1.1062 Y-0.0431
N13660 X1.1063 Y-0.0474
N13665 X1.1065 Y-0.0561
N13670 X1.1062 Y-0.0608
N13675 X1.1059 Y-0.0647
N13680 X1.105 Y-0.0733
N13685 X1.1026 Y-0.0906
N13690 X1.1014 Y-0.0992
N13695 X1.0967 Y-0.1251
N13700 X1.091 Y-0.151
N13705 X1.0888 Y-0.1596
N13710 X1.0842 Y-0.1768
N13715 X1.0815 Y-0.1855
N13720 X1.0802 Y-0.1892
N13725 X1.0784 Y-0.1941
N13730 X1.0745 Y-0.2027
N13735 X1.0716 Y-0.2079
N13740 X1.0629 Y-0.2217
N13745 X1.0581 Y-0.2286
N13750 X1.0543 Y-0.2331
N13755 X1.0527 Y-0.2352
N13760 X1.0514 Y-0.2372
N13765 X1.0504 Y-0.2394
N13770 X1.0495 Y-0.2415
N13775 X1.0485 Y-0.2458
N13780 X1.0477 Y-0.2545
N13785 X1.0463 Y-0.2631
N13790 X1.0457 Y-0.2668
N13795 X1.0445 Y-0.2717
N13800 X1.0422 Y-0.2804
N13805 X1.039 Y-0.289
N13810 X1.037 Y-0.2939
N13815 X1.031 Y-0.3062
N13820 X1.0284 Y-0.3108
N13825 X1.026 Y-0.3149
N13830 X1.0197 Y-0.3253
N13835 X1.0103 Y-0.3407
N13840 X1.0049 Y-0.3494
N13845 X1.0025 Y-0.3531
N13850 X0.9879 Y-0.3743
N13855 X0.9871 Y-0.3763 Z-0.2497
N13860 X0.9863 Y-0.3782 Z-0.249
N13865 X0.9856 Y-0.3798 Z-0.2477
N13870 X0.9851 Y-0.3812 Z-0.2461
N13875 X0.9847 Y-0.3822 Z-0.2442
N13880 X0.9846 Y-0.3827 Z-0.2425
N13885 X0.9845 Y-0.3828 Z-0.2407
N13890 G0 Z0.2
N13895 X1.1199 Y0.4561
N13900 Z-0.1653
N13905 G1 Z-0.1889 F56.693
N13910 X1.1196 Y0.456 Z-0.1926
N13915 X1.1188 Y0.4556 Z-0.1962
N13920 X1.1175 Y0.4551 Z-0.1996
N13925 X1.1157 Y0.4543 Z-0.2028
N13930 X1.1135 Y0.4534 Z-0.2056
N13935 X1.1109 Y0.4523 Z-0.208
N13940 X1.1079 Y0.4511 Z-0.2099
N13945 X1.1048 Y0.4498 Z-0.2113
N13950 X1.1014 Y0.4484 Z-0.2122
N13955 X1.098 Y0.447 Z-0.2125
N13960 G3 X0.984 Y0.3847 I0.2307 J-0.5572
N13965 G1 X0.9792 Y0.3811
N13970 X0.9762 Y0.3759
N13975 X0.9739 Y0.3704
N13980 X0.9719 Y0.3639
N13985 X0.9696 Y0.3536
N13990 X0.9657 Y0.3261
N13995 X0.9645 Y0.3058
N14000 X0.9648 Y0.2894
N14005 X0.9663 Y0.2752
N14010 X0.9731 Y0.2378
N14015 X0.9819 Y0.2008
N14020 X0.9903 Y0.1637
N14025 X0.9969 Y0.1262
N14030 X0.9991 Y0.0882
N14035 X1.0014 Y0.0503
N14040 X1.0043 Y0.0123
N14045 Y-0.0257
N14050 X1.0014 Y-0.0637
N14055 X0.9931 Y-0.1008
N14060 X0.9822 Y-0.1372
N14065 X0.9725 Y-0.174
N14070 X0.9599 Y-0.2099
N14075 X0.9445 Y-0.2447
N14080 X0.9256 Y-0.2777
N14085 X0.9023 Y-0.3078
N14090 X0.8786 Y-0.3375
N14095 X0.8546 Y-0.3671
N14100 X0.8282 Y-0.3945
N14105 X0.7996 Y-0.4196
N14110 X0.7676 Y-0.4402
N14115 X0.7342 Y-0.4585
N14120 X0.7014 Y-0.4777
N14125 X0.6672 Y-0.4943
N14130 X0.6317 Y-0.5079
N14135 X0.5949 Y-0.5178
N14140 X0.5572 Y-0.5225
N14145 X0.5194 Y-0.5268
N14150 X0.4815 Y-0.5307
N14155 X0.4435 Y-0.5313
N14160 X0.4055 Y-0.5287
N14165 X0.3684 Y-0.5205
N14170 X0.3319 Y-0.5098
N14175 X0.295 Y-0.5003
N14180 X0.2591 Y-0.4877
N14185 X0.2244 Y-0.4721
N14190 X0.1916 Y-0.4528
N14195 X0.1616 Y-0.4294
N14200 X0.1318 Y-0.4058
N14205 X0.1023 Y-0.3817
N14210 X0.0751 Y-0.3552
N14215 X0.0501 Y-0.3264
N14220 X0.0298 Y-0.2943
N14225 X0.0116 Y-0.2609
N14230 X-0.0077 Y-0.2281
N14235 X-0.024 Y-0.1937
N14240 X-0.0375 Y-0.1581
N14245 X-0.0469 Y-0.1212
N14250 X-0.0515 Y-0.0835
N14255 X-0.0559 Y-0.0457
N14260 X-0.0596 Y-0.0078
N14265 X-0.06 Y0.0302
N14270 X-0.0573 Y0.0682
N14275 X-0.0487 Y0.1053
N14280 X-0.038 Y0.1418
N14285 X-0.0282 Y0.1785
N14290 X-0.0154 Y0.2143
N14295 X0.0003 Y0.249
N14300 X0.02 Y0.2816
N14305 X0.0434 Y0.3115
N14310 X0.0669 Y0.3414
N14315 X0.0912 Y0.3707
N14320 X0.1179 Y0.3979
N14325 X0.1467 Y0.4227
N14330 X0.1791 Y0.4427
N14335 X0.2125 Y0.4609
N14340 X0.2454 Y0.48
N14345 X0.2798 Y0.4961
N14350 X0.3155 Y0.5094
N14355 X0.3525 Y0.5184
N14360 X0.3903 Y0.5228
N14365 X0.428 Y0.5275
N14370 X0.4659 Y0.5309
N14375 X0.504 Y0.5311
N14380 X0.5419 Y0.5281
N14385 X0.5789 Y0.5192
N14390 X0.6154 Y0.5085
N14395 X0.6521 Y0.4986
N14400 X0.6879 Y0.4856
N14405 X0.7224 Y0.4697
N14410 X0.7548 Y0.4497
N14415 X0.7847 Y0.4261
N14420 X0.8109 Y0.3986
N14425 X0.8295 Y0.3654
N14430 X0.8437 Y0.3301
N14435 X0.8557 Y0.294
N14440 X0.8666 Y0.2575
N14445 X0.8767 Y0.2208
N14450 X0.8853 Y0.1838
N14455 X0.8919 Y0.1463
N14460 X0.8972 Y0.1086
N14465 X0.9013 Y0.0708
N14470 X0.9035 Y0.0328
N14475 X0.902 Y-0.0052
N14480 X0.8977 Y-0.043
N14485 X0.8912 Y-0.0805
N14490 X0.8822 Y-0.1174
N14495 X0.8696 Y-0.1534
N14500 X0.8534 Y-0.1878
N14505 X0.8346 Y-0.2209
N14510 X0.8136 Y-0.2526
N14515 X0.7899 Y-0.2824
N14520 X0.763 Y-0.3092
N14525 X0.7339 Y-0.3337
N14530 X0.7031 Y-0.3561
N14535 X0.6706 Y-0.3759
N14540 X0.6362 Y-0.3921
N14545 X0.6003 Y-0.4046
N14550 X0.5635 Y-0.4145
N14555 X0.5262 Y-0.4216
N14560 X0.4883 Y-0.4251
N14565 X0.4502 Y-0.4242
N14570 X0.4124 Y-0.4204
N14575 X0.3749 Y-0.414
N14580 X0.3381 Y-0.4042
N14585 X0.3027 Y-0.3903
N14590 X0.2687 Y-0.3732
N14595 X0.236 Y-0.3537
N14600 X0.205 Y-0.3317
N14605 X0.1764 Y-0.3066
N14610 X0.1507 Y-0.2785
N14615 X0.127 Y-0.2488
N14620 X0.1057 Y-0.2172
N14625 X0.0874 Y-0.1839
N14630 X0.0731 Y-0.1486
N14635 X0.0618 Y-0.1123
N14640 X0.0531 Y-0.0753
N14645 X0.0475 Y-0.0376
N14650 X0.046 Y0.0004
N14655 X0.0484 Y0.0383
N14660 X0.0534 Y0.0761
N14665 X0.0614 Y0.1133
N14670 X0.0729 Y0.1495
N14675 X0.0884 Y0.1843
N14680 X0.1067 Y0.2176
N14685 X0.1274 Y0.2496
N14690 X0.1505 Y0.2798
N14695 X0.1771 Y0.307
N14700 X0.2061 Y0.3316
N14705 X0.2367 Y0.3542
N14710 X0.269 Y0.3743
N14715 X0.3033 Y0.3908
N14720 X0.3391 Y0.4036
N14725 X0.3758 Y0.4137
N14730 X0.4132 Y0.4211
N14735 X0.451 Y0.4249
N14740 X0.489 Y0.4244
N14745 X0.5269 Y0.4208
N14750 X0.5644 Y0.4145
N14755 X0.6013 Y0.405
N14760 X0.6368 Y0.3915
N14765 X0.6694 Y0.3719
N14770 X0.6971 Y0.3458
N14775 X0.7203 Y0.3156
N14780 X0.7396 Y0.2828
N14785 X0.7559 Y0.2484
N14790 X0.7693 Y0.2128
N14795 X0.7802 Y0.1764
N14800 X0.7889 Y0.1393
N14805 X0.7952 Y0.1018
N14810 X0.7964 Y0.0893
N14815 X0.7968 Y0.0859
N14820 X0.7974 Y0.0826
N14825 X0.7982 Y0.0793
N14830 X0.7999 Y0.0733
N14835 X0.8021 Y0.0647
N14840 X0.8054 Y0.0474
N14845 X0.8068 Y0.0388
N14850 X0.8072 Y0.0216
N14855 X0.8074 Y0.0129
N14860 Y-0.0129
N14865 X0.807 Y-0.0302
N14870 X0.8068 Y-0.0388
N14875 X0.8054 Y-0.0474
N14880 X0.8021 Y-0.0647
N14885 X0.7999 Y-0.0733
N14890 X0.7926 Y-0.0992
N14895 X0.7864 Y-0.1209
N14900 X0.7849 Y-0.1251
N14905 X0.7817 Y-0.1337
N14910 X0.7775 Y-0.1423
N14915 X0.7729 Y-0.151
N14920 X0.7677 Y-0.1596
N14925 X0.7432 Y-0.1998
N14930 X0.7413 Y-0.2027
N14935 X0.7346 Y-0.2117
N14940 X0.7274 Y-0.22
N14945 X0.7191 Y-0.2286
N14950 X0.6913 Y-0.2545
N14955 X0.6812 Y-0.2631
N14960 X0.6654 Y-0.2763
N14965 X0.6599 Y-0.2804
N14970 X0.6568 Y-0.2822
N14975 X0.6395 Y-0.2915
N14980 X0.6222 Y-0.3005
N14985 X0.6049 Y-0.3094
N14990 X0.5876 Y-0.317
N14995 X0.579 Y-0.32
N15000 X0.5617 Y-0.3244
N15005 X0.5531 Y-0.3264
N15010 X0.5272 Y-0.3318
N15015 X0.5099 Y-0.3351
N15020 X0.5012 Y-0.3366
N15025 X0.4926 Y-0.3373
N15030 X0.4839 Y-0.3375
N15035 X0.4753 Y-0.3373
N15040 X0.4235 Y-0.3338
N15045 X0.4148 Y-0.3329
N15050 X0.4087 Y-0.3321
N15055 X0.4062 Y-0.3317
N15060 X0.3975 Y-0.3298
N15065 X0.3889 Y-0.3272
N15070 X0.3716 Y-0.3214
N15075 X0.363 Y-0.3184
N15080 X0.337 Y-0.3092
N15085 X0.3197 Y-0.3017
N15090 X0.3114 Y-0.2976
N15095 X0.2938 Y-0.2861
N15100 X0.2852 Y-0.2803
N15105 X0.2593 Y-0.262
N15110 X0.2506 Y-0.2557
N15115 X0.2492 Y-0.2545
N15120 X0.2333 Y-0.2399
N15125 X0.231 Y-0.2372
N15130 X0.2247 Y-0.2298
N15135 X0.2027 Y-0.2027
N15140 X0.1988 Y-0.1976
N15145 X0.1815 Y-0.1742
N15150 X0.1797 Y-0.1712
N15155 X0.1783 Y-0.1682
N15160 X0.1702 Y-0.151
N15165 X0.1664 Y-0.1423
N15170 X0.1552 Y-0.1165
N15175 X0.1515 Y-0.1078
N15180 X0.1469 Y-0.0952
N15185 X0.1458 Y-0.0906
N15190 X0.1422 Y-0.0733
N15195 X0.1407 Y-0.0647
N15200 X0.1371 Y-0.0388
N15205 X0.1337 Y-0.0129
N15210 X0.1333 Y-0.0043
N15215 Y0.0043
N15220 X0.1337 Y0.0129
N15225 X0.1371 Y0.0388
N15230 X0.1407 Y0.0647
N15235 X0.1422 Y0.0733
N15240 X0.1458 Y0.0906
N15245 X0.1469 Y0.0952
N15250 X0.1515 Y0.1078
N15255 X0.1642 Y0.1372
N15260 X0.1664 Y0.1423
N15265 X0.1702 Y0.151
N15270 X0.1783 Y0.1682
N15275 X0.1797 Y0.1712
N15280 X0.1815 Y0.1742
N15285 X0.1988 Y0.1976
N15290 X0.2027 Y0.2027
N15295 X0.2247 Y0.2298
N15300 X0.231 Y0.2372
N15305 X0.2333 Y0.2399
N15310 X0.2492 Y0.2545
N15315 X0.2506 Y0.2557
N15320 X0.2593 Y0.262
N15325 X0.2853 Y0.2804
N15330 X0.2938 Y0.2861
N15335 X0.3114 Y0.2976
N15340 X0.3197 Y0.3017
N15345 X0.337 Y0.3092
N15350 X0.363 Y0.3184
N15355 X0.3716 Y0.3214
N15360 X0.3889 Y0.3272
N15365 X0.3975 Y0.3298
N15370 X0.4062 Y0.3317
N15375 X0.4087 Y0.3321
N15380 X0.4148 Y0.3329
N15385 X0.4235 Y0.3338
N15390 X0.4753 Y0.3373
N15395 X0.4839 Y0.3375
N15400 X0.4926 Y0.3373
N15405 X0.5012 Y0.3366
N15410 X0.5099 Y0.3351
N15415 X0.5272 Y0.3318
N15420 X0.5531 Y0.3264
N15425 X0.5617 Y0.3244
N15430 X0.579 Y0.32
N15435 X0.5876 Y0.317
N15440 X0.6049 Y0.3094
N15445 X0.6309 Y0.296
N15450 X0.6395 Y0.2915
N15455 X0.6568 Y0.2822
N15460 X0.6599 Y0.2804
N15465 X0.6654 Y0.2763
N15470 X0.6827 Y0.2619
N15475 X0.6914 Y0.2545
N15480 X0.7191 Y0.2286
N15485 X0.7274 Y0.22
N15490 X0.7346 Y0.2117
N15495 X0.7413 Y0.2027
N15500 X0.7432 Y0.1998
N15505 X0.7691 Y0.1572
N15510 X0.7729 Y0.151
N15515 X0.7778 Y0.1418
N15520 X0.7817 Y0.1337
N15525 X0.7849 Y0.1251
N15530 X0.7864 Y0.1209
N15535 X0.795 Y0.0905
N15540 X0.7982 Y0.0793
N15545 X0.7992 Y0.0774 Z-0.2122
N15550 X0.8002 Y0.0756 Z-0.2115
N15555 X0.801 Y0.074 Z-0.2102
N15560 X0.8017 Y0.0727 Z-0.2086
N15565 X0.8022 Y0.0717 Z-0.2067
N15570 X0.8025 Y0.0713 Z-0.205
N15575 X0.8026 Y0.0712 Z-0.2032
N15580 G0 Z0.2
N15585 X-0.8751 Y-0.3208
N15590 Z-0.1528
N15595 G1 Z-0.1764 F56.693
N15600 X-0.8752 Y-0.3205 Z-0.1801
N15605 X-0.8755 Y-0.3197 Z-0.1837
N15610 X-0.8761 Y-0.3184 Z-0.1871
N15615 X-0.8768 Y-0.3166 Z-0.1903
N15620 X-0.8777 Y-0.3144 Z-0.1931
N15625 X-0.8788 Y-0.3118 Z-0.1955
N15630 X-0.8801 Y-0.3089 Z-0.1974
N15635 X-0.8814 Y-0.3057 Z-0.1988
N15640 X-0.8828 Y-0.3024 Z-0.1997
N15645 X-0.8842 Y-0.299 Z-0.2
N15650 G3 X-0.9474 Y-0.1855 I-0.5556 J-0.2345
N15655 G1 X-0.9539 Y-0.1768
N15660 X-0.9592 Y-0.1688
N15665 X-0.9646 Y-0.1596
N15670 X-0.9686 Y-0.151
N15675 X-0.972 Y-0.1423
N15680 X-0.9769 Y-0.1251
N15685 X-0.9784 Y-0.1165
N15690 X-0.9794 Y-0.1078
N15695 X-0.9799 Y-0.0992
N15700 X-0.98 Y-0.0561
N15705 Y0.0819
N15710 X-0.9799 Y0.0992
N15715 X-0.9794 Y0.1078
N15720 X-0.9784 Y0.1165
N15725 X-0.9769 Y0.1251
N15730 X-0.9731 Y0.1385
N15735 G3 X-0.9726 Y0.1477 I-0.0229 J0.0057
N15740 G1 X-0.9732 Y0.1513 Z-0.1997
N15745 X-0.9737 Y0.1549 Z-0.1988
N15750 X-0.9742 Y0.1583 Z-0.1974
N15755 X-0.9747 Y0.1614 Z-0.1955
N15760 X-0.9751 Y0.1642 Z-0.1931
N15765 X-0.9755 Y0.1666 Z-0.1903
N15770 X-0.9758 Y0.1685 Z-0.1871
N15775 X-0.976 Y0.1699 Z-0.1837
N15780 X-0.9761 Y0.1707 Z-0.1801
N15785 X-0.9762 Y0.171 Z-0.1764
N15790 G0 Z0.2
N15795 X-0.5957 Y0.315
N15800 Z-0.1528
N15805 G1 Z-0.1764 F56.693
N15810 X-0.5956 Y0.3147 Z-0.1801
N15815 X-0.5953 Y0.3139 Z-0.1837
N15820 X-0.5949 Y0.3125 Z-0.1871
N15825 X-0.5942 Y0.3107 Z-0.1903
N15830 X-0.5934 Y0.3084 Z-0.1931
N15835 X-0.5925 Y0.3058 Z-0.1955
N15840 X-0.5915 Y0.3028 Z-0.1974
N15845 X-0.5903 Y0.2996 Z-0.1988
N15850 X-0.5891 Y0.2961 Z-0.1997
N15855 X-0.5879 Y0.2927 Z-0.2
N15860 G3 X-0.532 Y0.1754 I0.5691 J0.1995
N15865 G1 X-0.5272 Y0.1682
N15870 X-0.5225 Y0.1596
N15875 X-0.5183 Y0.151
N15880 X-0.5149 Y0.1423
N15885 X-0.5122 Y0.1337
N15890 X-0.5099 Y0.1247
N15895 X-0.5085 Y0.1165
N15900 X-0.5075 Y0.1078
N15905 X-0.507 Y0.0992
N15910 X-0.5069 Y0.0561
N15915 Y-0.0819
N15920 X-0.507 Y-0.0992
N15925 X-0.5075 Y-0.1078
N15930 X-0.5085 Y-0.1165
N15935 X-0.5086 Y-0.1183 Z-0.1998
N15940 X-0.5083 Y-0.1203 Z-0.1991
N15945 X-0.508 Y-0.1221 Z-0.1981
N15950 X-0.5078 Y-0.1236 Z-0.1966
N15955 X-0.5076 Y-0.1247 Z-0.1948
N15960 X-0.5075 Y-0.1254 Z-0.1928
N15965 X-0.5074 Y-0.1256 Z-0.1907
N15970 G0 Z0.2
N15975 X-1.5236 Y-1.0188
N15980 Z-0.2978
N15985 G1 Z-0.3214 F56.693
N15990 X-1.5235 Y-1.0186 Z-0.3251
N15995 X-1.5233 Y-1.0177 Z-0.3287
N16000 X-1.5229 Y-1.0163 Z-0.3321
N16005 X-1.5224 Y-1.0145 Z-0.3353
N16010 X-1.5218 Y-1.0121 Z-0.3381
N16015 X-1.5211 Y-1.0094 Z-0.3405
N16020 X-1.5204 Y-1.0063 Z-0.3424
N16025 X-1.5195 Y-1.003 Z-0.3438
N16030 X-1.5186 Y-0.9995 Z-0.3447
N16035 X-1.5177 Y-0.996 Z-0.345
N16040 G3 X-1.4992 Y-0.8674 I-0.5842 J0.1496
N16045 G1 Y-0.8614
N16050 X-1.5068 Y-0.8241
N16055 X-1.512 Y-0.7864
N16060 X-1.5155 Y-0.7485
N16065 X-1.5179 Y-0.7105
N16070 X-1.5195 Y-0.6725
N16075 X-1.5206 Y-0.6345
N16080 X-1.5213 Y-0.5965
N16085 X-1.5218 Y-0.5584
N16090 X-1.5222 Y-0.5204
N16095 X-1.5224 Y-0.4823
N16100 X-1.5225 Y-0.4443
N16105 X-1.5227 Y-0.3682
N16110 X-1.5228 Y-0.254
N16115 Y0.2025
N16120 Y0.6401
N16125 X-1.5192 Y0.6587
N16130 X-1.5102 Y0.6755
N16135 X-1.4858 Y0.7047
N16140 X-1.4542 Y0.7258
N16145 X-1.4191 Y0.7407
N16150 X-1.3825 Y0.751
N16155 X-1.3451 Y0.758
N16160 X-1.3074 Y0.7628
N16165 X-1.2695 Y0.7661
N16170 X-1.2315 Y0.7683
N16175 X-1.1935 Y0.7698
N16180 X-1.1555 Y0.7708
N16185 X-1.1174 Y0.7715
N16190 X-1.0794 Y0.7719
N16195 X-1.0413 Y0.7722
N16200 X-1.0033 Y0.7724
N16205 X-0.9652 Y0.7726
N16210 X-0.8891 Y0.7727
N16215 X-0.7369 Y0.7728
N16220 X0.8991 Y0.7729
N16225 X1.3937
N16230 X1.412 Y0.7679
N16235 X1.4283 Y0.7581
N16240 X1.4568 Y0.7329
N16245 X1.4773 Y0.7008
N16250 X1.4917 Y0.6656
N16255 X1.5017 Y0.6289
N16260 X1.5085 Y0.5914
N16265 X1.5131 Y0.5537
N16270 X1.5163 Y0.5158
N16275 X1.5184 Y0.4778
N16280 X1.5199 Y0.4398
N16285 X1.5208 Y0.4017
N16290 X1.5215 Y0.3637
N16295 X1.5219 Y0.3256
N16300 X1.5222 Y0.2876
N16305 X1.5224 Y0.2496
N16310 X1.5226 Y0.2115
N16315 X1.5227 Y0.1354
N16320 X1.5228 Y-0.0168
N16325 Y-0.6445
N16330 X1.5176 Y-0.6628
N16335 X1.4977 Y-0.6953
N16340 X1.468 Y-0.7191
N16345 X1.4339 Y-0.736
N16350 X1.3978 Y-0.7477
N16355 X1.3606 Y-0.7558
N16360 X1.3229 Y-0.7613
N16365 X1.2851 Y-0.7651
N16370 X1.2471 Y-0.7676
N16375 X1.2091 Y-0.7693
N16380 X1.1711 Y-0.7705
N16385 X1.133 Y-0.7713
N16390 X1.095 Y-0.7718
N16395 X1.057 Y-0.7721
N16400 X1.0189 Y-0.7724
N16405 X0.9809 Y-0.7725
N16410 X0.9048 Y-0.7727
N16415 X0.7906 Y-0.7728
N16420 X0.3721 Y-0.7729
N16425 X-0.4269
N16430 X-1.2829
N16435 X-1.3019 Y-0.7719
N16440 X-1.3195 Y-0.7647
N16445 X-1.3507 Y-0.743
N16450 X-1.3739 Y-0.7128
N16455 X-1.3905 Y-0.6785
N16460 X-1.4022 Y-0.6424
N16465 X-1.4104 Y-0.6052
N16470 X-1.416 Y-0.5676
N16475 X-1.4199 Y-0.5297
N16480 X-1.4226 Y-0.4918
N16485 X-1.4244 Y-0.4538
N16490 X-1.4257 Y-0.4157
N16495 X-1.4265 Y-0.3777
N16500 X-1.4271 Y-0.3397
N16505 X-1.4275 Y-0.3016
N16510 X-1.4278 Y-0.2636
N16515 X-1.428 Y-0.2255
N16520 X-1.4282 Y-0.1494
N16525 X-1.4283 Y-0.0353
N16530 Y0.2691
N16535 Y0.3071
N16540 Y0.5164
N16545 X-1.4252 Y0.5351
N16550 X-1.4113 Y0.5706
N16555 X-1.3864 Y0.5993
N16560 X-1.3553 Y0.6213
N16565 X-1.3209 Y0.6376
N16570 X-1.2848 Y0.6494
N16575 X-1.2477 Y0.658
N16580 X-1.2101 Y0.664
N16585 X-1.1723 Y0.6683
N16590 X-1.1344 Y0.6714
N16595 X-1.0964 Y0.6735
N16600 X-1.0584 Y0.675
N16605 X-1.0204 Y0.676
N16610 X-0.9823 Y0.6767
N16615 X-0.9443 Y0.6772
N16620 X-0.9062 Y0.6776
N16625 X-0.8682 Y0.6778
N16630 X-0.8301 Y0.678
N16635 X-0.7541 Y0.6782
N16640 X-0.6399 Y0.6783
N16645 X-0.3355 Y0.6784
N16650 X0.2732
N16655 X1.2624
N16660 X1.2813 Y0.676
N16665 X1.2993 Y0.6698
N16670 X1.3324 Y0.651
N16675 X1.3585 Y0.6233
N16680 X1.3781 Y0.5908
N16685 X1.3926 Y0.5556
N16690 X1.4031 Y0.519
N16695 X1.4106 Y0.4817
N16700 X1.4159 Y0.444
N16705 X1.4196 Y0.4062
N16710 X1.4223 Y0.3682
N16715 X1.4241 Y0.3302
N16720 X1.4254 Y0.2922
N16725 X1.4263 Y0.2541
N16730 X1.4269 Y0.2161
N16735 X1.4274 Y0.1781
N16740 X1.4277 Y0.14
N16745 X1.4279 Y0.102
N16750 X1.428 Y0.0639
N16755 X1.4282 Y-0.0122
N16760 X1.4283 Y-0.1263
N16765 Y-0.2405
N16770 Y-0.5068
N16775 X1.4275 Y-0.5258
N16780 X1.4224 Y-0.5441
N16785 X1.4055 Y-0.5782
N16790 X1.3788 Y-0.6053
N16795 X1.3468 Y-0.6258
N16800 X1.3119 Y-0.641
N16805 X1.2754 Y-0.6519
N16810 X1.2382 Y-0.6597
N16815 X1.2006 Y-0.6653
N16820 X1.1627 Y-0.6692
N16825 X1.1248 Y-0.672
N16830 X1.0868 Y-0.674
N16835 X1.0488 Y-0.6753
N16840 X1.0107 Y-0.6762
N16845 X0.9727 Y-0.6769
N16850 X0.9346 Y-0.6774
N16855 X0.8966 Y-0.6777
N16860 X0.8585 Y-0.6779
N16865 X0.8205 Y-0.678
N16870 X0.7444 Y-0.6782
N16875 X0.6303 Y-0.6783
N16880 X0.2879 Y-0.6784
N16885 X-0.2068
N16890 X-1.1579
N16895 X-1.1769 Y-0.6777
N16900 X-1.1954 Y-0.673
N16905 X-1.2298 Y-0.6568
N16910 X-1.2575 Y-0.6307
N16915 X-1.2786 Y-0.5991
N16920 X-1.2943 Y-0.5644
N16925 X-1.3057 Y-0.5281
N16930 X-1.3139 Y-0.491
N16935 X-1.3198 Y-0.4534
N16940 X-1.324 Y-0.4156
N16945 X-1.3269 Y-0.3776
N16950 X-1.329 Y-0.3396
N16955 X-1.3305 Y-0.3016
N16960 X-1.3315 Y-0.2636
N16965 X-1.3322 Y-0.2255
N16970 X-1.3327 Y-0.1875
N16975 X-1.3331 Y-0.1494
N16980 X-1.3333 Y-0.1114
N16985 X-1.3335 Y-0.0734
N16990 X-1.3337 Y0.0027
N16995 X-1.3338 Y0.1169
N17000 Y0.2691
N17005 Y0.4212
N17010 X-1.3236 Y0.4579
N17015 X-1.3017 Y0.489
N17020 X-1.2728 Y0.5138
N17025 X-1.2398 Y0.5327
N17030 X-1.2045 Y0.5468
N17035 X-1.1679 Y0.5572
N17040 X-1.1306 Y0.5648
N17045 X-1.0929 Y0.5702
N17050 X-1.0551 Y0.5742
N17055 X-1.0171 Y0.577
N17060 X-0.9792 Y0.579
N17065 X-0.9411 Y0.5804
N17070 X-0.9031 Y0.5814
N17075 X-0.8651 Y0.5822
N17080 X-0.827 Y0.5827
N17085 X-0.789 Y0.583
N17090 X-0.7509 Y0.5833
N17095 X-0.7129 Y0.5835
N17100 X-0.6368 Y0.5837
N17105 X-0.5227 Y0.5838
N17110 X-0.2563 Y0.5839
N17115 X0.2208
N17120 X0.2316 Y0.585
N17125 X0.242 Y0.5881
N17130 X0.2515 Y0.5932
N17135 X0.2593 Y0.5984
N17140 X0.2679 Y0.603
N17145 X0.2765 Y0.6069
N17150 X0.2795 Y0.6081
N17155 X0.2852 Y0.61
N17160 X0.3085 Y0.6168
N17165 X0.3284 Y0.6216
N17170 X0.337 Y0.6237
N17175 X0.363 Y0.6288
N17180 X0.3716 Y0.6301
N17185 X0.3889 Y0.6325
N17190 X0.3975 Y0.6335
N17195 X0.4148 Y0.635
N17200 X0.4235 Y0.6351
N17205 X0.4321 Y0.6346
N17210 X0.4407 Y0.6335
N17215 X0.4494 Y0.6317
N17220 X0.458 Y0.6296
N17225 X0.4667 Y0.6271
N17230 X0.4688 Y0.6268
N17235 X0.471 Y0.6266
N17240 X0.4731 Y0.6267
N17245 X0.4753 Y0.627
N17250 X0.4839 Y0.6294
N17255 X0.4926 Y0.6317
N17260 X0.5012 Y0.6334
N17265 X0.5052 Y0.634
N17270 X0.5099 Y0.6345
N17275 X0.5185 Y0.6352
N17280 X0.5272
N17285 X0.5358 Y0.6346
N17290 X0.5531 Y0.6325
N17295 X0.5617 Y0.6314
N17300 X0.579 Y0.6286
N17305 X0.5876 Y0.6272
N17310 X0.6136 Y0.622
N17315 X0.6395 Y0.6153
N17320 X0.6481 Y0.6126
N17325 X0.6765 Y0.6049
N17330 X0.7139 Y0.5978
N17335 X0.7516 Y0.5932
N17340 X0.7895 Y0.5901
N17345 X0.8275 Y0.5881
N17350 X0.8656 Y0.5867
N17355 X0.9036 Y0.5858
N17360 X0.9416 Y0.5851
N17365 X0.9797 Y0.5847
N17370 X1.0177 Y0.5844
N17375 X1.0558 Y0.5843
N17380 X1.0938 Y0.5841
N17385 X1.1699 Y0.584
N17390 X1.2066 Y0.5739
N17395 X1.238 Y0.5524
N17400 X1.2629 Y0.5236
N17405 X1.2819 Y0.4907
N17410 X1.2962 Y0.4554
N17415 X1.3067 Y0.4189
N17420 X1.3144 Y0.3816
N17425 X1.32 Y0.344
N17430 X1.324 Y0.3061
N17435 X1.3268 Y0.2682
N17440 X1.3289 Y0.2302
N17445 X1.3303 Y0.1922
N17450 X1.3314 Y0.1541
N17455 X1.3321 Y0.1161
N17460 X1.3326 Y0.0781
N17465 X1.333 Y0.04
N17470 X1.3332 Y0.002
N17475 X1.3334 Y-0.0361
N17480 X1.3336 Y-0.1122
N17485 X1.3338 Y-0.2263
N17490 Y-0.4165
N17495 X1.3253 Y-0.4536
N17500 X1.3047 Y-0.4856
N17505 X1.2764 Y-0.5111
N17510 X1.2438 Y-0.5306
N17515 X1.2087 Y-0.5453
N17520 X1.1722 Y-0.5561
N17525 X1.135 Y-0.564
N17530 X1.0973 Y-0.5697
N17535 X1.0595 Y-0.5738
N17540 X1.0216 Y-0.5767
N17545 X0.9836 Y-0.5788
N17550 X0.9456 Y-0.5803
N17555 X0.9075 Y-0.5813
N17560 X0.8695 Y-0.5821
N17565 X0.8315 Y-0.5826
N17570 X0.7934 Y-0.583
N17575 X0.7554 Y-0.5833
N17580 X0.7216 Y-0.5834
N17585 X0.7109 Y-0.5846
N17590 X0.7007 Y-0.5879
N17595 X0.6913 Y-0.5932
N17600 X0.6827 Y-0.5986
N17605 X0.6741 Y-0.603
N17610 X0.6654 Y-0.6069
N17615 X0.6481 Y-0.6126
N17620 X0.6395 Y-0.6153
N17625 X0.6136 Y-0.622
N17630 X0.5876 Y-0.6272
N17635 X0.579 Y-0.6286
N17640 X0.5617 Y-0.6314
N17645 X0.5531 Y-0.6325
N17650 X0.5358 Y-0.6346
N17655 X0.5272 Y-0.6352
N17660 X0.5185
N17665 X0.5099 Y-0.6345
N17670 X0.5052 Y-0.634
N17675 X0.5012 Y-0.6334
N17680 X0.4926 Y-0.6317
N17685 X0.4839 Y-0.6294
N17690 X0.4753 Y-0.627
N17695 X0.4731 Y-0.6267
N17700 X0.471 Y-0.6266
N17705 X0.4688 Y-0.6268
N17710 X0.4667 Y-0.6271
N17715 X0.458 Y-0.6296
N17720 X0.4494 Y-0.6317
N17725 X0.4407 Y-0.6335
N17730 X0.4321 Y-0.6346
N17735 X0.4235 Y-0.6351
N17740 X0.4148 Y-0.635
N17745 X0.3975 Y-0.6335
N17750 X0.3889 Y-0.6325
N17755 X0.3716 Y-0.6301
N17760 X0.363 Y-0.6288
N17765 X0.337 Y-0.6237
N17770 X0.3111 Y-0.6174
N17775 X0.3085 Y-0.6168
N17780 X0.3025 Y-0.615
N17785 X0.2654 Y-0.6063
N17790 X0.2281 Y-0.5988
N17795 X0.1904 Y-0.5938
N17800 X0.1525 Y-0.5905
N17805 X0.1145 Y-0.5883
N17810 X0.0765 Y-0.5869
N17815 X0.0385 Y-0.5859
N17820 X0.0004 Y-0.5852
N17825 X-0.0376 Y-0.5848
N17830 X-0.0757 Y-0.5845
N17835 X-0.1137 Y-0.5843
N17840 X-0.1517 Y-0.5842
N17845 X-0.2278 Y-0.584
N17850 X-0.38 Y-0.5839
N17855 X-1.0649
N17860 X-1.0836 Y-0.5807
N17865 X-1.1194 Y-0.5679
N17870 X-1.1494 Y-0.5444
N17875 X-1.1729 Y-0.5145
N17880 X-1.1909 Y-0.481
N17885 X-1.2042 Y-0.4453
N17890 X-1.214 Y-0.4086
N17895 X-1.2212 Y-0.3712
N17900 X-1.2264 Y-0.3335
N17905 X-1.2301 Y-0.2957
N17910 X-1.2328 Y-0.2577
N17915 X-1.2347 Y-0.2197
N17920 X-1.2361 Y-0.1817
N17925 X-1.237 Y-0.1437
N17930 X-1.2377 Y-0.1056
N17935 X-1.2382 Y-0.0676
N17940 X-1.2385 Y-0.0295
N17945 X-1.2388 Y0.0085
N17950 X-1.239 Y0.0466
N17955 X-1.2392 Y0.1227
N17960 X-1.2393 Y0.2368
N17965 Y0.3129
N17970 X-1.2323 Y0.3503
N17975 X-1.2132 Y0.3832
N17980 X-1.1861 Y0.4099
N17985 X-1.1542 Y0.4306
N17990 X-1.1196 Y0.4464
N17995 X-1.0834 Y0.4581
N18000 X-1.0463 Y0.4667
N18005 X-1.0088 Y0.473
N18010 X-0.971 Y0.4776
N18015 X-0.9331 Y0.4809
N18020 X-0.8952 Y0.4833
N18025 X-0.8571 Y0.4851
N18030 X-0.8191 Y0.4863
N18035 X-0.7811 Y0.4872
N18040 X-0.743 Y0.4878
N18045 X-0.705 Y0.4883
N18050 X-0.667 Y0.4886
N18055 X-0.6289 Y0.4888
N18060 X-0.5909 Y0.489
N18065 X-0.5148 Y0.4892
N18070 X-0.4006 Y0.4893
N18075 X-0.1343 Y0.4894
N18080 X0.0431
N18085 X0.0556 Y0.4908
N18090 X0.0674 Y0.495
N18095 X0.078 Y0.5018
N18100 X0.0864 Y0.5087
N18105 X0.0923 Y0.5133
N18110 X0.1123 Y0.5273
N18115 X0.117 Y0.5305
N18120 X0.13 Y0.5391
N18125 X0.1383 Y0.5442
N18130 X0.1469 Y0.5493
N18135 X0.1642 Y0.5592
N18140 X0.1728 Y0.5637
N18145 X0.1815 Y0.5676
N18150 X0.1901 Y0.5706
N18155 X0.1988 Y0.5731
N18160 X0.201 Y0.5736
N18165 X0.2074 Y0.5751
N18170 X0.216 Y0.5763
N18175 X0.2247 Y0.5772
N18180 X0.2268 Y0.5776
N18185 X0.229 Y0.5781
N18190 X0.2312 Y0.5788
N18195 X0.2333 Y0.5798
N18200 X0.2352 Y0.5809
N18205 X0.2371 Y0.5823
N18210 X0.242 Y0.5863
N18215 X0.2481 Y0.5909
N18220 X0.2515 Y0.5932
N18225 X0.2518 Y0.5935
N18230 G2 X0.2582 Y0.5997 I0.2087 J-0.2097
N18235 X0.2914 Y0.6265 I0.2023 J-0.216
N18240 X0.3037 Y0.6307 I0.0135 J-0.0194
N18245 G1 X0.5922 Y0.6449
N18250 G2 X0.6049 Y0.642 I0.0012 J-0.0236
N18255 X0.6408 Y0.6183 I-0.1444 J-0.2583
N18260 X0.6475 Y0.613 I-0.1803 J-0.2346
N18265 G1 X0.6481 Y0.6126
N18270 X0.6654 Y0.6069
N18275 X0.6741 Y0.603
N18280 X0.6827 Y0.5986
N18285 X0.6913 Y0.5932
N18290 X0.6945 Y0.5909
N18295 X0.7 Y0.5867
N18300 X0.7054 Y0.5823
N18305 X0.7086 Y0.5801
N18310 X0.7108 Y0.579
N18315 X0.713 Y0.5782
N18320 X0.7151 Y0.5777
N18325 X0.7173 Y0.5773
N18330 X0.7259 Y0.5763
N18335 X0.7346 Y0.5751
N18340 X0.7432 Y0.5733
N18345 X0.7518 Y0.5708
N18350 X0.7605 Y0.5677
N18355 X0.7778 Y0.5593
N18360 X0.7833 Y0.5564
N18365 X0.8037 Y0.5445
N18370 X0.8183 Y0.5365
N18375 X0.8367 Y0.5282
N18380 X0.861 Y0.5195
N18385 X0.8944 Y0.5106
N18390 X0.9319 Y0.5037
N18395 X0.9696 Y0.4991
N18400 X1.0075 Y0.496
N18405 X1.0455 Y0.4939
N18410 X1.0835 Y0.4913
N18415 X1.1186 Y0.4767
N18420 X1.148 Y0.4525
N18425 X1.1713 Y0.4225
N18430 X1.1892 Y0.3889
N18435 X1.2027 Y0.3533
N18440 X1.2127 Y0.3166
N18445 X1.22 Y0.2793
N18450 X1.2254 Y0.2416
N18455 X1.2293 Y0.2037
N18460 X1.2322 Y0.1658
N18465 X1.2342 Y0.1278
N18470 X1.2357 Y0.0898
N18475 X1.2367 Y0.0518
N18480 X1.2375 Y0.0137
N18485 X1.238 Y-0.0243
N18490 X1.2384 Y-0.0624
N18495 X1.2387 Y-0.1004
N18500 X1.2389 Y-0.1385
N18505 X1.239 Y-0.1765
N18510 X1.2392 Y-0.2526
N18515 Y-0.2906
N18520 X1.239 Y-0.3287
N18525 X1.2264 Y-0.3646
N18530 X1.2034 Y-0.3949
N18535 X1.174 Y-0.419
N18540 X1.1408 Y-0.4375
N18545 X1.1054 Y-0.4515
N18550 X1.0688 Y-0.4619
N18555 X1.0315 Y-0.4695
N18560 X0.9939 Y-0.475
N18565 X0.956 Y-0.4791
N18570 X0.9181 Y-0.482
N18575 X0.9048 Y-0.4827
N18580 X0.8932 Y-0.4846
N18585 X0.8822 Y-0.489
N18590 X0.8724 Y-0.4956
N18595 X0.8642 Y-0.5025
N18600 X0.8501 Y-0.5133
N18605 X0.8381 Y-0.5219
N18610 X0.8296 Y-0.5277
N18615 X0.8123 Y-0.5391
N18620 X0.8037 Y-0.5445
N18625 X0.7833 Y-0.5564
N18630 X0.7778 Y-0.5593
N18635 X0.7605 Y-0.5677
N18640 X0.7518 Y-0.5708
N18645 X0.7432 Y-0.5733
N18650 X0.7346 Y-0.5751
N18655 X0.7259 Y-0.5763
N18660 X0.7173 Y-0.5773
N18665 X0.7151 Y-0.5777
N18670 X0.713 Y-0.5782
N18675 X0.7108 Y-0.579
N18680 X0.7086 Y-0.5801
N18685 X0.7054 Y-0.5823
N18690 X0.7 Y-0.5867
N18695 X0.6945 Y-0.5909
N18700 X0.6913 Y-0.5932
N18705 X0.6911 Y-0.5934
N18710 G2 X0.6848 Y-0.5998 I-0.2057 J0.1956
N18715 X0.654 Y-0.6261 I-0.1994 J0.202
N18720 X0.6413 Y-0.6307 I-0.014 J0.019
N18725 G1 X0.3569 Y-0.6469
N18730 G2 X0.3438 Y-0.6438 I-0.0013 J0.0236
N18735 X0.3097 Y-0.6208 I0.1416 J0.246
N18740 X0.3032 Y-0.6154 I0.1756 J0.223
N18745 G1 X0.3025 Y-0.615
N18750 X0.2852 Y-0.61
N18755 X0.2795 Y-0.6081
N18760 X0.2765 Y-0.6069
N18765 X0.2679 Y-0.603
N18770 X0.2593 Y-0.5984
N18775 X0.2506 Y-0.5926
N18780 X0.2481 Y-0.5909
N18785 X0.242 Y-0.5863
N18790 X0.2371 Y-0.5823
N18795 X0.2352 Y-0.5809
N18800 X0.2333 Y-0.5798
N18805 X0.2312 Y-0.5788
N18810 X0.229 Y-0.5781
N18815 X0.2268 Y-0.5776
N18820 X0.2247 Y-0.5772
N18825 X0.216 Y-0.5763
N18830 X0.2074 Y-0.5751
N18835 X0.201 Y-0.5736
N18840 X0.1988 Y-0.5731
N18845 X0.1901 Y-0.5706
N18850 X0.1815 Y-0.5676
N18855 X0.1728 Y-0.5637
N18860 X0.1642 Y-0.5592
N18865 X0.1443 Y-0.5478
N18870 X0.1383 Y-0.5442
N18875 X0.1248 Y-0.5368
N18880 X0.1064 Y-0.5285
N18885 X0.0823 Y-0.5198
N18890 X0.049 Y-0.5108
N18895 X0.0116 Y-0.5039
N18900 X-0.0261 Y-0.4992
N18905 X-0.0641 Y-0.4961
N18910 X-0.102 Y-0.4939
N18915 X-0.1401 Y-0.4925
N18920 X-0.1781 Y-0.4915
N18925 X-0.2161 Y-0.4908
N18930 X-0.2542 Y-0.4904
N18935 X-0.2922 Y-0.4901
N18940 X-0.3303 Y-0.4898
N18945 X-0.3683 Y-0.4897
N18950 X-0.4444 Y-0.4895
N18955 X-0.5585 Y-0.4894
N18960 X-0.939
N18965 X-0.9771 Y-0.4893
N18970 X-1.0136 Y-0.4788
N18975 X-1.045 Y-0.4573
N18980 X-1.0702 Y-0.4288
N18985 X-1.0897 Y-0.3962
N18990 X-1.1045 Y-0.3611
N18995 X-1.1155 Y-0.3247
N19000 X-1.1235 Y-0.2875
N19005 X-1.1295 Y-0.2499
N19010 X-1.1338 Y-0.2121
N19015 X-1.1369 Y-0.1742
N19020 X-1.1392 Y-0.1362
N19025 X-1.1408 Y-0.0982
N19030 X-1.1419 Y-0.0602
N19035 X-1.1428 Y-0.0221
N19040 X-1.1434 Y0.0159
N19045 X-1.1438 Y0.054
N19050 X-1.1441 Y0.092
N19055 X-1.1443 Y0.1301
N19060 X-1.1445 Y0.1681
N19065 X-1.1446 Y0.2062
N19070 X-1.1407 Y0.244
N19075 X-1.1244 Y0.2784
N19080 X-1.0991 Y0.3068
N19085 X-1.0684 Y0.3293
N19090 X-1.0345 Y0.3465
N19095 X-0.9987 Y0.3594
N19100 X-0.9619 Y0.369
N19105 X-0.9245 Y0.3761
N19110 X-0.8868 Y0.3813
N19115 X-0.849 Y0.385
N19120 X-0.811 Y0.3878
N19125 X-0.773 Y0.3898
N19130 X-0.735 Y0.3912
N19135 X-0.697 Y0.3923
N19140 X-0.6589 Y0.393
N19145 X-0.6209 Y0.3935
N19150 X-0.5829 Y0.3939
N19155 X-0.5448 Y0.3942
N19160 X-0.5068 Y0.3944
N19165 X-0.4687 Y0.3946
N19170 X-0.3926 Y0.3947
N19175 X-0.2785 Y0.3948
N19180 X-0.0547 Y0.3949
N19185 X-0.0441 Y0.3959
N19190 X-0.034 Y0.399
N19195 X-0.0245 Y0.4039
N19200 X-0.0162 Y0.4106
N19205 X-0.0086 Y0.418
N19210 X0. Y0.4252
N19215 X0.0024 Y0.427
N19220 X0.0086 Y0.431
N19225 X0.0162 Y0.4356
N19230 X0.0216 Y0.4385
N19235 X0.0238 Y0.4397
N19240 X0.0259 Y0.4413
N19245 X0.0291 Y0.4442
N19250 X0.0308 Y0.4464
N19255 X0.0322 Y0.4486
N19260 X0.0346 Y0.4532
N19265 X0.0394 Y0.4615
N19270 X0.0432 Y0.467
N19275 X0.0454 Y0.4701
N19280 X0.0519 Y0.4782
N19285 X0.0603 Y0.4874
N19290 X0.078 Y0.5018
N19295 X0.0782 Y0.5021
N19300 G2 X0.084 Y0.5089 I0.3825 J-0.318
N19305 X0.2484 Y0.634 I0.3768 J-0.3248
N19310 X0.2571 Y0.6362 I0.0101 J-0.0214
N19315 G1 X0.61 Y0.6569
N19320 G2 X0.6189 Y0.6557 I0.0014 J-0.0236
N19325 X0.7969 Y0.5508 I-0.1581 J-0.4716
N19330 X0.8034 Y0.5447 I-0.3361 J-0.3667
N19335 G1 X0.8037 Y0.5445
N19340 X0.8123 Y0.5391
N19345 X0.8296 Y0.5277
N19350 X0.8383 Y0.5218
N19355 X0.8501 Y0.5133
N19360 X0.8642 Y0.5025
N19365 X0.8821 Y0.4874
N19370 X0.8863 Y0.4831
N19375 X0.8901 Y0.4789
N19380 X0.8941 Y0.4744
N19385 X0.9026 Y0.467
N19390 X0.9137 Y0.4589
N19395 X0.9271 Y0.4507
N19400 X0.9447 Y0.4417
N19405 X0.9799 Y0.4272
N19410 X1.014 Y0.4104
N19415 X1.0436 Y0.3865
N19420 X1.0678 Y0.3572
N19425 X1.087 Y0.3243
N19430 X1.1017 Y0.2892
N19435 X1.1129 Y0.2529
N19440 X1.1214 Y0.2158
N19445 X1.1277 Y0.1782
N19450 X1.1323 Y0.1405
N19455 X1.1357 Y0.1026
N19460 X1.1382 Y0.0646
N19465 X1.14 Y0.0266
N19470 X1.1414 Y-0.0114
N19475 X1.1424 Y-0.0494
N19480 X1.1431 Y-0.0875
N19485 X1.1436 Y-0.1255
N19490 X1.1439 Y-0.1636
N19495 X1.1442 Y-0.2016
N19500 X1.1419 Y-0.2396
N19505 X1.127 Y-0.2746
N19510 X1.1026 Y-0.3038
N19515 X1.0723 Y-0.3269
N19520 X1.0387 Y-0.3446
N19525 X1.0139 Y-0.354
N19530 X1.0039 Y-0.3589
N19535 X0.9951 Y-0.3658
N19540 X0.9879 Y-0.3743
N19545 X0.9872 Y-0.3752
N19550 X0.9741 Y-0.3925
N19555 X0.9674 Y-0.4011
N19560 X0.9591 Y-0.4097
N19565 X0.9506 Y-0.4184
N19570 X0.942 Y-0.4255
N19575 X0.9399 Y-0.427
N19580 X0.9247 Y-0.4365
N19585 X0.916 Y-0.4416
N19590 X0.9133 Y-0.4442
N19595 X0.9116 Y-0.4464
N19600 X0.9102 Y-0.4486
N19605 X0.9074 Y-0.454
N19610 X0.903 Y-0.4615
N19615 X0.8967 Y-0.4701
N19620 X0.8901 Y-0.4789
N19625 X0.8863 Y-0.4831
N19630 X0.8821 Y-0.4874
N19635 X0.8724 Y-0.4956
N19640 X0.8721 Y-0.4958
N19645 G2 X0.8665 Y-0.5027 I-0.3892 J0.3142
N19650 X0.7029 Y-0.6309 I-0.3836 J0.3211
N19655 X0.6941 Y-0.6333 I-0.0104 J0.0212
N19660 G1 X0.3332 Y-0.6572
N19665 G2 X0.3241 Y-0.656 I-0.0016 J0.0236
N19670 X0.1451 Y-0.5505 I0.1588 J0.4743
N19675 X0.1386 Y-0.5445 I0.3378 J0.3689
N19680 G1 X0.1383 Y-0.5442
N19685 X0.1296 Y-0.5389
N19690 X0.117 Y-0.5305
N19695 X0.1123 Y-0.5273
N19700 X0.0923 Y-0.5133
N19705 X0.0864 Y-0.5087
N19710 X0.0603 Y-0.4874
N19715 X0.0523 Y-0.4788
N19720 X0.0477 Y-0.4741
N19725 X0.039 Y-0.4666
N19730 X0.0279 Y-0.4586
N19735 X0.0143 Y-0.4502
N19740 X-0.0033 Y-0.4414
N19745 X-0.0257 Y-0.4322
N19750 X-0.0554 Y-0.4228
N19755 X-0.0925 Y-0.4142
N19760 X-0.1301 Y-0.4083
N19765 X-0.1679 Y-0.4042
N19770 X-0.2059 Y-0.4014
N19775 X-0.2439 Y-0.3994
N19780 X-0.2819 Y-0.398
N19785 X-0.3199 Y-0.3971
N19790 X-0.358 Y-0.3964
N19795 X-0.396 Y-0.396
N19800 X-0.434 Y-0.3956
N19805 X-0.4721 Y-0.3954
N19810 X-0.5101 Y-0.3953
N19815 X-0.5862 Y-0.3951
N19820 X-0.7004 Y-0.395
N19825 X-0.8526 Y-0.3949
N19830 X-0.8906 Y-0.3935
N19835 X-0.926 Y-0.3796
N19840 X-0.9559 Y-0.356
N19845 X-0.9797 Y-0.3263
N19850 X-0.998 Y-0.293
N19855 X-1.0119 Y-0.2576
N19860 X-1.0153 Y-0.2455
N19865 X-1.0176 Y-0.2389
N19870 X-1.0207 Y-0.2327
N19875 X-1.0246 Y-0.2269
N19880 X-1.0432 Y-0.2027
N19885 X-1.0457 Y-0.1991
N19890 X-1.0548 Y-0.1855
N19895 X-1.0605 Y-0.1768
N19900 X-1.0718 Y-0.151
N19905 X-1.079 Y-0.1337
N19910 X-1.0862 Y-0.1165
N19915 X-1.0893 Y-0.1078
N19920 X-1.0923 Y-0.0992
N19925 X-1.0947 Y-0.0906
N19930 X-1.0978 Y-0.0733
N19935 X-1.0992 Y-0.0647
N19940 X-1.1026 Y-0.0388
N19945 X-1.1059 Y-0.0129
N19950 X-1.1062 Y-0.0084
N19955 X-1.1063 Y-0.0043
N19960 Y0.0043
N19965 X-1.1062 Y0.0084
N19970 X-1.1059 Y0.0129
N19975 X-1.1026 Y0.0388
N19980 X-1.0992 Y0.0647
N19985 X-1.0978 Y0.0733
N19990 X-1.0947 Y0.0906
N19995 X-1.0923 Y0.0992
N20000 X-1.0889 Y0.1091
N20005 X-1.0862 Y0.1165
N20010 X-1.0754 Y0.1423
N20015 X-1.0716 Y0.1515
N20020 X-1.0605 Y0.1768
N20025 X-1.0543 Y0.1863
N20030 X-1.0457 Y0.1991
N20035 X-1.0432 Y0.2027
N20040 X-1.0233 Y0.2286
N20045 X-1.0165 Y0.2372
N20050 X-1.0096 Y0.2458
N20055 X-1.0024 Y0.2545
N20060 X-0.9938 Y0.262
N20065 X-0.9823 Y0.2717
N20070 X-0.9765 Y0.2764
N20075 X-0.9506 Y0.2963
N20080 X-0.9333 Y0.309
N20085 X-0.929 Y0.312
N20090 X-0.9247 Y0.3146
N20095 X-0.8988 Y0.3266
N20100 X-0.8815 Y0.3338
N20105 X-0.8728 Y0.3374
N20110 X-0.8642 Y0.3408
N20115 X-0.8469 Y0.3475
N20120 X-0.8415 Y0.3494
N20125 X-0.821 Y0.3538
N20130 X-0.8123 Y0.3552
N20135 X-0.7605 Y0.362
N20140 X-0.7518 Y0.3627
N20145 X-0.7432 Y0.363
N20150 X-0.7346 Y0.3627
N20155 X-0.7086 Y0.3597
N20160 X-0.6827 Y0.3563
N20165 X-0.6741 Y0.355
N20170 X-0.6568 Y0.3522
N20175 X-0.6481 Y0.3498
N20180 X-0.6309 Y0.3441
N20185 X-0.6222 Y0.3407
N20190 X-0.5899 Y0.3292
N20195 X-0.5581 Y0.3207
N20200 X-0.5207 Y0.3138
N20205 X-0.4829 Y0.3093
N20210 X-0.445 Y0.3063
N20215 X-0.407 Y0.3043
N20220 X-0.369 Y0.303
N20225 X-0.3309 Y0.3021
N20230 X-0.2929 Y0.3016
N20235 X-0.2549 Y0.3012
N20240 X-0.2168 Y0.3009
N20245 X-0.1788 Y0.3008
N20250 X-0.1407 Y0.3006
N20255 X-0.122 Y0.301
N20260 X-0.111 Y0.3024
N20265 X-0.1006 Y0.3058
N20270 X-0.091 Y0.3113
N20275 X-0.0827 Y0.3186
N20280 X-0.0761 Y0.3274
N20285 X-0.0679 Y0.3407
N20290 X-0.0625 Y0.3494
N20295 X-0.0519 Y0.3653
N20300 X-0.0448 Y0.3752
N20305 X-0.0251 Y0.4011
N20310 X-0.0171 Y0.4097
N20315 X-0.0162 Y0.4106
N20320 G3 X-0.0359 Y0.4504 I-0.0171 J0.0163
N20325 G1 X-0.615 Y0.3857
N20330 G3 X-0.6222 Y0.3407 I0.0026 J-0.0235
N20335 G1 X-0.5963 Y0.33
N20340 X-0.579 Y0.3227
N20345 X-0.5704 Y0.3188
N20350 X-0.5617 Y0.314
N20355 X-0.5531 Y0.3088
N20360 X-0.5494 Y0.3062
N20365 X-0.5444 Y0.3026
N20370 X-0.5185 Y0.2827
N20375 X-0.5099 Y0.2758
N20380 X-0.4961 Y0.266
N20385 X-0.4829 Y0.2581
N20390 X-0.4659 Y0.2496
N20395 X-0.444 Y0.2409
N20400 X-0.4146 Y0.2318
N20405 X-0.3774 Y0.2236
N20410 X-0.3398 Y0.218
N20415 X-0.3019 Y0.2142
N20420 X-0.264 Y0.2116
N20425 X-0.226 Y0.2098
N20430 X-0.1879 Y0.2089
N20435 X-0.1623 Y0.2102
N20440 X-0.1485 Y0.212
N20445 X-0.1383 Y0.2143
N20450 X-0.1288 Y0.2186
N20455 X-0.1202 Y0.2245
N20460 X-0.1129 Y0.2319
N20465 X-0.1105 Y0.2349
N20470 X-0.109 Y0.2372
N20475 X-0.1079 Y0.2394
N20480 X-0.1071 Y0.2415
N20485 X-0.1062 Y0.2458
N20490 X-0.1053 Y0.2545
N20495 X-0.1039 Y0.2631
N20500 X-0.1037 Y0.2645
N20505 X-0.1021 Y0.2717
N20510 X-0.0998 Y0.2804
N20515 X-0.0966 Y0.289
N20520 X-0.0951 Y0.2929
N20525 X-0.0834 Y0.3149
N20530 X-0.0785 Y0.3235
N20535 X-0.0761 Y0.3274
N20540 G3 X-0.0993 Y0.3625 I-0.0206 J0.0116
N20545 G1 X-0.4972 Y0.3173
N20550 G3 X-0.5099 Y0.2758 I0.0027 J-0.0235
N20555 G1 X-0.4926 Y0.2621
N20560 X-0.4888 Y0.2587
N20565 X-0.4849 Y0.2545
N20570 X-0.4667 Y0.2324
N20575 X-0.4636 Y0.2286
N20580 X-0.4503 Y0.2113
N20585 X-0.4431 Y0.2028
N20590 X-0.4352 Y0.195
N20595 X-0.4256 Y0.1867
N20600 X-0.4137 Y0.1782
N20605 X-0.3986 Y0.169
N20610 X-0.3799 Y0.1596
N20615 X-0.356 Y0.15
N20620 X-0.3246 Y0.1401
N20625 X-0.2875 Y0.1317
N20630 X-0.2499 Y0.1261
N20635 X-0.219 Y0.1239
N20640 X-0.1968 Y0.1242
N20645 X-0.1931 Y0.1245
N20650 X-0.1821 Y0.1267
N20655 X-0.1718 Y0.131
N20660 X-0.1626 Y0.1373
N20665 X-0.1548 Y0.1454
N20670 X-0.1488 Y0.1548
N20675 X-0.1449 Y0.1653
N20680 X-0.1418 Y0.1768
N20685 X-0.1391 Y0.1855
N20690 X-0.1383 Y0.1879
N20695 X-0.136 Y0.1941
N20700 X-0.1336 Y0.1995
N20705 G3 X-0.154 Y0.2321 I-0.0218 J0.009
N20710 G1 X-0.4297 Y0.2486
N20715 G3 X-0.4503 Y0.2113 I-0.0014 J-0.0236
N20720 G1 X-0.4407 Y0.1988
N20725 X-0.4372 Y0.1941
N20730 X-0.4265 Y0.1768
N20735 X-0.4235 Y0.1701
N20740 X-0.4151 Y0.151
N20745 X-0.4107 Y0.1423
N20750 X-0.4061 Y0.1345
N20755 X-0.4006 Y0.1269
N20760 X-0.3935 Y0.1186
N20765 X-0.3842 Y0.1092
N20770 X-0.3737 Y0.1002
N20775 X-0.3603 Y0.0905
N20780 X-0.3445 Y0.0809
N20785 X-0.3259 Y0.0715
N20790 X-0.3056 Y0.0633
N20795 X-0.2838 Y0.0565
N20800 X-0.2648 Y0.0521
N20805 X-0.2482 Y0.0497
N20810 X-0.2321 Y0.0486
N20815 X-0.2182 Y0.0489
N20820 X-0.2086 Y0.0498
N20825 X-0.1966 Y0.0523
N20830 X-0.1856 Y0.0574
N20835 X-0.1759 Y0.0647
N20840 X-0.168 Y0.0741
N20845 X-0.1624 Y0.0849
N20850 X-0.1593 Y0.0967
N20855 X-0.159 Y0.0992
N20860 X-0.1543 Y0.1251
N20865 X-0.1486 Y0.151
N20870 X-0.1464 Y0.1596
N20875 X-0.1449 Y0.1653
