%
(1001)
(316 END MILL)
(T2  D=0.125 CR=0. - ZMIN=-0.3325 - FLAT END MILL)
N10 G90 G94 G17 G91.1
N15 G20
N20 G53 G0 Z0.
(BORE3)
N25 M9
N30 T2 M6
N35 S12000 M3
N40 G54
N45 M9
N55 G0 X0.7774 Y0.0125
N60 G43 Z0.6 H2
N65 G0 Z0.05
N70 G1 Z-0.0175 F5.
N75 G18 G3 X0.7649 Z-0.03 I-0.0125 K0.
N80 G1 X0.7587
N85 G17 G3 X0.7462 Y0. I0. J-0.0125
N90 G2 X0.1962 Z-0.0497 I-0.275 J0. F15.
N95 X0.7462 Z-0.0694 I0.275 J0.
N100 X0.1962 Z-0.0891 I-0.275 J0.
N105 X0.7462 Z-0.1087 I0.275 J0.
N110 X0.1962 Z-0.1284 I-0.275 J0.
N115 X0.7462 Z-0.1481 I0.275 J0.
N120 X0.1962 Z-0.1678 I-0.275 J0.
N125 X0.7462 Z-0.1875 I0.275 J0.
N130 X0.1962 Z-0.2072 I-0.275 J0.
N135 X0.4928 Y0.2742 Z-0.2175 I0.275 J0.
N140 X0.4496 Y-0.2742 I-0.0216 J-0.2742
N145 X0.4928 Y0.2742 I0.0216 J0.2742
N150 G3 X0.5062 Y0.2856 I0.001 J0.0125 F5.
N155 G1 X0.5067 Y0.2919
N160 X0.5069 Y0.2946 Z-0.2172
N165 X0.5071 Y0.2973 Z-0.2163
N170 X0.5073 Y0.2996 Z-0.2148
N175 X0.5075 Y0.3016 Z-0.2128
N180 X0.5076 Y0.3031 Z-0.2104
N185 X0.5077 Y0.304 Z-0.2078
N190 Y0.3043 Z-0.205
N195 G0 Z0.2
N200 X0.7649 Y0.0125
N205 Z-0.1375
N210 G1 Z-0.205 F5.
N215 G18 G3 X0.7524 Z-0.2175 I-0.0125 K0.
N220 G1 X0.7462
N225 G17 G3 X0.7337 Y0. I0. J-0.0125
N230 G2 X0.2087 I-0.2625 J0. F15.
N235 X0.7337 I0.2625 J0.
N240 G3 X0.7462 Y-0.0125 I0.0125 J0. F5.
N245 G1 X0.7524
N250 G18 G2 X0.7649 Z-0.205 I0. K0.0125
N255 G0 Z0.2
N260 X-0.4994 Y0.0125
N265 Z0.0497
N270 G1 Z-0.0178 F5.
N275 G3 X-0.5119 Z-0.0303 I-0.0125 K0.
N280 G1 X-0.5181
N285 G17 G3 X-0.5306 Y0. I0. J-0.0125
N290 G2 X-0.9562 Z-0.05 I-0.2128 J0. F15.
N295 X-0.5306 Z-0.0697 I0.2128 J0.
N300 X-0.9562 Z-0.0894 I-0.2128 J0.
N305 X-0.5306 Z-0.1091 I0.2128 J0.
N310 X-0.9562 Z-0.1288 I-0.2128 J0.
N315 X-0.5306 Z-0.1484 I0.2128 J0.
N320 X-0.9562 Z-0.1681 I-0.2128 J0.
N325 X-0.5306 Z-0.1878 I0.2128 J0.
N330 X-0.9562 Z-0.2075 I-0.2128 J0.
N335 X-0.5306 Z-0.2272 I0.2128 J0.
N340 X-0.9562 Z-0.2469 I-0.2128 J0.
N345 X-0.5306 Z-0.2666 I0.2128 J0.
N350 X-0.9562 Z-0.2862 I-0.2128 J0.
N355 X-0.5306 Z-0.3059 I0.2128 J0.
N360 X-0.9562 Z-0.3256 I-0.2128 J0.
N365 X-0.84 Y0.1896 Z-0.3325 I0.2128 J0.
N370 X-0.6468 Y-0.1896 I0.0966 J-0.1896
N375 X-0.84 Y0.1896 I-0.0966 J0.1896
N380 G3 X-0.8346 Y0.2064 I-0.0057 J0.0111 F5.
N385 G1 X-0.8374 Y0.212
N390 X-0.8387 Y0.2145 Z-0.3322
N395 X-0.8399 Y0.2168 Z-0.3313
N400 X-0.841 Y0.2189 Z-0.3298
N405 X-0.8419 Y0.2207 Z-0.3278
N410 X-0.8425 Y0.222 Z-0.3254
N415 X-0.843 Y0.2228 Z-0.3228
N420 X-0.8431 Y0.2231 Z-0.32
N425 G0 Z0.2
N430 X-0.5119 Y0.0125
N435 Z-0.2525
N440 G1 Z-0.32 F5.
N445 G18 G3 X-0.5244 Z-0.3325 I-0.0125 K0.
N450 G1 X-0.5306
N455 G17 G3 X-0.5431 Y0. I0. J-0.0125
N460 G2 X-0.9437 I-0.2003 J0. F15.
N465 X-0.5431 I0.2003 J0.
N470 G3 X-0.5306 Y-0.0125 I0.0125 J0. F5.
N475 G1 X-0.5244
N480 G18 G2 X-0.5119 Z-0.32 I0. K0.0125
N485 G0 Z0.6
N490 G17
N495 M9
N500 G53 G0 Z0.
N505 M30
%
