%
(E_POCKET_WATCH_LOWER_FRONT)
(E_POCKET_WATCH_LOWER_FRONT 2MM END MILL 30 MINUTES)
(T1  D=0.0787 CR=0. - ZMIN=-0.396 - FLAT END MILL)
N10 G90 G94 G17 G91.1
N15 G20
N20 G53 G0 Z0.
(ADAPTIVE4 2MM)
N25 M9
N30 T1 M6
N35 S12000 M3
N40 G54
N45 M8
N55 G0 X1.3747 Y-0.1966
N60 G43 Z0.6 H1
N65 G0 Z-0.0243
N70 G1 Z-0.0321 F8.
N75 X1.3749 Y-0.1964 Z-0.0342
N80 X1.3754 Y-0.1958 Z-0.0361
N85 X1.3762 Y-0.1949 Z-0.0377
N90 X1.3773 Y-0.1937 Z-0.0389
N95 X1.3786 Y-0.1923 Z-0.0397
N100 X1.38 Y-0.1908 Z-0.04
N105 G3 X1.3916 Y-0.1689 I-0.0369 J0.0335
N110 X1.3845 Y-0.1431 I-0.0207 J0.0082
N115 X1.3303 Y-0.1203 I-0.0598 J-0.0663
N120 X1.2494 Y-0.1152 I-0.0717 J-0.4934
N125 G1 X1.2293 Y-0.1147
N130 X1.2091 Y-0.1145
N135 X1.1689 Y-0.1143
N140 X0.9777 Y-0.114
N145 X0.9729 Y-0.1125
N150 X0.9642 Y-0.1074
N155 X0.9575 Y-0.0999
N160 X0.9472 Y-0.0826
N165 X0.9419 Y-0.0632
N170 G2 X0.9371 Y0.0171 I0.5345 J0.0722
N175 G1 X0.9369 Y0.0373
N180 X0.9368 Y0.0775
N185 Y0.2838
N190 X0.938 Y0.2887
N195 X0.9428 Y0.2975
N200 X0.9502 Y0.3044
N205 X0.9673 Y0.3149
N210 X0.9867 Y0.3204
N215 G2 X1.067 Y0.3255 I0.0736 J-0.5227
N220 X1.3054 Y0.3266 I0.2308 J-23.8544
N225 G3 X1.3808 Y0.3362 I-0.0414 J0.6227
N230 G1 X1.3874 Y0.3389
N235 X1.3924 Y0.3439
N240 X1.3952 Y0.3505
N245 X1.3953 Y0.3576
N250 G3 X1.3798 Y0.3547 I-0.0077 J-0.0017
N255 G1 X1.3799 Y0.3542
N260 X1.3804 Y0.3522 Z-0.0397
N265 X1.3808 Y0.3504 Z-0.0389
N270 X1.3811 Y0.3488 Z-0.0377
N275 X1.3814 Y0.3475 Z-0.0361
N280 X1.3816 Y0.3468 Z-0.0342
N285 Y0.3465 Z-0.0321
N290 G0 Z0.2
N295 X1.3756 Y-0.192
N300 Z-0.0243
N305 G1 Z-0.0321 F8.
N310 X1.3758 Y-0.1918 Z-0.0342
N315 X1.3763 Y-0.1912 Z-0.0361
N320 X1.3772 Y-0.1903 Z-0.0377
N325 X1.3783 Y-0.1891 Z-0.0389
N330 X1.3796 Y-0.1877 Z-0.0397
N335 X1.3809 Y-0.1862 Z-0.04
N340 G3 X1.3925 Y-0.1643 I-0.0369 J0.0335
N345 X1.396 Y-0.1426 I-0.249 J0.0515
N350 X1.3777 Y-0.1129 I-0.0417 J-0.0052
N355 X1.3369 Y-0.0937 I-0.0647 J-0.0849
N360 X1.2599 Y-0.0844 I-0.0778 J-0.3173
N365 X1.0184 Y-0.0826 I-0.1753 J-7.4696
N370 G1 X1.0087 Y-0.0799
N375 X1.0002 Y-0.0746
N380 X0.9931 Y-0.0674
N385 X0.9818 Y-0.0507
N390 X0.9754 Y-0.0316
N395 G2 X0.9689 Y0.0485 I0.392 J0.0723
N400 X0.9683 Y0.2397 I10.301 J0.129
N405 G1 X0.9695 Y0.2497
N410 X0.9738 Y0.2588
N415 X0.9803 Y0.2664
N420 X0.9961 Y0.2789
N425 X1.0149 Y0.2861
N430 G2 X1.0948 Y0.2937 I0.0732 J-0.3468
N435 X1.2961 Y0.2951 I0.1856 J-12.1134
N440 G3 X1.375 Y0.3045 I-0.0177 J0.4876
N445 X1.3973 Y0.3171 I-0.0125 J0.048
N450 G1 X1.3998 Y0.3235
N455 X1.4001 Y0.3303
N460 X1.3992 Y0.336
N465 X1.3984 Y0.3406
N470 G3 X1.3829 Y0.3378 I-0.0077 J-0.0016
N475 G1 X1.383 Y0.3373
N480 X1.3834 Y0.3353 Z-0.0397
N485 X1.3838 Y0.3334 Z-0.0389
N490 X1.3842 Y0.3318 Z-0.0377
N495 X1.3844 Y0.3306 Z-0.0361
N500 X1.3846 Y0.3298 Z-0.0342
N505 X1.3847 Y0.3296 Z-0.0321
N510 G0 Z0.2
N515 X1.3793 Y-0.1768
N520 Z-0.0243
N525 G1 Z-0.0321 F8.
N530 X1.3795 Y-0.1766 Z-0.0342
N535 X1.38 Y-0.176 Z-0.0361
N540 X1.3808 Y-0.175 Z-0.0377
N545 X1.3819 Y-0.1738 Z-0.0389
N550 X1.3831 Y-0.1724 Z-0.0397
N555 X1.3844 Y-0.1708 Z-0.04
N560 G3 X1.3953 Y-0.1486 I-0.038 J0.0323
N565 G1 X1.3988 Y-0.1278
N570 G3 X1.3873 Y-0.0952 I-0.0364 J0.0055
N575 X1.3449 Y-0.0682 I-0.0727 J-0.0676
N580 X1.2732 Y-0.0544 I-0.0819 J-0.2317
N585 X1.1324 Y-0.0514 I-0.1146 J-2.0776
N590 G1 X1.0518 Y-0.0511
N595 X1.0422 Y-0.0482
N600 X1.0337 Y-0.0429
N605 X1.0193 Y-0.0288
N610 X1.0106 Y-0.0107
N615 G2 X1.0008 Y0.069 I0.2696 J0.0734
N620 X0.9998 Y0.2099 I4.5591 J0.1014
N625 G1 X1.0024 Y0.2196
N630 X1.0076 Y0.2282
N635 X1.0145 Y0.2356
N640 X1.0307 Y0.2475
N645 X1.0495 Y0.2545
N650 G2 X1.1295 Y0.2622 I0.0744 J-0.3519
N655 G1 X1.2905 Y0.264
N660 G3 X1.3759 Y0.2743 I-0.0048 J0.4004
N665 X1.4014 Y0.2886 I-0.0166 J0.0593
N670 G1 X1.404 Y0.2951
N675 X1.4043 Y0.3019
N680 X1.4001 Y0.3303
N685 G3 X1.3845 Y0.328 I-0.0077 J-0.0014
N690 G1 X1.3846 Y0.3275
N695 X1.385 Y0.3255 Z-0.0397
N700 X1.3853 Y0.3236 Z-0.0389
N705 X1.3856 Y0.322 Z-0.0377
N710 X1.3859 Y0.3208 Z-0.0361
N715 X1.386 Y0.32 Z-0.0342
N720 Y0.3197 Z-0.0321
N725 G0 Z0.2
N730 X1.3829 Y-0.156
N735 Z-0.0243
N740 G1 Z-0.0321 F8.
N745 X1.3831 Y-0.1558 Z-0.0342
N750 X1.3836 Y-0.1552 Z-0.0361
N755 X1.3844 Y-0.1542 Z-0.0377
N760 X1.3854 Y-0.153 Z-0.0389
N765 X1.3867 Y-0.1516 Z-0.0397
N770 X1.388 Y-0.15 Z-0.04
N775 G3 X1.3988 Y-0.1278 I-0.038 J0.0323
N780 G1 X1.3999 Y-0.1211
N785 X1.4027 Y-0.1029
N790 G3 X1.3978 Y-0.0798 I-0.0335 J0.005
N795 X1.3582 Y-0.0454 I-0.0761 J-0.0475
N800 X1.2961 Y-0.0266 I-0.087 J-0.1758
N805 X1.1756 Y-0.0204 I-0.1061 J-0.8807
N810 G2 X1.0851 Y-0.0194 I0.0768 J11.9598
N815 G1 X1.0754 Y-0.0167
N820 X1.0667 Y-0.0116
N825 X1.0593 Y-0.0048
N830 X1.0472 Y0.0113
N835 X1.04 Y0.0301
N840 G2 X1.0321 Y0.11 I0.3397 J0.0739
N845 G1 X1.0316 Y0.1301
N850 X1.0315 Y0.1503
N855 X1.0314 Y0.1704
N860 X1.0324 Y0.1804
N865 X1.0359 Y0.1898
N870 X1.0416 Y0.1982
N875 X1.056 Y0.2122
N880 X1.0743 Y0.2207
N885 G2 X1.1539 Y0.2305 I0.0748 J-0.2788
N890 X1.2747 Y0.2322 I0.1308 J-5.2629
N895 G3 X1.3694 Y0.2416 I-0.0042 J0.5206
N900 X1.4007 Y0.255 I-0.0299 J0.1131
N905 G1 X1.4052 Y0.2597
N910 X1.4078 Y0.2657
N915 X1.4082 Y0.2723
N920 X1.4053 Y0.2949
N925 X1.4043 Y0.3019
N930 G3 X1.3887 Y0.2997 I-0.0077 J-0.0014
N935 G1 X1.3888 Y0.2991
N940 X1.3892 Y0.2971 Z-0.0397
N945 X1.3895 Y0.2952 Z-0.0389
N950 X1.3898 Y0.2936 Z-0.0377
N955 X1.39 Y0.2924 Z-0.0361
N960 X1.3901 Y0.2916 Z-0.0342
N965 X1.3902 Y0.2914 Z-0.0321
N970 G0 Z0.2
N975 X1.3873 Y-0.1314
N980 Z-0.0243
N985 G1 Z-0.0321 F8.
N990 X1.3875 Y-0.1312 Z-0.0342
N995 X1.388 Y-0.1306 Z-0.0361
N1000 X1.3888 Y-0.1296 Z-0.0377
N1005 X1.3898 Y-0.1284 Z-0.0389
N1010 X1.391 Y-0.1269 Z-0.0397
N1015 X1.3923 Y-0.1253 Z-0.04
N1020 G3 X1.4027 Y-0.1029 I-0.0387 J0.0314
N1025 G1 X1.4053 Y-0.0846
N1030 G3 X1.3905 Y-0.0397 I-0.045 J0.01
N1035 X1.3361 Y-0.0065 I-0.0897 J-0.086
N1040 X1.2601 Y0.0078 I-0.0899 J-0.2668
N1045 X1.1193 Y0.0115 I-0.1184 J-1.8478
N1050 G1 X1.1095 Y0.014
N1055 X1.1006 Y0.0186
N1060 X1.0929 Y0.0251
N1065 X1.0801 Y0.0407
N1070 X1.0724 Y0.0593
N1075 G2 X1.0637 Y0.1391 I0.3125 J0.0744
N1080 G1 X1.0647 Y0.1491
N1085 X1.0682 Y0.1585
N1090 X1.074 Y0.1668
N1095 X1.0885 Y0.1807
N1100 X1.1068 Y0.1892
N1105 G2 X1.1864 Y0.1991 I0.0752 J-0.2795
N1110 G3 X1.3071 Y0.2024 I-0.0576 J4.3501
N1115 X1.3789 Y0.2136 I-0.0123 J0.3131
N1120 X1.408 Y0.2289 I-0.0171 J0.0682
N1125 G1 X1.4107 Y0.2349
N1130 G3 X1.4087 Y0.2674 I-0.1256 J0.0087
N1135 G1 X1.4082 Y0.2723
N1140 G3 X1.3925 Y0.2703 I-0.0078 J-0.0013
N1145 G1 X1.3926 Y0.2697
N1150 X1.3929 Y0.2677 Z-0.0397
N1155 X1.3932 Y0.2659 Z-0.0389
N1160 X1.3935 Y0.2642 Z-0.0377
N1165 X1.3937 Y0.263 Z-0.0361
N1170 X1.3938 Y0.2622 Z-0.0342
N1175 X1.3939 Y0.262 Z-0.0321
N1180 G0 Z0.2
N1185 X1.3915 Y-0.1063
N1190 Z-0.0243
N1195 G1 Z-0.0321 F8.
N1200 X1.3916 Y-0.1061 Z-0.0342
N1205 X1.3921 Y-0.1055 Z-0.0361
N1210 X1.3929 Y-0.1045 Z-0.0377
N1215 X1.3939 Y-0.1032 Z-0.0389
N1220 X1.3951 Y-0.1017 Z-0.0397
N1225 X1.3963 Y-0.1001 Z-0.04
N1230 G3 X1.4062 Y-0.0775 I-0.0393 J0.0307
N1235 X1.4094 Y-0.0392 I-0.1748 J0.0337
N1240 X1.3747 Y0.0042 I-0.075 J-0.0243
N1245 X1.3039 Y0.0324 I-0.1019 J-0.153
N1250 X1.2039 Y0.0417 I-0.1031 J-0.5687
N1255 G1 X1.1838 Y0.0423
N1260 X1.1636 Y0.0427
N1265 G2 X1.1264 Y0.0548 I-0.0053 J0.047
N1270 G1 X1.113 Y0.0698
N1275 X1.1048 Y0.0882
N1280 X1.1001 Y0.1077
N1285 X1.1004 Y0.1178
N1290 X1.1036 Y0.1273
N1295 X1.1092 Y0.1357
N1300 X1.1238 Y0.1496
N1305 X1.142 Y0.158
N1310 G2 X1.2217 Y0.1678 I0.0755 J-0.2862
N1315 G3 X1.3422 Y0.1747 I-0.0169 J1.3473
N1320 X1.397 Y0.1893 I-0.025 J0.2044
N1325 X1.4129 Y0.204 I-0.0088 J0.0254
N1330 G1 X1.4135 Y0.2106
N1335 X1.4114 Y0.2412
N1340 G3 X1.3957 Y0.2401 I-0.0078 J-0.0008
N1345 G1 Y0.2396
N1350 X1.3959 Y0.2376 Z-0.0397
N1355 X1.3961 Y0.2357 Z-0.0389
N1360 X1.3963 Y0.2341 Z-0.0377
N1365 X1.3964 Y0.2328 Z-0.0361
N1370 X1.3965 Y0.232 Z-0.0342
N1375 Y0.2318 Z-0.0321
N1380 G0 Z0.2
N1385 X1.3949 Y-0.0802
N1390 Z-0.0243
N1395 G1 Z-0.0321 F8.
N1400 X1.3951 Y-0.08 Z-0.0342
N1405 X1.3956 Y-0.0793 Z-0.0361
N1410 X1.3963 Y-0.0784 Z-0.0377
N1415 X1.3973 Y-0.0771 Z-0.0389
N1420 X1.3985 Y-0.0756 Z-0.0397
N1425 X1.3997 Y-0.0739 Z-0.04
N1430 G3 X1.4094 Y-0.0512 I-0.0395 J0.0303
N1435 X1.4122 Y-0.0106 I-0.2159 J0.0351
N1440 X1.3766 Y0.0357 I-0.0727 J-0.019
N1445 X1.3047 Y0.0643 I-0.1028 J-0.1534
N1450 X1.1993 Y0.0753 I-0.1081 J-0.5263
N1455 G1 X1.1792 Y0.0764
N1460 X1.1698 Y0.0801
N1465 X1.1657 Y0.083
N1470 X1.1625 Y0.0869
N1475 X1.1606 Y0.0915
N1480 X1.1599 Y0.0965
N1485 X1.1606 Y0.1015
N1490 X1.1626 Y0.1061
N1495 X1.1659 Y0.1099
N1500 X1.1824 Y0.1214
N1505 X1.2016 Y0.1275
N1510 G2 X1.2814 Y0.1353 I0.0905 J-0.5168
N1515 G3 X1.3777 Y0.1484 I-0.0248 J0.5418
N1520 X1.4069 Y0.1603 I-0.0519 J0.1694
N1525 G1 X1.4119 Y0.1648
N1530 X1.4151 Y0.1708
N1535 X1.4158 Y0.1775
N1540 X1.4135 Y0.2106
N1545 G3 X1.3978 Y0.2095 I-0.0078 J-0.0008
N1550 G1 Y0.2089
N1555 X1.3981 Y0.2069 Z-0.0397
N1560 X1.3983 Y0.205 Z-0.0389
N1565 X1.3984 Y0.2034 Z-0.0377
N1570 X1.3986 Y0.2021 Z-0.0361
N1575 Y0.2013 Z-0.0342
N1580 X1.3987 Y0.2011 Z-0.0321
N1585 G0 Z0.2
N1590 X1.3988 Y-0.0521
N1595 Z-0.0243
N1600 G1 Z-0.0321 F8.
N1605 X1.399 Y-0.0519 Z-0.0342
N1610 X1.3994 Y-0.0513 Z-0.0361
N1615 X1.4001 Y-0.0502 Z-0.0377
N1620 X1.4011 Y-0.0489 Z-0.0389
N1625 X1.4022 Y-0.0474 Z-0.0397
N1630 X1.4034 Y-0.0457 Z-0.04
N1635 G3 X1.4123 Y-0.0226 I-0.0406 J0.0289
N1640 X1.4145 Y0.0214 I-0.2794 J0.0361
N1645 X1.3785 Y0.0675 I-0.0744 J-0.0209
N1650 X1.3578 Y0.0796 I-0.0639 J-0.0853
N1655 G1 X1.3558 Y0.0802
N1660 X1.3537 Y0.0803
N1665 X1.3516 Y0.0798
N1670 X1.3498 Y0.0787
N1675 X1.3483 Y0.0772
N1680 X1.3472 Y0.0754
N1685 X1.3467 Y0.0733
N1690 X1.3468 Y0.0712
N1695 X1.3474 Y0.0692
N1700 X1.3485 Y0.0674
N1705 X1.3508 Y0.0647
N1710 X1.3968 Y0.0098
N1715 X1.4008 Y0.005
N1720 G3 X1.4147 Y0.0094 I0.006 J0.0051
N1725 G1 X1.4163 Y0.0389
N1730 G3 X1.4025 Y0.0798 I-0.0524 J0.0051
N1735 G1 X1.401 Y0.0846
N1740 X1.4007 Y0.0897
N1745 X1.4018 Y0.0946
N1750 X1.4114 Y0.1123
N1755 X1.4133 Y0.1145
N1760 X1.4159 Y0.1182
N1765 X1.4174 Y0.1223
N1770 X1.4179 Y0.1268
N1775 G3 X1.4022 Y0.1266 I-0.0079 J-0.0003
N1780 G1 Y0.1261
N1785 X1.4007 Y0.0426
N1790 Y0.0421
N1795 G3 X1.4164 Y0.0414 I0.0079 J-0.0001
N1800 X1.4159 Y0.1775 I-1.2344 J0.0627
N1805 G1 X1.4153 Y0.1796
N1810 X1.4142 Y0.1815
N1815 X1.4126 Y0.183
N1820 X1.4107 Y0.1841
N1825 X1.4086 Y0.1845
N1830 X1.4064 Y0.1844
N1835 X1.4043 Y0.1836
N1840 X1.4025 Y0.1823
N1845 X1.4012 Y0.1806
N1850 X1.4004 Y0.1786
N1855 X1.4001 Y0.1764
N1860 X1.4002 Y0.1758
N1865 X1.4004 Y0.1738 Z-0.0397
N1870 X1.4006 Y0.1719 Z-0.0389
N1875 X1.4008 Y0.1703 Z-0.0377
N1880 X1.4009 Y0.169 Z-0.0361
N1885 X1.401 Y0.1683 Z-0.0342
N1890 Y0.168 Z-0.0321
N1895 G0 Z0.2
N1900 X0.8911 Y1.196
N1905 Z-0.0243
N1910 G1 Z-0.0321 F8.
N1915 X0.891 Y1.1963 Z-0.0342
N1920 X0.8907 Y1.197 Z-0.0361
N1925 X0.8902 Y1.1982 Z-0.0377
N1930 X0.8896 Y1.1997 Z-0.0389
N1935 X0.8889 Y1.2014 Z-0.0397
N1940 X0.8881 Y1.2033 Z-0.04
N1945 G3 X0.8771 Y1.2183 I-0.0347 J-0.014
N1950 G1 X0.8603 Y1.2311
N1955 G3 X0.8507 Y1.2186 I-0.0046 J-0.0064
N1960 G1 X0.8512 Y1.2183
N1965 X0.8529 Y1.2171 Z-0.0397
N1970 X0.8544 Y1.216 Z-0.0389
N1975 X0.8557 Y1.215 Z-0.0377
N1980 X0.8568 Y1.2143 Z-0.0361
N1985 X0.8574 Y1.2139 Z-0.0342
N1990 X0.8576 Y1.2137 Z-0.0321
N1995 G0 Z0.2
N2000 X0.4846 Y1.4249
N2005 Z-0.0243
N2010 G1 Z-0.0321 F8.
N2015 X0.4844 Y1.4251 Z-0.0342
N2020 X0.4839 Y1.4257 Z-0.0361
N2025 X0.4831 Y1.4266 Z-0.0377
N2030 X0.4821 Y1.4279 Z-0.0389
N2035 X0.4809 Y1.4293 Z-0.0397
N2040 X0.4795 Y1.4309 Z-0.04
N2045 G3 X0.4594 Y1.4453 I-0.0382 J-0.0321
N2050 G1 X0.4156 Y1.4605
N2055 G3 X0.311 Y1.4763 I-0.0968 J-0.2883
N2060 G1 X0.2909 Y1.4767
N2065 X0.2707 Y1.4769
N2070 X0.2305 Y1.477
N2075 X-0.0916
N2080 X-0.354
N2085 X-0.3558 Y1.4769
N2090 X-0.3575 Y1.4766
N2095 X-0.3593 Y1.4762
N2100 X-0.4183 Y1.4582
N2105 X-0.4528 Y1.4476
N2110 G3 X-0.4482 Y1.4326 I0.0026 J-0.0074
N2115 G1 X-0.4477 Y1.4328
N2120 X-0.4457 Y1.4334 Z-0.0397
N2125 X-0.4439 Y1.434 Z-0.0389
N2130 X-0.4424 Y1.4346 Z-0.0377
N2135 X-0.4412 Y1.435 Z-0.0361
N2140 X-0.4405 Y1.4352 Z-0.0342
N2145 X-0.4402 Y1.4353 Z-0.0321
N2150 G0 Z0.2
N2155 X0.4174 Y1.4492
N2160 Z-0.0243
N2165 G1 Z-0.0321 F8.
N2170 X0.4172 Y1.4494 Z-0.0342
N2175 X0.4166 Y1.45 Z-0.0361
N2180 X0.4158 Y1.4509 Z-0.0377
N2185 X0.4146 Y1.452 Z-0.0389
N2190 X0.4133 Y1.4534 Z-0.0397
N2195 X0.4119 Y1.4549 Z-0.04
N2200 G3 X0.3909 Y1.4679 I-0.0359 J-0.0346
N2205 X0.2401 Y1.5027 I-0.6334 J-2.3969
N2210 X0.1195 Y1.5083 I-0.1028 J-0.9214
N2215 G1 X0.0792 Y1.5085
N2220 X-0.1985
N2225 X-0.1995 Y1.5084
N2230 G3 X-0.3452 Y1.4804 I0.5352 J-3.1724
N2235 G1 X-0.3593 Y1.4762
N2240 G3 X-0.3547 Y1.4611 I0.0025 J-0.0075
N2245 G1 X-0.3542 Y1.4613
N2250 X-0.3523 Y1.4619 Z-0.0397
N2255 X-0.3505 Y1.4625 Z-0.0389
N2260 X-0.3489 Y1.4631 Z-0.0377
N2265 X-0.3478 Y1.4635 Z-0.0361
N2270 X-0.347 Y1.4637 Z-0.0342
N2275 X-0.3468 Y1.4638 Z-0.0321
N2280 G0 Z0.2
N2285 X0.2683 Y1.4867
N2290 Z-0.0243
N2295 G1 Z-0.0321 F8.
N2300 X0.2681 Y1.4868 Z-0.0342
N2305 X0.2675 Y1.4873 Z-0.0361
N2310 X0.2666 Y1.4881 Z-0.0377
N2315 X0.2653 Y1.4892 Z-0.0389
N2320 X0.2639 Y1.4904 Z-0.0397
N2325 X0.2623 Y1.4917 Z-0.04
N2330 G3 X0.24 Y1.5024 I-0.032 J-0.0382
N2335 X0.0983 Y1.5195 I-0.4017 J-2.7321
N2340 X-0.0571 Y1.522 I-0.1227 J-2.8265
N2345 X-0.1943 Y1.5095 I0.3892 J-5.0584
N2350 G1 X-0.2016 Y1.5082
N2355 G3 X-0.1989 Y1.4927 I0.0016 J-0.0077
N2360 G1 X-0.1984 Y1.4928
N2365 X-0.1964 Y1.4932 Z-0.0397
N2370 X-0.1945 Y1.4936 Z-0.0389
N2375 X-0.1929 Y1.4939 Z-0.0377
N2380 X-0.1917 Y1.4942 Z-0.0361
N2385 X-0.1909 Y1.4943 Z-0.0342
N2390 X-0.1907 Y1.4944 Z-0.0321
N2395 G0 Z0.2
N2400 X-1.3803 Y0.3762
N2405 Z-0.0243
N2410 G1 Z-0.0321 F8.
N2415 X-1.3805 Y0.376 Z-0.0342
N2420 X-1.381 Y0.3754 Z-0.0361
N2425 X-1.3819 Y0.3744 Z-0.0377
N2430 X-1.3829 Y0.3732 Z-0.0389
N2435 X-1.3842 Y0.3718 Z-0.0397
N2440 X-1.3856 Y0.3703 Z-0.04
N2445 G3 X-1.397 Y0.3483 I0.0372 J-0.0332
N2450 G1 X-1.4 Y0.33
N2455 G3 X-1.3844 Y0.328 I0.0078 J-0.0007
N2460 G1 X-1.3843 Y0.3286
N2465 X-1.3841 Y0.3306 Z-0.0397
N2470 X-1.384 Y0.3325 Z-0.0389
N2475 X-1.3838 Y0.3341 Z-0.0377
N2480 X-1.3837 Y0.3353 Z-0.0361
N2485 X-1.3836 Y0.3361 Z-0.0342
N2490 Y0.3364 Z-0.0321
N2495 G0 Z0.2
N2500 X-0.3055 Y-1.4287
N2505 Z-0.0243
N2510 G1 Z-0.0321 F8.
N2515 Y-1.4289 Z-0.0342
N2520 Y-1.4297 Z-0.0361
N2525 Y-1.431 Z-0.0377
N2530 Y-1.4326 Z-0.0389
N2535 Y-1.4345 Z-0.0397
N2540 Y-1.4366 Z-0.04
N2545 G3 X-0.2996 Y-1.4606 I0.0498 J-0.0004
N2550 X-0.2829 Y-1.4776 I0.0283 J0.011
N2555 X-0.2192 Y-1.4906 I0.0654 J0.1577
N2560 X-0.0783 Y-1.4923 I0.1059 J2.8739
N2565 G1 X0.2703 Y-1.4925
N2570 G3 X0.2877 Y-1.4809 I-0.0008 J0.02
N2575 X0.2741 Y-1.473 I-0.0069 J0.0037
N2580 G1 X0.2738 Y-1.4734
N2585 X0.2728 Y-1.4752 Z-0.0397
N2590 X0.2719 Y-1.4769 Z-0.0389
N2595 X0.2712 Y-1.4783 Z-0.0377
N2600 X0.2706 Y-1.4794 Z-0.0361
N2605 X0.2702 Y-1.4801 Z-0.0342
N2610 X0.2701 Y-1.4804 Z-0.0321
N2615 G0 Z0.2
N2620 X-0.3022 Y-1.4343
N2625 Z-0.0243
N2630 G1 Z-0.0321 F8.
N2635 Y-1.4346 Z-0.0342
N2640 Y-1.4354 Z-0.0361
N2645 Y-1.4366 Z-0.0377
N2650 Y-1.4382 Z-0.0389
N2655 Y-1.4401 Z-0.0397
N2660 Y-1.4422 Z-0.04
N2665 G3 X-0.2963 Y-1.4662 I0.0498 J-0.0004
N2670 G1 X-0.2857 Y-1.4842
N2675 G3 X-0.2491 Y-1.5034 I0.0364 J0.025
N2680 X-0.144 Y-1.5161 I0.4679 J3.4263
N2685 X0.0251 Y-1.5222 I0.149 J1.7775
N2690 X0.1504 Y-1.5155 I-0.0406 J1.9256
N2695 X0.2583 Y-1.5023 I-0.4213 J3.9019
N2700 X0.2851 Y-1.485 I-0.0078 J0.0416
N2705 X0.2788 Y-1.4727 I-0.0065 J0.0044
N2710 G1 X0.2786
N2715 X0.277 Y-1.4732 Z-0.0397
N2720 X0.2754 Y-1.4737 Z-0.0391
N2725 X0.274 Y-1.4742 Z-0.0381
N2730 X0.2731 Y-1.4751 Z-0.0367
N2735 X0.2724 Y-1.4757 Z-0.035
N2740 X0.2722 Y-1.476 Z-0.0336
N2745 X0.2721 Y-1.4761 Z-0.0321
N2750 G0 Z0.2
N2755 X-0.9977 Y0.0445
N2760 Z0.0679
N2765 G1 Z0.06 F8.
N2770 G3 X-1.0673 Y0.072 Z0.0559 I-0.0348 J0.0137 F2.
N2775 X-0.9977 Y0.0445 Z0.0518 I0.0348 J-0.0137
N2780 X-1.0673 Y0.072 Z0.0477 I-0.0348 J0.0137
N2785 X-0.9977 Y0.0445 Z0.0436 I0.0348 J-0.0137
N2790 X-1.0673 Y0.072 Z0.0395 I-0.0348 J0.0137
N2795 X-0.9977 Y0.0445 Z0.0354 I0.0348 J-0.0137
N2800 X-1.0673 Y0.072 Z0.0313 I-0.0348 J0.0137
N2805 X-0.9977 Y0.0445 Z0.0272 I0.0348 J-0.0137
N2810 X-1.0673 Y0.072 Z0.0231 I-0.0348 J0.0137
N2815 X-0.9977 Y0.0445 Z0.019 I0.0348 J-0.0137
N2820 X-1.0673 Y0.072 Z0.0149 I-0.0348 J0.0137
N2825 X-0.9977 Y0.0445 Z0.0108 I0.0348 J-0.0137
N2830 X-1.0673 Y0.072 Z0.0067 I-0.0348 J0.0137
N2835 X-0.9977 Y0.0445 Z0.0026 I0.0348 J-0.0137
N2840 X-1.0673 Y0.072 Z-0.0015 I-0.0348 J0.0137
N2845 X-0.9977 Y0.0445 Z-0.0057 I0.0348 J-0.0137
N2850 X-1.0673 Y0.072 Z-0.0098 I-0.0348 J0.0137
N2855 X-0.9977 Y0.0445 Z-0.0139 I0.0348 J-0.0137
N2860 X-1.0673 Y0.072 Z-0.018 I-0.0348 J0.0137
N2865 X-0.9977 Y0.0445 Z-0.0221 I0.0348 J-0.0137
N2870 X-1.0673 Y0.072 Z-0.0262 I-0.0348 J0.0137
N2875 X-0.9977 Y0.0445 Z-0.0303 I0.0348 J-0.0137
N2880 X-1.0673 Y0.072 Z-0.0344 I-0.0348 J0.0137
N2885 X-0.9977 Y0.0445 Z-0.0385 I0.0348 J-0.0137
N2890 X-1.0673 Y0.072 Z-0.0426 I-0.0348 J0.0137
N2895 X-0.9977 Y0.0445 Z-0.0467 I0.0348 J-0.0137
N2900 X-1.0673 Y0.072 Z-0.0508 I-0.0348 J0.0137
N2905 X-0.9977 Y0.0445 Z-0.0549 I0.0348 J-0.0137
N2910 X-1.0673 Y0.072 Z-0.059 I-0.0348 J0.0137
N2915 X-0.9977 Y0.0445 Z-0.0631 I0.0348 J-0.0137
N2920 X-1.0673 Y0.072 Z-0.0672 I-0.0348 J0.0137
N2925 X-0.9977 Y0.0445 Z-0.0713 I0.0348 J-0.0137
N2930 X-1.0673 Y0.072 Z-0.0754 I-0.0348 J0.0137
N2935 X-0.9977 Y0.0445 Z-0.0795 I0.0348 J-0.0137
N2940 X-0.9951 Y0.0582 Z-0.08 I-0.0348 J0.0137
N2945 X-1.0699 I-0.0374 J0.
N2950 X-0.9951 I0.0374 J0.
N2955 G1 X-0.9941 Y0.0783 F8.
N2960 G3 X-1.0083 Y0.108 I-0.0288 J0.0045
N2965 X-1.0819 Y0.0915 I-0.0286 J-0.0445
N2970 X-1.0621 Y0.0057 I0.0494 J-0.0338
N2975 X-0.9782 Y0.0326 I0.0295 J0.052
N2980 X-0.9704 Y0.0939 I-0.0737 J0.0406
N2985 X-1.0586 Y0.1372 I-0.066 J-0.0231
N2990 X-1.0962 Y0.002 I0.0236 J-0.0793
N2995 X-0.9589 Y0.015 I0.064 J0.0558
N3000 X-0.9745 Y0.1443 I-0.0798 J0.056
N3005 X-1.1306 Y0.1105 I-0.0641 J-0.0813
N3010 X-0.956 Y-0.0234 I0.0979 J-0.0532
N3015 X-0.9633 Y0.1702 I-0.083 J0.0938
N3020 X-1.1591 Y0.1159 I-0.0755 J-0.1078
N3025 X-0.9475 Y-0.0529 I0.1264 J-0.0586
N3030 X-0.9656 Y0.2048 I-0.0909 J0.1231
N3035 G1 X-0.9683 Y0.2055
N3040 X-0.9709 Y0.2062
N3045 X-0.9737 Y0.2064
N3050 X-1.0811
N3055 G3 X-1.1492 Y0.1761 I0.0057 J-0.1045
N3060 X-1.1903 Y0.1142 I0.0904 J-0.1045
N3065 X-1.1845 Y0.0983 I0.0331 J0.003
N3070 G2 X-1.1807 Y0.08 I-0.0368 J-0.0173
N3075 G1 X-1.1806 Y0.0571
N3080 Y0.0069
N3085 G3 X-1.1516 Y-0.0587 I0.0993 J0.0048
N3090 X-1.1109 Y-0.0899 I0.09 J0.0751
N3095 G1 X-1.1074
N3100 G3 X-1.1013 Y-0.0774 I-0.0003 J0.0079
N3105 G1 X-1.1059 Y-0.0712
N3110 X-1.1633 Y0.007
N3115 X-1.1664 Y0.0112
N3120 G3 X-1.1806 Y0.0069 I-0.0063 J-0.0047
N3125 G1 Y-0.0389
N3130 G3 X-1.1584 Y-0.0869 I0.0685 J0.0025
N3135 G1 X-1.1535 Y-0.0891
N3140 X-1.1483 Y-0.0899
N3145 G3 X-1.1417 Y-0.0782 I-0.0003 J0.0079
N3150 G1 X-1.1459 Y-0.0707
N3155 X-1.1638 Y-0.039
N3160 X-1.1659 Y-0.0353
N3165 G3 X-1.1806 Y-0.0389 I-0.0069 J-0.0039
N3170 X-1.1804 Y-0.0834 I0.5397 J-0.0201
N3175 G1 X-1.18 Y-0.0846
N3180 X-1.1796 Y-0.0855
N3185 X-1.179 Y-0.0864
N3190 X-1.1786 Y-0.0869
N3195 X-1.1781 Y-0.0874
N3200 X-1.1771 Y-0.0882
N3205 X-1.1763 Y-0.0887
N3210 X-1.1756 Y-0.0891
N3215 X-1.1748 Y-0.0894
N3220 X-1.1741 Y-0.0897
N3225 X-1.1733 Y-0.0898
N3230 X-1.1726 Y-0.0899
N3235 X-0.9806
N3240 G3 X-0.9216 Y-0.0667 I-0.0042 J0.0971
N3245 X-0.8859 Y-0.0277 I-0.0852 J0.1138
N3250 G1 X-0.8848 Y-0.024
N3255 X-0.8844 Y-0.0201
N3260 G3 X-0.8968 Y-0.014 I-0.0079 J-0.0003
N3265 G1 X-0.9032 Y-0.0185
N3270 X-0.9806 Y-0.0727
N3275 X-0.9848 Y-0.0756
N3280 G3 X-0.9806 Y-0.0899 I0.0045 J-0.0065
N3285 G1 X-0.9348
N3290 G3 X-0.8874 Y-0.0691 I-0.0022 J0.0696
N3295 G1 X-0.8852 Y-0.0641
N3300 X-0.8844 Y-0.0587
N3305 G3 X-0.896 Y-0.0521 I-0.0079 J-0.0003
N3310 G1 X-0.9037 Y-0.0562
N3315 X-0.9347 Y-0.0731
N3320 X-0.9383 Y-0.0751
N3325 G3 X-0.9348 Y-0.0899 I0.0038 J-0.0069
N3330 X-0.8915 Y-0.0898 I0.0195 J1.2911
N3335 G1 X-0.8904 Y-0.0896
N3340 X-0.8891 Y-0.0891
N3345 X-0.8884 Y-0.0887
N3350 X-0.8877 Y-0.0882
N3355 X-0.8864 Y-0.0868
N3360 X-0.8859 Y-0.0863
N3365 X-0.8855 Y-0.0857
N3370 X-0.885 Y-0.0846
N3375 X-0.8846 Y-0.0833
N3380 X-0.8844 Y-0.0825
N3385 Y-0.0817
N3390 Y0.0709
N3395 G2 X-0.8766 Y0.1058 I0.0542 J0.0063
N3400 G3 X-0.8779 Y0.1393 I-0.0432 J0.0151
N3405 G1 X-0.8795 Y0.1408
N3410 X-0.8814 Y0.1419
N3415 X-0.8836 Y0.1424
N3420 X-0.8858 Y0.1423
N3425 X-0.8878 Y0.1416
N3430 X-0.8897 Y0.1404
N3435 X-0.8911 Y0.1388
N3440 X-0.892 Y0.1369
N3445 X-0.8924 Y0.1348
N3450 X-0.8926 Y0.1292
N3455 X-0.8937 Y0.1091
N3460 X-0.8939 Y0.105
N3465 G3 X-0.8794 Y0.1004 I0.0079 J-0.0004
N3470 G2 X-0.8651 Y0.1154 I0.0376 J-0.0216
N3475 G1 X-0.8644 Y0.1166
N3480 X-0.8638 Y0.1177
N3485 X-0.8635 Y0.1189
N3490 X-0.8633 Y0.12
N3495 Y0.1211
N3500 X-0.8634 Y0.1223
N3505 X-0.8637 Y0.1234
N3510 X-0.8642 Y0.1246
N3515 G3 X-0.8753 Y0.1347 I-0.0732 J-0.0694
N3520 G2 X-0.8845 Y0.1557 I0.0421 J0.0309
N3525 G3 X-0.9176 Y0.204 I-0.1108 J-0.0404
N3530 G1 X-0.9222 Y0.2057
N3535 X-0.927 Y0.2064
N3540 G3 X-0.9331 Y0.1939 I0.0003 J-0.0079
N3545 G1 X-0.9286 Y0.1876
N3550 X-0.899 Y0.1465
N3555 X-0.897 Y0.1438
N3560 G3 X-0.8829 Y0.15 I0.0064 J0.0046
N3565 G1 X-0.8837 Y0.1531
N3570 X-0.8842 Y0.1577
N3575 G3 X-0.8855 Y0.1925 I-0.2155 J0.0092
N3580 G1 X-0.8859 Y0.1933
N3585 X-0.8885 Y0.1986
N3590 X-0.8926 Y0.2028
N3595 X-0.8977 Y0.2054
N3600 X-0.9035 Y0.2064
N3605 G3 X-0.9099 Y0.1943 I0.0003 J-0.0079
N3610 G1 X-0.9055 Y0.1873
N3615 X-0.9014 Y0.1806
N3620 X-0.8989 Y0.1767
N3625 G3 X-0.8844 Y0.1806 I0.0067 J0.0042
N3630 G1 Y0.1943
N3635 Y0.1989
N3640 X-0.8846 Y0.1997
N3645 X-0.8848 Y0.2006
N3650 X-0.8852 Y0.2016
N3655 X-0.8858 Y0.2025
N3660 X-0.8865 Y0.2034
N3665 X-0.8872 Y0.2041
N3670 X-0.8878 Y0.2047
N3675 X-0.8885 Y0.2052
N3680 X-0.8891 Y0.2055
N3685 X-0.8903 Y0.206
N3690 X-0.8914 Y0.2063
N3695 X-0.8937 Y0.2064
N3700 X-0.9737
N3705 X-0.9738 Y0.2063
N3710 G2 X-0.998 Y0.2027 I-0.0536 J0.2758
N3715 G1 X-0.9981
N3720 X-0.9989
N3725 X-1.0559
N3730 X-1.0567
N3735 X-1.0568
N3740 G2 X-1.081 Y0.2063 I0.0294 J0.2794
N3745 G1 X-1.0811 Y0.2064
N3750 X-1.1268
N3755 G3 X-1.1774 Y0.1833 I0.002 J-0.0715
N3760 G1 X-1.1798 Y0.1784
N3765 X-1.1806 Y0.173
N3770 G3 X-1.1689 Y0.1664 I0.0079 J0.0003
N3775 G1 X-1.1614 Y0.1706
N3780 X-1.127 Y0.1895
N3785 X-1.1233 Y0.1916
N3790 G3 X-1.1268 Y0.2064 I-0.0038 J0.0069
N3795 X-1.1737 Y0.2063 I-0.021 J-1.0407
N3800 G1 X-1.1748 Y0.2059
N3805 X-1.176 Y0.2054
N3810 X-1.1766 Y0.205
N3815 X-1.1771 Y0.2046
N3820 X-1.1784 Y0.2034
N3825 X-1.1789 Y0.2029
N3830 X-1.1793 Y0.2023
N3835 X-1.18 Y0.2011
N3840 X-1.1804 Y0.2
N3845 G2 X-1.1812 Y0.1531 I-0.6451 J-0.0123
N3850 X-1.2001 Y0.1259 I-0.041 J0.0083
N3855 G1 X-1.2008 Y0.1246
N3860 X-1.2013 Y0.1234
N3865 X-1.2016 Y0.1223
N3870 X-1.2017 Y0.1211
N3875 Y0.12
N3880 X-1.2015 Y0.1189
N3885 X-1.2011 Y0.1177
N3890 X-1.2005 Y0.1166
N3895 G2 X-1.187 Y0.1028 I-0.0556 J-0.0685
N3900 G1 X-1.1856 Y0.1013
N3905 X-1.1838 Y0.1002
N3910 X-1.1818 Y0.0996
N3915 X-1.1797 Y0.0995
N3920 X-1.1777 Y0.1
N3925 X-1.1759 Y0.101
N3930 X-1.1744 Y0.1025
N3935 X-1.1733 Y0.1043
N3940 X-1.173 Y0.1058 Z-0.0798
N3945 X-1.1727 Y0.1073 Z-0.0794
N3950 X-1.1732 Y0.109 Z-0.0783
N3955 X-1.1736 Y0.1104 Z-0.0768
N3960 X-1.1739 Y0.1113 Z-0.075
N3965 X-1.1741 Y0.1117 Z-0.0736
N3970 X-1.1742 Y0.1118 Z-0.0721
N3975 G0 Z0.2
N3980 X0.07 Y0.6532
N3985 Z-0.0643
N3990 G1 Z-0.0721 F8.
N3995 Y0.6535 Z-0.0742
N4000 X0.0702 Y0.6542 Z-0.0761
N4005 X0.0705 Y0.6554 Z-0.0777
N4010 X0.0709 Y0.657 Z-0.0789
N4015 X0.0714 Y0.6588 Z-0.0797
N4020 X0.0719 Y0.6608 Z-0.08
N4025 G3 X0.0754 Y0.6853 I-0.1112 J0.0285
N4030 G1 Y0.6883
N4035 X0.0729 Y0.6938
N4040 G3 X0.0523 Y0.7063 I-0.0295 J-0.0254
N4045 G1 X0.0499 Y0.7064
N4050 X-0.5737
N4055 G3 X-0.6546 Y0.6636 I0.0092 J-0.1153
N4060 X-0.6809 Y0.6137 I0.08 J-0.0742
N4065 G1 X-0.6806 Y0.6117
N4070 X-0.6798 Y0.6098
N4075 X-0.6785 Y0.6082
N4080 X-0.6769 Y0.607
N4085 X-0.6751 Y0.6062
N4090 X-0.6731 Y0.6059
N4095 X-0.6711 Y0.6061
N4100 X-0.6693 Y0.6068
N4105 X-0.6676 Y0.6079
N4110 X-0.6623 Y0.6125
N4115 X-0.5733 Y0.6887
N4120 X-0.5689 Y0.6925
N4125 G3 X-0.5737 Y0.7064 I-0.0051 J0.006
N4130 G1 X-0.6219
N4135 G3 X-0.6713 Y0.6831 I0.005 J-0.0746
N4140 X-0.6806 Y0.6665 I0.011 J-0.0171
N4145 X-0.6686 Y0.6601 I0.0079 J0.0003
N4150 G1 X-0.6616 Y0.6645
N4155 X-0.622 Y0.6893
N4160 X-0.618 Y0.6918
N4165 G3 X-0.6219 Y0.7064 I-0.0042 J0.0067
N4170 G1 X-0.6514
N4175 G3 X-0.6673 Y0.7032 I0.0017 J-0.0496
N4180 X-0.6798 Y0.6834 I0.0107 J-0.0207
N4185 G1 X-0.6806 Y0.6789
N4190 Y0.1623
N4195 G2 X-0.6864 Y0.1385 I-0.0528 J0.0002
N4200 G3 X-0.6899 Y0.1074 I0.0619 J-0.0227
N4205 G1 X-0.6876 Y0.1036
N4210 G3 X-0.6734 Y0.1073 I0.0064 J0.0047
N4215 G1 X-0.6727 Y0.1132
N4220 X-0.6699 Y0.1359
N4225 X-0.6695 Y0.1391
N4230 G3 X-0.6841 Y0.144 I-0.0078 J0.001
N4235 G2 X-0.7001 Y0.1259 I-0.04 J0.0192
N4240 G1 X-0.7007 Y0.1247
N4245 X-0.7012 Y0.1237
N4250 X-0.7015 Y0.1226
N4255 X-0.7017 Y0.1216
N4260 Y0.1211
N4265 Y0.1198
N4270 X-0.7016 Y0.119
N4275 X-0.7013 Y0.1182
N4280 X-0.701 Y0.1174
N4285 X-0.7006 Y0.1166
N4290 G2 X-0.6869 Y0.103 I-0.0676 J-0.0814
N4295 X-0.6807 Y0.08 I-0.037 J-0.0224
N4300 G1 X-0.6806 Y0.0571
N4305 Y-0.3863
N4310 G3 X-0.6394 Y-0.4695 I0.1161 J0.0057
N4315 X-0.5875 Y-0.4972 I0.0754 J0.0788
N4320 G1 X-0.5856 Y-0.4969
N4325 X-0.5837 Y-0.4961
N4330 X-0.5821 Y-0.4948
N4335 X-0.5809 Y-0.4932
N4340 X-0.5801 Y-0.4914
N4345 X-0.5798 Y-0.4895
N4350 X-0.58 Y-0.4875
N4355 X-0.5806 Y-0.4856
N4360 X-0.5817 Y-0.484
N4365 X-0.5863 Y-0.4785
N4370 X-0.663 Y-0.3859
N4375 X-0.6667 Y-0.3815
N4380 G3 X-0.6806 Y-0.3863 I-0.0061 J-0.005
N4385 G1 Y-0.4366
N4390 G3 X-0.6495 Y-0.4948 I0.0783 J0.0044
N4395 G1 X-0.6453 Y-0.4964
N4400 X-0.6408 Y-0.4969
N4405 G3 X-0.6344 Y-0.4849 I-0.0003 J0.0079
N4410 G1 X-0.6387 Y-0.4778
N4415 X-0.6637 Y-0.4367
N4420 X-0.666 Y-0.4328
N4425 G3 X-0.6806 Y-0.4366 I-0.0067 J-0.0041
N4430 G1 Y-0.4686
N4435 G3 X-0.6774 Y-0.4834 I0.04 J0.0008
N4440 X-0.6651 Y-0.4946 I0.0201 J0.0099
N4445 G1 X-0.656 Y-0.4964
N4450 X-0.6537 Y-0.4968
N4455 X-0.6514 Y-0.4969
N4460 X0.5691
N4465 G3 X0.6532 Y-0.4555 I-0.0033 J0.1127
N4470 X0.6778 Y-0.4139 I-0.0743 J0.072
N4475 X0.6807 Y-0.4025 I-0.0289 J0.0133
N4480 G1 X0.6803 Y-0.4003
N4485 X0.6793 Y-0.3984
N4490 X0.6778 Y-0.3967
N4495 X0.676 Y-0.3956
N4500 X0.6739 Y-0.395
N4505 X0.6717
N4510 X0.6696 Y-0.3956
N4515 X0.6677 Y-0.3967
N4520 X0.6622 Y-0.4013
N4525 X0.5688 Y-0.4793
N4530 X0.5644 Y-0.483
N4535 G3 X0.5691 Y-0.4969 I0.005 J-0.006
N4540 G1 X0.6219
N4545 G3 X0.6708 Y-0.474 I-0.0051 J0.0745
N4550 X0.6806 Y-0.4569 I-0.0112 J0.0178
N4555 X0.6686 Y-0.4505 I-0.0079 J-0.0003
N4560 G1 X0.6616 Y-0.4549
N4565 X0.622 Y-0.4799
N4570 X0.618 Y-0.4824
N4575 G3 X0.6219 Y-0.4969 I0.0042 J-0.0067
N4580 G1 X0.6514
N4585 G3 X0.6675 Y-0.4936 I-0.0013 J0.047
N4590 X0.6786 Y-0.4806 I-0.0108 J0.0205
N4595 G1 X0.6804 Y-0.4709
N4600 X0.6806 Y-0.4697
N4605 Y-0.4686
N4610 Y-0.2354
N4615 G2 X0.6872 Y-0.2025 I0.0578 J0.0056
N4620 G3 X0.6908 Y-0.177 I-0.0871 J0.0251
N4625 G1 X0.6897 Y-0.1731
N4630 X0.6878 Y-0.1695
N4635 G3 X0.6736 Y-0.1732 I-0.0064 J-0.0046
N4640 G1 X0.673 Y-0.1789
N4645 X0.6708 Y-0.1993
N4650 X0.6704 Y-0.2029
N4655 G3 X0.6848 Y-0.208 I0.0078 J-0.0008
N4660 G2 X0.7006 Y-0.191 I0.0403 J-0.0216
N4665 G1 X0.701 Y-0.1897
N4670 X0.7015 Y-0.1884
N4675 X0.7017 Y-0.1872
N4680 X0.7018 Y-0.1863
N4685 X0.7017 Y-0.1851
N4690 X0.7014 Y-0.184
N4695 X0.701 Y-0.1829
N4700 X0.7003 Y-0.1817
N4705 G2 X0.6821 Y-0.1578 I0.0264 J0.0391
N4710 G1 X0.6813 Y-0.1531
N4715 X0.6808 Y-0.1486
N4720 X0.6806 Y-0.144
N4725 Y0.3131
N4730 G2 X0.6866 Y0.3461 I0.0594 J0.0063
N4735 G3 X0.6911 Y0.3724 I-0.0688 J0.0255
N4740 G1 X0.6899 Y0.3768
N4745 X0.6877 Y0.3807
N4750 G3 X0.6737 Y0.3769 I-0.0062 J-0.0048
N4755 G1 X0.6729 Y0.3707
N4760 X0.67 Y0.3489
N4765 X0.6696 Y0.3457
N4770 G3 X0.6841 Y0.3406 I0.0078 J-0.001
N4775 G2 X0.7002 Y0.3586 I0.0397 J-0.0191
N4780 G1 X0.7007 Y0.3599
N4785 X0.7012 Y0.3609
N4790 X0.7015 Y0.3618
N4795 X0.7017 Y0.3628
N4800 X0.7018 Y0.3634
N4805 X0.7017 Y0.3646
N4810 X0.7016 Y0.3655
N4815 X0.7013 Y0.3663
N4820 X0.701 Y0.3672
N4825 G3 X0.6904 Y0.377 I-0.06 J-0.054
N4830 G2 X0.6807 Y0.4046 I0.0321 J0.0268
N4835 G1 X0.6806 Y0.5966
N4840 G3 X0.6425 Y0.6765 I-0.1119 J-0.0043
N4845 X0.5882 Y0.7067 I-0.0805 J-0.0807
N4850 G1 X0.5862 Y0.7064
N4855 X0.5843 Y0.7056
N4860 X0.5827 Y0.7043
N4865 X0.5815 Y0.7027
N4870 X0.5807 Y0.7009
N4875 X0.5804 Y0.6989
N4880 X0.5806 Y0.697
N4885 X0.5812 Y0.6951
N4890 X0.5823 Y0.6935
N4895 X0.5869 Y0.6879
N4900 X0.663 Y0.5962
N4905 X0.6667 Y0.5918
N4910 G3 X0.6806 Y0.5966 I0.0061 J0.005
N4915 G1 Y0.6469
N4920 G3 X0.654 Y0.7005 I-0.0761 J-0.0042
N4925 G1 X0.6504 Y0.7038
N4930 X0.6459 Y0.7057
N4935 X0.641 Y0.7064
N4940 G3 X0.6346 Y0.6944 I0.0003 J-0.0079
N4945 G1 X0.6389 Y0.6873
N4950 X0.6636 Y0.6469
N4955 X0.666 Y0.643
N4960 G3 X0.6806 Y0.6469 I0.0067 J0.0041
N4965 G1 Y0.6789
N4970 G3 X0.6777 Y0.6926 I-0.0734 J-0.0085
N4975 X0.6651 Y0.7041 I-0.0212 J-0.0105
N4980 G1 X0.656 Y0.7059
N4985 X0.6539 Y0.7063
N4990 X0.6514 Y0.7064
N4995 X0.0499
N5000 G3 X0.0437 Y0.694 I0.0003 J-0.0079
N5005 G1 X0.045 Y0.693 Z-0.0798
N5010 X0.0463 Y0.692 Z-0.0792
N5015 X0.0475 Y0.6911 Z-0.0783
N5020 X0.0487 Y0.6909 Z-0.0771
N5025 X0.0496 Y0.6907 Z-0.0757
N5030 X0.0501 Y0.6906 Z-0.0742
N5035 X0.0504 Z-0.0721
N5040 G0 Z0.2
N5045 X1.0673 Y0.2857
N5050 Z0.0679
N5055 G1 Z0.06 F8.
N5060 G3 X0.9977 Y0.3132 Z0.0559 I-0.0348 J0.0137 F2.
N5065 X1.0673 Y0.2857 Z0.0518 I0.0348 J-0.0137
N5070 X0.9977 Y0.3132 Z0.0477 I-0.0348 J0.0137
N5075 X1.0673 Y0.2857 Z0.0436 I0.0348 J-0.0137
N5080 X0.9977 Y0.3132 Z0.0395 I-0.0348 J0.0137
N5085 X1.0673 Y0.2857 Z0.0354 I0.0348 J-0.0137
N5090 X0.9977 Y0.3132 Z0.0313 I-0.0348 J0.0137
N5095 X1.0673 Y0.2857 Z0.0272 I0.0348 J-0.0137
N5100 X0.9977 Y0.3132 Z0.0231 I-0.0348 J0.0137
N5105 X1.0673 Y0.2857 Z0.019 I0.0348 J-0.0137
N5110 X0.9977 Y0.3132 Z0.0149 I-0.0348 J0.0137
N5115 X1.0673 Y0.2857 Z0.0108 I0.0348 J-0.0137
N5120 X0.9977 Y0.3132 Z0.0067 I-0.0348 J0.0137
N5125 X1.0673 Y0.2857 Z0.0026 I0.0348 J-0.0137
N5130 X0.9977 Y0.3132 Z-0.0015 I-0.0348 J0.0137
N5135 X1.0673 Y0.2857 Z-0.0057 I0.0348 J-0.0137
N5140 X0.9977 Y0.3132 Z-0.0098 I-0.0348 J0.0137
N5145 X1.0673 Y0.2857 Z-0.0139 I0.0348 J-0.0137
N5150 X0.9977 Y0.3132 Z-0.018 I-0.0348 J0.0137
N5155 X1.0673 Y0.2857 Z-0.0221 I0.0348 J-0.0137
N5160 X0.9977 Y0.3132 Z-0.0262 I-0.0348 J0.0137
N5165 X1.0673 Y0.2857 Z-0.0303 I0.0348 J-0.0137
N5170 X0.9977 Y0.3132 Z-0.0344 I-0.0348 J0.0137
N5175 X1.0673 Y0.2857 Z-0.0385 I0.0348 J-0.0137
N5180 X0.9977 Y0.3132 Z-0.0426 I-0.0348 J0.0137
N5185 X1.0673 Y0.2857 Z-0.0467 I0.0348 J-0.0137
N5190 X0.9977 Y0.3132 Z-0.0508 I-0.0348 J0.0137
N5195 X1.0673 Y0.2857 Z-0.0549 I0.0348 J-0.0137
N5200 X0.9977 Y0.3132 Z-0.059 I-0.0348 J0.0137
N5205 X1.0673 Y0.2857 Z-0.0631 I0.0348 J-0.0137
N5210 X0.9977 Y0.3132 Z-0.0672 I-0.0348 J0.0137
N5215 X1.0673 Y0.2857 Z-0.0713 I0.0348 J-0.0137
N5220 X0.9977 Y0.3132 Z-0.0754 I-0.0348 J0.0137
N5225 X1.0673 Y0.2857 Z-0.0795 I0.0348 J-0.0137
N5230 X1.0699 Y0.2994 Z-0.08 I-0.0348 J0.0137
N5235 X0.9951 I-0.0374 J0.
N5240 X1.0699 I0.0374 J0.
N5245 G1 X1.0709 Y0.3195 F8.
N5250 G3 X1.0567 Y0.3492 I-0.0288 J0.0045
N5255 X0.9831 Y0.3327 I-0.0286 J-0.0445
N5260 X1.0029 Y0.2469 I0.0494 J-0.0338
N5265 X1.0867 Y0.2738 I0.0295 J0.052
N5270 X1.0946 Y0.3351 I-0.0737 J0.0406
N5275 X1.0064 Y0.3783 I-0.066 J-0.0231
N5280 X0.9688 Y0.2432 I0.0236 J-0.0793
N5285 X1.1061 Y0.2562 I0.064 J0.0558
N5290 X1.0905 Y0.3855 I-0.0798 J0.056
N5295 X0.9344 Y0.3517 I-0.0641 J-0.0813
N5300 X1.109 Y0.2178 I0.0979 J-0.0532
N5305 X1.1016 Y0.4114 I-0.083 J0.0938
N5310 X0.9059 Y0.357 I-0.0755 J-0.1078
N5315 X1.1175 Y0.1883 I0.1264 J-0.0586
N5320 X1.0996 Y0.4459 I-0.0909 J0.1231
N5325 X1.0801 Y0.4537 I-0.0406 J-0.0739
N5330 G1 X1.0778
N5335 X0.9988
N5340 G3 X0.9171 Y0.4194 I0.0028 J-0.1213
N5345 X0.875 Y0.3564 I0.0932 J-0.1078
N5350 X0.8809 Y0.3407 I0.0331 J0.0035
N5355 G2 X0.8843 Y0.3177 I-0.0443 J-0.0183
N5360 G1 X0.8844 Y0.2903
N5365 Y0.2491
N5370 G3 X0.9134 Y0.1825 I0.0992 J0.0036
N5375 X0.9562 Y0.1495 I0.1017 J0.0879
N5380 G1 X0.9591 Y0.149
N5385 X0.962 Y0.1487
N5390 G3 X0.968 Y0.1613 I-0.0003 J0.0079
N5395 G1 X0.9635 Y0.1674
N5400 X0.9018 Y0.2493
N5405 X0.8985 Y0.2536
N5410 G3 X0.8844 Y0.2491 I-0.0063 J-0.0047
N5415 G1 Y0.2034
N5420 G3 X0.9093 Y0.1513 I0.0718 J0.0023
N5425 G1 X0.9139 Y0.1494
N5430 X0.9188 Y0.1487
N5435 G3 X0.9254 Y0.1605 I-0.0003 J0.0079
N5440 G1 X0.9211 Y0.168
N5445 X0.9012 Y0.2033
N5450 X0.8991 Y0.207
N5455 G3 X0.8844 Y0.2034 I-0.0069 J-0.0039
N5460 X0.8845 Y0.1556 I1.0393 J-0.0212
N5465 G1 X0.885 Y0.1544
N5470 X0.8856 Y0.1531
N5475 X0.8861 Y0.1522
N5480 X0.8868 Y0.1514
N5485 X0.8874 Y0.1508
N5490 X0.888 Y0.1503
N5495 X0.8885 Y0.1499
N5500 X0.8891 Y0.1496
N5505 X0.8903 Y0.1491
N5510 X0.8914 Y0.1488
N5515 X0.8937 Y0.1487
N5520 X1.0811
N5525 G3 X1.1425 Y0.1733 I-0.0057 J0.1032
N5530 X1.1791 Y0.2133 I-0.0876 J0.1169
N5535 G1 X1.1802 Y0.217
N5540 X1.1806 Y0.2208
N5545 G3 X1.1682 Y0.227 I-0.0079 J-0.0003
N5550 G1 X1.1618 Y0.2225
N5555 X1.0811 Y0.166
N5560 X1.0769 Y0.1631
N5565 G3 X1.0811 Y0.1487 I0.0045 J-0.0065
N5570 G1 X1.1268
N5575 G3 X1.1774 Y0.1711 I-0.002 J0.073
N5580 G1 X1.1798 Y0.1761
N5585 X1.1806 Y0.1815
N5590 G3 X1.169 Y0.1882 I-0.0079 J-0.0003
N5595 G1 X1.1613 Y0.184
N5600 X1.1271 Y0.1655
N5605 X1.1234 Y0.1635
N5610 G3 X1.1268 Y0.1487 I0.0037 J-0.0069
N5615 X1.1737 Y0.1488 I0.021 J1.0409
N5620 G1 X1.1748 Y0.1492
N5625 X1.176 Y0.1497
N5630 X1.1766 Y0.1501
N5635 X1.1771 Y0.1505
N5640 X1.1779 Y0.1511
N5645 X1.1784 Y0.1518
N5650 X1.1794 Y0.1531
N5655 X1.18 Y0.1543
N5660 X1.1804 Y0.1554
N5665 G2 X1.1807 Y0.3269 I17.2092 J0.0504
N5670 X1.1879 Y0.3482 I0.0532 J-0.0061
N5675 G3 X1.1867 Y0.3827 I-0.0499 J0.0155
N5680 G1 X1.1853 Y0.3843
N5685 X1.1836 Y0.3854
N5690 X1.1817 Y0.3861
N5695 X1.1797 Y0.3862
N5700 X1.1778 Y0.3859
N5705 X1.1759 Y0.3851
N5710 X1.1744 Y0.3839
N5715 X1.1731 Y0.3823
N5720 X1.1724 Y0.3805
N5725 X1.172 Y0.3786
N5730 X1.1718 Y0.3735
N5735 X1.1708 Y0.3506
N5740 X1.1706 Y0.347
N5745 G3 X1.1853 Y0.3428 I0.0079 J-0.0004
N5750 G2 X1.2001 Y0.3587 I0.0403 J-0.0224
N5755 G1 X1.2008 Y0.36
N5760 X1.2013 Y0.3611
N5765 X1.2015 Y0.3623
N5770 X1.2017 Y0.3634
N5775 X1.2016 Y0.3646
N5780 X1.2014 Y0.3657
N5785 X1.201 Y0.3669
N5790 G3 X1.1904 Y0.3771 I-0.0506 J-0.0417
N5795 G2 X1.1807 Y0.3978 I0.0355 J0.0293
N5800 G3 X1.1402 Y0.452 I-0.1204 J-0.0476
N5805 G1 X1.136 Y0.4532
N5810 X1.1318 Y0.4537
N5815 G3 X1.1259 Y0.4411 I0.0003 J-0.0079
N5820 G1 X1.1304 Y0.4351
N5825 X1.1663 Y0.3884
N5830 X1.1684 Y0.3856
N5835 G3 X1.1824 Y0.392 I0.0062 J0.0048
N5840 G1 X1.1815 Y0.3954
N5845 X1.1809 Y0.4
N5850 X1.1806 Y0.4046
N5855 Y0.4229
N5860 G3 X1.1725 Y0.4484 I-0.0372 J0.0023
N5865 G1 X1.1666 Y0.4524
N5870 X1.1596 Y0.4537
N5875 G3 X1.153 Y0.442 I0.0003 J-0.0079
N5880 G1 X1.1573 Y0.4345
N5885 X1.1638 Y0.423
N5890 X1.1659 Y0.4192
N5895 G3 X1.1806 Y0.4229 I0.0069 J0.0039
N5900 G1 Y0.4457
N5905 X1.1804 Y0.4469
N5910 X1.1801 Y0.448
N5915 X1.1795 Y0.4491
N5920 X1.1787 Y0.4503
N5925 X1.178 Y0.4511
N5930 X1.1771 Y0.452
N5935 X1.1766 Y0.4524
N5940 X1.176 Y0.4528
N5945 X1.1748 Y0.4533
N5950 X1.1737 Y0.4536
N5955 X1.1726 Y0.4537
N5960 X1.0778
N5965 X1.0777
N5970 G2 X1.0599 Y0.4511 I-0.0394 J0.2025
N5975 G1 X1.0591 Y0.451
N5980 X1.0533
N5985 X1.0234
N5990 X1.0176
N5995 X1.0168 Y0.4511
N6000 G2 X0.999 Y0.4537 I0.0216 J0.2052
N6005 G1 X0.9988
N6010 X0.944
N6015 G3 X0.8871 Y0.4261 I0.004 J-0.0807
N6020 G1 X0.8851 Y0.4214
N6025 X0.8844 Y0.4164
N6030 G3 X0.8961 Y0.4098 I0.0079 J0.0003
N6035 G1 X0.9036 Y0.4141
N6040 X0.9438 Y0.4369
N6045 X0.9476 Y0.439
N6050 G3 X0.944 Y0.4537 I-0.0039 J0.0068
N6055 G1 X0.8937
N6060 X0.8914 Y0.4536
N6065 X0.8903 Y0.4534
N6070 X0.8891 Y0.4529
N6075 X0.8884 Y0.4525
N6080 X0.8876 Y0.4519
N6085 X0.8868 Y0.4511
N6090 X0.8861 Y0.4503
N6095 X0.8852 Y0.4486
N6100 X0.8848 Y0.4477
N6105 G3 X0.8841 Y0.4 I3.8628 J-0.0812
N6110 G2 X0.8651 Y0.3692 I-0.0394 J0.003
N6115 G1 X0.8645 Y0.368
N6120 X0.8639 Y0.3669
N6125 X0.8635 Y0.3657
N6130 X0.8633 Y0.3646
N6135 X0.8632 Y0.3634
N6140 X0.8634 Y0.3623
N6145 X0.8637 Y0.3611
N6150 X0.8642 Y0.36
N6155 X0.8649 Y0.3589
N6160 G2 X0.8785 Y0.3452 I-0.0331 J-0.0464
N6165 G1 X0.8799 Y0.3437
N6170 X0.8817 Y0.3426
N6175 X0.8837 Y0.3421
N6180 X0.8858 Y0.342
N6185 X0.8878 Y0.3426
N6190 X0.8896 Y0.3436
N6195 X0.8911 Y0.3451
N6200 X0.8921 Y0.347
N6205 X0.8924 Y0.3484 Z-0.0799
N6210 X0.8926 Y0.3498 Z-0.0795
N6215 X0.8921 Y0.3516 Z-0.0784
N6220 X0.8917 Y0.353 Z-0.0769
N6225 X0.8914 Y0.354 Z-0.075
N6230 X0.8912 Y0.3544 Z-0.0736
N6235 X0.8911 Y0.3545 Z-0.0721
N6240 G0 Z0.2
N6245 X1.0673 Y-0.1394
N6250 Z0.0679
N6255 G1 Z0.06 F8.
N6260 G3 X0.9977 Y-0.112 Z0.0559 I-0.0348 J0.0137 F2.
N6265 X1.0673 Y-0.1394 Z0.0518 I0.0348 J-0.0137
N6270 X0.9977 Y-0.112 Z0.0477 I-0.0348 J0.0137
N6275 X1.0673 Y-0.1394 Z0.0436 I0.0348 J-0.0137
N6280 X0.9977 Y-0.112 Z0.0395 I-0.0348 J0.0137
N6285 X1.0673 Y-0.1394 Z0.0354 I0.0348 J-0.0137
N6290 X0.9977 Y-0.112 Z0.0313 I-0.0348 J0.0137
N6295 X1.0673 Y-0.1394 Z0.0272 I0.0348 J-0.0137
N6300 X0.9977 Y-0.112 Z0.0231 I-0.0348 J0.0137
N6305 X1.0673 Y-0.1394 Z0.019 I0.0348 J-0.0137
N6310 X0.9977 Y-0.112 Z0.0149 I-0.0348 J0.0137
N6315 X1.0673 Y-0.1394 Z0.0108 I0.0348 J-0.0137
N6320 X0.9977 Y-0.112 Z0.0067 I-0.0348 J0.0137
N6325 X1.0673 Y-0.1394 Z0.0026 I0.0348 J-0.0137
N6330 X0.9977 Y-0.112 Z-0.0015 I-0.0348 J0.0137
N6335 X1.0673 Y-0.1394 Z-0.0057 I0.0348 J-0.0137
N6340 X0.9977 Y-0.112 Z-0.0098 I-0.0348 J0.0137
N6345 X1.0673 Y-0.1394 Z-0.0139 I0.0348 J-0.0137
N6350 X0.9977 Y-0.112 Z-0.018 I-0.0348 J0.0137
N6355 X1.0673 Y-0.1394 Z-0.0221 I0.0348 J-0.0137
N6360 X0.9977 Y-0.112 Z-0.0262 I-0.0348 J0.0137
N6365 X1.0673 Y-0.1394 Z-0.0303 I0.0348 J-0.0137
N6370 X0.9977 Y-0.112 Z-0.0344 I-0.0348 J0.0137
N6375 X1.0673 Y-0.1394 Z-0.0385 I0.0348 J-0.0137
N6380 X0.9977 Y-0.112 Z-0.0426 I-0.0348 J0.0137
N6385 X1.0673 Y-0.1394 Z-0.0467 I0.0348 J-0.0137
N6390 X0.9977 Y-0.112 Z-0.0508 I-0.0348 J0.0137
N6395 X1.0673 Y-0.1394 Z-0.0549 I0.0348 J-0.0137
N6400 X0.9977 Y-0.112 Z-0.059 I-0.0348 J0.0137
N6405 X1.0673 Y-0.1394 Z-0.0631 I0.0348 J-0.0137
N6410 X0.9977 Y-0.112 Z-0.0672 I-0.0348 J0.0137
N6415 X1.0673 Y-0.1394 Z-0.0713 I0.0348 J-0.0137
N6420 X0.9977 Y-0.112 Z-0.0754 I-0.0348 J0.0137
N6425 X1.0673 Y-0.1394 Z-0.0795 I0.0348 J-0.0137
N6430 X1.0699 Y-0.1257 Z-0.08 I-0.0348 J0.0137
N6435 X0.9951 I-0.0374 J0.
N6440 X1.0699 I0.0374 J0.
N6445 G1 X1.0709 Y-0.1056 F8.
N6450 G3 X1.0567 Y-0.0759 I-0.0288 J0.0045
N6455 X0.9831 Y-0.0924 I-0.0286 J-0.0445
N6460 X1.0029 Y-0.1783 I0.0494 J-0.0338
N6465 X1.0867 Y-0.1513 I0.0295 J0.052
N6470 X1.0946 Y-0.09 I-0.0737 J0.0406
N6475 X1.0064 Y-0.0468 I-0.066 J-0.0231
N6480 X0.9688 Y-0.182 I0.0236 J-0.0793
N6485 X1.1061 Y-0.169 I0.064 J0.0558
N6490 X1.0905 Y-0.0396 I-0.0798 J0.056
N6495 X0.9344 Y-0.0734 I-0.0641 J-0.0813
N6500 X1.109 Y-0.2074 I0.0979 J-0.0532
N6505 X1.1016 Y-0.0137 I-0.083 J0.0938
N6510 X0.9059 Y-0.0681 I-0.0755 J-0.1078
N6515 X1.1175 Y-0.2368 I0.1264 J-0.0586
N6520 X1.0996 Y0.0208 I-0.0909 J0.1231
N6525 X1.0797 Y0.0287 I-0.0422 J-0.0773
N6530 G1 X1.0775
N6535 X0.9988
N6540 G3 X0.9171 Y-0.0056 I0.0031 J-0.1217
N6545 X0.8843 Y-0.0483 I0.0805 J-0.0959
N6550 G1 X0.8844 Y-0.0518
N6555 G3 X0.8967 Y-0.0581 I0.0079 J0.0003
N6560 G1 X0.9032 Y-0.0536
N6565 X0.9989 Y0.0116
N6570 X1.003 Y0.0144
N6575 G3 X0.9988 Y0.0287 I-0.0044 J0.0065
N6580 G1 X0.944
N6585 G3 X0.887 Y0.001 I0.0042 J-0.0809
N6590 G1 X0.8851 Y-0.0037
N6595 X0.8844 Y-0.0087
N6600 G3 X0.8961 Y-0.0153 I0.0079 J0.0003
N6605 G1 X0.9036 Y-0.011
N6610 X0.9438 Y0.0119
N6615 X0.9476 Y0.014
N6620 G3 X0.944 Y0.0287 I-0.0039 J0.0068
N6625 G1 X0.8937
N6630 X0.8914 Y0.0286
N6635 X0.8903 Y0.0284
N6640 X0.8891 Y0.0279
N6645 X0.8883 Y0.0274
N6650 X0.8875 Y0.0268
N6655 X0.8867 Y0.026
N6660 X0.8859 Y0.0251
N6665 X0.8854 Y0.0244
N6670 X0.8851 Y0.0237
N6675 X0.8848 Y0.0229
N6680 X0.8846 Y0.0222
N6685 X0.8844 Y0.0214
N6690 Y0.0206
N6695 Y-0.144
N6700 G2 X0.8812 Y-0.1641 I-0.0689 J0.0006
N6705 G3 X0.9025 Y-0.23 I0.0944 J-0.0059
N6710 X0.9555 Y-0.2753 I0.1158 J0.0818
N6715 G1 X0.9585 Y-0.276
N6720 X0.9615 Y-0.2763
N6725 G3 X0.9678 Y-0.2641 I-0.0003 J0.0079
N6730 G1 X0.9634 Y-0.2573
N6735 X0.9007 Y-0.1625
N6740 X0.8967 Y-0.1565
N6745 G3 X0.8827 Y-0.1583 I-0.0066 J-0.0043
N6750 G2 X0.8696 Y-0.1784 I-0.0506 J0.0184
N6755 G1 X0.8683 Y-0.1857
N6760 X0.8697 Y-0.1928
N6765 X0.8738 Y-0.1989
N6770 G3 X0.8875 Y-0.1936 I0.0058 J0.0053
N6775 G1 Y-0.1877
N6780 Y-0.185
N6785 X0.8876 Y-0.1787
N6790 G3 X0.8742 Y-0.173 I-0.0079 J0.
N6795 G1 X0.8647 Y-0.1817
N6800 X0.864 Y-0.1829
N6805 X0.8636 Y-0.184
N6810 X0.8633 Y-0.1851
N6815 X0.8632 Y-0.1863
N6820 X0.8633 Y-0.1874
N6825 X0.8636 Y-0.1886
N6830 X0.864 Y-0.1897
N6835 X0.8644 Y-0.1904
N6840 G2 X0.8774 Y-0.2034 I-0.0778 J-0.0909
N6845 X0.8844 Y-0.2322 I-0.0382 J-0.0244
N6850 G3 X0.9085 Y-0.2737 I0.0789 J0.0181
N6855 G1 X0.9133 Y-0.2756
N6860 X0.9183 Y-0.2763
N6865 G3 X0.9247 Y-0.2643 I-0.0003 J0.0079
N6870 G1 X0.9203 Y-0.2572
N6875 X0.9011 Y-0.2261
N6880 X0.8988 Y-0.2223
N6885 G3 X0.8842 Y-0.2263 I-0.0067 J-0.0041
N6890 X0.8847 Y-0.2708 I0.6076 J-0.0158
N6895 G1 X0.8856 Y-0.272
N6900 X0.8863 Y-0.2731
N6905 X0.8868 Y-0.2737
N6910 X0.8873 Y-0.2742
N6915 X0.8882 Y-0.2749
N6920 X0.8891 Y-0.2754
N6925 X0.8903 Y-0.2759
N6930 X0.8914 Y-0.2762
N6935 X0.8937 Y-0.2763
N6940 X1.0811
N6945 G3 X1.1421 Y-0.2521 I-0.0054 J0.1027
N6950 X1.1919 Y-0.189 I-0.0988 J0.129
N6955 G1 X1.1932 Y-0.183
N6960 X1.1923 Y-0.1768
N6965 G2 X1.182 Y-0.1578 I0.0871 J0.0591
N6970 G1 X1.1813 Y-0.1531
N6975 X1.1808 Y-0.1486
N6980 X1.1806 Y-0.144
N6985 Y-0.048
N6990 G3 X1.1589 Y0.007 I-0.0868 J-0.0025
N6995 X1.1393 Y0.0269 I-0.0688 J-0.0482
N7000 G1 X1.1352 Y0.0282
N7005 X1.1309 Y0.0287
N7010 G3 X1.1245 Y0.0168 I0.0003 J-0.0079
N7015 G1 X1.1288 Y0.0096
N7020 X1.1637 Y-0.0479
N7025 X1.166 Y-0.0518
N7030 G3 X1.1806 Y-0.048 I0.0067 J0.0041
N7035 G1 Y-0.0023
N7040 G3 X1.1721 Y0.0235 I-0.0388 J0.0015
N7045 G1 X1.1662 Y0.0274
N7050 X1.1593 Y0.0287
N7055 G3 X1.1527 Y0.0169 I0.0003 J-0.0079
N7060 G1 X1.157 Y0.0095
N7065 X1.1637 Y-0.0021
N7070 X1.1659 Y-0.0059
N7075 G3 X1.1806 Y-0.0023 I0.0068 J0.0039
N7080 G1 Y0.0206
N7085 X1.1805 Y0.0217
N7090 X1.1803 Y0.0229
N7095 X1.1798 Y0.024
N7100 X1.1791 Y0.0251
N7105 X1.1786 Y0.0257
N7110 X1.1781 Y0.0262
N7115 X1.1771 Y0.027
N7120 X1.176 Y0.0278
N7125 X1.1748 Y0.0283
N7130 X1.1737 Y0.0286
N7135 X1.1726 Y0.0287
N7140 X1.0775
N7145 G3 X1.0699 Y0.0208 I0.0003 J-0.0079
N7150 G1 X1.07 Y0.0082
N7155 X1.0734 Y-0.2558
N7160 X1.0735 Y-0.2685
N7165 G3 X1.0811 Y-0.2763 I0.0079 J0.0001
N7170 G1 X1.1268
N7175 G3 X1.1774 Y-0.2541 I-0.0018 J0.0728
N7180 G1 X1.1798 Y-0.249
N7185 X1.1806 Y-0.2435
N7190 G3 X1.169 Y-0.2369 I-0.0079 J-0.0003
N7195 G1 X1.1613 Y-0.241
N7200 X1.1271 Y-0.2595
N7205 X1.1234 Y-0.2615
N7210 G3 X1.1268 Y-0.2763 I0.0037 J-0.0069
N7215 X1.1737 Y-0.2762 I0.021 J1.0409
N7220 G1 X1.1748 Y-0.2758
N7225 X1.176 Y-0.2753
N7230 X1.1766 Y-0.2749
N7235 X1.1771 Y-0.2745
N7240 X1.1785 Y-0.2733
N7245 X1.179 Y-0.2726
N7250 X1.1794 Y-0.272
N7255 X1.18 Y-0.2709
N7260 X1.1804 Y-0.2697
N7265 G2 X1.1815 Y-0.2171 I0.63 J0.0136
N7270 X1.2001 Y-0.1914 I0.0417 J-0.0106
N7275 G1 X1.2005 Y-0.1904
N7280 X1.2009 Y-0.1897
N7285 X1.2013 Y-0.1886
N7290 X1.2016 Y-0.1874
N7295 Y-0.1863
N7300 X1.2015 Y-0.1851
N7305 X1.2013 Y-0.1842
N7310 X1.201 Y-0.1833
N7315 X1.2006 Y-0.1824
N7320 X1.1892 Y-0.1715
N7325 X1.1876 Y-0.1702
N7330 X1.1858 Y-0.1692
N7335 X1.1837 Y-0.1689
N7340 X1.1817 Y-0.169
N7345 X1.1797 Y-0.1697
N7350 X1.178 Y-0.1709
N7355 X1.1767 Y-0.1726
N7360 X1.1758 Y-0.1745
N7365 X1.1755 Y-0.1766 Z-0.0797
N7370 X1.1761 Y-0.1785 Z-0.0788
N7375 X1.1766 Y-0.1801 Z-0.0774
N7380 X1.177 Y-0.1812 Z-0.0755
N7385 X1.1771 Y-0.1814 Z-0.075
N7390 X1.1774 Y-0.1817 Z-0.0736
N7395 X1.1775 Y-0.1818 Z-0.0721
N7400 G0 Z0.2
N7405 X1.3866 Y0.35
N7410 Z0.0679
N7415 G1 Z0.06 F8.
N7420 G3 X1.317 Y0.3774 Z0.0559 I-0.0348 J0.0137 F2.
N7425 X1.3866 Y0.35 Z0.0518 I0.0348 J-0.0137
N7430 X1.317 Y0.3774 Z0.0477 I-0.0348 J0.0137
N7435 X1.3866 Y0.35 Z0.0436 I0.0348 J-0.0137
N7440 X1.317 Y0.3774 Z0.0395 I-0.0348 J0.0137
N7445 X1.3866 Y0.35 Z0.0354 I0.0348 J-0.0137
N7450 X1.317 Y0.3774 Z0.0313 I-0.0348 J0.0137
N7455 X1.3866 Y0.35 Z0.0272 I0.0348 J-0.0137
N7460 X1.317 Y0.3774 Z0.0231 I-0.0348 J0.0137
N7465 X1.3866 Y0.35 Z0.019 I0.0348 J-0.0137
N7470 X1.317 Y0.3774 Z0.0149 I-0.0348 J0.0137
N7475 X1.3866 Y0.35 Z0.0108 I0.0348 J-0.0137
N7480 X1.317 Y0.3774 Z0.0067 I-0.0348 J0.0137
N7485 X1.3866 Y0.35 Z0.0026 I0.0348 J-0.0137
N7490 X1.317 Y0.3774 Z-0.0015 I-0.0348 J0.0137
N7495 X1.3866 Y0.35 Z-0.0057 I0.0348 J-0.0137
N7500 X1.317 Y0.3774 Z-0.0098 I-0.0348 J0.0137
N7505 X1.3866 Y0.35 Z-0.0139 I0.0348 J-0.0137
N7510 X1.317 Y0.3774 Z-0.018 I-0.0348 J0.0137
N7515 X1.3866 Y0.35 Z-0.0221 I0.0348 J-0.0137
N7520 X1.317 Y0.3774 Z-0.0262 I-0.0348 J0.0137
N7525 X1.3866 Y0.35 Z-0.0303 I0.0348 J-0.0137
N7530 X1.317 Y0.3774 Z-0.0344 I-0.0348 J0.0137
N7535 X1.3866 Y0.35 Z-0.0385 I0.0348 J-0.0137
N7540 X1.317 Y0.3774 Z-0.0426 I-0.0348 J0.0137
N7545 X1.3866 Y0.35 Z-0.0467 I0.0348 J-0.0137
N7550 X1.317 Y0.3774 Z-0.0508 I-0.0348 J0.0137
N7555 X1.3866 Y0.35 Z-0.0549 I0.0348 J-0.0137
N7560 X1.317 Y0.3774 Z-0.059 I-0.0348 J0.0137
N7565 X1.3866 Y0.35 Z-0.0631 I0.0348 J-0.0137
N7570 X1.317 Y0.3774 Z-0.0672 I-0.0348 J0.0137
N7575 X1.3866 Y0.35 Z-0.0713 I0.0348 J-0.0137
N7580 X1.317 Y0.3774 Z-0.0754 I-0.0348 J0.0137
N7585 X1.3866 Y0.35 Z-0.0795 I0.0348 J-0.0137
N7590 X1.3892 Y0.3637 Z-0.08 I-0.0348 J0.0137
N7595 X1.3144 I-0.0374 J0.
N7600 X1.3892 I0.0374 J0.
N7605 G1 X1.3901 Y0.3815 F8.
N7610 G3 X1.3838 Y0.4044 I-0.0508 J-0.0015
N7615 X1.3565 Y0.4206 I-0.0317 J-0.0224
N7620 G1 X1.3516 Y0.4201
N7625 X1.347 Y0.4183
N7630 G3 X1.3464 Y0.4047 I0.0036 J-0.007
N7635 G1 X1.3533 Y0.4002
N7640 X1.3707 Y0.3889
N7645 X1.3762 Y0.3854
N7650 G3 X1.3882 Y0.3934 I0.0043 J0.0066
N7655 G1 X1.3837 Y0.4151
N7660 X1.3821 Y0.4209
N7665 X1.3783 Y0.4255
N7670 X1.373 Y0.4284
N7675 X1.3671 Y0.4292
N7680 X1.3613 Y0.4279
N7685 X1.3563 Y0.4246
N7690 G3 X1.3591 Y0.4118 I0.0057 J-0.0055
N7695 G1 X1.3655 Y0.4093
N7700 X1.3731 Y0.4064
N7705 G3 X1.3837 Y0.4151 I0.0028 J0.0073
N7710 X1.3777 Y0.4372 I-0.0928 J-0.0132
N7715 G1 X1.3768 Y0.4376
N7720 X1.3757 Y0.4383
N7725 X1.3747 Y0.4388
N7730 X1.3737 Y0.4392
N7735 X1.3726 Y0.4394
N7740 X1.3714
N7745 X1.3703 Y0.4393
N7750 X1.3691 Y0.439
N7755 X1.3683 Y0.4387
N7760 X1.3674 Y0.4382
N7765 X1.3665 Y0.4375
N7770 X1.3656 Y0.4366
N7775 X1.365 Y0.4358
N7780 X1.3646 Y0.4349
N7785 X1.3645 Y0.4348
N7790 Y0.4347
N7795 G2 X1.3627 Y0.4307 I-0.0242 J0.0082
N7800 X1.3612 Y0.4288 I-0.0069 J0.0038
N7805 G1 X1.3533 Y0.4213
N7810 G2 X1.3513 Y0.4199 I-0.0054 J0.0057
N7815 X1.3471 Y0.4183 I-0.011 J0.0231
N7820 G1 X1.347
N7825 G2 X1.3259 Y0.414 I-0.0219 J0.0545
N7830 G1 X1.3247 Y0.413
N7835 X1.3234 Y0.4122
N7840 X1.3226 Y0.4114
N7845 X1.322 Y0.4107
N7850 X1.3215 Y0.4099
N7855 X1.3211 Y0.4091
N7860 G3 X1.3197 Y0.3954 I0.1253 J-0.0198
N7865 G2 X1.301 Y0.3689 I-0.0407 J0.0089
N7870 G1 X1.3007 Y0.368
N7875 X1.3006 Y0.3677
N7880 X1.3001 Y0.3666
N7885 X1.2998 Y0.3656
N7890 X1.2996 Y0.3645
N7895 Y0.3634
N7900 X1.2997 Y0.3626
N7905 X1.2999 Y0.3617
N7910 X1.3002 Y0.3609
N7915 X1.3006 Y0.36
N7920 X1.3013 Y0.3589
N7925 G2 X1.3198 Y0.3315 I-0.0253 J-0.0371
N7930 G1 X1.3199 Y0.33
N7935 X1.3204 Y0.3269
N7940 X1.3205 Y0.3223
N7945 Y0.3211
N7950 X1.3207 Y0.32
N7955 X1.321 Y0.3189
N7960 X1.3216 Y0.3177
N7965 X1.322 Y0.3172
N7970 X1.3224 Y0.3166
N7975 X1.3234 Y0.3155
N7980 X1.324 Y0.3149
N7985 X1.3246 Y0.3145
N7990 X1.3257 Y0.3138
N7995 X1.3268 Y0.3134
N8000 G3 X1.3706 Y0.313 I0.0301 J0.8205
N8005 X1.3968 Y0.3282 I-0.0047 J0.0384
N8010 G1 X1.3985 Y0.334
N8015 Y0.34
N8020 G3 X1.3863 Y0.3449 I-0.0077 J-0.0016
N8025 G1 X1.3787 Y0.3397
N8030 X1.3653 Y0.3304
N8035 X1.3608 Y0.3273
N8040 G3 X1.3646 Y0.313 I0.0045 J-0.0065
N8045 G2 X1.3852 Y0.3078 I-0.0024 J-0.053
N8050 G1 X1.3918 Y0.3091
N8055 X1.3971 Y0.313
N8060 X1.4004 Y0.3187
N8065 X1.4009 Y0.3253
N8070 G3 X1.3887 Y0.3304 I-0.0077 J-0.0014
N8075 G1 X1.3852 Y0.3281
N8080 X1.3785 Y0.3236
N8085 G3 X1.3796 Y0.3099 I0.0044 J-0.0065
N8090 G1 X1.3828 Y0.3086
N8095 X1.3874 Y0.3058
N8100 X1.3898 Y0.304
N8105 X1.3909 Y0.3034
N8110 X1.392 Y0.3029
N8115 X1.3931 Y0.3027
N8120 X1.3943 Y0.3026
N8125 X1.3954 Y0.3027
N8130 X1.3966 Y0.3029
N8135 X1.3976 Y0.3034
N8140 X1.3987 Y0.304
N8145 X1.3993 Y0.3045
N8150 X1.3999 Y0.305
N8155 X1.4011 Y0.3063
N8160 X1.4015 Y0.3068
N8165 X1.4019 Y0.3074
N8170 X1.4024 Y0.3086
N8175 X1.4027 Y0.3097
N8180 G3 X1.3897 Y0.3861 I-0.7046 J-0.081
N8185 G1 X1.3889 Y0.388
N8190 X1.3877 Y0.3897
N8195 X1.3861 Y0.391
N8200 X1.3841 Y0.3918
N8205 X1.3821 Y0.3921
N8210 X1.38 Y0.3918
N8215 X1.378 Y0.391
N8220 X1.3764 Y0.3897
N8225 X1.3756 Y0.3881 Z-0.0798
N8230 X1.3749 Y0.3867 Z-0.0792
N8235 X1.3743 Y0.3854 Z-0.0783
N8240 X1.3742 Y0.3843 Z-0.0772
N8245 X1.3743 Y0.3835 Z-0.0762
N8250 Y0.383 Z-0.075
N8255 X1.3744 Y0.3826 Z-0.0736
N8260 Y0.3824 Z-0.0721
N8265 G0 Z0.2
N8270 X-1.3777 Y0.3899
N8275 Z-0.0323
N8280 G1 Z-0.0401 F8.
N8285 X-1.3778 Y0.3897 Z-0.0422
N8290 X-1.3784 Y0.3891 Z-0.0441
N8295 X-1.3792 Y0.3882 Z-0.0457
N8300 X-1.3803 Y0.3869 Z-0.0469
N8305 X-1.3815 Y0.3855 Z-0.0477
N8310 X-1.3829 Y0.384 Z-0.048
N8315 G3 X-1.3943 Y0.362 I0.0372 J-0.0332
N8320 X-1.4 Y0.33 I0.4924 J-0.1048
N8325 X-1.3844 Y0.328 I0.0079 J-0.0007
N8330 G1 X-1.3843 Y0.3286
N8335 X-1.3841 Y0.3306 Z-0.0477
N8340 X-1.384 Y0.3325 Z-0.0469
N8345 X-1.3838 Y0.3341 Z-0.0457
N8350 X-1.3837 Y0.3353 Z-0.0441
N8355 X-1.3836 Y0.3361 Z-0.0422
N8360 Y0.3364 Z-0.0401
N8365 G0 Z0.2
N8370 X-0.3053 Y-1.4289
N8375 Z-0.0323
N8380 G1 Z-0.0401 F8.
N8385 Y-1.4292 Z-0.0422
N8390 Y-1.43 Z-0.0441
N8395 X-0.3054 Y-1.4312 Z-0.0457
N8400 Y-1.4328 Z-0.0469
N8405 Y-1.4347 Z-0.0477
N8410 Y-1.4368 Z-0.048
N8415 G3 X-0.2994 Y-1.4608 I0.0498 J-0.0004
N8420 X-0.2829 Y-1.4776 I0.0281 J0.0111
N8425 X-0.2398 Y-1.489 I0.057 J0.1294
N8430 X-0.1393 Y-1.4922 I0.0804 J0.9222
N8435 G1 X-0.0789 Y-1.4925
N8440 X0.2701 Y-1.4928
N8445 G3 X0.2877 Y-1.4809 I-0.001 J0.0204
N8450 X0.2741 Y-1.473 I-0.0069 J0.0037
N8455 G1 X0.2738 Y-1.4734
N8460 X0.2728 Y-1.4752 Z-0.0477
N8465 X0.2719 Y-1.4769 Z-0.0469
N8470 X0.2712 Y-1.4783 Z-0.0457
N8475 X0.2706 Y-1.4794 Z-0.0441
N8480 X0.2702 Y-1.4801 Z-0.0422
N8485 X0.2701 Y-1.4804 Z-0.0401
N8490 G0 Z0.2
N8495 X-0.3022 Y-1.4343
N8500 Z-0.0323
N8505 G1 Z-0.0401 F8.
N8510 Y-1.4346 Z-0.0422
N8515 Y-1.4354 Z-0.0441
N8520 Y-1.4366 Z-0.0457
N8525 Y-1.4382 Z-0.0469
N8530 Y-1.4401 Z-0.0477
N8535 Y-1.4422 Z-0.048
N8540 G3 X-0.2963 Y-1.4662 I0.0498 J-0.0004
N8545 G1 X-0.2857 Y-1.4842
N8550 G3 X-0.2491 Y-1.5034 I0.0364 J0.025
N8555 X-0.144 Y-1.5161 I0.4679 J3.4263
N8560 X0.0251 Y-1.5222 I0.149 J1.7775
N8565 X0.1504 Y-1.5155 I-0.0406 J1.9256
N8570 X0.2583 Y-1.5023 I-0.4213 J3.9019
N8575 X0.2849 Y-1.4853 I-0.0078 J0.0415
N8580 X0.2722 Y-1.476 I-0.0065 J0.0044
N8585 G1 X0.2719 Y-1.4764
N8590 X0.2708 Y-1.4781 Z-0.0477
N8595 X0.2697 Y-1.4797 Z-0.0469
N8600 X0.2688 Y-1.481 Z-0.0457
N8605 X0.2681 Y-1.482 Z-0.0441
N8610 X0.2676 Y-1.4827 Z-0.0422
N8615 X0.2675 Y-1.4829 Z-0.0401
N8620 G0 Z0.2
N8625 X1.3216 Y-0.3773
N8630 Z-0.0323
N8635 G1 Z-0.0401 F8.
N8640 X1.3218 Y-0.3771 Z-0.0422
N8645 X1.3224 Y-0.3766 Z-0.0441
N8650 X1.3233 Y-0.3758 Z-0.0457
N8655 X1.3246 Y-0.3748 Z-0.0469
N8660 X1.3261 Y-0.3736 Z-0.0477
N8665 X1.3276 Y-0.3722 Z-0.048
N8670 G3 X1.3421 Y-0.3522 I-0.0319 J0.0383
N8675 G1 X1.3478 Y-0.336
N8680 X1.3541 Y-0.3121
N8685 X1.3836 Y-0.2008
N8690 X1.3899 Y-0.1769
N8695 G3 X1.382 Y-0.146 I-0.0295 J0.0089
N8700 X1.3227 Y-0.1203 I-0.0659 J-0.0709
N8705 X1.2557 Y-0.1155 I-0.0635 J-0.4182
N8710 G1 X1.2509 Y-0.1138
N8715 X1.2423 Y-0.1086
N8720 X1.2356 Y-0.1011
N8725 X1.2253 Y-0.0838
N8730 X1.2201 Y-0.0644
N8735 G2 X1.2156 Y-0.0046 I0.3965 J0.0595
N8740 G3 X1.1996 Y0.0396 I-0.0665 J0.0008
N8745 X1.1495 Y0.0577 I-0.0556 J-0.0756
N8750 X1.0651 Y0.0624 I-0.0732 J-0.5519
N8755 G1 X1.0449 Y0.0629
N8760 X1.0248 Y0.063
N8765 X0.9795
N8770 G2 X0.9565 Y0.0861 I0.003 J0.0261
N8775 G1 X0.9574 Y0.0911
N8780 X0.9594 Y0.0957
N8785 X0.9626 Y0.0995
N8790 X0.9668 Y0.1024
N8795 X0.9859 Y0.1088
N8800 G2 X1.0661 Y0.114 I0.0721 J-0.4915
N8805 G3 X1.1562 Y0.1149 I0.0179 J2.8069
N8810 X1.1934 Y0.1324 I-0.0043 J0.0572
N8815 X1.21 Y0.1832 I-0.0867 J0.0565
N8820 X1.2145 Y0.2865 I-0.7345 J0.0838
N8825 G1 X1.2162 Y0.2913
N8830 X1.2215 Y0.2998
N8835 G2 X1.2523 Y0.3154 I0.0371 J-0.035
N8840 G1 X1.2621 Y0.3131
N8845 G3 X1.3006 Y0.2915 I0.3216 J0.5285
N8850 X1.3495 Y0.2805 I0.0918 J0.2934
N8855 X1.3913 Y0.275 I0.0318 J0.0795
N8860 G1 X1.3974 Y0.2779
N8865 X1.4022 Y0.2826
N8870 X1.4049 Y0.2888
N8875 X1.4052 Y0.2955
N8880 X1.4046 Y0.2994
N8885 X1.4026 Y0.3131
N8890 G3 X1.3871 Y0.3109 I-0.0077 J-0.0014
N8895 G1 Y0.3103
N8900 X1.3875 Y0.3083 Z-0.0477
N8905 X1.3878 Y0.3064 Z-0.0469
N8910 X1.3881 Y0.3048 Z-0.0457
N8915 X1.3884 Y0.3036 Z-0.0441
N8920 X1.3885 Y0.3028 Z-0.0422
N8925 X1.3886 Y0.3026 Z-0.0401
N8930 G0 Z0.2
N8935 X1.3738 Y-0.2012
N8940 Z-0.0323
N8945 G1 Z-0.0401 F8.
N8950 X1.3739 Y-0.201 Z-0.0422
N8955 X1.3745 Y-0.2004 Z-0.0441
N8960 X1.3753 Y-0.1995 Z-0.0457
N8965 X1.3764 Y-0.1983 Z-0.0469
N8970 X1.3777 Y-0.1969 Z-0.0477
N8975 X1.3791 Y-0.1953 Z-0.048
N8980 G3 X1.3906 Y-0.1735 I-0.0369 J0.0335
N8985 X1.395 Y-0.1412 I-0.1031 J0.0304
N8990 X1.3601 Y-0.1025 I-0.0567 J-0.016
N8995 X1.3027 Y-0.0864 I-0.0707 J-0.1417
N9000 G1 X1.2928 Y-0.0843
N9005 X1.2838 Y-0.0798
N9010 X1.2763 Y-0.0731
N9015 X1.2641 Y-0.0571
N9020 G2 X1.2515 Y-0.0066 I0.1594 J0.0665
N9025 G3 X1.2292 Y0.0486 I-0.1318 J-0.0211
N9030 G1 X1.2251 Y0.053
N9035 X1.2209 Y0.0573
N9040 X1.2187 Y0.0618
N9045 X1.217 Y0.0717
N9050 X1.2189 Y0.0918
N9055 G3 X1.2399 Y0.1628 I-0.5264 J0.1944
N9060 X1.2472 Y0.234 I-0.5646 J0.0937
N9065 G1 X1.2488 Y0.2388
N9070 X1.2516 Y0.2429
N9075 X1.2555 Y0.2462
N9080 X1.2647 Y0.2503
N9085 X1.2847 Y0.2524
N9090 G2 X1.3496 Y0.2442 I-0.0152 J-0.3832
N9095 G3 X1.3983 Y0.2486 I0.0159 J0.0976
N9100 G1 X1.403 Y0.252
N9105 X1.4066 Y0.2566
N9110 X1.4085 Y0.262
N9115 X1.4087 Y0.2678
N9120 X1.4053 Y0.2949
N9125 X1.4052 Y0.2955
N9130 G3 X1.3896 Y0.2934 I-0.0078 J-0.0013
N9135 G1 X1.3897 Y0.2928
N9140 X1.39 Y0.2908 Z-0.0477
N9145 X1.3903 Y0.2889 Z-0.0469
N9150 X1.3906 Y0.2873 Z-0.0457
N9155 X1.3908 Y0.2861 Z-0.0441
N9160 X1.3909 Y0.2853 Z-0.0422
N9165 X1.391 Y0.285 Z-0.0401
N9170 G0 Z0.2
N9175 X1.3786 Y-0.1814
N9180 Z-0.0323
N9185 G1 Z-0.0401 F8.
N9190 X1.3787 Y-0.1812 Z-0.0422
N9195 X1.3793 Y-0.1806 Z-0.0441
N9200 X1.3801 Y-0.1796 Z-0.0457
N9205 X1.3811 Y-0.1784 Z-0.0469
N9210 X1.3823 Y-0.1769 Z-0.0477
N9215 X1.3837 Y-0.1754 Z-0.048
N9220 G3 X1.3945 Y-0.1531 I-0.038 J0.0323
N9225 G1 X1.3987 Y-0.1289
N9230 G3 X1.3877 Y-0.096 I-0.0379 J0.0056
N9235 X1.3469 Y-0.0684 I-0.0732 J-0.0642
N9240 G1 X1.3279 Y-0.0615
N9245 X1.3192 Y-0.0566
N9250 X1.3038 Y-0.0436
N9255 X1.2937 Y-0.0262
N9260 X1.2866 Y-0.0074
N9265 G3 X1.2615 Y0.0553 I-0.3804 J-0.1158
N9270 G1 X1.2575 Y0.075
N9275 X1.2586 Y0.0951
N9280 G3 X1.273 Y0.1743 I-3.7535 J0.7251
N9285 G1 X1.2735 Y0.1793
N9290 X1.2753 Y0.184
N9295 X1.2809 Y0.1924
N9300 X1.2887 Y0.1987
N9305 X1.3069 Y0.2074
N9310 X1.3268 Y0.2104
N9315 G3 X1.3842 Y0.2148 I0.0045 J0.3178
N9320 X1.4078 Y0.2263 I-0.0099 J0.0501
N9325 G1 X1.4107 Y0.2324
N9330 X1.4115 Y0.2391
N9335 X1.4108 Y0.2491
N9340 X1.4104 Y0.2537
N9345 X1.4087 Y0.2678
N9350 G3 X1.3931 Y0.2658 I-0.0078 J-0.0013
N9355 G1 X1.3932 Y0.2652
N9360 X1.3935 Y0.2632 Z-0.0477
N9365 X1.3938 Y0.2614 Z-0.0469
N9370 X1.3941 Y0.2598 Z-0.0457
N9375 X1.3943 Y0.2585 Z-0.0441
N9380 X1.3944 Y0.2577 Z-0.0422
N9385 Y0.2575 Z-0.0401
N9390 G0 Z0.2
N9395 X1.3827 Y-0.1571
N9400 Z-0.0323
N9405 G1 Z-0.0401 F8.
N9410 X1.3829 Y-0.1569 Z-0.0422
N9415 X1.3834 Y-0.1563 Z-0.0441
N9420 X1.3842 Y-0.1554 Z-0.0457
N9425 X1.3852 Y-0.1541 Z-0.0469
N9430 X1.3865 Y-0.1527 Z-0.0477
N9435 X1.3878 Y-0.1511 Z-0.048
N9440 G3 X1.3987 Y-0.1289 I-0.038 J0.0323
N9445 G1 X1.3999 Y-0.1211
N9450 X1.4024 Y-0.1049
N9455 G3 X1.392 Y-0.0716 I-0.0407 J0.0056
N9460 G1 X1.3883 Y-0.0669
N9465 G3 X1.3445 Y-0.0338 I-0.1682 J-0.1771
N9470 G1 X1.3315 Y-0.0184
N9475 G2 X1.2975 Y0.0544 I0.4176 J0.2395
N9480 G1 X1.2938 Y0.0742
N9485 G2 X1.3015 Y0.144 I0.2374 J0.0092
N9490 G1 X1.3075 Y0.1522
N9495 X1.3227 Y0.1654
N9500 X1.3414 Y0.1728
N9505 X1.3609 Y0.1775
N9510 G3 X1.4036 Y0.1913 I-0.0227 J0.1435
N9515 G1 X1.4049 Y0.1922
N9520 X1.4098 Y0.1966
N9525 X1.4129 Y0.2025
N9530 X1.4136 Y0.2091
N9535 X1.4115 Y0.2391
N9540 G3 X1.3958 Y0.238 I-0.0078 J-0.0008
N9545 G1 Y0.2374
N9550 X1.3961 Y0.2354 Z-0.0477
N9555 X1.3963 Y0.2335 Z-0.0469
N9560 X1.3964 Y0.2319 Z-0.0457
N9565 X1.3966 Y0.2306 Z-0.0441
N9570 Y0.2299 Z-0.0422
N9575 X1.3967 Y0.2296 Z-0.0401
N9580 G0 Z0.2
N9585 X1.387 Y-0.1335
N9590 Z-0.0323
N9595 G1 Z-0.0401 F8.
N9600 X1.3872 Y-0.1333 Z-0.0422
N9605 X1.3877 Y-0.1327 Z-0.0441
N9610 X1.3885 Y-0.1317 Z-0.0457
N9615 X1.3895 Y-0.1304 Z-0.0469
N9620 X1.3907 Y-0.129 Z-0.0477
N9625 X1.392 Y-0.1274 Z-0.048
N9630 G3 X1.4024 Y-0.1049 I-0.0387 J0.0314
N9635 G1 X1.4053 Y-0.0846
N9640 G3 X1.3941 Y-0.0428 I-0.0451 J0.0103
N9645 G1 X1.3817 Y-0.027
N9650 G2 X1.3318 Y0.0595 I0.1634 J0.1518
N9655 G1 X1.3288 Y0.0794
N9660 X1.3286 Y0.0995
N9665 X1.3319 Y0.109
N9670 X1.3375 Y0.1174
N9675 X1.3516 Y0.1317
N9680 X1.3692 Y0.1415
N9685 G3 X1.4079 Y0.1602 I-0.098 J0.2527
N9690 G1 X1.4124 Y0.1648
N9695 X1.4152 Y0.1705
N9700 X1.4159 Y0.1768
N9705 G3 X1.4002 Y0.1757 I-0.0078 J-0.0008
N9710 G1 Y0.1752
N9715 X1.4004 Y0.1731 Z-0.0477
N9720 X1.4006 Y0.1712 Z-0.0469
N9725 X1.4008 Y0.1696 Z-0.0457
N9730 X1.4009 Y0.1684 Z-0.0441
N9735 X1.401 Y0.1676 Z-0.0422
N9740 Y0.1673 Z-0.0401
N9745 G0 Z0.2
N9750 X1.3915 Y-0.1063
N9755 Z-0.0323
N9760 G1 Z-0.0401 F8.
N9765 X1.3916 Y-0.1061 Z-0.0422
N9770 X1.3921 Y-0.1055 Z-0.0441
N9775 X1.3929 Y-0.1045 Z-0.0457
N9780 X1.3939 Y-0.1032 Z-0.0469
N9785 X1.3951 Y-0.1017 Z-0.0477
N9790 X1.3963 Y-0.1001 Z-0.048
N9795 G3 X1.4062 Y-0.0775 I-0.0393 J0.0307
N9800 X1.4097 Y-0.0381 I-0.2107 J0.0385
N9805 X1.3921 Y0.005 I-0.1582 J-0.0395
N9810 G1 X1.3828 Y0.0228
N9815 X1.374 Y0.0409
N9820 X1.3673 Y0.0599
N9825 X1.3671 Y0.07
N9830 X1.3697 Y0.0797
N9835 X1.3793 Y0.0974
N9840 X1.394 Y0.1111
N9845 X1.4102 Y0.123
N9850 X1.4112 Y0.1238
N9855 X1.4148 Y0.128
N9860 X1.417 Y0.133
N9865 X1.4176 Y0.1385
N9870 G3 X1.4019 Y0.1379 I-0.0079 J-0.0006
N9875 G1 Y0.1374
N9880 X1.402 Y0.1353 Z-0.0477
N9885 X1.4022 Y0.1334 Z-0.0469
N9890 X1.4023 Y0.1318 Z-0.0457
N9895 X1.4024 Y0.1306 Z-0.0441
N9900 Y0.1298 Z-0.0422
N9905 X1.4025 Y0.1295 Z-0.0401
N9910 G0 Z0.2
N9915 X1.3951 Y-0.0791
N9920 Z-0.0323
N9925 G1 Z-0.0401 F8.
N9930 X1.3952 Y-0.0788 Z-0.0422
N9935 X1.3957 Y-0.0782 Z-0.0441
N9940 X1.3965 Y-0.0772 Z-0.0457
N9945 X1.3975 Y-0.0759 Z-0.0469
N9950 X1.3986 Y-0.0744 Z-0.0477
N9955 X1.3999 Y-0.0728 Z-0.048
N9960 G3 X1.4096 Y-0.0501 I-0.0395 J0.0303
N9965 G1 X1.4109 Y-0.0389
N9970 X1.4135 Y-0.0069
N9975 X1.4137 Y-0.0009
N9980 X1.4133 Y0.006
N9985 X1.412 Y0.0151
N9990 X1.4075 Y0.0347
N9995 X1.4066 Y0.0447
N10000 X1.4082 Y0.0547
N10005 X1.4152 Y0.0735
N10010 X1.4166 Y0.0763
N10015 X1.4174 Y0.0793
N10020 X1.4177 Y0.0824
N10025 G3 X1.402 Y0.0827 I-0.0079 J-0.0001
N10030 G1 Y0.0822
N10035 X1.3979 Y-0.0051
N10040 X1.3978 Y-0.0056
N10045 G3 X1.4135 Y-0.0069 I0.0079 J-0.0004
N10050 X1.4137 Y0.2091 I-1.3345 J0.109
N10055 G1 X1.4132 Y0.2112
N10060 X1.412 Y0.2132
N10065 X1.4104 Y0.2147
N10070 X1.4085 Y0.2157
N10075 X1.4063 Y0.2162
N10080 X1.4041 Y0.216
N10085 X1.4021 Y0.2152
N10090 X1.4003 Y0.2139
N10095 X1.3989 Y0.2122
N10100 X1.3981 Y0.2102
N10105 X1.3979 Y0.208
N10110 Y0.2074
N10115 X1.3982 Y0.2054 Z-0.0477
N10120 X1.3984 Y0.2035 Z-0.0469
N10125 X1.3985 Y0.2019 Z-0.0457
N10130 X1.3987 Y0.2007 Z-0.0441
N10135 Y0.1999 Z-0.0422
N10140 X1.3988 Y0.1996 Z-0.0401
N10145 G0 Z0.2
N10150 X0.8911 Y1.196
N10155 Z-0.0323
N10160 G1 Z-0.0401 F8.
N10165 X0.891 Y1.1963 Z-0.0422
N10170 X0.8907 Y1.197 Z-0.0441
N10175 X0.8902 Y1.1982 Z-0.0457
N10180 X0.8896 Y1.1997 Z-0.0469
N10185 X0.8889 Y1.2014 Z-0.0477
N10190 X0.8881 Y1.2033 Z-0.048
N10195 G3 X0.8771 Y1.2183 I-0.0347 J-0.014
N10200 G1 X0.8549 Y1.2352
N10205 G3 X0.8454 Y1.2227 I-0.0046 J-0.0064
N10210 G1 X0.8458 Y1.2223
N10215 X0.8475 Y1.2212 Z-0.0477
N10220 X0.849 Y1.2201 Z-0.0469
N10225 X0.8504 Y1.2191 Z-0.0457
N10230 X0.8514 Y1.2184 Z-0.0441
N10235 X0.852 Y1.2179 Z-0.0422
N10240 X0.8523 Y1.2178 Z-0.0401
N10245 G0 Z0.2
N10250 X0.4846 Y1.4249
N10255 Z-0.0323
N10260 G1 Z-0.0401 F8.
N10265 X0.4844 Y1.4251 Z-0.0422
N10270 X0.4839 Y1.4257 Z-0.0441
N10275 X0.4831 Y1.4266 Z-0.0457
N10280 X0.4821 Y1.4279 Z-0.0469
N10285 X0.4809 Y1.4293 Z-0.0477
N10290 X0.4795 Y1.4309 Z-0.048
N10295 G3 X0.4594 Y1.4453 I-0.0382 J-0.0321
N10300 G1 X0.4156 Y1.4606
N10305 G3 X0.311 Y1.4762 I-0.0963 J-0.287
N10310 G1 X0.2909 Y1.4766
N10315 X0.2707 Y1.4768
N10320 X0.2305 Y1.4769
N10325 X-0.1117
N10330 X-0.3541
N10335 X-0.3559 Y1.4768
N10340 X-0.3577 Y1.4766
N10345 X-0.3594 Y1.4762
N10350 X-0.4183 Y1.4582
N10355 X-0.4528 Y1.4476
N10360 G3 X-0.4482 Y1.4326 I0.0026 J-0.0074
N10365 G1 X-0.4477 Y1.4328
N10370 X-0.4457 Y1.4334 Z-0.0477
N10375 X-0.4439 Y1.434 Z-0.0469
N10380 X-0.4424 Y1.4346 Z-0.0457
N10385 X-0.4412 Y1.435 Z-0.0441
N10390 X-0.4405 Y1.4352 Z-0.0422
N10395 X-0.4402 Y1.4353 Z-0.0401
N10400 G0 Z0.2
N10405 X0.4174 Y1.4492
N10410 Z-0.0323
N10415 G1 Z-0.0401 F8.
N10420 X0.4172 Y1.4494 Z-0.0422
N10425 X0.4166 Y1.45 Z-0.0441
N10430 X0.4158 Y1.4509 Z-0.0457
N10435 X0.4146 Y1.452 Z-0.0469
N10440 X0.4133 Y1.4534 Z-0.0477
N10445 X0.4119 Y1.4549 Z-0.048
N10450 G3 X0.3909 Y1.4679 I-0.0359 J-0.0346
N10455 X0.2401 Y1.5027 I-0.6334 J-2.3969
N10460 X0.1195 Y1.5082 I-0.1008 J-0.8948
N10465 G1 X0.0792 Y1.5084
N10470 X-0.1987
N10475 X-0.1998
N10480 G3 X-0.3452 Y1.4804 I0.535 J-3.1698
N10485 G1 X-0.3594 Y1.4762
N10490 G3 X-0.3549 Y1.4611 I0.0025 J-0.0075
N10495 G1 X-0.3543 Y1.4612
N10500 X-0.3524 Y1.4619 Z-0.0477
N10505 X-0.3506 Y1.4625 Z-0.0469
N10510 X-0.3491 Y1.463 Z-0.0457
N10515 X-0.3479 Y1.4634 Z-0.0441
N10520 X-0.3471 Y1.4637 Z-0.0422
N10525 X-0.3469 Y1.4638 Z-0.0401
N10530 G0 Z0.2
N10535 X0.2683 Y1.4867
N10540 Z-0.0323
N10545 G1 Z-0.0401 F8.
N10550 X0.2681 Y1.4868 Z-0.0422
N10555 X0.2675 Y1.4873 Z-0.0441
N10560 X0.2666 Y1.4881 Z-0.0457
N10565 X0.2653 Y1.4892 Z-0.0469
N10570 X0.2639 Y1.4904 Z-0.0477
N10575 X0.2623 Y1.4917 Z-0.048
N10580 G3 X0.24 Y1.5024 I-0.032 J-0.0382
N10585 X0.0983 Y1.5195 I-0.4017 J-2.7321
N10590 X-0.0571 Y1.522 I-0.1227 J-2.8265
N10595 X-0.1943 Y1.5095 I0.3892 J-5.0584
N10600 G1 X-0.2019 Y1.5082
N10605 G3 X-0.2059 Y1.4949 I0.0016 J-0.0077
N10610 G1 X-0.2043 Y1.4941 Z-0.0478
N10615 X-0.2029 Y1.4934 Z-0.0472
N10620 X-0.2016 Y1.4927 Z-0.0463
N10625 X-0.2003 Y1.4926 Z-0.0449
N10630 X-0.1992 Z-0.043
N10635 X-0.1988 Y1.4927 Z-0.0416
N10640 X-0.1987 Z-0.0401
N10645 G0 Z0.2
N10650 X-0.9977 Y0.0445
N10655 Z0.0279
N10660 G1 Z0.02 F8.
N10665 G3 X-1.0673 Y0.072 Z0.0159 I-0.0348 J0.0137 F2.
N10670 X-0.9977 Y0.0445 Z0.0118 I0.0348 J-0.0137
N10675 X-1.0673 Y0.072 Z0.0077 I-0.0348 J0.0137
N10680 X-0.9977 Y0.0445 Z0.0036 I0.0348 J-0.0137
N10685 X-1.0673 Y0.072 Z-0.0005 I-0.0348 J0.0137
N10690 X-0.9977 Y0.0445 Z-0.0046 I0.0348 J-0.0137
N10695 X-1.0673 Y0.072 Z-0.0087 I-0.0348 J0.0137
N10700 X-0.9977 Y0.0445 Z-0.0128 I0.0348 J-0.0137
N10705 X-1.0673 Y0.072 Z-0.0169 I-0.0348 J0.0137
N10710 X-0.9977 Y0.0445 Z-0.021 I0.0348 J-0.0137
N10715 X-1.0673 Y0.072 Z-0.0251 I-0.0348 J0.0137
N10720 X-0.9977 Y0.0445 Z-0.0292 I0.0348 J-0.0137
N10725 X-1.0673 Y0.072 Z-0.0333 I-0.0348 J0.0137
N10730 X-0.9977 Y0.0445 Z-0.0374 I0.0348 J-0.0137
N10735 X-1.0673 Y0.072 Z-0.0415 I-0.0348 J0.0137
N10740 X-0.9977 Y0.0445 Z-0.0457 I0.0348 J-0.0137
N10745 X-1.0673 Y0.072 Z-0.0498 I-0.0348 J0.0137
N10750 X-0.9977 Y0.0445 Z-0.0539 I0.0348 J-0.0137
N10755 X-1.0673 Y0.072 Z-0.058 I-0.0348 J0.0137
N10760 X-0.9977 Y0.0445 Z-0.0621 I0.0348 J-0.0137
N10765 X-1.0673 Y0.072 Z-0.0662 I-0.0348 J0.0137
N10770 X-0.9977 Y0.0445 Z-0.0703 I0.0348 J-0.0137
N10775 X-1.0673 Y0.072 Z-0.0744 I-0.0348 J0.0137
N10780 X-0.9977 Y0.0445 Z-0.0785 I0.0348 J-0.0137
N10785 X-1.0673 Y0.072 Z-0.0826 I-0.0348 J0.0137
N10790 X-0.9977 Y0.0445 Z-0.0867 I0.0348 J-0.0137
N10795 X-1.0673 Y0.072 Z-0.0908 I-0.0348 J0.0137
N10800 X-0.9977 Y0.0445 Z-0.0949 I0.0348 J-0.0137
N10805 X-1.0673 Y0.072 Z-0.099 I-0.0348 J0.0137
N10810 X-0.9977 Y0.0445 Z-0.1031 I0.0348 J-0.0137
N10815 X-1.0673 Y0.072 Z-0.1072 I-0.0348 J0.0137
N10820 X-0.9977 Y0.0445 Z-0.1113 I0.0348 J-0.0137
N10825 X-1.0673 Y0.072 Z-0.1154 I-0.0348 J0.0137
N10830 X-0.9977 Y0.0445 Z-0.1195 I0.0348 J-0.0137
N10835 X-0.9951 Y0.0582 Z-0.12 I-0.0348 J0.0137
N10840 X-1.0699 I-0.0374 J0.
N10845 X-0.9951 I0.0374 J0.
N10850 G1 X-0.9941 Y0.0783 F8.
N10855 G3 X-1.0083 Y0.108 I-0.0288 J0.0045
N10860 X-1.0819 Y0.0915 I-0.0286 J-0.0445
N10865 X-1.0621 Y0.0057 I0.0494 J-0.0338
N10870 X-0.9782 Y0.0326 I0.0295 J0.052
N10875 X-0.9704 Y0.0939 I-0.0737 J0.0406
N10880 X-1.0586 Y0.1372 I-0.066 J-0.0231
N10885 X-1.0962 Y0.002 I0.0236 J-0.0793
N10890 X-0.9589 Y0.015 I0.064 J0.0558
N10895 X-0.9745 Y0.1443 I-0.0798 J0.056
N10900 X-1.1306 Y0.1105 I-0.0641 J-0.0813
N10905 X-0.956 Y-0.0234 I0.0979 J-0.0532
N10910 X-0.9633 Y0.1702 I-0.083 J0.0938
N10915 X-1.1591 Y0.1159 I-0.0755 J-0.1078
N10920 X-0.9475 Y-0.0529 I0.1264 J-0.0586
N10925 X-0.9656 Y0.2048 I-0.0909 J0.1231
N10930 G1 X-0.9683 Y0.2055
N10935 X-0.9709 Y0.2062
N10940 X-0.9737 Y0.2064
N10945 X-1.0811
N10950 G3 X-1.1492 Y0.1761 I0.0057 J-0.1045
N10955 X-1.1903 Y0.1142 I0.0904 J-0.1045
N10960 X-1.1845 Y0.0983 I0.0331 J0.003
N10965 G2 X-1.1807 Y0.08 I-0.0368 J-0.0173
N10970 G1 X-1.1806 Y0.0571
N10975 Y0.0069
N10980 G3 X-1.1516 Y-0.0587 I0.0993 J0.0048
N10985 X-1.1109 Y-0.0899 I0.09 J0.0751
N10990 G1 X-1.1074
N10995 G3 X-1.1013 Y-0.0774 I-0.0003 J0.0079
N11000 G1 X-1.1059 Y-0.0712
N11005 X-1.1633 Y0.007
N11010 X-1.1664 Y0.0112
N11015 G3 X-1.1806 Y0.0069 I-0.0063 J-0.0047
N11020 G1 Y-0.0389
N11025 G3 X-1.1584 Y-0.0869 I0.0685 J0.0025
N11030 G1 X-1.1535 Y-0.0891
N11035 X-1.1483 Y-0.0899
N11040 G3 X-1.1417 Y-0.0782 I-0.0003 J0.0079
N11045 G1 X-1.1459 Y-0.0707
N11050 X-1.1638 Y-0.039
N11055 X-1.1659 Y-0.0353
N11060 G3 X-1.1806 Y-0.0389 I-0.0069 J-0.0039
N11065 X-1.1804 Y-0.0834 I0.5397 J-0.0201
N11070 G1 X-1.18 Y-0.0846
N11075 X-1.1796 Y-0.0855
N11080 X-1.179 Y-0.0864
N11085 X-1.1786 Y-0.0869
N11090 X-1.1781 Y-0.0874
N11095 X-1.1771 Y-0.0882
N11100 X-1.1763 Y-0.0887
N11105 X-1.1756 Y-0.0891
N11110 X-1.1748 Y-0.0894
N11115 X-1.1741 Y-0.0897
N11120 X-1.1733 Y-0.0898
N11125 X-1.1726 Y-0.0899
N11130 X-0.9806
N11135 G3 X-0.9216 Y-0.0667 I-0.0042 J0.0971
N11140 X-0.8859 Y-0.0277 I-0.0852 J0.1138
N11145 G1 X-0.8848 Y-0.024
N11150 X-0.8844 Y-0.0201
N11155 G3 X-0.8968 Y-0.014 I-0.0079 J-0.0003
N11160 G1 X-0.9032 Y-0.0185
N11165 X-0.9806 Y-0.0727
N11170 X-0.9848 Y-0.0756
N11175 G3 X-0.9806 Y-0.0899 I0.0045 J-0.0065
N11180 G1 X-0.9348
N11185 G3 X-0.8874 Y-0.0691 I-0.0022 J0.0696
N11190 G1 X-0.8852 Y-0.0641
N11195 X-0.8844 Y-0.0587
N11200 G3 X-0.896 Y-0.0521 I-0.0079 J-0.0003
N11205 G1 X-0.9037 Y-0.0562
N11210 X-0.9347 Y-0.0731
N11215 X-0.9383 Y-0.0751
N11220 G3 X-0.9348 Y-0.0899 I0.0038 J-0.0069
N11225 X-0.8915 Y-0.0898 I0.0195 J1.2911
N11230 G1 X-0.8904 Y-0.0896
N11235 X-0.8891 Y-0.0891
N11240 X-0.8884 Y-0.0887
N11245 X-0.8877 Y-0.0882
N11250 X-0.8864 Y-0.0868
N11255 X-0.8859 Y-0.0863
N11260 X-0.8855 Y-0.0857
N11265 X-0.885 Y-0.0846
N11270 X-0.8846 Y-0.0833
N11275 X-0.8844 Y-0.0825
N11280 Y-0.0817
N11285 Y0.0709
N11290 G2 X-0.8766 Y0.1058 I0.0542 J0.0063
N11295 G3 X-0.8779 Y0.1393 I-0.0432 J0.0151
N11300 G1 X-0.8795 Y0.1408
N11305 X-0.8814 Y0.1419
N11310 X-0.8836 Y0.1424
N11315 X-0.8858 Y0.1423
N11320 X-0.8878 Y0.1416
N11325 X-0.8897 Y0.1404
N11330 X-0.8911 Y0.1388
N11335 X-0.892 Y0.1369
N11340 X-0.8924 Y0.1348
N11345 X-0.8926 Y0.1292
N11350 X-0.8937 Y0.1091
N11355 X-0.8939 Y0.105
N11360 G3 X-0.8794 Y0.1004 I0.0079 J-0.0004
N11365 G2 X-0.8651 Y0.1154 I0.0376 J-0.0216
N11370 G1 X-0.8644 Y0.1166
N11375 X-0.8638 Y0.1177
N11380 X-0.8635 Y0.1189
N11385 X-0.8633 Y0.12
N11390 Y0.1211
N11395 X-0.8634 Y0.1223
N11400 X-0.8637 Y0.1234
N11405 X-0.8642 Y0.1246
N11410 G3 X-0.8753 Y0.1347 I-0.0732 J-0.0694
N11415 G2 X-0.8845 Y0.1557 I0.0421 J0.0309
N11420 G3 X-0.9176 Y0.204 I-0.1108 J-0.0404
N11425 G1 X-0.9222 Y0.2057
N11430 X-0.927 Y0.2064
N11435 G3 X-0.9331 Y0.1939 I0.0003 J-0.0079
N11440 G1 X-0.9286 Y0.1876
N11445 X-0.899 Y0.1465
N11450 X-0.897 Y0.1438
N11455 G3 X-0.8829 Y0.15 I0.0064 J0.0046
N11460 G1 X-0.8837 Y0.1531
N11465 X-0.8842 Y0.1577
N11470 G3 X-0.8855 Y0.1925 I-0.2155 J0.0092
N11475 G1 X-0.8859 Y0.1933
N11480 X-0.8885 Y0.1986
N11485 X-0.8926 Y0.2028
N11490 X-0.8977 Y0.2054
N11495 X-0.9035 Y0.2064
N11500 G3 X-0.9099 Y0.1943 I0.0003 J-0.0079
N11505 G1 X-0.9055 Y0.1873
N11510 X-0.9014 Y0.1806
N11515 X-0.8989 Y0.1767
N11520 G3 X-0.8844 Y0.1806 I0.0067 J0.0042
N11525 G1 Y0.1943
N11530 Y0.1989
N11535 X-0.8846 Y0.1997
N11540 X-0.8848 Y0.2006
N11545 X-0.8852 Y0.2016
N11550 X-0.8858 Y0.2025
N11555 X-0.8865 Y0.2034
N11560 X-0.8872 Y0.2041
N11565 X-0.8878 Y0.2047
N11570 X-0.8885 Y0.2052
N11575 X-0.8891 Y0.2055
N11580 X-0.8903 Y0.206
N11585 X-0.8914 Y0.2063
N11590 X-0.8937 Y0.2064
N11595 X-0.9737
N11600 X-0.9738 Y0.2063
N11605 G2 X-0.998 Y0.2027 I-0.0536 J0.2758
N11610 G1 X-0.9981
N11615 X-0.9989
N11620 X-1.0559
N11625 X-1.0567
N11630 X-1.0568
N11635 G2 X-1.081 Y0.2063 I0.0294 J0.2794
N11640 G1 X-1.0811 Y0.2064
N11645 X-1.1268
N11650 G3 X-1.1774 Y0.1833 I0.002 J-0.0715
N11655 G1 X-1.1798 Y0.1784
N11660 X-1.1806 Y0.173
N11665 G3 X-1.1689 Y0.1664 I0.0079 J0.0003
N11670 G1 X-1.1614 Y0.1706
N11675 X-1.127 Y0.1895
N11680 X-1.1233 Y0.1916
N11685 G3 X-1.1268 Y0.2064 I-0.0038 J0.0069
N11690 X-1.1737 Y0.2063 I-0.021 J-1.0407
N11695 G1 X-1.1748 Y0.2059
N11700 X-1.176 Y0.2054
N11705 X-1.1766 Y0.205
N11710 X-1.1771 Y0.2046
N11715 X-1.1784 Y0.2034
N11720 X-1.1789 Y0.2029
N11725 X-1.1793 Y0.2023
N11730 X-1.18 Y0.2011
N11735 X-1.1804 Y0.2
N11740 G2 X-1.1812 Y0.1531 I-0.6451 J-0.0123
N11745 X-1.2001 Y0.1259 I-0.041 J0.0083
N11750 G1 X-1.2008 Y0.1246
N11755 X-1.2013 Y0.1234
N11760 X-1.2016 Y0.1223
N11765 X-1.2017 Y0.1211
N11770 Y0.12
N11775 X-1.2015 Y0.1189
N11780 X-1.2011 Y0.1177
N11785 X-1.2005 Y0.1166
N11790 G2 X-1.187 Y0.1028 I-0.0556 J-0.0685
N11795 G1 X-1.1856 Y0.1013
N11800 X-1.1838 Y0.1002
N11805 X-1.1818 Y0.0996
N11810 X-1.1797 Y0.0995
N11815 X-1.1777 Y0.1
N11820 X-1.1759 Y0.101
N11825 X-1.1744 Y0.1025
N11830 X-1.1733 Y0.1043
N11835 X-1.173 Y0.1058 Z-0.1198
N11840 X-1.1727 Y0.1073 Z-0.1194
N11845 X-1.1732 Y0.109 Z-0.1183
N11850 X-1.1736 Y0.1104 Z-0.1168
N11855 X-1.1739 Y0.1113 Z-0.115
N11860 X-1.1741 Y0.1117 Z-0.1136
N11865 X-1.1742 Y0.1118 Z-0.1121
N11870 G0 Z0.2
N11875 X0.07 Y0.6532
N11880 Z-0.1043
N11885 G1 Z-0.1121 F8.
N11890 Y0.6535 Z-0.1142
N11895 X0.0702 Y0.6542 Z-0.1161
N11900 X0.0705 Y0.6554 Z-0.1177
N11905 X0.0709 Y0.657 Z-0.1189
N11910 X0.0714 Y0.6588 Z-0.1197
N11915 X0.0719 Y0.6608 Z-0.12
N11920 G3 X0.0754 Y0.6853 I-0.1112 J0.0285
N11925 G1 Y0.6883
N11930 X0.0729 Y0.6938
N11935 G3 X0.0523 Y0.7063 I-0.0295 J-0.0254
N11940 G1 X0.0499 Y0.7064
N11945 X-0.5737
N11950 G3 X-0.6546 Y0.6636 I0.0092 J-0.1153
N11955 X-0.6809 Y0.6137 I0.08 J-0.0742
N11960 G1 X-0.6806 Y0.6117
N11965 X-0.6798 Y0.6098
N11970 X-0.6785 Y0.6082
N11975 X-0.6769 Y0.607
N11980 X-0.6751 Y0.6062
N11985 X-0.6731 Y0.6059
N11990 X-0.6711 Y0.6061
N11995 X-0.6693 Y0.6068
N12000 X-0.6676 Y0.6079
N12005 X-0.6623 Y0.6125
N12010 X-0.5733 Y0.6887
N12015 X-0.5689 Y0.6925
N12020 G3 X-0.5737 Y0.7064 I-0.0051 J0.006
N12025 G1 X-0.6219
N12030 G3 X-0.6713 Y0.6831 I0.005 J-0.0746
N12035 X-0.6806 Y0.6665 I0.011 J-0.0171
N12040 X-0.6686 Y0.6601 I0.0079 J0.0003
N12045 G1 X-0.6616 Y0.6645
N12050 X-0.622 Y0.6893
N12055 X-0.618 Y0.6918
N12060 G3 X-0.6219 Y0.7064 I-0.0042 J0.0067
N12065 G1 X-0.6514
N12070 G3 X-0.6673 Y0.7032 I0.0017 J-0.0496
N12075 X-0.6798 Y0.6834 I0.0107 J-0.0207
N12080 G1 X-0.6806 Y0.6789
N12085 Y0.1623
N12090 G2 X-0.6864 Y0.1385 I-0.0528 J0.0002
N12095 G3 X-0.6899 Y0.1073 I0.0621 J-0.0227
N12100 G1 X-0.6876 Y0.1036
N12105 G3 X-0.6734 Y0.1073 I0.0064 J0.0047
N12110 G1 X-0.6727 Y0.1132
N12115 X-0.6699 Y0.1359
N12120 X-0.6695 Y0.1391
N12125 G3 X-0.6841 Y0.144 I-0.0078 J0.001
N12130 G2 X-0.7001 Y0.1259 I-0.04 J0.0192
N12135 G1 X-0.7007 Y0.1247
N12140 X-0.7012 Y0.1237
N12145 X-0.7015 Y0.1226
N12150 X-0.7017 Y0.1216
N12155 Y0.1211
N12160 Y0.1198
N12165 X-0.7016 Y0.119
N12170 X-0.7013 Y0.1182
N12175 X-0.701 Y0.1174
N12180 X-0.7006 Y0.1166
N12185 G2 X-0.6869 Y0.103 I-0.0676 J-0.0814
N12190 X-0.6807 Y0.08 I-0.037 J-0.0224
N12195 G1 X-0.6806 Y0.0571
N12200 Y-0.3863
N12205 G3 X-0.6394 Y-0.4695 I0.1161 J0.0057
N12210 X-0.5875 Y-0.4972 I0.0754 J0.0788
N12215 G1 X-0.5856 Y-0.4969
N12220 X-0.5837 Y-0.4961
N12225 X-0.5821 Y-0.4948
N12230 X-0.5809 Y-0.4932
N12235 X-0.5801 Y-0.4914
N12240 X-0.5798 Y-0.4895
N12245 X-0.58 Y-0.4875
N12250 X-0.5806 Y-0.4856
N12255 X-0.5817 Y-0.484
N12260 X-0.5863 Y-0.4785
N12265 X-0.663 Y-0.3859
N12270 X-0.6667 Y-0.3815
N12275 G3 X-0.6806 Y-0.3863 I-0.0061 J-0.005
N12280 G1 Y-0.4366
N12285 G3 X-0.6495 Y-0.4948 I0.0783 J0.0044
N12290 G1 X-0.6453 Y-0.4964
N12295 X-0.6408 Y-0.4969
N12300 G3 X-0.6344 Y-0.4849 I-0.0003 J0.0079
N12305 G1 X-0.6387 Y-0.4778
N12310 X-0.6637 Y-0.4367
N12315 X-0.666 Y-0.4328
N12320 G3 X-0.6806 Y-0.4366 I-0.0067 J-0.0041
N12325 G1 Y-0.4686
N12330 G3 X-0.6774 Y-0.4834 I0.04 J0.0008
N12335 X-0.6651 Y-0.4946 I0.0201 J0.0099
N12340 G1 X-0.656 Y-0.4964
N12345 X-0.6537 Y-0.4968
N12350 X-0.6514 Y-0.4969
N12355 X0.5691
N12360 G3 X0.6532 Y-0.4555 I-0.0033 J0.1127
N12365 X0.6778 Y-0.4139 I-0.0743 J0.072
N12370 X0.6807 Y-0.4025 I-0.0289 J0.0133
N12375 G1 X0.6803 Y-0.4003
N12380 X0.6793 Y-0.3984
N12385 X0.6778 Y-0.3967
N12390 X0.676 Y-0.3956
N12395 X0.6739 Y-0.395
N12400 X0.6717
N12405 X0.6696 Y-0.3956
N12410 X0.6677 Y-0.3967
N12415 X0.6622 Y-0.4013
N12420 X0.5688 Y-0.4793
N12425 X0.5644 Y-0.483
N12430 G3 X0.5691 Y-0.4969 I0.005 J-0.006
N12435 G1 X0.6219
N12440 G3 X0.6708 Y-0.474 I-0.0051 J0.0745
N12445 X0.6806 Y-0.4569 I-0.0112 J0.0178
N12450 X0.6686 Y-0.4505 I-0.0079 J-0.0003
N12455 G1 X0.6616 Y-0.4549
N12460 X0.622 Y-0.4799
N12465 X0.618 Y-0.4824
N12470 G3 X0.6219 Y-0.4969 I0.0042 J-0.0067
N12475 G1 X0.6514
N12480 G3 X0.6675 Y-0.4936 I-0.0013 J0.047
N12485 X0.6786 Y-0.4806 I-0.0108 J0.0205
N12490 G1 X0.6804 Y-0.4709
N12495 X0.6806 Y-0.4697
N12500 Y-0.4686
N12505 Y-0.2354
N12510 G2 X0.6872 Y-0.2025 I0.0578 J0.0056
N12515 G3 X0.6908 Y-0.177 I-0.0885 J0.0254
N12520 G1 X0.6897 Y-0.1731
N12525 X0.6879 Y-0.1696
N12530 G3 X0.6736 Y-0.1733 I-0.0064 J-0.0046
N12535 G1 X0.673 Y-0.1789
N12540 X0.6708 Y-0.1993
N12545 X0.6704 Y-0.2029
N12550 G3 X0.6848 Y-0.208 I0.0078 J-0.0009
N12555 G2 X0.7006 Y-0.191 I0.0403 J-0.0216
N12560 G1 X0.701 Y-0.1897
N12565 X0.7015 Y-0.1884
N12570 X0.7017 Y-0.1872
N12575 X0.7018 Y-0.1863
N12580 X0.7017 Y-0.1851
N12585 X0.7014 Y-0.184
N12590 X0.701 Y-0.1829
N12595 X0.7003 Y-0.1817
N12600 G2 X0.6821 Y-0.1578 I0.0264 J0.0391
N12605 G1 X0.6813 Y-0.1531
N12610 X0.6808 Y-0.1486
N12615 X0.6806 Y-0.144
N12620 Y0.3131
N12625 G2 X0.6866 Y0.3461 I0.0594 J0.0063
N12630 G3 X0.6911 Y0.3724 I-0.0688 J0.0255
N12635 G1 X0.6899 Y0.3768
N12640 X0.6877 Y0.3807
N12645 G3 X0.6737 Y0.3769 I-0.0062 J-0.0048
N12650 G1 X0.6729 Y0.3707
N12655 X0.67 Y0.3489
N12660 X0.6696 Y0.3457
N12665 G3 X0.6841 Y0.3406 I0.0078 J-0.001
N12670 G2 X0.7002 Y0.3586 I0.0397 J-0.0191
N12675 G1 X0.7007 Y0.3599
N12680 X0.7012 Y0.3609
N12685 X0.7015 Y0.3618
N12690 X0.7017 Y0.3628
N12695 X0.7018 Y0.3634
N12700 X0.7017 Y0.3646
N12705 X0.7016 Y0.3655
N12710 X0.7013 Y0.3663
N12715 X0.701 Y0.3672
N12720 G3 X0.6904 Y0.377 I-0.06 J-0.054
N12725 G2 X0.6807 Y0.4046 I0.0321 J0.0268
N12730 G1 X0.6806 Y0.5966
N12735 G3 X0.6425 Y0.6765 I-0.1119 J-0.0043
N12740 X0.5882 Y0.7067 I-0.0805 J-0.0807
N12745 G1 X0.5862 Y0.7064
N12750 X0.5843 Y0.7056
N12755 X0.5827 Y0.7043
N12760 X0.5815 Y0.7027
N12765 X0.5807 Y0.7009
N12770 X0.5804 Y0.6989
N12775 X0.5806 Y0.697
N12780 X0.5812 Y0.6951
N12785 X0.5823 Y0.6935
N12790 X0.5869 Y0.6879
N12795 X0.663 Y0.5962
N12800 X0.6667 Y0.5918
N12805 G3 X0.6806 Y0.5966 I0.0061 J0.005
N12810 G1 Y0.6469
N12815 G3 X0.654 Y0.7005 I-0.0761 J-0.0042
N12820 G1 X0.6504 Y0.7038
N12825 X0.6459 Y0.7057
N12830 X0.641 Y0.7064
N12835 G3 X0.6346 Y0.6944 I0.0003 J-0.0079
N12840 G1 X0.6389 Y0.6873
N12845 X0.6636 Y0.6469
N12850 X0.666 Y0.643
N12855 G3 X0.6806 Y0.6469 I0.0067 J0.0041
N12860 G1 Y0.6789
N12865 G3 X0.6777 Y0.6926 I-0.0734 J-0.0085
N12870 X0.6651 Y0.7041 I-0.0212 J-0.0105
N12875 G1 X0.656 Y0.7059
N12880 X0.6539 Y0.7063
N12885 X0.6514 Y0.7064
N12890 X0.0499
N12895 G3 X0.0437 Y0.694 I0.0003 J-0.0079
N12900 G1 X0.045 Y0.693 Z-0.1198
N12905 X0.0463 Y0.692 Z-0.1192
N12910 X0.0475 Y0.6911 Z-0.1183
N12915 X0.0487 Y0.6909 Z-0.1171
N12920 X0.0496 Y0.6907 Z-0.1157
N12925 X0.0501 Y0.6906 Z-0.1142
N12930 X0.0504 Z-0.1121
N12935 G0 Z0.2
N12940 X1.0673 Y0.2857
N12945 Z0.0279
N12950 G1 Z0.02 F8.
N12955 G3 X0.9977 Y0.3132 Z0.0159 I-0.0348 J0.0137 F2.
N12960 X1.0673 Y0.2857 Z0.0118 I0.0348 J-0.0137
N12965 X0.9977 Y0.3132 Z0.0077 I-0.0348 J0.0137
N12970 X1.0673 Y0.2857 Z0.0036 I0.0348 J-0.0137
N12975 X0.9977 Y0.3132 Z-0.0005 I-0.0348 J0.0137
N12980 X1.0673 Y0.2857 Z-0.0046 I0.0348 J-0.0137
N12985 X0.9977 Y0.3132 Z-0.0087 I-0.0348 J0.0137
N12990 X1.0673 Y0.2857 Z-0.0128 I0.0348 J-0.0137
N12995 X0.9977 Y0.3132 Z-0.0169 I-0.0348 J0.0137
N13000 X1.0673 Y0.2857 Z-0.021 I0.0348 J-0.0137
N13005 X0.9977 Y0.3132 Z-0.0251 I-0.0348 J0.0137
N13010 X1.0673 Y0.2857 Z-0.0292 I0.0348 J-0.0137
N13015 X0.9977 Y0.3132 Z-0.0333 I-0.0348 J0.0137
N13020 X1.0673 Y0.2857 Z-0.0374 I0.0348 J-0.0137
N13025 X0.9977 Y0.3132 Z-0.0415 I-0.0348 J0.0137
N13030 X1.0673 Y0.2857 Z-0.0457 I0.0348 J-0.0137
N13035 X0.9977 Y0.3132 Z-0.0498 I-0.0348 J0.0137
N13040 X1.0673 Y0.2857 Z-0.0539 I0.0348 J-0.0137
N13045 X0.9977 Y0.3132 Z-0.058 I-0.0348 J0.0137
N13050 X1.0673 Y0.2857 Z-0.0621 I0.0348 J-0.0137
N13055 X0.9977 Y0.3132 Z-0.0662 I-0.0348 J0.0137
N13060 X1.0673 Y0.2857 Z-0.0703 I0.0348 J-0.0137
N13065 X0.9977 Y0.3132 Z-0.0744 I-0.0348 J0.0137
N13070 X1.0673 Y0.2857 Z-0.0785 I0.0348 J-0.0137
N13075 X0.9977 Y0.3132 Z-0.0826 I-0.0348 J0.0137
N13080 X1.0673 Y0.2857 Z-0.0867 I0.0348 J-0.0137
N13085 X0.9977 Y0.3132 Z-0.0908 I-0.0348 J0.0137
N13090 X1.0673 Y0.2857 Z-0.0949 I0.0348 J-0.0137
N13095 X0.9977 Y0.3132 Z-0.099 I-0.0348 J0.0137
N13100 X1.0673 Y0.2857 Z-0.1031 I0.0348 J-0.0137
N13105 X0.9977 Y0.3132 Z-0.1072 I-0.0348 J0.0137
N13110 X1.0673 Y0.2857 Z-0.1113 I0.0348 J-0.0137
N13115 X0.9977 Y0.3132 Z-0.1154 I-0.0348 J0.0137
N13120 X1.0673 Y0.2857 Z-0.1195 I0.0348 J-0.0137
N13125 X1.0699 Y0.2994 Z-0.12 I-0.0348 J0.0137
N13130 X0.9951 I-0.0374 J0.
N13135 X1.0699 I0.0374 J0.
N13140 G1 X1.0709 Y0.3195 F8.
N13145 G3 X1.0567 Y0.3492 I-0.0288 J0.0045
N13150 X0.9831 Y0.3327 I-0.0286 J-0.0445
N13155 X1.0029 Y0.2469 I0.0494 J-0.0338
N13160 X1.0867 Y0.2738 I0.0295 J0.052
N13165 X1.0946 Y0.3351 I-0.0737 J0.0406
N13170 X1.0064 Y0.3783 I-0.066 J-0.0231
N13175 X0.9688 Y0.2432 I0.0236 J-0.0793
N13180 X1.1061 Y0.2562 I0.064 J0.0558
N13185 X1.0905 Y0.3855 I-0.0798 J0.056
N13190 X0.9344 Y0.3517 I-0.0641 J-0.0813
N13195 X1.109 Y0.2178 I0.0979 J-0.0532
N13200 X1.1016 Y0.4114 I-0.083 J0.0938
N13205 X0.9059 Y0.357 I-0.0755 J-0.1078
N13210 X1.1175 Y0.1883 I0.1264 J-0.0586
N13215 X1.0996 Y0.4459 I-0.0909 J0.1231
N13220 X1.0801 Y0.4537 I-0.0406 J-0.0739
N13225 G1 X1.0778
N13230 X0.9988
N13235 G3 X0.9171 Y0.4194 I0.0028 J-0.1213
N13240 X0.875 Y0.3564 I0.0932 J-0.1078
N13245 X0.8809 Y0.3407 I0.0331 J0.0035
N13250 G2 X0.8843 Y0.3177 I-0.0443 J-0.0183
N13255 G1 X0.8844 Y0.2903
N13260 Y0.2491
N13265 G3 X0.9134 Y0.1825 I0.0992 J0.0036
N13270 X0.9562 Y0.1495 I0.1017 J0.0879
N13275 G1 X0.9591 Y0.149
N13280 X0.962 Y0.1487
N13285 G3 X0.968 Y0.1613 I-0.0003 J0.0079
N13290 G1 X0.9635 Y0.1674
N13295 X0.9018 Y0.2493
N13300 X0.8985 Y0.2536
N13305 G3 X0.8844 Y0.2491 I-0.0063 J-0.0047
N13310 G1 Y0.2034
N13315 G3 X0.9093 Y0.1513 I0.0718 J0.0023
N13320 G1 X0.9139 Y0.1494
N13325 X0.9188 Y0.1487
N13330 G3 X0.9254 Y0.1605 I-0.0003 J0.0079
N13335 G1 X0.9211 Y0.168
N13340 X0.9012 Y0.2033
N13345 X0.8991 Y0.207
N13350 G3 X0.8844 Y0.2034 I-0.0069 J-0.0039
N13355 X0.8845 Y0.1556 I1.0393 J-0.0212
N13360 G1 X0.885 Y0.1544
N13365 X0.8856 Y0.1531
N13370 X0.8861 Y0.1522
N13375 X0.8868 Y0.1514
N13380 X0.8874 Y0.1508
N13385 X0.888 Y0.1503
N13390 X0.8885 Y0.1499
N13395 X0.8891 Y0.1496
N13400 X0.8903 Y0.1491
N13405 X0.8914 Y0.1488
N13410 X0.8937 Y0.1487
N13415 X1.0811
N13420 G3 X1.1425 Y0.1733 I-0.0057 J0.1032
N13425 X1.1791 Y0.2133 I-0.0876 J0.1169
N13430 G1 X1.1802 Y0.217
N13435 X1.1806 Y0.2208
N13440 G3 X1.1682 Y0.227 I-0.0079 J-0.0003
N13445 G1 X1.1618 Y0.2225
N13450 X1.0811 Y0.166
N13455 X1.0769 Y0.1631
N13460 G3 X1.0811 Y0.1487 I0.0045 J-0.0065
N13465 G1 X1.1268
N13470 G3 X1.1774 Y0.1711 I-0.002 J0.073
N13475 G1 X1.1798 Y0.1761
N13480 X1.1806 Y0.1815
N13485 G3 X1.169 Y0.1882 I-0.0079 J-0.0003
N13490 G1 X1.1613 Y0.184
N13495 X1.1271 Y0.1655
N13500 X1.1234 Y0.1635
N13505 G3 X1.1268 Y0.1487 I0.0037 J-0.0069
N13510 X1.1737 Y0.1488 I0.021 J1.0409
N13515 G1 X1.1748 Y0.1492
N13520 X1.176 Y0.1497
N13525 X1.1766 Y0.1501
N13530 X1.1771 Y0.1505
N13535 X1.1779 Y0.1511
N13540 X1.1784 Y0.1518
N13545 X1.1794 Y0.1531
N13550 X1.18 Y0.1543
N13555 X1.1804 Y0.1554
N13560 G2 X1.1807 Y0.3269 I17.2092 J0.0504
N13565 X1.1879 Y0.3482 I0.0532 J-0.0061
N13570 G3 X1.1867 Y0.3827 I-0.0499 J0.0155
N13575 G1 X1.1853 Y0.3843
N13580 X1.1836 Y0.3854
N13585 X1.1817 Y0.3861
N13590 X1.1797 Y0.3862
N13595 X1.1778 Y0.3859
N13600 X1.1759 Y0.3851
N13605 X1.1744 Y0.3839
N13610 X1.1731 Y0.3823
N13615 X1.1724 Y0.3805
N13620 X1.172 Y0.3786
N13625 X1.1718 Y0.3735
N13630 X1.1708 Y0.3506
N13635 X1.1706 Y0.347
N13640 G3 X1.1853 Y0.3428 I0.0079 J-0.0004
N13645 G2 X1.2001 Y0.3587 I0.0403 J-0.0224
N13650 G1 X1.2008 Y0.36
N13655 X1.2013 Y0.3611
N13660 X1.2015 Y0.3623
N13665 X1.2017 Y0.3634
N13670 X1.2016 Y0.3646
N13675 X1.2014 Y0.3657
N13680 X1.201 Y0.3669
N13685 G3 X1.1904 Y0.3771 I-0.0506 J-0.0417
N13690 G2 X1.1807 Y0.3978 I0.0355 J0.0293
N13695 G3 X1.1402 Y0.452 I-0.1204 J-0.0476
N13700 G1 X1.136 Y0.4532
N13705 X1.1318 Y0.4537
N13710 G3 X1.1259 Y0.4411 I0.0003 J-0.0079
N13715 G1 X1.1304 Y0.4351
N13720 X1.1663 Y0.3884
N13725 X1.1684 Y0.3856
N13730 G3 X1.1824 Y0.392 I0.0062 J0.0048
N13735 G1 X1.1815 Y0.3954
N13740 X1.1809 Y0.4
N13745 X1.1806 Y0.4046
N13750 Y0.4229
N13755 G3 X1.1725 Y0.4484 I-0.0372 J0.0023
N13760 G1 X1.1666 Y0.4524
N13765 X1.1596 Y0.4537
N13770 G3 X1.153 Y0.442 I0.0003 J-0.0079
N13775 G1 X1.1573 Y0.4345
N13780 X1.1638 Y0.423
N13785 X1.1659 Y0.4192
N13790 G3 X1.1806 Y0.4229 I0.0069 J0.0039
N13795 G1 Y0.4457
N13800 X1.1804 Y0.4469
N13805 X1.1801 Y0.448
N13810 X1.1795 Y0.4491
N13815 X1.1787 Y0.4503
N13820 X1.178 Y0.4511
N13825 X1.1771 Y0.452
N13830 X1.1766 Y0.4524
N13835 X1.176 Y0.4528
N13840 X1.1748 Y0.4533
N13845 X1.1737 Y0.4536
N13850 X1.1726 Y0.4537
N13855 X1.0778
N13860 X1.0777
N13865 G2 X1.0599 Y0.4511 I-0.0394 J0.2025
N13870 G1 X1.0591 Y0.451
N13875 X1.0533
N13880 X1.0234
N13885 X1.0176
N13890 X1.0168 Y0.4511
N13895 G2 X0.999 Y0.4537 I0.0216 J0.2052
N13900 G1 X0.9988
N13905 X0.944
N13910 G3 X0.8871 Y0.4261 I0.004 J-0.0807
N13915 G1 X0.8851 Y0.4214
N13920 X0.8844 Y0.4164
N13925 G3 X0.8961 Y0.4098 I0.0079 J0.0003
N13930 G1 X0.9036 Y0.4141
N13935 X0.9438 Y0.4369
N13940 X0.9476 Y0.439
N13945 G3 X0.944 Y0.4537 I-0.0039 J0.0068
N13950 G1 X0.8937
N13955 X0.8914 Y0.4536
N13960 X0.8903 Y0.4534
N13965 X0.8891 Y0.4529
N13970 X0.8884 Y0.4525
N13975 X0.8876 Y0.4519
N13980 X0.8868 Y0.4511
N13985 X0.8861 Y0.4503
N13990 X0.8852 Y0.4486
N13995 X0.8848 Y0.4477
N14000 G3 X0.8841 Y0.4 I3.8628 J-0.0812
N14005 G2 X0.8651 Y0.3692 I-0.0394 J0.003
N14010 G1 X0.8645 Y0.368
N14015 X0.8639 Y0.3669
N14020 X0.8635 Y0.3657
N14025 X0.8633 Y0.3646
N14030 X0.8632 Y0.3634
N14035 X0.8634 Y0.3623
N14040 X0.8637 Y0.3611
N14045 X0.8642 Y0.36
N14050 X0.8649 Y0.3589
N14055 G2 X0.8785 Y0.3452 I-0.0331 J-0.0464
N14060 G1 X0.8799 Y0.3437
N14065 X0.8817 Y0.3426
N14070 X0.8837 Y0.3421
N14075 X0.8858 Y0.342
N14080 X0.8878 Y0.3426
N14085 X0.8896 Y0.3436
N14090 X0.8911 Y0.3451
N14095 X0.8921 Y0.347
N14100 X0.8924 Y0.3484 Z-0.1199
N14105 X0.8926 Y0.3498 Z-0.1195
N14110 X0.8921 Y0.3516 Z-0.1184
N14115 X0.8917 Y0.353 Z-0.1169
N14120 X0.8914 Y0.354 Z-0.115
N14125 X0.8912 Y0.3544 Z-0.1136
N14130 X0.8911 Y0.3545 Z-0.1121
N14135 G0 Z0.2
N14140 X1.0673 Y-0.1394
N14145 Z0.0279
N14150 G1 Z0.02 F8.
N14155 G3 X0.9977 Y-0.112 Z0.0159 I-0.0348 J0.0137 F2.
N14160 X1.0673 Y-0.1394 Z0.0118 I0.0348 J-0.0137
N14165 X0.9977 Y-0.112 Z0.0077 I-0.0348 J0.0137
N14170 X1.0673 Y-0.1394 Z0.0036 I0.0348 J-0.0137
N14175 X0.9977 Y-0.112 Z-0.0005 I-0.0348 J0.0137
N14180 X1.0673 Y-0.1394 Z-0.0046 I0.0348 J-0.0137
N14185 X0.9977 Y-0.112 Z-0.0087 I-0.0348 J0.0137
N14190 X1.0673 Y-0.1394 Z-0.0128 I0.0348 J-0.0137
N14195 X0.9977 Y-0.112 Z-0.0169 I-0.0348 J0.0137
N14200 X1.0673 Y-0.1394 Z-0.021 I0.0348 J-0.0137
N14205 X0.9977 Y-0.112 Z-0.0251 I-0.0348 J0.0137
N14210 X1.0673 Y-0.1394 Z-0.0292 I0.0348 J-0.0137
N14215 X0.9977 Y-0.112 Z-0.0333 I-0.0348 J0.0137
N14220 X1.0673 Y-0.1394 Z-0.0374 I0.0348 J-0.0137
N14225 X0.9977 Y-0.112 Z-0.0415 I-0.0348 J0.0137
N14230 X1.0673 Y-0.1394 Z-0.0457 I0.0348 J-0.0137
N14235 X0.9977 Y-0.112 Z-0.0498 I-0.0348 J0.0137
N14240 X1.0673 Y-0.1394 Z-0.0539 I0.0348 J-0.0137
N14245 X0.9977 Y-0.112 Z-0.058 I-0.0348 J0.0137
N14250 X1.0673 Y-0.1394 Z-0.0621 I0.0348 J-0.0137
N14255 X0.9977 Y-0.112 Z-0.0662 I-0.0348 J0.0137
N14260 X1.0673 Y-0.1394 Z-0.0703 I0.0348 J-0.0137
N14265 X0.9977 Y-0.112 Z-0.0744 I-0.0348 J0.0137
N14270 X1.0673 Y-0.1394 Z-0.0785 I0.0348 J-0.0137
N14275 X0.9977 Y-0.112 Z-0.0826 I-0.0348 J0.0137
N14280 X1.0673 Y-0.1394 Z-0.0867 I0.0348 J-0.0137
N14285 X0.9977 Y-0.112 Z-0.0908 I-0.0348 J0.0137
N14290 X1.0673 Y-0.1394 Z-0.0949 I0.0348 J-0.0137
N14295 X0.9977 Y-0.112 Z-0.099 I-0.0348 J0.0137
N14300 X1.0673 Y-0.1394 Z-0.1031 I0.0348 J-0.0137
N14305 X0.9977 Y-0.112 Z-0.1072 I-0.0348 J0.0137
N14310 X1.0673 Y-0.1394 Z-0.1113 I0.0348 J-0.0137
N14315 X0.9977 Y-0.112 Z-0.1154 I-0.0348 J0.0137
N14320 X1.0673 Y-0.1394 Z-0.1195 I0.0348 J-0.0137
N14325 X1.0699 Y-0.1257 Z-0.12 I-0.0348 J0.0137
N14330 X0.9951 I-0.0374 J0.
N14335 X1.0699 I0.0374 J0.
N14340 G1 X1.0709 Y-0.1056 F8.
N14345 G3 X1.0567 Y-0.0759 I-0.0288 J0.0045
N14350 X0.9831 Y-0.0924 I-0.0286 J-0.0445
N14355 X1.0029 Y-0.1783 I0.0494 J-0.0338
N14360 X1.0867 Y-0.1513 I0.0295 J0.052
N14365 X1.0946 Y-0.09 I-0.0737 J0.0406
N14370 X1.0064 Y-0.0468 I-0.066 J-0.0231
N14375 X0.9688 Y-0.182 I0.0236 J-0.0793
N14380 X1.1061 Y-0.169 I0.064 J0.0558
N14385 X1.0905 Y-0.0396 I-0.0798 J0.056
N14390 X0.9344 Y-0.0734 I-0.0641 J-0.0813
N14395 X1.109 Y-0.2074 I0.0979 J-0.0532
N14400 X1.1016 Y-0.0137 I-0.083 J0.0938
N14405 X0.9059 Y-0.0681 I-0.0755 J-0.1078
N14410 X1.1175 Y-0.2368 I0.1264 J-0.0586
N14415 X1.0996 Y0.0208 I-0.0909 J0.1231
N14420 X1.0797 Y0.0287 I-0.0422 J-0.0773
N14425 G1 X1.0775
N14430 X0.9988
N14435 G3 X0.9171 Y-0.0056 I0.0031 J-0.1217
N14440 X0.8843 Y-0.0483 I0.0805 J-0.0959
N14445 G1 X0.8844 Y-0.0518
N14450 G3 X0.8967 Y-0.0581 I0.0079 J0.0003
N14455 G1 X0.9032 Y-0.0536
N14460 X0.9989 Y0.0116
N14465 X1.003 Y0.0144
N14470 G3 X0.9988 Y0.0287 I-0.0044 J0.0065
N14475 G1 X0.944
N14480 G3 X0.887 Y0.001 I0.0042 J-0.0809
N14485 G1 X0.8851 Y-0.0037
N14490 X0.8844 Y-0.0087
N14495 G3 X0.8961 Y-0.0153 I0.0079 J0.0003
N14500 G1 X0.9036 Y-0.011
N14505 X0.9438 Y0.0119
N14510 X0.9476 Y0.014
N14515 G3 X0.944 Y0.0287 I-0.0039 J0.0068
N14520 G1 X0.8937
N14525 X0.8914 Y0.0286
N14530 X0.8903 Y0.0284
N14535 X0.8891 Y0.0279
N14540 X0.8883 Y0.0274
N14545 X0.8875 Y0.0268
N14550 X0.8867 Y0.026
N14555 X0.8859 Y0.0251
N14560 X0.8854 Y0.0244
N14565 X0.8851 Y0.0237
N14570 X0.8848 Y0.0229
N14575 X0.8846 Y0.0222
N14580 X0.8844 Y0.0214
N14585 Y0.0206
N14590 Y-0.144
N14595 G2 X0.8812 Y-0.1641 I-0.0689 J0.0006
N14600 G3 X0.9025 Y-0.23 I0.0944 J-0.0059
N14605 X0.9555 Y-0.2753 I0.1158 J0.0818
N14610 G1 X0.9585 Y-0.276
N14615 X0.9615 Y-0.2763
N14620 G3 X0.9678 Y-0.2641 I-0.0003 J0.0079
N14625 G1 X0.9634 Y-0.2573
N14630 X0.9007 Y-0.1625
N14635 X0.8967 Y-0.1565
N14640 G3 X0.8827 Y-0.1583 I-0.0066 J-0.0043
N14645 G2 X0.8696 Y-0.1784 I-0.0506 J0.0184
N14650 G1 X0.8683 Y-0.1857
N14655 X0.8697 Y-0.1928
N14660 X0.8738 Y-0.1989
N14665 G3 X0.8875 Y-0.1936 I0.0058 J0.0053
N14670 G1 Y-0.1877
N14675 Y-0.185
N14680 X0.8876 Y-0.1787
N14685 G3 X0.8742 Y-0.173 I-0.0079 J0.
N14690 G1 X0.8647 Y-0.1817
N14695 X0.864 Y-0.1829
N14700 X0.8636 Y-0.184
N14705 X0.8633 Y-0.1851
N14710 X0.8632 Y-0.1863
N14715 X0.8633 Y-0.1874
N14720 X0.8636 Y-0.1886
N14725 X0.864 Y-0.1897
N14730 X0.8644 Y-0.1904
N14735 G2 X0.8774 Y-0.2034 I-0.0778 J-0.0909
N14740 X0.8844 Y-0.2322 I-0.0382 J-0.0244
N14745 G3 X0.9085 Y-0.2737 I0.0789 J0.0181
N14750 G1 X0.9133 Y-0.2756
N14755 X0.9183 Y-0.2763
N14760 G3 X0.9247 Y-0.2643 I-0.0003 J0.0079
N14765 G1 X0.9203 Y-0.2572
N14770 X0.9011 Y-0.2261
N14775 X0.8988 Y-0.2223
N14780 G3 X0.8842 Y-0.2263 I-0.0067 J-0.0041
N14785 X0.8847 Y-0.2708 I0.6076 J-0.0158
N14790 G1 X0.8856 Y-0.272
N14795 X0.8863 Y-0.2731
N14800 X0.8868 Y-0.2737
N14805 X0.8873 Y-0.2742
N14810 X0.8882 Y-0.2749
N14815 X0.8891 Y-0.2754
N14820 X0.8903 Y-0.2759
N14825 X0.8914 Y-0.2762
N14830 X0.8937 Y-0.2763
N14835 X1.0811
N14840 G3 X1.1421 Y-0.2521 I-0.0054 J0.1027
N14845 X1.1919 Y-0.189 I-0.0988 J0.129
N14850 G1 X1.1932 Y-0.183
N14855 X1.1923 Y-0.1768
N14860 G2 X1.182 Y-0.1578 I0.0871 J0.0591
N14865 G1 X1.1813 Y-0.1531
N14870 X1.1808 Y-0.1486
N14875 X1.1806 Y-0.144
N14880 Y-0.048
N14885 G3 X1.1589 Y0.007 I-0.0868 J-0.0025
N14890 X1.1393 Y0.0269 I-0.0688 J-0.0482
N14895 G1 X1.1352 Y0.0282
N14900 X1.1309 Y0.0287
N14905 G3 X1.1245 Y0.0168 I0.0003 J-0.0079
N14910 G1 X1.1288 Y0.0096
N14915 X1.1637 Y-0.0479
N14920 X1.166 Y-0.0518
N14925 G3 X1.1806 Y-0.048 I0.0067 J0.0041
N14930 G1 Y-0.0023
N14935 G3 X1.1721 Y0.0235 I-0.0388 J0.0015
N14940 G1 X1.1662 Y0.0274
N14945 X1.1593 Y0.0287
N14950 G3 X1.1527 Y0.0169 I0.0003 J-0.0079
N14955 G1 X1.157 Y0.0095
N14960 X1.1637 Y-0.0021
N14965 X1.1659 Y-0.0059
N14970 G3 X1.1806 Y-0.0023 I0.0068 J0.0039
N14975 G1 Y0.0206
N14980 X1.1805 Y0.0217
N14985 X1.1803 Y0.0229
N14990 X1.1798 Y0.024
N14995 X1.1791 Y0.0251
N15000 X1.1786 Y0.0257
N15005 X1.1781 Y0.0262
N15010 X1.1771 Y0.027
N15015 X1.176 Y0.0278
N15020 X1.1748 Y0.0283
N15025 X1.1737 Y0.0286
N15030 X1.1726 Y0.0287
N15035 X1.0775
N15040 G3 X1.0699 Y0.0208 I0.0003 J-0.0079
N15045 G1 X1.07 Y0.0082
N15050 X1.0734 Y-0.2558
N15055 X1.0735 Y-0.2685
N15060 G3 X1.0811 Y-0.2763 I0.0079 J0.0001
N15065 G1 X1.1268
N15070 G3 X1.1774 Y-0.2541 I-0.0018 J0.0728
N15075 G1 X1.1798 Y-0.249
N15080 X1.1806 Y-0.2435
N15085 G3 X1.169 Y-0.2369 I-0.0079 J-0.0003
N15090 G1 X1.1613 Y-0.241
N15095 X1.1271 Y-0.2595
N15100 X1.1234 Y-0.2615
N15105 G3 X1.1268 Y-0.2763 I0.0037 J-0.0069
N15110 X1.1737 Y-0.2762 I0.021 J1.0409
N15115 G1 X1.1748 Y-0.2758
N15120 X1.176 Y-0.2753
N15125 X1.1766 Y-0.2749
N15130 X1.1771 Y-0.2745
N15135 X1.1785 Y-0.2733
N15140 X1.179 Y-0.2726
N15145 X1.1794 Y-0.272
N15150 X1.18 Y-0.2709
N15155 X1.1804 Y-0.2697
N15160 G2 X1.1815 Y-0.2171 I0.63 J0.0136
N15165 X1.2001 Y-0.1914 I0.0417 J-0.0106
N15170 G1 X1.2005 Y-0.1904
N15175 X1.2009 Y-0.1897
N15180 X1.2013 Y-0.1886
N15185 X1.2016 Y-0.1874
N15190 Y-0.1863
N15195 X1.2015 Y-0.1851
N15200 X1.2013 Y-0.1842
N15205 X1.201 Y-0.1833
N15210 X1.2006 Y-0.1824
N15215 X1.1892 Y-0.1715
N15220 X1.1876 Y-0.1702
N15225 X1.1858 Y-0.1692
N15230 X1.1837 Y-0.1689
N15235 X1.1817 Y-0.169
N15240 X1.1797 Y-0.1697
N15245 X1.178 Y-0.1709
N15250 X1.1767 Y-0.1726
N15255 X1.1758 Y-0.1745
N15260 X1.1755 Y-0.1766 Z-0.1197
N15265 X1.1761 Y-0.1785 Z-0.1188
N15270 X1.1766 Y-0.1801 Z-0.1174
N15275 X1.177 Y-0.1812 Z-0.1155
N15280 X1.1771 Y-0.1814 Z-0.115
N15285 X1.1774 Y-0.1817 Z-0.1136
N15290 X1.1775 Y-0.1818 Z-0.1121
N15295 G0 Z0.2
N15300 X1.3866 Y0.35
N15305 Z0.0279
N15310 G1 Z0.02 F8.
N15315 G3 X1.317 Y0.3774 Z0.0159 I-0.0348 J0.0137 F2.
N15320 X1.3866 Y0.35 Z0.0118 I0.0348 J-0.0137
N15325 X1.317 Y0.3774 Z0.0077 I-0.0348 J0.0137
N15330 X1.3866 Y0.35 Z0.0036 I0.0348 J-0.0137
N15335 X1.317 Y0.3774 Z-0.0005 I-0.0348 J0.0137
N15340 X1.3866 Y0.35 Z-0.0046 I0.0348 J-0.0137
N15345 X1.317 Y0.3774 Z-0.0087 I-0.0348 J0.0137
N15350 X1.3866 Y0.35 Z-0.0128 I0.0348 J-0.0137
N15355 X1.317 Y0.3774 Z-0.0169 I-0.0348 J0.0137
N15360 X1.3866 Y0.35 Z-0.021 I0.0348 J-0.0137
N15365 X1.317 Y0.3774 Z-0.0251 I-0.0348 J0.0137
N15370 X1.3866 Y0.35 Z-0.0292 I0.0348 J-0.0137
N15375 X1.317 Y0.3774 Z-0.0333 I-0.0348 J0.0137
N15380 X1.3866 Y0.35 Z-0.0374 I0.0348 J-0.0137
N15385 X1.317 Y0.3774 Z-0.0415 I-0.0348 J0.0137
N15390 X1.3866 Y0.35 Z-0.0457 I0.0348 J-0.0137
N15395 X1.317 Y0.3774 Z-0.0498 I-0.0348 J0.0137
N15400 X1.3866 Y0.35 Z-0.0539 I0.0348 J-0.0137
N15405 X1.317 Y0.3774 Z-0.058 I-0.0348 J0.0137
N15410 X1.3866 Y0.35 Z-0.0621 I0.0348 J-0.0137
N15415 X1.317 Y0.3774 Z-0.0662 I-0.0348 J0.0137
N15420 X1.3866 Y0.35 Z-0.0703 I0.0348 J-0.0137
N15425 X1.317 Y0.3774 Z-0.0744 I-0.0348 J0.0137
N15430 X1.3866 Y0.35 Z-0.0785 I0.0348 J-0.0137
N15435 X1.317 Y0.3774 Z-0.0826 I-0.0348 J0.0137
N15440 X1.3866 Y0.35 Z-0.0867 I0.0348 J-0.0137
N15445 X1.317 Y0.3774 Z-0.0908 I-0.0348 J0.0137
N15450 X1.3866 Y0.35 Z-0.0949 I0.0348 J-0.0137
N15455 X1.317 Y0.3774 Z-0.099 I-0.0348 J0.0137
N15460 X1.3866 Y0.35 Z-0.1031 I0.0348 J-0.0137
N15465 X1.317 Y0.3774 Z-0.1072 I-0.0348 J0.0137
N15470 X1.3866 Y0.35 Z-0.1113 I0.0348 J-0.0137
N15475 X1.317 Y0.3774 Z-0.1154 I-0.0348 J0.0137
N15480 X1.3866 Y0.35 Z-0.1195 I0.0348 J-0.0137
N15485 X1.3892 Y0.3637 Z-0.12 I-0.0348 J0.0137
N15490 X1.3144 I-0.0374 J0.
N15495 X1.3892 I0.0374 J0.
N15500 G1 X1.3901 Y0.3815 F8.
N15505 G3 X1.3838 Y0.4044 I-0.0508 J-0.0015
N15510 X1.3565 Y0.4206 I-0.0317 J-0.0224
N15515 G1 X1.3516 Y0.4201
N15520 X1.347 Y0.4183
N15525 G3 X1.3464 Y0.4047 I0.0036 J-0.007
N15530 G1 X1.3533 Y0.4002
N15535 X1.3707 Y0.3889
N15540 X1.3762 Y0.3854
N15545 G3 X1.3882 Y0.3934 I0.0043 J0.0066
N15550 G1 X1.3837 Y0.4151
N15555 X1.3821 Y0.4209
N15560 X1.3783 Y0.4255
N15565 X1.373 Y0.4284
N15570 X1.3671 Y0.4292
N15575 X1.3613 Y0.4279
N15580 X1.3563 Y0.4246
N15585 G3 X1.3591 Y0.4118 I0.0057 J-0.0055
N15590 G1 X1.3655 Y0.4093
N15595 X1.3731 Y0.4064
N15600 G3 X1.3837 Y0.4151 I0.0028 J0.0073
N15605 X1.3777 Y0.4372 I-0.0928 J-0.0132
N15610 G1 X1.3768 Y0.4376
N15615 X1.3757 Y0.4383
N15620 X1.3747 Y0.4388
N15625 X1.3737 Y0.4392
N15630 X1.3726 Y0.4394
N15635 X1.3714
N15640 X1.3703 Y0.4393
N15645 X1.3691 Y0.439
N15650 X1.3683 Y0.4387
N15655 X1.3674 Y0.4382
N15660 X1.3665 Y0.4375
N15665 X1.3656 Y0.4366
N15670 X1.365 Y0.4358
N15675 X1.3646 Y0.4349
N15680 X1.3645 Y0.4348
N15685 Y0.4347
N15690 G2 X1.3627 Y0.4307 I-0.0242 J0.0082
N15695 X1.3612 Y0.4288 I-0.0069 J0.0038
N15700 G1 X1.3533 Y0.4213
N15705 G2 X1.3513 Y0.4199 I-0.0054 J0.0057
N15710 X1.3471 Y0.4183 I-0.011 J0.0231
N15715 G1 X1.347
N15720 G2 X1.3259 Y0.414 I-0.0219 J0.0545
N15725 G1 X1.3247 Y0.413
N15730 X1.3234 Y0.4122
N15735 X1.3226 Y0.4114
N15740 X1.322 Y0.4107
N15745 X1.3215 Y0.4099
N15750 X1.3211 Y0.4091
N15755 G3 X1.3197 Y0.3954 I0.1253 J-0.0198
N15760 G2 X1.301 Y0.3689 I-0.0407 J0.0089
N15765 G1 X1.3007 Y0.368
N15770 X1.3006 Y0.3677
N15775 X1.3001 Y0.3666
N15780 X1.2998 Y0.3656
N15785 X1.2996 Y0.3645
N15790 Y0.3634
N15795 X1.2997 Y0.3626
N15800 X1.2999 Y0.3617
N15805 X1.3002 Y0.3609
N15810 X1.3006 Y0.36
N15815 X1.3013 Y0.3589
N15820 G2 X1.3198 Y0.3315 I-0.0253 J-0.0371
N15825 G1 X1.3199 Y0.33
N15830 X1.3204 Y0.3269
N15835 X1.3205 Y0.3223
N15840 Y0.3211
N15845 X1.3207 Y0.32
N15850 X1.321 Y0.3189
N15855 X1.3216 Y0.3177
N15860 X1.322 Y0.3172
N15865 X1.3224 Y0.3166
N15870 X1.3234 Y0.3155
N15875 X1.324 Y0.3149
N15880 X1.3246 Y0.3145
N15885 X1.3257 Y0.3138
N15890 X1.3268 Y0.3134
N15895 G3 X1.3706 Y0.313 I0.0301 J0.8205
N15900 X1.3968 Y0.3282 I-0.0047 J0.0384
N15905 G1 X1.3985 Y0.334
N15910 Y0.34
N15915 G3 X1.3863 Y0.3449 I-0.0077 J-0.0016
N15920 G1 X1.3787 Y0.3397
N15925 X1.3653 Y0.3304
N15930 X1.3608 Y0.3273
N15935 G3 X1.3646 Y0.313 I0.0045 J-0.0065
N15940 G2 X1.3852 Y0.3078 I-0.0024 J-0.053
N15945 G1 X1.3918 Y0.3091
N15950 X1.3971 Y0.313
N15955 X1.4004 Y0.3187
N15960 X1.4009 Y0.3253
N15965 G3 X1.3887 Y0.3304 I-0.0077 J-0.0014
N15970 G1 X1.3852 Y0.3281
N15975 X1.3785 Y0.3236
N15980 G3 X1.3796 Y0.3099 I0.0044 J-0.0065
N15985 G1 X1.3828 Y0.3086
N15990 X1.3874 Y0.3058
N15995 X1.3898 Y0.304
N16000 X1.3909 Y0.3034
N16005 X1.392 Y0.3029
N16010 X1.3931 Y0.3027
N16015 X1.3943 Y0.3026
N16020 X1.3954 Y0.3027
N16025 X1.3966 Y0.3029
N16030 X1.3976 Y0.3034
N16035 X1.3987 Y0.304
N16040 X1.3993 Y0.3045
N16045 X1.3999 Y0.305
N16050 X1.4011 Y0.3063
N16055 X1.4015 Y0.3068
N16060 X1.4019 Y0.3074
N16065 X1.4024 Y0.3086
N16070 X1.4027 Y0.3097
N16075 G3 X1.3897 Y0.3861 I-0.7046 J-0.081
N16080 G1 X1.3889 Y0.388
N16085 X1.3877 Y0.3897
N16090 X1.3861 Y0.391
N16095 X1.3841 Y0.3918
N16100 X1.3821 Y0.3921
N16105 X1.38 Y0.3918
N16110 X1.378 Y0.391
N16115 X1.3764 Y0.3897
N16120 X1.3756 Y0.3881 Z-0.1198
N16125 X1.3749 Y0.3867 Z-0.1192
N16130 X1.3743 Y0.3854 Z-0.1183
N16135 X1.3742 Y0.3843 Z-0.1172
N16140 X1.3743 Y0.3835 Z-0.1162
N16145 Y0.383 Z-0.115
N16150 X1.3744 Y0.3826 Z-0.1136
N16155 Y0.3824 Z-0.1121
N16160 G0 Z0.2
N16165 X-0.9977 Y0.0445
N16170 Z-0.0121
N16175 G1 Z-0.02 F8.
N16180 G3 X-1.0673 Y0.0719 Z-0.0241 I-0.0348 J0.0137 F2.
N16185 X-0.9977 Y0.0445 Z-0.0282 I0.0348 J-0.0137
N16190 X-1.0673 Y0.0719 Z-0.0323 I-0.0348 J0.0137
N16195 X-0.9977 Y0.0445 Z-0.0364 I0.0348 J-0.0137
N16200 X-1.0673 Y0.0719 Z-0.0405 I-0.0348 J0.0137
N16205 X-0.9977 Y0.0445 Z-0.0446 I0.0348 J-0.0137
N16210 X-1.0673 Y0.0719 Z-0.0487 I-0.0348 J0.0137
N16215 X-0.9977 Y0.0445 Z-0.0528 I0.0348 J-0.0137
N16220 X-1.0673 Y0.0719 Z-0.0569 I-0.0348 J0.0137
N16225 X-0.9977 Y0.0445 Z-0.061 I0.0348 J-0.0137
N16230 X-1.0673 Y0.0719 Z-0.0651 I-0.0348 J0.0137
N16235 X-0.9977 Y0.0445 Z-0.0692 I0.0348 J-0.0137
N16240 X-1.0673 Y0.0719 Z-0.0733 I-0.0348 J0.0137
N16245 X-0.9977 Y0.0445 Z-0.0774 I0.0348 J-0.0137
N16250 X-1.0673 Y0.0719 Z-0.0815 I-0.0348 J0.0137
N16255 X-0.9977 Y0.0445 Z-0.0857 I0.0348 J-0.0137
N16260 X-1.0673 Y0.0719 Z-0.0898 I-0.0348 J0.0137
N16265 X-0.9977 Y0.0445 Z-0.0939 I0.0348 J-0.0137
N16270 X-1.0673 Y0.0719 Z-0.098 I-0.0348 J0.0137
N16275 X-0.9977 Y0.0445 Z-0.1021 I0.0348 J-0.0137
N16280 X-1.0673 Y0.0719 Z-0.1062 I-0.0348 J0.0137
N16285 X-0.9977 Y0.0445 Z-0.1103 I0.0348 J-0.0137
N16290 X-1.0673 Y0.0719 Z-0.1144 I-0.0348 J0.0137
N16295 X-0.9977 Y0.0445 Z-0.1185 I0.0348 J-0.0137
N16300 X-1.0673 Y0.0719 Z-0.1226 I-0.0348 J0.0137
N16305 X-0.9977 Y0.0445 Z-0.1267 I0.0348 J-0.0137
N16310 X-1.0673 Y0.0719 Z-0.1308 I-0.0348 J0.0137
N16315 X-0.9977 Y0.0445 Z-0.1349 I0.0348 J-0.0137
N16320 X-1.0673 Y0.0719 Z-0.139 I-0.0348 J0.0137
N16325 X-0.9977 Y0.0445 Z-0.1431 I0.0348 J-0.0137
N16330 X-1.0673 Y0.0719 Z-0.1472 I-0.0348 J0.0137
N16335 X-0.9977 Y0.0445 Z-0.1513 I0.0348 J-0.0137
N16340 X-1.0673 Y0.0719 Z-0.1554 I-0.0348 J0.0137
N16345 X-0.9977 Y0.0445 Z-0.1595 I0.0348 J-0.0137
N16350 X-0.9951 Y0.0582 Z-0.16 I-0.0348 J0.0137
N16355 X-1.0699 I-0.0374 J0.
N16360 X-0.9951 I0.0374 J0.
N16365 G1 X-0.9941 Y0.0783 F8.
N16370 G3 X-1.0083 Y0.108 I-0.0288 J0.0045
N16375 X-1.0819 Y0.0915 I-0.0286 J-0.0445
N16380 X-1.0621 Y0.0057 I0.0494 J-0.0338
N16385 X-0.9783 Y0.0326 I0.0295 J0.052
N16390 X-0.9704 Y0.0939 I-0.0737 J0.0406
N16395 X-1.0586 Y0.1371 I-0.066 J-0.0231
N16400 X-1.0962 Y0.002 I0.0236 J-0.0793
N16405 X-0.9589 Y0.015 I0.064 J0.0558
N16410 X-0.9745 Y0.1443 I-0.0798 J0.056
N16415 X-1.1306 Y0.1105 I-0.0641 J-0.0813
N16420 X-0.956 Y-0.0234 I0.0979 J-0.0532
N16425 X-0.9634 Y0.1702 I-0.083 J0.0938
N16430 X-1.1591 Y0.1158 I-0.0755 J-0.1078
N16435 X-0.9475 Y-0.0529 I0.1264 J-0.0586
N16440 X-0.9548 Y0.1985 I-0.0911 J0.1232
N16445 G1 X-0.9658 Y0.2045
N16450 X-0.9683 Y0.2055
N16455 X-0.971 Y0.2062
N16460 X-0.9737 Y0.2064
N16465 X-1.0811
N16470 G3 X-1.1492 Y0.1761 I0.0057 J-0.1046
N16475 X-1.1806 Y0.1353 I0.0757 J-0.0908
N16480 G1 Y0.1317
N16485 G3 X-1.1681 Y0.1256 I0.0079 J0.0003
N16490 G1 X-1.1619 Y0.1302
N16495 X-1.081 Y0.1891
N16500 X-1.0768 Y0.1921
N16505 G3 X-1.0811 Y0.2064 I-0.0046 J0.0064
N16510 G1 X-1.1268
N16515 G3 X-1.1774 Y0.1833 I0.002 J-0.0715
N16520 G1 X-1.1798 Y0.1784
N16525 X-1.1806 Y0.173
N16530 G3 X-1.1689 Y0.1664 I0.0079 J0.0003
N16535 G1 X-1.1614 Y0.1705
N16540 X-1.127 Y0.1895
N16545 X-1.1233 Y0.1916
N16550 G3 X-1.1268 Y0.2064 I-0.0038 J0.0069
N16555 X-1.1737 Y0.2063 I-0.021 J-1.0407
N16560 G1 X-1.1748 Y0.2059
N16565 X-1.176 Y0.2054
N16570 X-1.1766 Y0.205
N16575 X-1.1771 Y0.2046
N16580 X-1.1784 Y0.2034
N16585 X-1.1789 Y0.2029
N16590 X-1.1793 Y0.2023
N16595 X-1.18 Y0.2011
N16600 X-1.1804 Y0.2
N16605 X-1.1806 Y0.1989
N16610 Y0.1943
N16615 Y0.0069
N16620 G3 X-1.1516 Y-0.0587 I0.0993 J0.0047
N16625 X-1.111 Y-0.0899 I0.09 J0.075
N16630 G1 X-1.1074
N16635 G3 X-1.1014 Y-0.0774 I-0.0003 J0.0079
N16640 G1 X-1.1059 Y-0.0712
N16645 X-1.1633 Y0.007
N16650 X-1.1664 Y0.0112
N16655 G3 X-1.1806 Y0.0069 I-0.0063 J-0.0047
N16660 G1 Y-0.0389
