%
(E_POCKET_WATCH_LOWER_FRONT)
(E_POCKET_WATCH_LOWER_FRONT 14 END MILL 30 MINUTES)
(T2  D=0.25 CR=0. - ZMIN=-0.336 - FLAT END MILL)
N10 G90 G94 G17 G91.1
N15 G20
N20 G53 G0 Z0.
(FACE3 14)
N25 M9
N30 T2 M6
N35 S12000 M3
N40 G54
N45 M8
N55 G0 X0.483 Y-1.3746
N60 G43 Z0.6 H2
N65 G0 Z0.2
N70 G1 Z-0.025 F20.
N75 G18 G3 X0.458 Z-0.05 I-0.025 K0.
N80 G1 X0.3718
N85 X-0.3718
N90 X-0.788
N95 G17 G2 Y-1.1468 I0. J0.1139
N100 G1 X0.788
N105 X1.0405
N110 G3 Y-0.9191 I0. J0.1139
N115 G1 X-1.0404
N120 X-1.1999
N125 G2 Y-0.6913 I0. J0.1139
N130 G1 X1.2001
N135 X1.3014
N140 G3 Y-0.4635 I0. J0.1139
N145 G1 X-1.3016
N150 X-1.358
N155 G2 Y-0.2358 I0. J0.1139
N160 G1 X-0.72
N165 G3 Y-0.008 I0. J0.1139
N170 G1 X-1.373
N175 G2 Y0.2198 I0. J0.1139
N180 G1 X-1.3709
N185 X-0.72
N190 G3 Y0.4475 I0. J0.1139
N195 G1 X-1.3574
N200 G18 G3 X-1.3824 Z-0.025 I0. K0.025
N205 G0 Z0.2
N210 X0.5575
N215 G1 Z-0.025 F20.
N220 G2 X0.5825 Z-0.05 I0.025 K0.
N225 G1 X0.72
N230 X1.33
N235 G17 G3 Y0.6753 I0. J0.1139
N240 G1 X1.3007
N245 X-1.3006
N250 G2 Y0.9031 I0. J0.1139
N255 G1 X-1.1987
N260 X1.1986
N265 G3 Y1.1308 I0. J0.1139
N270 G1 X1.0383
N275 X-1.0384
N280 G2 Y1.3586 I0. J0.1139
N285 G1 X-0.7849
N290 X0.785
N295 G18 G2 X0.81 Z-0.025 I0. K0.025
N300 G0 Z0.2
N305 X0.5575 Y-0.2358
N310 G1 Z-0.025 F20.
N315 G2 X0.5825 Z-0.05 I0.025 K0.
N320 G1 X0.72
N325 X1.3212
N330 G2 X1.3462 Z-0.025 I0. K0.025
N335 G0 Z0.6
N340 G17
(ADAPTIVE 14)
N345 M8
N350 G0 X0.146 Y0.0129
N355 Z0.6
N360 Z0.125
N365 G1 Z0.1 F20.
N370 G3 X-0.0045 Y0.1966 Z0.087 I-0.0753 J0.0919 F3.
N375 X0.146 Y0.0129 Z0.0739 I0.0753 J-0.0919
N380 X-0.0045 Y0.1966 Z0.0609 I-0.0753 J0.0919
N385 X0.146 Y0.0129 Z0.0479 I0.0753 J-0.0919
N390 X-0.0045 Y0.1966 Z0.0349 I-0.0753 J0.0919
N395 X0.146 Y0.0129 Z0.0218 I0.0753 J-0.0919
N400 X-0.0045 Y0.1966 Z0.0088 I-0.0753 J0.0919
N405 X0.146 Y0.0129 Z-0.0042 I0.0753 J-0.0919
N410 X-0.0045 Y0.1966 Z-0.0172 I-0.0753 J0.0919
N415 X0.146 Y0.0129 Z-0.0303 I0.0753 J-0.0919
N420 X-0.0045 Y0.1966 Z-0.0433 I-0.0753 J0.0919
N425 X0.146 Y0.0129 Z-0.0563 I0.0753 J-0.0919
N430 X0.1895 Y0.1047 Z-0.06 I-0.0753 J0.0919
N435 X-0.048 I-0.1188 J0.
N440 X0.1895 I0.1188 J0.
N445 G1 X0.1897 Y0.1145 F20.
N450 X0.1968 Y0.1528
N455 G3 X0.187 Y0.22 I-0.0778 J0.0229
N460 X0.1005 Y0.283 I-0.1152 J-0.0672
N465 X-0.0753 Y0.2235 I-0.0413 J-0.1677
N470 X0.0827 Y-0.0847 I0.145 J-0.1203
N475 X0.2334 Y0.0064 I-0.0105 J0.1876
N480 G1 X0.248 Y0.0327
N485 X0.2605 Y0.0603
N490 G3 X0.2784 Y0.1729 I-0.22 J0.0929
N495 X0.1368 Y0.3502 I-0.21 J-0.0226
N500 X-0.088 Y0.3178 I-0.0817 J-0.2286
N505 X-0.1662 Y-0.0231 I0.1531 J-0.2145
N510 X0.2606 Y-0.087 I0.2372 J0.1269
N515 X0.3616 Y0.1234 I-0.23 J0.2399
N520 X0.1676 Y0.4266 I-0.2975 J0.0233
N525 X-0.0862 Y0.4158 I-0.1144 J-0.3016
N530 X-0.2816 Y0.1333 I0.1468 J-0.3103
N535 X0.1929 Y-0.2283 I0.3521 J-0.0301
N540 X0.2961 Y-0.17 I-0.1231 J0.3389
N545 X0.4476 Y0.1083 I-0.2541 J0.3187
N550 X0.2328 Y0.4927 I-0.3853 J0.0369
N555 X-0.0221 Y0.5278 I-0.1798 J-0.3632
N560 X-0.2564 Y0.3981 I0.0769 J-0.4156
N565 X-0.3709 Y0.0773 I0.3198 J-0.2949
N570 X-0.0291 Y-0.3274 I0.4409 J0.0257
N575 X0.251 Y-0.3007 I0.1002 J0.4319
N580 G1 X0.2842 Y-0.2845
N585 X0.3165 Y-0.2654
N590 G3 X0.4309 Y-0.1615 I-0.2644 J0.4063
N595 X0.5294 Y0.0483 I-0.3855 J0.3089
N600 X0.5356 Y0.2024 I-0.4727 J0.0963
N605 X0.379 Y0.5014 I-0.4731 J-0.0573
N610 X0.2482 Y0.5846 I-0.3217 J-0.3615
N615 G1 X0.2162 Y0.5969
N620 X0.2094 Y0.599
N625 X0.2024 Y0.6003
N630 X0.1953 Y0.6007
N635 X-0.0177
N640 X-0.053 Y0.599
N645 X-0.0798 Y0.5955
N650 X-0.1074 Y0.5895
N655 X-0.1375 Y0.5806
N660 X-0.1689 Y0.5683
N665 X-0.201 Y0.5527
N670 X-0.2325 Y0.5342
N675 X-0.2632 Y0.5126
N680 X-0.293 Y0.4879
N685 G3 X-0.3908 Y0.3672 I0.338 J-0.3738
N690 X-0.4133 Y-0.1199 I0.4554 J-0.2651
N695 X-0.2094 Y-0.3502 I0.4839 J0.2231
N700 G1 X-0.1754 Y-0.3694
N705 X-0.1402 Y-0.3861
N710 G3 X-0.1158 Y-0.3913 I0.0248 J0.0563
N715 G1 X0.1769
N720 X0.2112 Y-0.3896
N725 G3 X0.3174 Y-0.3612 I-0.0345 J0.3426
N730 G1 X0.3493 Y-0.3458
N735 X0.3818 Y-0.3267
N740 X0.4134 Y-0.3044
N745 G3 X0.5213 Y-0.1925 I-0.3272 J0.4233
N750 G1 X0.5431 Y-0.1602
N755 X0.5626 Y-0.1265
N760 X0.569 Y-0.1135
N765 X0.5723 Y-0.1052
N770 X0.5743 Y-0.0966
N775 X0.575 Y-0.0877
N780 Y0.3008
N785 G3 X0.5485 Y0.4168 I-0.2931 J-0.006
N790 G1 X0.5343 Y0.4462
N795 X0.5171 Y0.4755
N800 X0.4963 Y0.505
N805 X0.4714 Y0.535
N810 X0.4442 Y0.5629
N815 X0.4148 Y0.5888
N820 X0.404 Y0.5953
N825 X0.392 Y0.5994
N830 X0.3795 Y0.6007
N835 X0.1953
N840 G3 X0.1809 Y0.556 I0.0009 J-0.025
N845 G1 X0.1946 Y0.5454
N850 X0.516 Y0.2964
N855 X0.5347 Y0.2819
N860 G3 X0.575 Y0.3008 I0.0153 J0.0198
N865 G2 X0.5796 Y0.3627 I0.2587 J0.0121
N870 G3 X0.5759 Y0.3893 I-0.5892 J-0.0673
N875 G1 X0.5751 Y0.4117
N880 X0.575 Y0.4158
N885 Y0.4601
N890 G3 X0.5568 Y0.5364 I-0.1978 J-0.0068
N895 G1 X0.5472 Y0.5563
N900 X0.538 Y0.572
N905 G3 X0.4877 Y0.6007 I-0.0503 J-0.0296
N910 X0.4666 Y0.564 I0.0009 J-0.025
N915 G1 X0.4797 Y0.5394
N920 X0.5218 Y0.4607
N925 X0.528 Y0.4491
N930 G3 X0.575 Y0.4601 I0.022 J0.0118
N935 G1 Y0.5662
N940 G3 X0.5527 Y0.5995 I-0.0318 J0.0028
N945 G1 X0.5439 Y0.6007
N950 G3 X0.5209 Y0.5914 I0.0013 J-0.0362
N955 X0.5643 Y0.5433 I0.0217 J-0.0241
N960 X0.575 Y0.5662 I-0.0217 J0.0241
N965 X0.5726 Y0.5862 I-0.0406 J0.0053
N970 X0.5485 Y0.6008 I-0.0238 J-0.012
N975 G1 X0.3795 Y0.6007
N980 G3 X0.3559 Y0.581 I0.0009 J-0.025
N985 G1 X0.3464 Y0.5366
N990 X0.1607 Y-0.327
N995 X0.1534 Y-0.361
N1000 G3 X0.1769 Y-0.3913 I0.0244 J-0.0053
N1005 G1 X0.3539
N1010 G3 X0.4385 Y-0.3718 I-0.0039 J0.211
N1015 G1 X0.4593 Y-0.3618
N1020 G3 X0.5574 Y-0.286 I-0.1878 J0.3442
N1025 X0.575 Y-0.2443 I-0.0405 J0.0417
N1030 X0.5368 Y-0.2239 I-0.025 J-0.0009
N1035 G1 X0.5145 Y-0.2377
N1040 X0.3541 Y-0.3373
N1045 X0.3416 Y-0.345
N1050 G3 X0.3539 Y-0.3913 I0.0132 J-0.0212
N1055 G1 X0.4866
N1060 G3 X0.5483 Y-0.3758 I-0.0023 J0.1399
N1065 X0.575 Y-0.3265 I-0.0328 J0.0497
N1070 G1 X0.5746 Y-0.3228
N1075 X0.5737 Y-0.3192
N1080 X0.5722 Y-0.3158
N1085 X0.5702 Y-0.3126
N1090 X0.5678 Y-0.3098
N1095 X0.5649 Y-0.3073
N1100 X0.5618 Y-0.3053
N1105 X0.5584 Y-0.3038
N1110 X0.5548 Y-0.3028
N1115 X0.5511 Y-0.3024
N1120 X0.5473 Y-0.3025
N1125 X0.5436 Y-0.3032
N1130 X0.5401 Y-0.3044
N1135 X0.5368 Y-0.3062
N1140 X0.5145 Y-0.32
N1145 X0.4868 Y-0.3372
N1150 X0.4743 Y-0.3451
N1155 G3 X0.4866 Y-0.3913 I0.0132 J-0.0212
N1160 G1 X0.5485
N1165 G3 X0.5749 Y-0.3628 I0.0005 J0.026
N1170 G1 X0.575 Y-0.2389
N1175 G2 X0.5799 Y-0.1859 I0.2435 J0.0043
N1180 X0.575 Y-0.1416 I0.196 J0.0442
N1185 G1 Y-0.0877
N1190 G3 X0.569 Y-0.0723 I-0.025 J-0.0009
N1195 G1 X0.5289 Y-0.0255
N1200 X0.038 Y0.5481
N1205 X0.0004 Y0.592
N1210 G3 X-0.0177 Y0.6007 I-0.019 J-0.0163
N1215 G1 X-0.2035
N1220 G3 X-0.2867 Y0.5814 I0.0049 J-0.21
N1225 G1 X-0.3073 Y0.5715
N1230 X-0.331 Y0.5575
N1235 X-0.3545 Y0.541
N1240 X-0.3795 Y0.5203
N1245 X-0.4054 Y0.495
N1250 X-0.431 Y0.4656
N1255 G3 X-0.5093 Y0.3313 I0.4201 J-0.3348
N1260 X-0.5348 Y-0.0512 I0.5658 J-0.2298
N1265 X-0.3269 Y-0.3789 I0.6048 J0.1539
N1270 G1 X-0.3159 Y-0.3856
N1275 X-0.3037 Y-0.3898
N1280 X-0.2909 Y-0.3913
N1285 X-0.1158
N1290 G3 X-0.0918 Y-0.364 I-0.0009 J0.025
N1295 G1 X-0.0953 Y-0.3263
N1300 X-0.1755 Y0.5358
N1305 X-0.1795 Y0.5781
N1310 G3 X-0.2035 Y0.6007 I-0.0249 J-0.0023
N1315 G1 X-0.3274
N1320 G3 X-0.4163 Y0.5763 I0.0029 J-0.1845
N1325 X-0.4988 Y0.5118 I0.1544 J-0.2827
N1330 G1 X-0.5216 Y0.4858
N1335 X-0.5446 Y0.4548
N1340 X-0.5652 Y0.4217
N1345 G3 X-0.575 Y0.3886 I0.0544 J-0.0341
N1350 G1 Y0.1769
N1355 G2 X-0.5799 Y0.1195 I-0.2406 J-0.0083
N1360 X-0.5751 Y0.0619 I-0.2017 J-0.0459
N1365 G1 X-0.575 Y-0.115
N1370 G3 X-0.5572 Y-0.2141 I0.3042 J0.0035
N1375 G1 X-0.5454 Y-0.2444
N1380 X-0.5293 Y-0.2777
N1385 X-0.5095 Y-0.3113
N1390 X-0.4873 Y-0.3433
N1395 X-0.4664 Y-0.3694
N1400 G3 X-0.4209 Y-0.3913 I0.0455 J0.0365
N1405 G1 X-0.2909
N1410 G3 X-0.2743 Y-0.3483 I-0.0009 J0.025
N1415 G1 X-0.2888 Y-0.3343
N1420 X-0.5176 Y-0.1125
N1425 X-0.5326 Y-0.0979
N1430 G3 X-0.575 Y-0.115 I-0.0174 J-0.0179
N1435 G1 Y-0.2831
N1440 G3 X-0.5559 Y-0.3646 I0.1834 J0.0001
N1445 X-0.5066 Y-0.3913 I0.0498 J0.033
N1450 G1 X-0.5027 Y-0.3909
N1455 X-0.499 Y-0.3898
N1460 X-0.4955 Y-0.3883
N1465 X-0.4922 Y-0.3861
N1470 X-0.4893 Y-0.3835
N1475 X-0.4869 Y-0.3805
N1480 X-0.4849 Y-0.3772
N1485 X-0.4835 Y-0.3736
N1490 X-0.4827 Y-0.3698
N1495 X-0.4824 Y-0.366
N1500 X-0.4828 Y-0.3621
N1505 X-0.4837 Y-0.3584
N1510 X-0.4852 Y-0.3548
N1515 X-0.4982 Y-0.3297
N1520 X-0.5219 Y-0.2839
N1525 X-0.5278 Y-0.2725
N1530 G3 X-0.575 Y-0.2831 I-0.0222 J-0.0115
N1535 G1 Y-0.3627
N1540 G3 X-0.5485 Y-0.3914 I0.0262 J-0.0023
N1545 G1 X-0.4209 Y-0.3913
N1550 G3 X-0.3969 Y-0.3688 I-0.0009 J0.025
N1555 G1 X-0.3927 Y-0.3263
N1560 X-0.3071 Y0.5358
N1565 X-0.3033 Y0.5733
N1570 G3 X-0.3274 Y0.6007 I-0.0249 J0.0025
N1575 G1 X-0.4424
N1580 G3 X-0.5199 Y0.5789 I0.0047 J-0.1654
N1585 G1 X-0.5374 Y0.5687
N1590 X-0.5502 Y0.5597
N1595 G3 X-0.575 Y0.512 I0.0335 J-0.0477
N1600 X-0.5373 Y0.4913 I0.025 J0.0009
N1605 G1 X-0.5142 Y0.505
N1610 X-0.4428 Y0.547
N1615 X-0.4306 Y0.5542
N1620 G3 X-0.4424 Y0.6007 I-0.0127 J0.0215
N1625 G1 X-0.5397
N1630 G3 X-0.5699 Y0.5862 I-0.0027 J-0.0331
N1635 G1 X-0.5737 Y0.5779
N1640 X-0.575 Y0.5689
N1645 G3 X-0.5655 Y0.5454 I0.0371 J0.0013
N1650 X-0.5162 Y0.5898 I0.0246 J0.0222
N1655 X-0.5397 Y0.6007 I-0.0246 J-0.0222
N1660 X-0.5596 Y0.5987 I-0.0054 J-0.045
N1665 X-0.5751 Y0.5751 I0.0109 J-0.024
N1670 G1 X-0.575 Y0.3886
N1675 G3 X-0.5358 Y0.3689 I0.025 J0.0009
N1680 G1 X-0.5337 Y0.371 Z-0.0598
N1685 X-0.5316 Y0.3731 Z-0.0593
N1690 X-0.5295 Y0.3751 Z-0.0584
N1695 X-0.5282 Y0.378 Z-0.0569
N1700 X-0.527 Y0.3807 Z-0.055
N1705 X-0.5258 Y0.3831 Z-0.0527
N1710 X-0.5256 Y0.3852 Z-0.0502
N1715 X-0.5253 Y0.387 Z-0.0475
N1720 X-0.5252 Y0.3884 Z-0.0446
N1725 X-0.525 Y0.3895 Z-0.0415
N1730 Y0.3897 Z-0.0408
N1735 Y0.3902 Z-0.0379
N1740 Y0.3903 Z-0.035
N1745 G0 Z0.2
N1750 X0.7801 Y-0.333
N1755 Z0.002
N1760 G1 Z-0.023 F20.
N1765 X0.7802 Y-0.3328 Z-0.0269
N1770 X0.7807 Y-0.332 Z-0.0307
N1775 X0.7815 Y-0.3307 Z-0.0343
N1780 X0.7825 Y-0.3289 Z-0.0377
N1785 X0.7838 Y-0.3268 Z-0.0407
N1790 X0.7854 Y-0.3242 Z-0.0432
N1795 X0.7871 Y-0.3213 Z-0.0453
N1800 X0.7889 Y-0.3182 Z-0.0468
N1805 X0.7909 Y-0.3149 Z-0.0477
N1810 X0.7929 Y-0.3116 Z-0.048
N1815 G3 X0.815 Y-0.2362 I-0.136 J0.0809
N1820 G1 Y-0.223
N1825 X0.8149 Y-0.2215
N1830 G3 X0.7901 Y-0.198 I-0.0854 J-0.0652
N1835 G1 X0.7575 Y-0.1766
N1840 X0.733 Y-0.1463
N1845 X0.7154 Y-0.1115
N1850 X0.7029 Y-0.0746
N1855 X0.6943 Y-0.0366
N1860 G2 X0.6793 Y0.1186 I1.0791 J0.182
N1865 G1 X0.6779 Y0.1575
N1870 X0.677 Y0.1965
N1875 X0.6768 Y0.2063
N1880 X0.6783 Y0.2159
N1885 X0.6844 Y0.2344
N1890 X0.7064 Y0.2666
N1895 X0.7373 Y0.2904
N1900 X0.7724 Y0.3074
N1905 G3 X0.815 Y0.3637 I-0.0159 J0.0563
N1910 X0.765 Y0.3626 I-0.025 J-0.0009
N1915 G1 Y0.3619
N1920 X0.7652 Y0.358 Z-0.0477
N1925 X0.7653 Y0.3542 Z-0.0468
N1930 X0.7654 Y0.3506 Z-0.0453
N1935 X0.7655 Y0.3472 Z-0.0432
N1940 X0.7656 Y0.3443 Z-0.0407
N1945 X0.7657 Y0.3417 Z-0.0377
N1950 X0.7658 Y0.3397 Z-0.0343
N1955 X0.7659 Y0.3382 Z-0.0307
N1960 Y0.3372 Z-0.0269
N1965 Y0.3369 Z-0.023
N1970 G0 Z0.2
N1975 X0.7801 Y-0.3198
N1980 Z0.002
N1985 G1 Z-0.023 F20.
N1990 X0.7802 Y-0.3196 Z-0.0269
N1995 X0.7807 Y-0.3188 Z-0.0307
N2000 X0.7815 Y-0.3175 Z-0.0343
N2005 X0.7825 Y-0.3157 Z-0.0377
N2010 X0.7838 Y-0.3135 Z-0.0407
N2015 X0.7854 Y-0.311 Z-0.0432
N2020 X0.7871 Y-0.3081 Z-0.0453
N2025 X0.7889 Y-0.305 Z-0.0468
N2030 X0.7909 Y-0.3017 Z-0.0477
N2035 X0.7929 Y-0.2983 Z-0.048
N2040 G3 X0.815 Y-0.223 I-0.136 J0.0809
N2045 G1 Y-0.1681
N2050 X0.8147 Y-0.1621
N2055 X0.8094 Y-0.1235
N2060 G2 X0.7851 Y0.0699 I2.0472 J0.3554
N2065 G1 X0.7876 Y0.1088
N2070 X0.8029 Y0.1447
N2075 G3 X0.815 Y0.1808 I-0.0516 J0.0374
N2080 G1 X0.8146 Y0.1847
N2085 X0.8136 Y0.1885
N2090 X0.812 Y0.192
N2095 X0.8098 Y0.1953
N2100 X0.8072 Y0.1982
N2105 X0.8042 Y0.2006
N2110 X0.8008 Y0.2026
N2115 X0.7972 Y0.204
N2120 X0.7934 Y0.2048
N2125 X0.7895 Y0.205
N2130 X0.7856 Y0.2046
N2135 X0.7818 Y0.2036
N2140 X0.7783 Y0.2021
N2145 X0.775 Y0.2
N2150 X0.7721 Y0.1974
N2155 X0.7696 Y0.1944
N2160 X0.7676 Y0.1911
N2165 X0.7662 Y0.1875
N2170 X0.7653 Y0.1837
N2175 X0.765 Y0.1798
N2180 Y0.1791
N2185 X0.7652 Y0.1752 Z-0.0477
N2190 X0.7653 Y0.1714 Z-0.0468
N2195 X0.7654 Y0.1678 Z-0.0453
N2200 X0.7655 Y0.1644 Z-0.0432
N2205 X0.7656 Y0.1614 Z-0.0407
N2210 X0.7657 Y0.1589 Z-0.0377
N2215 X0.7658 Y0.1568 Z-0.0343
N2220 X0.7659 Y0.1553 Z-0.0307
N2225 Y0.1544 Z-0.0269
N2230 Y0.1541 Z-0.023
N2235 G0 Z0.2
N2240 X0.7801 Y-0.2649
N2245 Z0.002
N2250 G1 Z-0.023 F20.
N2255 X0.7802 Y-0.2647 Z-0.0269
N2260 X0.7807 Y-0.2639 Z-0.0307
N2265 X0.7815 Y-0.2626 Z-0.0343
N2270 X0.7825 Y-0.2608 Z-0.0377
N2275 X0.7838 Y-0.2587 Z-0.0407
N2280 X0.7854 Y-0.2561 Z-0.0432
N2285 X0.7871 Y-0.2532 Z-0.0453
N2290 X0.7889 Y-0.2501 Z-0.0468
N2295 X0.7909 Y-0.2468 Z-0.0477
N2300 X0.7929 Y-0.2435 Z-0.048
N2305 G3 X0.815 Y-0.1681 I-0.136 J0.0809
N2310 G1 Y0.3185
N2315 G3 X0.7758 Y0.3382 I-0.025 J-0.0009
N2320 G1 X0.7737 Y0.3361 Z-0.0478
N2325 X0.7716 Y0.334 Z-0.0473
N2330 X0.7695 Y0.332 Z-0.0464
N2335 X0.7682 Y0.3291 Z-0.0449
N2340 X0.767 Y0.3264 Z-0.043
N2345 X0.7658 Y0.324 Z-0.0407
N2350 X0.7656 Y0.3219 Z-0.0382
N2355 X0.7653 Y0.3201 Z-0.0355
N2360 X0.7652 Y0.3187 Z-0.0326
N2365 X0.765 Y0.3176 Z-0.0295
N2370 Y0.3174 Z-0.0288
N2375 Y0.3169 Z-0.0259
N2380 Y0.3168 Z-0.023
N2385 G0 Z0.2
N2390 X0.146 Y0.0129
N2395 Z0.065
N2400 G1 Z0.04 F20.
N2405 G3 X-0.0045 Y0.1966 Z0.027 I-0.0753 J0.0919 F3.
N2410 X0.146 Y0.0129 Z0.0139 I0.0753 J-0.0919
N2415 X-0.0045 Y0.1966 Z0.0009 I-0.0753 J0.0919
N2420 X0.146 Y0.0129 Z-0.0121 I0.0753 J-0.0919
N2425 X-0.0045 Y0.1966 Z-0.0251 I-0.0753 J0.0919
N2430 X0.146 Y0.0129 Z-0.0382 I0.0753 J-0.0919
N2435 X-0.0045 Y0.1966 Z-0.0512 I-0.0753 J0.0919
N2440 X0.146 Y0.0129 Z-0.0642 I0.0753 J-0.0919
N2445 X-0.0045 Y0.1966 Z-0.0772 I-0.0753 J0.0919
N2450 X0.146 Y0.0129 Z-0.0903 I0.0753 J-0.0919
N2455 X-0.0045 Y0.1966 Z-0.1033 I-0.0753 J0.0919
N2460 X0.146 Y0.0129 Z-0.1163 I0.0753 J-0.0919
N2465 X0.1895 Y0.1047 Z-0.12 I-0.0753 J0.0919
N2470 X-0.048 I-0.1188 J0.
N2475 X0.1895 I0.1188 J0.
N2480 G1 X0.1897 Y0.1145 F20.
N2485 X0.1968 Y0.1528
N2490 G3 X0.187 Y0.22 I-0.0778 J0.0229
N2495 X0.1005 Y0.283 I-0.1152 J-0.0672
N2500 X-0.0753 Y0.2235 I-0.0413 J-0.1677
N2505 X0.0827 Y-0.0847 I0.145 J-0.1203
N2510 X0.2334 Y0.0064 I-0.0105 J0.1876
N2515 G1 X0.248 Y0.0327
N2520 X0.2605 Y0.0603
N2525 G3 X0.2784 Y0.1729 I-0.22 J0.0929
N2530 X0.1368 Y0.3502 I-0.21 J-0.0226
N2535 X-0.088 Y0.3178 I-0.0817 J-0.2286
N2540 X-0.1662 Y-0.0231 I0.1531 J-0.2145
N2545 X0.2606 Y-0.087 I0.2372 J0.1269
N2550 X0.3616 Y0.1234 I-0.23 J0.2399
N2555 X0.1676 Y0.4266 I-0.2975 J0.0233
N2560 X-0.0862 Y0.4158 I-0.1144 J-0.3016
N2565 X-0.2816 Y0.1333 I0.1468 J-0.3103
N2570 X0.1929 Y-0.2283 I0.3521 J-0.0301
N2575 X0.2961 Y-0.17 I-0.1231 J0.3389
N2580 X0.4476 Y0.1083 I-0.2541 J0.3187
N2585 X0.2328 Y0.4927 I-0.3853 J0.0369
N2590 X-0.0221 Y0.5278 I-0.1798 J-0.3632
N2595 X-0.2564 Y0.3981 I0.0769 J-0.4156
N2600 X-0.3709 Y0.0773 I0.3198 J-0.2949
N2605 X-0.0291 Y-0.3274 I0.4409 J0.0257
N2610 X0.251 Y-0.3007 I0.1002 J0.4319
N2615 G1 X0.2842 Y-0.2845
N2620 X0.3165 Y-0.2654
N2625 G3 X0.4309 Y-0.1615 I-0.2644 J0.4063
N2630 X0.5294 Y0.0483 I-0.3855 J0.3089
N2635 X0.5356 Y0.2024 I-0.4727 J0.0963
N2640 X0.379 Y0.5014 I-0.4731 J-0.0573
N2645 X0.2482 Y0.5846 I-0.3217 J-0.3615
N2650 G1 X0.2162 Y0.5969
N2655 X0.2094 Y0.599
N2660 X0.2024 Y0.6003
N2665 X0.1953 Y0.6007
N2670 X-0.0177
N2675 X-0.053 Y0.599
N2680 X-0.0798 Y0.5955
N2685 X-0.1074 Y0.5895
N2690 X-0.1375 Y0.5806
N2695 X-0.1689 Y0.5683
N2700 X-0.201 Y0.5527
N2705 X-0.2325 Y0.5342
N2710 X-0.2632 Y0.5126
N2715 X-0.293 Y0.4879
N2720 G3 X-0.3908 Y0.3672 I0.338 J-0.3738
N2725 X-0.4133 Y-0.1199 I0.4554 J-0.2651
N2730 X-0.2094 Y-0.3502 I0.4839 J0.2231
N2735 G1 X-0.1754 Y-0.3694
N2740 X-0.1402 Y-0.3861
N2745 G3 X-0.1158 Y-0.3913 I0.0248 J0.0563
N2750 G1 X0.1769
N2755 X0.2112 Y-0.3896
N2760 G3 X0.3174 Y-0.3612 I-0.0345 J0.3426
N2765 G1 X0.3493 Y-0.3458
N2770 X0.3818 Y-0.3267
N2775 X0.4134 Y-0.3044
N2780 G3 X0.5213 Y-0.1925 I-0.3272 J0.4233
N2785 G1 X0.5431 Y-0.1602
N2790 X0.5626 Y-0.1265
N2795 X0.569 Y-0.1135
N2800 X0.5723 Y-0.1052
N2805 X0.5743 Y-0.0966
N2810 X0.575 Y-0.0877
N2815 Y0.3008
N2820 G3 X0.5485 Y0.4168 I-0.2931 J-0.006
N2825 G1 X0.5343 Y0.4462
N2830 X0.5171 Y0.4755
N2835 X0.4963 Y0.505
N2840 X0.4714 Y0.535
N2845 X0.4442 Y0.5629
N2850 X0.4148 Y0.5888
N2855 X0.404 Y0.5953
N2860 X0.392 Y0.5994
N2865 X0.3795 Y0.6007
N2870 X0.1953
N2875 G3 X0.1809 Y0.556 I0.0009 J-0.025
N2880 G1 X0.1946 Y0.5454
N2885 X0.516 Y0.2964
N2890 X0.5347 Y0.2819
N2895 G3 X0.575 Y0.3008 I0.0153 J0.0198
N2900 G2 X0.5796 Y0.3627 I0.2587 J0.0121
N2905 G3 X0.5759 Y0.3893 I-0.5892 J-0.0673
N2910 G1 X0.5751 Y0.4117
N2915 X0.575 Y0.4158
N2920 Y0.4601
N2925 G3 X0.5568 Y0.5364 I-0.1978 J-0.0068
N2930 G1 X0.5472 Y0.5563
N2935 X0.538 Y0.572
N2940 G3 X0.4877 Y0.6007 I-0.0503 J-0.0296
N2945 X0.4666 Y0.564 I0.0009 J-0.025
N2950 G1 X0.4797 Y0.5394
N2955 X0.5218 Y0.4607
N2960 X0.528 Y0.4491
N2965 G3 X0.575 Y0.4601 I0.022 J0.0118
N2970 G1 Y0.5662
N2975 G3 X0.5527 Y0.5995 I-0.0318 J0.0028
N2980 G1 X0.5439 Y0.6007
N2985 G3 X0.5209 Y0.5914 I0.0013 J-0.0362
N2990 X0.5643 Y0.5433 I0.0217 J-0.0241
N2995 X0.575 Y0.5662 I-0.0217 J0.0241
N3000 X0.5726 Y0.5862 I-0.0406 J0.0053
N3005 X0.5485 Y0.6008 I-0.0238 J-0.012
N3010 G1 X0.3795 Y0.6007
N3015 G3 X0.3559 Y0.581 I0.0009 J-0.025
N3020 G1 X0.3464 Y0.5366
N3025 X0.1607 Y-0.327
N3030 X0.1534 Y-0.361
N3035 G3 X0.1769 Y-0.3913 I0.0244 J-0.0053
N3040 G1 X0.3539
N3045 G3 X0.4385 Y-0.3718 I-0.0039 J0.211
N3050 G1 X0.4593 Y-0.3618
N3055 G3 X0.5574 Y-0.286 I-0.1878 J0.3442
N3060 X0.575 Y-0.2443 I-0.0405 J0.0417
N3065 X0.5368 Y-0.2239 I-0.025 J-0.0009
N3070 G1 X0.5145 Y-0.2377
N3075 X0.3541 Y-0.3373
N3080 X0.3416 Y-0.345
N3085 G3 X0.3539 Y-0.3913 I0.0132 J-0.0212
N3090 G1 X0.4866
N3095 G3 X0.5483 Y-0.3758 I-0.0023 J0.1399
N3100 X0.575 Y-0.3265 I-0.0328 J0.0497
N3105 G1 X0.5746 Y-0.3228
N3110 X0.5737 Y-0.3192
N3115 X0.5722 Y-0.3158
N3120 X0.5702 Y-0.3126
N3125 X0.5678 Y-0.3098
N3130 X0.5649 Y-0.3073
N3135 X0.5618 Y-0.3053
N3140 X0.5584 Y-0.3038
N3145 X0.5548 Y-0.3028
N3150 X0.5511 Y-0.3024
N3155 X0.5473 Y-0.3025
N3160 X0.5436 Y-0.3032
N3165 X0.5401 Y-0.3044
N3170 X0.5368 Y-0.3062
N3175 X0.5145 Y-0.32
N3180 X0.4868 Y-0.3372
N3185 X0.4743 Y-0.3451
N3190 G3 X0.4866 Y-0.3913 I0.0132 J-0.0212
N3195 G1 X0.5485
N3200 G3 X0.5749 Y-0.3628 I0.0005 J0.026
N3205 G1 X0.575 Y-0.2389
N3210 G2 X0.5799 Y-0.1859 I0.2435 J0.0043
N3215 X0.575 Y-0.1416 I0.196 J0.0442
N3220 G1 Y-0.0877
N3225 G3 X0.569 Y-0.0723 I-0.025 J-0.0009
N3230 G1 X0.5289 Y-0.0255
N3235 X0.038 Y0.5481
N3240 X0.0004 Y0.592
N3245 G3 X-0.0177 Y0.6007 I-0.019 J-0.0163
N3250 G1 X-0.2035
N3255 G3 X-0.2867 Y0.5814 I0.0049 J-0.21
N3260 G1 X-0.3073 Y0.5715
N3265 X-0.331 Y0.5575
N3270 X-0.3545 Y0.541
N3275 X-0.3795 Y0.5203
N3280 X-0.4054 Y0.495
N3285 X-0.431 Y0.4656
N3290 G3 X-0.5093 Y0.3313 I0.4201 J-0.3348
N3295 X-0.5348 Y-0.0512 I0.5658 J-0.2298
N3300 X-0.3269 Y-0.3789 I0.6048 J0.1539
N3305 G1 X-0.3159 Y-0.3856
N3310 X-0.3037 Y-0.3898
N3315 X-0.2909 Y-0.3913
N3320 X-0.1158
N3325 G3 X-0.0918 Y-0.364 I-0.0009 J0.025
N3330 G1 X-0.0953 Y-0.3263
N3335 X-0.1755 Y0.5358
N3340 X-0.1795 Y0.5781
N3345 G3 X-0.2035 Y0.6007 I-0.0249 J-0.0023
N3350 G1 X-0.3274
N3355 G3 X-0.4163 Y0.5763 I0.0029 J-0.1845
N3360 X-0.4988 Y0.5118 I0.1544 J-0.2827
N3365 G1 X-0.5216 Y0.4858
N3370 X-0.5446 Y0.4548
N3375 X-0.5652 Y0.4217
N3380 G3 X-0.575 Y0.3886 I0.0544 J-0.0341
N3385 G1 Y0.1769
N3390 G2 X-0.5799 Y0.1195 I-0.2406 J-0.0083
N3395 X-0.5751 Y0.0619 I-0.2017 J-0.0459
N3400 G1 X-0.575 Y-0.115
N3405 G3 X-0.5572 Y-0.2141 I0.3042 J0.0035
N3410 G1 X-0.5454 Y-0.2444
N3415 X-0.5293 Y-0.2777
N3420 X-0.5095 Y-0.3113
N3425 X-0.4873 Y-0.3433
N3430 X-0.4664 Y-0.3694
N3435 G3 X-0.4209 Y-0.3913 I0.0455 J0.0365
N3440 G1 X-0.2909
N3445 G3 X-0.2743 Y-0.3483 I-0.0009 J0.025
N3450 G1 X-0.2888 Y-0.3343
N3455 X-0.5176 Y-0.1125
N3460 X-0.5326 Y-0.0979
N3465 G3 X-0.575 Y-0.115 I-0.0174 J-0.0179
N3470 G1 Y-0.2831
N3475 G3 X-0.5559 Y-0.3646 I0.1834 J0.0001
N3480 X-0.5066 Y-0.3913 I0.0498 J0.033
N3485 G1 X-0.5027 Y-0.3909
N3490 X-0.499 Y-0.3898
N3495 X-0.4955 Y-0.3883
N3500 X-0.4922 Y-0.3861
N3505 X-0.4893 Y-0.3835
N3510 X-0.4869 Y-0.3805
N3515 X-0.4849 Y-0.3772
N3520 X-0.4835 Y-0.3736
N3525 X-0.4827 Y-0.3698
N3530 X-0.4824 Y-0.366
N3535 X-0.4828 Y-0.3621
N3540 X-0.4837 Y-0.3584
N3545 X-0.4852 Y-0.3548
N3550 X-0.4982 Y-0.3297
N3555 X-0.5219 Y-0.2839
N3560 X-0.5278 Y-0.2725
N3565 G3 X-0.575 Y-0.2831 I-0.0222 J-0.0115
N3570 G1 Y-0.3627
N3575 G3 X-0.5485 Y-0.3914 I0.0262 J-0.0023
N3580 G1 X-0.4209 Y-0.3913
N3585 G3 X-0.3969 Y-0.3688 I-0.0009 J0.025
N3590 G1 X-0.3927 Y-0.3263
N3595 X-0.3071 Y0.5358
N3600 X-0.3033 Y0.5733
N3605 G3 X-0.3274 Y0.6007 I-0.0249 J0.0025
N3610 G1 X-0.4424
N3615 G3 X-0.5199 Y0.5789 I0.0047 J-0.1654
N3620 G1 X-0.5374 Y0.5687
N3625 X-0.5502 Y0.5597
N3630 G3 X-0.575 Y0.512 I0.0335 J-0.0477
N3635 X-0.5373 Y0.4913 I0.025 J0.0009
N3640 G1 X-0.5142 Y0.505
N3645 X-0.4428 Y0.547
N3650 X-0.4306 Y0.5542
N3655 G3 X-0.4424 Y0.6007 I-0.0127 J0.0215
N3660 G1 X-0.5397
N3665 G3 X-0.5699 Y0.5862 I-0.0027 J-0.0331
N3670 G1 X-0.5737 Y0.5779
N3675 X-0.575 Y0.5689
N3680 G3 X-0.5655 Y0.5454 I0.0371 J0.0013
N3685 X-0.5162 Y0.5898 I0.0246 J0.0222
N3690 X-0.5397 Y0.6007 I-0.0246 J-0.0222
N3695 X-0.5596 Y0.5987 I-0.0054 J-0.045
N3700 X-0.5751 Y0.5751 I0.0109 J-0.024
N3705 G1 X-0.575 Y0.3886
N3710 G3 X-0.5358 Y0.3689 I0.025 J0.0009
N3715 G1 X-0.5337 Y0.371 Z-0.1198
N3720 X-0.5316 Y0.3731 Z-0.1193
N3725 X-0.5295 Y0.3751 Z-0.1184
N3730 X-0.5282 Y0.378 Z-0.1169
N3735 X-0.527 Y0.3807 Z-0.115
N3740 X-0.5258 Y0.3831 Z-0.1127
N3745 X-0.5256 Y0.3852 Z-0.1102
N3750 X-0.5253 Y0.387 Z-0.1075
N3755 X-0.5252 Y0.3884 Z-0.1046
N3760 X-0.525 Y0.3895 Z-0.1015
N3765 Y0.3897 Z-0.1008
N3770 Y0.3902 Z-0.0979
N3775 Y0.3903 Z-0.095
N3780 G0 Z0.2
N3785 X0.146 Y0.0129
N3790 Z0.005
N3795 G1 Z-0.02 F20.
N3800 G3 X-0.0045 Y0.1966 Z-0.033 I-0.0753 J0.0919 F3.
N3805 X0.146 Y0.0129 Z-0.0461 I0.0753 J-0.0919
N3810 X-0.0045 Y0.1966 Z-0.0591 I-0.0753 J0.0919
N3815 X0.146 Y0.0129 Z-0.0721 I0.0753 J-0.0919
N3820 X-0.0045 Y0.1966 Z-0.0851 I-0.0753 J0.0919
N3825 X0.146 Y0.0129 Z-0.0982 I0.0753 J-0.0919
N3830 X-0.0045 Y0.1966 Z-0.1112 I-0.0753 J0.0919
N3835 X0.146 Y0.0129 Z-0.1242 I0.0753 J-0.0919
N3840 X-0.0045 Y0.1966 Z-0.1372 I-0.0753 J0.0919
N3845 X0.146 Y0.0129 Z-0.1503 I0.0753 J-0.0919
N3850 X-0.0045 Y0.1966 Z-0.1633 I-0.0753 J0.0919
N3855 X0.146 Y0.0129 Z-0.1763 I0.0753 J-0.0919
N3860 X0.1895 Y0.1047 Z-0.18 I-0.0753 J0.0919
N3865 X-0.048 I-0.1188 J0.
N3870 X0.1895 I0.1188 J0.
N3875 G1 X0.1897 Y0.1145 F20.
N3880 X0.1968 Y0.1528
N3885 G3 X0.187 Y0.22 I-0.0778 J0.0229
N3890 X0.1005 Y0.283 I-0.1152 J-0.0672
N3895 X-0.0753 Y0.2235 I-0.0413 J-0.1677
N3900 X0.0827 Y-0.0847 I0.145 J-0.1203
N3905 X0.2334 Y0.0064 I-0.0105 J0.1876
N3910 G1 X0.248 Y0.0327
N3915 X0.2605 Y0.0603
N3920 G3 X0.2784 Y0.1729 I-0.22 J0.0929
N3925 X0.1368 Y0.3502 I-0.21 J-0.0226
N3930 X-0.088 Y0.3178 I-0.0817 J-0.2286
N3935 X-0.1662 Y-0.0231 I0.1531 J-0.2145
N3940 X0.2606 Y-0.087 I0.2372 J0.1269
N3945 X0.3616 Y0.1234 I-0.23 J0.2399
N3950 X0.1676 Y0.4266 I-0.2975 J0.0233
N3955 X-0.0862 Y0.4158 I-0.1144 J-0.3016
N3960 X-0.2816 Y0.1333 I0.1468 J-0.3103
N3965 X0.1929 Y-0.2283 I0.3521 J-0.0301
N3970 X0.2961 Y-0.17 I-0.1231 J0.3389
N3975 X0.4476 Y0.1083 I-0.2541 J0.3187
N3980 X0.2328 Y0.4927 I-0.3853 J0.0369
N3985 X-0.0221 Y0.5278 I-0.1798 J-0.3632
N3990 X-0.2564 Y0.3981 I0.0769 J-0.4156
N3995 X-0.3709 Y0.0773 I0.3198 J-0.2949
N4000 X-0.0291 Y-0.3274 I0.4409 J0.0257
N4005 X0.251 Y-0.3007 I0.1002 J0.4319
N4010 G1 X0.2842 Y-0.2845
N4015 X0.3165 Y-0.2654
N4020 G3 X0.4309 Y-0.1615 I-0.2644 J0.4063
N4025 X0.5294 Y0.0483 I-0.3855 J0.3089
N4030 X0.5356 Y0.2024 I-0.4727 J0.0963
N4035 X0.379 Y0.5014 I-0.4731 J-0.0573
N4040 X0.2482 Y0.5846 I-0.3217 J-0.3615
N4045 G1 X0.2162 Y0.5969
N4050 X0.2094 Y0.599
N4055 X0.2024 Y0.6003
N4060 X0.1953 Y0.6007
N4065 X-0.0177
N4070 X-0.053 Y0.599
N4075 X-0.0798 Y0.5955
N4080 X-0.1074 Y0.5895
N4085 X-0.1375 Y0.5806
N4090 X-0.1689 Y0.5683
N4095 X-0.201 Y0.5527
N4100 X-0.2325 Y0.5342
N4105 X-0.2632 Y0.5126
N4110 X-0.293 Y0.4879
N4115 G3 X-0.3908 Y0.3672 I0.338 J-0.3738
N4120 X-0.4133 Y-0.1199 I0.4554 J-0.2651
N4125 X-0.2094 Y-0.3502 I0.4839 J0.2231
N4130 G1 X-0.1754 Y-0.3694
N4135 X-0.1402 Y-0.3861
N4140 G3 X-0.1158 Y-0.3913 I0.0248 J0.0563
N4145 G1 X0.1769
N4150 X0.2112 Y-0.3896
N4155 G3 X0.3174 Y-0.3612 I-0.0345 J0.3426
N4160 G1 X0.3493 Y-0.3458
N4165 X0.3818 Y-0.3267
N4170 X0.4134 Y-0.3044
N4175 G3 X0.5213 Y-0.1925 I-0.3272 J0.4233
N4180 G1 X0.5431 Y-0.1602
N4185 X0.5626 Y-0.1265
N4190 X0.569 Y-0.1135
N4195 X0.5723 Y-0.1052
N4200 X0.5743 Y-0.0966
N4205 X0.575 Y-0.0877
N4210 Y0.3008
N4215 G3 X0.5485 Y0.4168 I-0.2931 J-0.006
N4220 G1 X0.5343 Y0.4462
N4225 X0.5171 Y0.4755
N4230 X0.4963 Y0.505
N4235 X0.4714 Y0.535
N4240 X0.4442 Y0.5629
N4245 X0.4148 Y0.5888
N4250 X0.404 Y0.5953
N4255 X0.392 Y0.5994
N4260 X0.3795 Y0.6007
N4265 X0.1953
N4270 G3 X0.1809 Y0.556 I0.0009 J-0.025
N4275 G1 X0.1946 Y0.5454
N4280 X0.516 Y0.2964
N4285 X0.5347 Y0.2819
N4290 G3 X0.575 Y0.3008 I0.0153 J0.0198
N4295 G1 Y0.4601
N4300 G3 X0.5568 Y0.5364 I-0.1978 J-0.0068
N4305 G1 X0.5472 Y0.5563
N4310 X0.538 Y0.572
N4315 G3 X0.4877 Y0.6007 I-0.0503 J-0.0296
N4320 X0.4666 Y0.564 I0.0009 J-0.025
N4325 G1 X0.4797 Y0.5394
N4330 X0.5218 Y0.4607
N4335 X0.528 Y0.4491
N4340 G3 X0.575 Y0.4601 I0.022 J0.0118
N4345 G1 Y0.5662
N4350 G3 X0.5527 Y0.5995 I-0.0318 J0.0028
N4355 G1 X0.5439 Y0.6007
N4360 G3 X0.5209 Y0.5914 I0.0013 J-0.0362
N4365 X0.5643 Y0.5433 I0.0217 J-0.0241
N4370 X0.575 Y0.5662 I-0.0217 J0.0241
N4375 X0.5726 Y0.5862 I-0.0406 J0.0053
N4380 X0.5485 Y0.6008 I-0.0238 J-0.012
N4385 G1 X0.3795 Y0.6007
N4390 G3 X0.3559 Y0.581 I0.0009 J-0.025
N4395 G1 X0.3464 Y0.5366
N4400 X0.1607 Y-0.327
N4405 X0.1534 Y-0.361
N4410 G3 X0.1769 Y-0.3913 I0.0244 J-0.0053
N4415 G1 X0.3539
N4420 G3 X0.4385 Y-0.3718 I-0.0039 J0.211
N4425 G1 X0.4593 Y-0.3618
N4430 G3 X0.5574 Y-0.286 I-0.1878 J0.3442
N4435 X0.575 Y-0.2443 I-0.0405 J0.0417
N4440 X0.5368 Y-0.2239 I-0.025 J-0.0009
N4445 G1 X0.5145 Y-0.2377
N4450 X0.3541 Y-0.3373
N4455 X0.3416 Y-0.345
N4460 G3 X0.3539 Y-0.3913 I0.0132 J-0.0212
N4465 G1 X0.4866
N4470 G3 X0.5483 Y-0.3758 I-0.0023 J0.1399
N4475 X0.575 Y-0.3265 I-0.0328 J0.0497
N4480 G1 X0.5746 Y-0.3228
N4485 X0.5737 Y-0.3192
N4490 X0.5722 Y-0.3158
N4495 X0.5702 Y-0.3126
N4500 X0.5678 Y-0.3098
N4505 X0.5649 Y-0.3073
N4510 X0.5618 Y-0.3053
N4515 X0.5584 Y-0.3038
N4520 X0.5548 Y-0.3028
N4525 X0.5511 Y-0.3024
N4530 X0.5473 Y-0.3025
N4535 X0.5436 Y-0.3032
N4540 X0.5401 Y-0.3044
N4545 X0.5368 Y-0.3062
N4550 X0.5145 Y-0.32
N4555 X0.4868 Y-0.3372
N4560 X0.4743 Y-0.3451
N4565 G3 X0.4866 Y-0.3913 I0.0132 J-0.0212
N4570 G1 X0.5485
N4575 G3 X0.575 Y-0.3627 I0.0004 J0.0262
N4580 G1 Y-0.0877
N4585 G3 X0.569 Y-0.0723 I-0.025 J-0.0009
N4590 G1 X0.5289 Y-0.0255
N4595 X0.038 Y0.5481
N4600 X0.0004 Y0.592
N4605 G3 X-0.0177 Y0.6007 I-0.019 J-0.0163
N4610 G1 X-0.2035
N4615 G3 X-0.2867 Y0.5814 I0.0049 J-0.21
N4620 G1 X-0.3073 Y0.5715
N4625 X-0.331 Y0.5575
N4630 X-0.3545 Y0.541
N4635 X-0.3795 Y0.5203
N4640 X-0.4054 Y0.495
N4645 X-0.431 Y0.4656
N4650 G3 X-0.5093 Y0.3313 I0.4201 J-0.3348
N4655 X-0.5348 Y-0.0512 I0.5658 J-0.2298
N4660 X-0.3269 Y-0.3789 I0.6048 J0.1539
N4665 G1 X-0.3159 Y-0.3856
N4670 X-0.3037 Y-0.3898
N4675 X-0.2909 Y-0.3913
N4680 X-0.1158
N4685 G3 X-0.0918 Y-0.364 I-0.0009 J0.025
N4690 G1 X-0.0953 Y-0.3263
N4695 X-0.1755 Y0.5358
N4700 X-0.1795 Y0.5781
N4705 G3 X-0.2035 Y0.6007 I-0.0249 J-0.0023
N4710 G1 X-0.3274
N4715 G3 X-0.4163 Y0.5763 I0.0029 J-0.1845
N4720 X-0.4988 Y0.5118 I0.1544 J-0.2827
N4725 G1 X-0.5216 Y0.4858
N4730 X-0.5446 Y0.4548
N4735 X-0.5652 Y0.4217
N4740 G3 X-0.575 Y0.3886 I0.0544 J-0.0341
N4745 G1 Y-0.115
N4750 G3 X-0.5572 Y-0.2141 I0.3042 J0.0035
N4755 G1 X-0.5454 Y-0.2444
N4760 X-0.5293 Y-0.2777
N4765 X-0.5095 Y-0.3113
N4770 X-0.4873 Y-0.3433
N4775 X-0.4664 Y-0.3694
N4780 G3 X-0.4209 Y-0.3913 I0.0455 J0.0365
N4785 G1 X-0.2909
N4790 G3 X-0.2743 Y-0.3483 I-0.0009 J0.025
N4795 G1 X-0.2888 Y-0.3343
N4800 X-0.5176 Y-0.1125
N4805 X-0.5326 Y-0.0979
N4810 G3 X-0.575 Y-0.115 I-0.0174 J-0.0179
N4815 G1 Y-0.2831
N4820 G3 X-0.5559 Y-0.3646 I0.1834 J0.0001
N4825 X-0.5066 Y-0.3913 I0.0498 J0.033
N4830 G1 X-0.5027 Y-0.3909
N4835 X-0.499 Y-0.3898
N4840 X-0.4955 Y-0.3883
N4845 X-0.4922 Y-0.3861
N4850 X-0.4893 Y-0.3835
N4855 X-0.4869 Y-0.3805
N4860 X-0.4849 Y-0.3772
N4865 X-0.4835 Y-0.3736
N4870 X-0.4827 Y-0.3698
N4875 X-0.4824 Y-0.366
N4880 X-0.4828 Y-0.3621
N4885 X-0.4837 Y-0.3584
N4890 X-0.4852 Y-0.3548
N4895 X-0.4982 Y-0.3297
N4900 X-0.5219 Y-0.2839
N4905 X-0.5278 Y-0.2725
N4910 G3 X-0.575 Y-0.2831 I-0.0222 J-0.0115
N4915 G1 Y-0.3627
N4920 G3 X-0.5485 Y-0.3914 I0.0262 J-0.0023
N4925 G1 X-0.4209 Y-0.3913
N4930 G3 X-0.3969 Y-0.3688 I-0.0009 J0.025
N4935 G1 X-0.3927 Y-0.3263
N4940 X-0.3071 Y0.5358
N4945 X-0.3033 Y0.5733
N4950 G3 X-0.3274 Y0.6007 I-0.0249 J0.0025
N4955 G1 X-0.4424
N4960 G3 X-0.5199 Y0.5789 I0.0047 J-0.1654
N4965 G1 X-0.5374 Y0.5687
N4970 X-0.5502 Y0.5597
N4975 G3 X-0.575 Y0.512 I0.0335 J-0.0477
N4980 X-0.5373 Y0.4913 I0.025 J0.0009
N4985 G1 X-0.5142 Y0.505
N4990 X-0.4428 Y0.547
N4995 X-0.4306 Y0.5542
N5000 G3 X-0.4424 Y0.6007 I-0.0127 J0.0215
N5005 G1 X-0.5397
N5010 G3 X-0.5699 Y0.5862 I-0.0027 J-0.0331
N5015 G1 X-0.5737 Y0.5779
N5020 X-0.575 Y0.5689
N5025 G3 X-0.5655 Y0.5454 I0.0371 J0.0013
N5030 X-0.5162 Y0.5898 I0.0246 J0.0222
N5035 X-0.5397 Y0.6007 I-0.0246 J-0.0222
N5040 X-0.5596 Y0.5987 I-0.0054 J-0.045
N5045 X-0.5751 Y0.5751 I0.0109 J-0.024
N5050 G1 X-0.575 Y0.3886
N5055 G3 X-0.5358 Y0.3689 I0.025 J0.0009
N5060 G1 X-0.5337 Y0.371 Z-0.1798
N5065 X-0.5316 Y0.3731 Z-0.1793
N5070 X-0.5295 Y0.3751 Z-0.1784
N5075 X-0.5282 Y0.378 Z-0.1769
N5080 X-0.527 Y0.3807 Z-0.175
N5085 X-0.5258 Y0.3831 Z-0.1727
N5090 X-0.5256 Y0.3852 Z-0.1702
N5095 X-0.5253 Y0.387 Z-0.1675
N5100 X-0.5252 Y0.3884 Z-0.1646
N5105 X-0.525 Y0.3895 Z-0.1615
N5110 Y0.3897 Z-0.1608
N5115 Y0.3902 Z-0.1579
N5120 Y0.3903 Z-0.155
N5125 G0 Z0.2
N5130 X-0.5386 Y0.2732
N5135 Z-0.088
N5140 G1 Z-0.113 F20.
N5145 X-0.5388 Y0.273 Z-0.1169
N5150 X-0.5392 Y0.2722 Z-0.1207
N5155 X-0.54 Y0.2709 Z-0.1243
N5160 X-0.5411 Y0.2692 Z-0.1277
N5165 X-0.5424 Y0.267 Z-0.1307
N5170 X-0.544 Y0.2645 Z-0.1332
N5175 X-0.5458 Y0.2616 Z-0.1353
N5180 X-0.5477 Y0.2585 Z-0.1368
N5185 X-0.5497 Y0.2553 Z-0.1377
N5190 X-0.5517 Y0.252 Z-0.138
N5195 G3 X-0.575 Y0.1769 I0.1348 J-0.083
N5200 G2 X-0.5799 Y0.1195 I-0.2406 J-0.0083
N5205 G1 X-0.579 Y0.115
N5210 X-0.5773 Y0.1062
N5215 G3 X-0.5604 Y0.0878 I0.0244 J0.0054
N5220 G1 X-0.5105 Y0.072
N5225 X0.5111 Y-0.2502
N5230 X0.5425 Y-0.2601
N5235 G3 X0.575 Y-0.2375 I0.0075 J0.0238
N5240 G2 X0.5799 Y-0.1859 I0.2425 J0.0033
N5245 G1 X0.5791 Y-0.1814
N5250 X0.5782 Y-0.1769
N5255 G3 X0.5295 Y-0.1883 I-0.0243 J-0.006
N5260 G1 X0.5297 Y-0.189
N5265 X0.5306 Y-0.1928 Z-0.1377
N5270 X0.5315 Y-0.1965 Z-0.1368
N5275 X0.5324 Y-0.2 Z-0.1353
N5280 X0.5332 Y-0.2033 Z-0.1332
N5285 X0.5339 Y-0.2061 Z-0.1307
N5290 X0.5345 Y-0.2086 Z-0.1277
N5295 X0.535 Y-0.2106 Z-0.1243
N5300 X0.5354 Y-0.2121 Z-0.1207
N5305 X0.5356 Y-0.213 Z-0.1169
N5310 X0.5357 Y-0.2133 Z-0.113
N5315 G0 Z0.2
N5320 X0.5391 Y0.222
N5325 Z-0.088
N5330 G1 Z-0.113 F20.
N5335 X0.5392 Y0.2223 Z-0.1169
N5340 X0.5397 Y0.2231 Z-0.1207
N5345 X0.5405 Y0.2244 Z-0.1243
N5350 X0.5415 Y0.2261 Z-0.1277
N5355 X0.5429 Y0.2283 Z-0.1307
N5360 X0.5444 Y0.2308 Z-0.1332
N5365 X0.5462 Y0.2337 Z-0.1353
N5370 X0.5481 Y0.2368 Z-0.1368
N5375 X0.55 Y0.24 Z-0.1377
N5380 X0.5521 Y0.2434 Z-0.138
N5385 G3 X0.575 Y0.3185 I-0.1352 J0.0823
N5390 G2 X0.5796 Y0.3627 I0.2024 J0.0011
N5395 G3 X0.5759 Y0.3893 I-1.074 J-0.1374
N5400 G1 X0.5753 Y0.407
N5405 G3 X0.5353 Y0.4252 I-0.0249 J-0.0018
N5410 G1 X0.5333 Y0.423 Z-0.1378
N5415 X0.5313 Y0.4209 Z-0.1373
N5420 X0.5293 Y0.4188 Z-0.1364
N5425 X0.5281 Y0.4158 Z-0.1349
N5430 X0.527 Y0.4131 Z-0.133
N5435 X0.5259 Y0.4107 Z-0.1307
N5440 X0.5257 Y0.4085 Z-0.1281
N5445 X0.5255 Y0.4066 Z-0.1253
N5450 X0.5253 Y0.4052 Z-0.1223
N5455 Y0.4041 Z-0.1188
N5460 X0.5254 Y0.4036 Z-0.1159
N5465 Y0.4034 Z-0.113
N5470 G0 Z0.2
N5475 X0.146 Y0.0129
N5480 Z-0.055
N5485 G1 Z-0.08 F20.
N5490 G3 X-0.0045 Y0.1966 Z-0.093 I-0.0753 J0.0919 F3.
N5495 X0.146 Y0.0129 Z-0.1061 I0.0753 J-0.0919
N5500 X-0.0045 Y0.1966 Z-0.1191 I-0.0753 J0.0919
N5505 X0.146 Y0.0129 Z-0.1321 I0.0753 J-0.0919
N5510 X-0.0045 Y0.1966 Z-0.1451 I-0.0753 J0.0919
N5515 X0.146 Y0.0129 Z-0.1582 I0.0753 J-0.0919
N5520 X-0.0045 Y0.1966 Z-0.1712 I-0.0753 J0.0919
N5525 X0.146 Y0.0129 Z-0.1842 I0.0753 J-0.0919
N5530 X-0.0045 Y0.1966 Z-0.1972 I-0.0753 J0.0919
N5535 X0.146 Y0.0129 Z-0.2103 I0.0753 J-0.0919
N5540 X-0.0045 Y0.1966 Z-0.2233 I-0.0753 J0.0919
N5545 X0.146 Y0.0129 Z-0.2363 I0.0753 J-0.0919
N5550 X0.1895 Y0.1047 Z-0.24 I-0.0753 J0.0919
N5555 X-0.048 I-0.1188 J0.
N5560 X0.1895 I0.1188 J0.
N5565 G1 X0.1897 Y0.1145 F20.
N5570 X0.1968 Y0.1528
N5575 G3 X0.187 Y0.22 I-0.0778 J0.0229
N5580 X0.1005 Y0.283 I-0.1152 J-0.0672
N5585 X-0.0753 Y0.2235 I-0.0413 J-0.1677
N5590 X0.0827 Y-0.0847 I0.145 J-0.1203
N5595 X0.2334 Y0.0064 I-0.0105 J0.1876
N5600 G1 X0.248 Y0.0327
N5605 X0.2605 Y0.0603
N5610 G3 X0.2784 Y0.1729 I-0.22 J0.0929
N5615 X0.1368 Y0.3502 I-0.21 J-0.0226
N5620 X-0.088 Y0.3178 I-0.0817 J-0.2286
N5625 X-0.1662 Y-0.0231 I0.1531 J-0.2145
N5630 X0.2606 Y-0.087 I0.2372 J0.1269
N5635 X0.3616 Y0.1234 I-0.23 J0.2399
N5640 X0.1676 Y0.4266 I-0.2975 J0.0233
N5645 X-0.0862 Y0.4158 I-0.1144 J-0.3016
N5650 X-0.2816 Y0.1333 I0.1468 J-0.3103
N5655 X0.1929 Y-0.2283 I0.3521 J-0.0301
N5660 X0.2961 Y-0.17 I-0.1231 J0.3389
N5665 X0.4476 Y0.1083 I-0.2541 J0.3187
N5670 X0.2328 Y0.4927 I-0.3853 J0.0369
N5675 X-0.0221 Y0.5278 I-0.1798 J-0.3632
N5680 X-0.2564 Y0.3981 I0.0769 J-0.4156
N5685 X-0.3709 Y0.0773 I0.3198 J-0.2949
N5690 X-0.0291 Y-0.3274 I0.4409 J0.0257
N5695 X0.251 Y-0.3007 I0.1002 J0.4319
N5700 G1 X0.2842 Y-0.2845
N5705 X0.3165 Y-0.2654
N5710 G3 X0.4309 Y-0.1615 I-0.2644 J0.4063
N5715 X0.5294 Y0.0483 I-0.3855 J0.3089
N5720 X0.5356 Y0.2024 I-0.4727 J0.0963
N5725 X0.379 Y0.5014 I-0.4731 J-0.0573
N5730 G1 X0.349 Y0.526
N5735 X0.3171 Y0.5482
N5740 X0.2918 Y0.5628
N5745 X0.2826 Y0.5672
N5750 X0.2727 Y0.5698
N5755 X0.2625 Y0.5707
N5760 X-0.0796
N5765 G3 X-0.1952 Y0.5458 I0. J-0.2804
N5770 G1 X-0.2198 Y0.5339
N5775 X-0.2462 Y0.5184
N5780 X-0.2734 Y0.4993
N5785 X-0.3006 Y0.4767
N5790 X-0.3268 Y0.4512
N5795 X-0.3513 Y0.423
N5800 X-0.3743 Y0.392
N5805 G3 X-0.4405 Y0.2514 I0.4186 J-0.283
N5810 X-0.3472 Y-0.2274 I0.5067 J-0.1497
N5815 X-0.2062 Y-0.352 I0.4159 J0.3286
N5820 G1 X-0.1963 Y-0.3571
N5825 X-0.1856 Y-0.3602
N5830 X-0.1745 Y-0.3613
N5835 X0.2389
N5840 G3 X0.3448 Y-0.3376 I-0.0026 J0.2604
N5845 G1 X0.3699 Y-0.3255
N5850 X0.3964 Y-0.3099
N5855 X0.4248 Y-0.29
N5860 X0.4537 Y-0.266
N5865 X0.4815 Y-0.2388
N5870 X0.5072 Y-0.2094
N5875 X0.5305 Y-0.1782
N5880 G3 X0.545 Y-0.1384 I-0.0525 J0.0417
N5885 G1 Y0.345
N5890 G3 X0.5233 Y0.4446 I-0.2413 J-0.0004
N5895 G1 X0.5123 Y0.4675
N5900 G3 X0.4493 Y0.5532 I-0.339 J-0.183
N5905 X0.4075 Y0.5707 I-0.042 J-0.0414
N5910 X0.3865 Y0.5336 I0.0009 J-0.025
N5915 G1 X0.3999 Y0.5096
N5920 X0.4916 Y0.3456
N5925 X0.4982 Y0.3337
N5930 G3 X0.545 Y0.345 I0.0218 J0.0122
N5935 G1 Y0.4866
N5940 G3 X0.5342 Y0.5407 I-0.1278 J0.0025
N5945 X0.4829 Y0.5708 I-0.0515 J-0.0291
N5950 G1 X0.4792 Y0.5703
N5955 X0.4756 Y0.5694
N5960 X0.4722 Y0.5679
N5965 X0.469 Y0.5659
N5970 X0.4662 Y0.5635
N5975 X0.4637 Y0.5607
N5980 X0.4617 Y0.5575
N5985 X0.4602 Y0.5541
N5990 X0.4593 Y0.5505
N5995 X0.4588 Y0.5468
N6000 X0.4589 Y0.5431
N6005 X0.4596 Y0.5394
N6010 X0.4608 Y0.5359
N6015 X0.4626 Y0.5326
N6020 X0.4764 Y0.5103
N6025 X0.491 Y0.4868
N6030 X0.4988 Y0.4743
N6035 G3 X0.545 Y0.4866 I0.0212 J0.0132
N6040 G1 Y0.5397
N6045 G3 X0.5397 Y0.5607 I-0.0285 J0.004
N6050 X0.522 Y0.5706 I-0.0209 J-0.0165
N6055 G1 X0.5131 Y0.5707
N6060 X0.2625
N6065 G3 X0.2384 Y0.5464 I0.0009 J-0.025
N6070 G1 X0.2373 Y0.5056
N6075 X0.2158 Y-0.2962
N6080 X0.2148 Y-0.3356
N6085 G3 X0.2389 Y-0.3613 I0.025 J-0.0007
N6090 G1 X0.3893
N6095 G3 X0.4613 Y-0.3442 I-0.0063 J0.1872
N6100 X0.5287 Y-0.3023 I-0.1042 J0.2428
N6105 X0.545 Y-0.2617 I-0.0429 J0.0408
N6110 X0.5077 Y-0.2409 I-0.025 J-0.0009
N6115 G1 X0.484 Y-0.2543
N6120 X0.3898 Y-0.3077
N6125 X0.3778 Y-0.3145
N6130 G3 X0.3893 Y-0.3613 I0.0123 J-0.0217
N6135 G1 X0.5043
N6140 G3 X0.545 Y-0.3212 I0.0007 J0.04
N6145 X0.5336 Y-0.2947 I-0.0398 J-0.0014
N6150 X0.4778 Y-0.3496 I-0.0279 J-0.0275
N6155 X0.5043 Y-0.3613 I0.0279 J0.0275
N6160 X0.5287 Y-0.3597 I0.0074 J0.0785
N6165 X0.545 Y-0.3362 I-0.0107 J0.0249
N6170 G1 Y-0.1384
N6175 G3 X0.5388 Y-0.1228 I-0.025 J-0.0009
N6180 G1 X0.4983 Y-0.0766
N6185 X-0.0234 Y0.5185
N6190 X-0.0617 Y0.5622
N6195 G3 X-0.0796 Y0.5707 I-0.0188 J-0.0165
N6200 G1 X-0.2389
N6205 G3 X-0.3283 Y0.5445 I0.0097 J-0.1983
N6210 G1 X-0.3477 Y0.5332
N6215 X-0.3698 Y0.5177
N6220 X-0.3915 Y0.4997
N6225 X-0.4142 Y0.4776
N6230 X-0.4374 Y0.4509
N6235 X-0.4603 Y0.42
N6240 G3 X-0.527 Y0.2796 I0.435 J-0.2927
N6245 X-0.545 Y0.2023 I0.4856 J-0.1541
N6250 G1 Y0.1984
N6255 Y0.0708
N6260 X-0.5431 Y0.0318
N6265 G3 X-0.5044 Y-0.1385 I0.531 J0.0309
N6270 X-0.3644 Y-0.3449 I0.561 J0.23
N6275 X-0.3237 Y-0.3613 I0.0408 J0.0425
N6280 G1 X-0.1745
N6285 G3 X-0.1564 Y-0.3201 I-0.0009 J0.025
N6290 G1 X-0.1709 Y-0.3029
N6295 X-0.489 Y0.072
N6300 X-0.501 Y0.0861
N6305 G3 X-0.545 Y0.0708 I-0.0191 J-0.0162
N6310 G1 Y-0.1681
N6315 G3 X-0.5308 Y-0.2476 I0.2462 J0.0031
N6320 X-0.4857 Y-0.3365 I0.3482 J0.1205
N6325 X-0.4379 Y-0.3613 I0.0479 J0.034
N6330 X-0.4163 Y-0.3254 I-0.0009 J0.025
N6335 G1 X-0.4289 Y-0.2994
N6340 X-0.4922 Y-0.169
N6345 X-0.4975 Y-0.1581
N6350 G3 X-0.545 Y-0.1681 I-0.0225 J-0.0109
N6355 G1 Y-0.3097
N6360 G3 X-0.5289 Y-0.3496 I0.0491 J-0.0034
N6365 G1 X-0.5196 Y-0.356
N6370 X-0.509 Y-0.3599
N6375 X-0.4979 Y-0.3613
N6380 G3 X-0.4795 Y-0.3204 I-0.0009 J0.025
N6385 G1 X-0.4892 Y-0.3086
N6390 X-0.5007 Y-0.2946
N6395 G3 X-0.545 Y-0.3097 I-0.0193 J-0.0159
N6400 G1 Y-0.3362
N6405 G3 X-0.5132 Y-0.3611 I0.0266 J0.0012
N6410 G1 X-0.3237 Y-0.3613
N6415 G3 X-0.2997 Y-0.3387 I-0.0009 J0.025
N6420 G1 X-0.2957 Y-0.2963
N6425 X-0.2185 Y0.5058
N6430 X-0.2149 Y0.5434
N6435 G3 X-0.2389 Y0.5707 I-0.0249 J0.0024
N6440 G1 X-0.3539
N6445 G3 X-0.4324 Y0.5484 I0.0058 J-0.1697
N6450 X-0.5088 Y0.4888 I0.1402 J-0.2584
N6455 G1 X-0.5292 Y0.4655
N6460 X-0.5336 Y0.4596
N6465 X-0.5398 Y0.4489
N6470 X-0.5437 Y0.4372
N6475 X-0.545 Y0.4249
N6480 G3 X-0.5053 Y0.4055 I0.025 J0.0009
N6485 G1 X-0.4855 Y0.4199
N6490 X-0.3535 Y0.5158
N6495 X-0.3401 Y0.5255
N6500 G3 X-0.3539 Y0.5707 I-0.0147 J0.0202
N6505 G1 X-0.4601
N6510 G3 X-0.5183 Y0.5564 I0. J-0.1258
N6515 X-0.545 Y0.5072 I0.0328 J-0.0497
N6520 G1 X-0.5446 Y0.5035
N6525 X-0.5436 Y0.4998
N6530 X-0.5421 Y0.4964
N6535 X-0.5401 Y0.4932
N6540 X-0.5377 Y0.4904
N6545 X-0.5348 Y0.4879
N6550 X-0.5317 Y0.4859
N6555 X-0.5282 Y0.4844
N6560 X-0.5246 Y0.4835
N6565 X-0.5208 Y0.4831
N6570 X-0.5171 Y0.4832
N6575 X-0.5134 Y0.4839
N6580 X-0.5099 Y0.4852
N6585 X-0.5066 Y0.487
N6590 X-0.4847 Y0.5009
N6595 X-0.4602 Y0.5166
N6600 X-0.4475 Y0.5247
N6605 G3 X-0.4601 Y0.5707 I-0.0134 J0.0211
N6610 G1 X-0.5131
N6615 G3 X-0.5338 Y0.5663 I-0.0043 J-0.03
N6620 X-0.5448 Y0.5485 I0.0146 J-0.0213
N6625 G1 X-0.545 Y0.5397
N6630 Y0.1984
N6635 G3 X-0.5058 Y0.1787 I0.025 J0.0009
N6640 G1 X-0.5037 Y0.1808 Z-0.2398
N6645 X-0.5016 Y0.1829 Z-0.2393
N6650 X-0.4995 Y0.1849 Z-0.2384
N6655 X-0.4982 Y0.1878 Z-0.2369
N6660 X-0.497 Y0.1905 Z-0.235
N6665 X-0.4958 Y0.1929 Z-0.2327
N6670 X-0.4956 Y0.195 Z-0.2302
N6675 X-0.4953 Y0.1968 Z-0.2275
N6680 X-0.4952 Y0.1982 Z-0.2246
N6685 X-0.495 Y0.1993 Z-0.2215
N6690 Y0.1995 Z-0.2208
N6695 Y0.2 Z-0.2179
N6700 Y0.2002 Z-0.215
N6705 G0 Z0.2
N6710 X0.0534 Y0.465
N6715 Z-0.148
N6720 G1 Z-0.173 F20.
N6725 X0.0535 Y0.4653 Z-0.1769
N6730 X0.0537 Y0.4661 Z-0.1807
N6735 X0.0541 Y0.4676 Z-0.1843
N6740 X0.0546 Y0.4696 Z-0.1877
N6745 X0.0552 Y0.4721 Z-0.1907
N6750 X0.056 Y0.4749 Z-0.1932
N6755 X0.0568 Y0.4782 Z-0.1953
N6760 X0.0577 Y0.4817 Z-0.1968
N6765 X0.0586 Y0.4854 Z-0.1977
N6770 X0.0596 Y0.4892 Z-0.198
N6775 G3 X0.0708 Y0.5669 I-0.3532 J0.0905
N6780 G1 Y0.5729
N6785 G3 X0.0322 Y0.6007 I-0.0378 J-0.0118
N6790 G1 X-0.5269
N6795 X-0.5329 Y0.6004
N6800 G3 X-0.575 Y0.5505 I0.0085 J-0.0499
N6805 X-0.5144 Y0.5075 I0.0467 J0.0016
N6810 X-0.5269 Y0.6007 I-0.0141 J0.0456
N6815 G1 X-0.5485
N6820 G3 X-0.575 Y0.5751 I-0.0007 J-0.0257
N6825 G1 Y-0.3411
N6830 G3 X-0.5244 Y-0.3912 I0.0504 J0.0002
N6835 G1 X-0.5192 Y-0.3908
N6840 X-0.5141 Y-0.3898
N6845 X-0.5091 Y-0.3882
N6850 X-0.5043 Y-0.3861
N6855 X-0.4998 Y-0.3835
N6860 X-0.4955 Y-0.3804
N6865 X-0.4917 Y-0.3769
N6870 X-0.4882 Y-0.373
N6875 X-0.4851 Y-0.3688
N6880 X-0.4826 Y-0.3642
N6885 X-0.4805 Y-0.3594
N6890 X-0.479 Y-0.3544
N6895 X-0.478 Y-0.3492
N6900 X-0.4776 Y-0.344
N6905 X-0.4777 Y-0.3388
N6910 G3 X-0.4792 Y-0.3302 I-0.0484 J-0.0039
N6915 X-0.575 Y-0.3411 I-0.0471 J-0.0126
N6920 G1 Y-0.3627
N6925 G3 X-0.5485 Y-0.3913 I0.026 J-0.0024
N6930 G1 X0.5269
N6935 X0.5329 Y-0.391
N6940 G3 X0.575 Y-0.3409 I-0.0086 J0.05
N6945 X0.5143 Y-0.2979 I-0.0468 J-0.0016
N6950 X0.5269 Y-0.3913 I0.0142 J-0.0456
N6955 G1 X0.5485
N6960 G3 X0.575 Y-0.3627 I0.0004 J0.0262
N6965 G1 Y0.5534
N6970 X0.5747 Y0.5594
N6975 G3 X0.5249 Y0.6007 I-0.0498 J-0.0094
N6980 X0.4827 Y0.5403 I0.0016 J-0.0461
N6985 X0.575 Y0.5534 I0.045 J0.0147
N6990 G1 Y0.5751
N6995 G3 X0.5485 Y0.6007 I-0.0257 J-0.0001
N7000 G1 X0.0322
N7005 G3 X0.0126 Y0.5615 I0.0009 J-0.025
N7010 G1 X0.0147 Y0.5594 Z-0.1978
N7015 X0.0168 Y0.5573 Z-0.1973
N7020 X0.0188 Y0.5553 Z-0.1964
N7025 X0.0217 Y0.5539 Z-0.1949
N7030 X0.0243 Y0.5527 Z-0.193
N7035 X0.0267 Y0.5516 Z-0.1907
N7040 X0.0289 Y0.5513 Z-0.1882
N7045 X0.0307 Y0.5511 Z-0.1855
N7050 X0.0321 Y0.5509 Z-0.1826
N7055 X0.0331 Y0.5507 Z-0.1795
N7060 X0.0333 Z-0.1788
N7065 X0.0338 Y0.5508 Z-0.1759
N7070 X0.034 Z-0.173
N7075 G0 Z0.2
N7080 X0.146 Y0.0129
N7085 Z-0.115
N7090 G1 Z-0.14 F20.
N7095 G3 X-0.0045 Y0.1966 Z-0.153 I-0.0753 J0.0919 F3.
N7100 X0.146 Y0.0129 Z-0.1661 I0.0753 J-0.0919
N7105 X-0.0045 Y0.1966 Z-0.1791 I-0.0753 J0.0919
N7110 X0.146 Y0.0129 Z-0.1921 I0.0753 J-0.0919
N7115 X-0.0045 Y0.1966 Z-0.2051 I-0.0753 J0.0919
N7120 X0.146 Y0.0129 Z-0.2182 I0.0753 J-0.0919
N7125 X-0.0045 Y0.1966 Z-0.2312 I-0.0753 J0.0919
N7130 X0.146 Y0.0129 Z-0.2442 I0.0753 J-0.0919
N7135 X-0.0045 Y0.1966 Z-0.2572 I-0.0753 J0.0919
N7140 X0.146 Y0.0129 Z-0.2703 I0.0753 J-0.0919
N7145 X-0.0045 Y0.1966 Z-0.2833 I-0.0753 J0.0919
N7150 X0.146 Y0.0129 Z-0.2963 I0.0753 J-0.0919
N7155 X0.1895 Y0.1047 Z-0.3 I-0.0753 J0.0919
N7160 X-0.048 I-0.1188 J0.
N7165 X0.1895 I0.1188 J0.
N7170 G1 X0.1897 Y0.1145 F20.
N7175 X0.1968 Y0.1528
N7180 G3 X0.187 Y0.22 I-0.0778 J0.0229
N7185 X0.1005 Y0.283 I-0.1152 J-0.0672
N7190 X-0.0753 Y0.2235 I-0.0413 J-0.1677
N7195 X0.0827 Y-0.0847 I0.145 J-0.1203
N7200 X0.2334 Y0.0064 I-0.0105 J0.1876
N7205 G1 X0.248 Y0.0327
N7210 X0.2605 Y0.0603
N7215 G3 X0.2784 Y0.1729 I-0.22 J0.0929
N7220 X0.1368 Y0.3502 I-0.21 J-0.0226
N7225 X-0.088 Y0.3178 I-0.0817 J-0.2286
N7230 X-0.1662 Y-0.0231 I0.1531 J-0.2145
N7235 X0.2606 Y-0.087 I0.2372 J0.1269
N7240 X0.3616 Y0.1234 I-0.23 J0.2399
N7245 X0.1676 Y0.4266 I-0.2975 J0.0233
N7250 X-0.0862 Y0.4158 I-0.1144 J-0.3016
N7255 X-0.2816 Y0.1333 I0.1468 J-0.3103
N7260 X0.1929 Y-0.2283 I0.3521 J-0.0301
N7265 X0.2961 Y-0.17 I-0.1231 J0.3389
N7270 X0.4476 Y0.1083 I-0.2541 J0.3187
N7275 X0.2328 Y0.4927 I-0.3853 J0.0369
N7280 X-0.0221 Y0.5278 I-0.1798 J-0.3632
N7285 X-0.2564 Y0.3981 I0.0769 J-0.4156
N7290 X-0.3709 Y0.0773 I0.3198 J-0.2949
N7295 X-0.0291 Y-0.3274 I0.4409 J0.0257
N7300 X0.251 Y-0.3007 I0.1002 J0.4319
N7305 G1 X0.2842 Y-0.2845
N7310 X0.3165 Y-0.2654
N7315 G3 X0.4309 Y-0.1615 I-0.2644 J0.4063
N7320 X0.5294 Y0.0483 I-0.3855 J0.3089
N7325 X0.5356 Y0.2024 I-0.4727 J0.0963
N7330 X0.379 Y0.5014 I-0.4731 J-0.0573
N7335 G1 X0.349 Y0.526
N7340 X0.3171 Y0.5482
N7345 X0.2918 Y0.5628
N7350 X0.2826 Y0.5672
N7355 X0.2727 Y0.5698
N7360 X0.2625 Y0.5707
N7365 X-0.0796
N7370 G3 X-0.1952 Y0.5458 I0. J-0.2804
N7375 G1 X-0.2198 Y0.5339
N7380 X-0.2462 Y0.5184
N7385 X-0.2734 Y0.4993
N7390 X-0.3006 Y0.4767
N7395 X-0.3268 Y0.4512
N7400 X-0.3513 Y0.423
N7405 X-0.3743 Y0.392
N7410 G3 X-0.4405 Y0.2514 I0.4186 J-0.283
N7415 X-0.3472 Y-0.2274 I0.5067 J-0.1497
N7420 X-0.2062 Y-0.352 I0.4159 J0.3286
N7425 G1 X-0.1963 Y-0.3571
N7430 X-0.1856 Y-0.3602
N7435 X-0.1745 Y-0.3613
N7440 X0.2389
N7445 G3 X0.3448 Y-0.3376 I-0.0026 J0.2604
N7450 G1 X0.3699 Y-0.3255
N7455 X0.3964 Y-0.3099
N7460 X0.4248 Y-0.29
N7465 X0.4537 Y-0.266
N7470 X0.4815 Y-0.2388
N7475 X0.5072 Y-0.2094
N7480 X0.5305 Y-0.1782
N7485 G3 X0.545 Y-0.1384 I-0.0525 J0.0417
N7490 G1 Y0.345
N7495 G3 X0.5233 Y0.4446 I-0.2413 J-0.0004
N7500 G1 X0.5123 Y0.4675
N7505 G3 X0.4493 Y0.5532 I-0.339 J-0.183
N7510 X0.4075 Y0.5707 I-0.042 J-0.0414
N7515 X0.3865 Y0.5336 I0.0009 J-0.025
N7520 G1 X0.3999 Y0.5096
N7525 X0.4916 Y0.3456
N7530 X0.4982 Y0.3337
N7535 G3 X0.545 Y0.345 I0.0218 J0.0122
N7540 G1 Y0.4866
N7545 G3 X0.5342 Y0.5407 I-0.1278 J0.0025
N7550 X0.4829 Y0.5708 I-0.0515 J-0.0291
N7555 G1 X0.4792 Y0.5703
N7560 X0.4756 Y0.5694
N7565 X0.4722 Y0.5679
N7570 X0.469 Y0.5659
N7575 X0.4662 Y0.5635
N7580 X0.4637 Y0.5607
N7585 X0.4617 Y0.5575
N7590 X0.4602 Y0.5541
N7595 X0.4593 Y0.5505
N7600 X0.4588 Y0.5468
N7605 X0.4589 Y0.5431
N7610 X0.4596 Y0.5394
N7615 X0.4608 Y0.5359
N7620 X0.4626 Y0.5326
N7625 X0.4764 Y0.5103
N7630 X0.491 Y0.4868
N7635 X0.4988 Y0.4743
N7640 G3 X0.545 Y0.4866 I0.0212 J0.0132
N7645 G1 Y0.5397
N7650 G3 X0.5397 Y0.5607 I-0.0285 J0.004
N7655 X0.522 Y0.5706 I-0.0209 J-0.0165
N7660 G1 X0.5131 Y0.5707
N7665 X0.2625
N7670 G3 X0.2384 Y0.5464 I0.0009 J-0.025
N7675 G1 X0.2373 Y0.5056
N7680 X0.2158 Y-0.2962
N7685 X0.2148 Y-0.3356
N7690 G3 X0.2389 Y-0.3613 I0.025 J-0.0007
N7695 G1 X0.3893
N7700 G3 X0.4613 Y-0.3442 I-0.0063 J0.1872
N7705 X0.5287 Y-0.3023 I-0.1042 J0.2428
N7710 X0.545 Y-0.2617 I-0.0429 J0.0408
N7715 X0.5077 Y-0.2409 I-0.025 J-0.0009
N7720 G1 X0.484 Y-0.2543
N7725 X0.3898 Y-0.3077
N7730 X0.3778 Y-0.3145
N7735 G3 X0.3893 Y-0.3613 I0.0123 J-0.0217
N7740 G1 X0.5043
N7745 G3 X0.545 Y-0.3212 I0.0007 J0.04
N7750 X0.5336 Y-0.2947 I-0.0398 J-0.0014
N7755 X0.4778 Y-0.3496 I-0.0279 J-0.0275
N7760 X0.5043 Y-0.3613 I0.0279 J0.0275
N7765 X0.5287 Y-0.3597 I0.0074 J0.0785
N7770 X0.545 Y-0.3362 I-0.0107 J0.0249
N7775 G1 Y-0.1384
N7780 G3 X0.5388 Y-0.1228 I-0.025 J-0.0009
N7785 G1 X0.4983 Y-0.0766
N7790 X-0.0234 Y0.5185
N7795 X-0.0617 Y0.5622
N7800 G3 X-0.0796 Y0.5707 I-0.0188 J-0.0165
N7805 G1 X-0.2389
N7810 G3 X-0.3283 Y0.5445 I0.0097 J-0.1983
N7815 G1 X-0.3477 Y0.5332
N7820 X-0.3698 Y0.5177
N7825 X-0.3915 Y0.4997
N7830 X-0.4142 Y0.4776
N7835 X-0.4374 Y0.4509
N7840 X-0.4603 Y0.42
N7845 G3 X-0.527 Y0.2796 I0.435 J-0.2927
N7850 X-0.545 Y0.2023 I0.4856 J-0.1541
N7855 G1 Y0.1984
N7860 Y0.0708
N7865 X-0.5431 Y0.0318
N7870 G3 X-0.5044 Y-0.1385 I0.531 J0.0309
N7875 X-0.3644 Y-0.3449 I0.561 J0.23
N7880 X-0.3237 Y-0.3613 I0.0408 J0.0425
N7885 G1 X-0.1745
N7890 G3 X-0.1564 Y-0.3201 I-0.0009 J0.025
N7895 G1 X-0.1709 Y-0.3029
N7900 X-0.489 Y0.072
N7905 X-0.501 Y0.0861
N7910 G3 X-0.545 Y0.0708 I-0.0191 J-0.0162
N7915 G1 Y-0.1681
N7920 G3 X-0.5308 Y-0.2476 I0.2462 J0.0031
N7925 X-0.4857 Y-0.3365 I0.3482 J0.1205
N7930 X-0.4379 Y-0.3613 I0.0479 J0.034
N7935 X-0.4163 Y-0.3254 I-0.0009 J0.025
N7940 G1 X-0.4289 Y-0.2994
N7945 X-0.4922 Y-0.169
N7950 X-0.4975 Y-0.1581
N7955 G3 X-0.545 Y-0.1681 I-0.0225 J-0.0109
N7960 G1 Y-0.3097
N7965 G3 X-0.5289 Y-0.3496 I0.0491 J-0.0034
N7970 G1 X-0.5196 Y-0.356
N7975 X-0.509 Y-0.3599
N7980 X-0.4979 Y-0.3613
N7985 G3 X-0.4795 Y-0.3204 I-0.0009 J0.025
N7990 G1 X-0.4892 Y-0.3086
N7995 X-0.5007 Y-0.2946
N8000 G3 X-0.545 Y-0.3097 I-0.0193 J-0.0159
N8005 G1 Y-0.3362
N8010 G3 X-0.5132 Y-0.3611 I0.0266 J0.0012
N8015 G1 X-0.3237 Y-0.3613
N8020 G3 X-0.2997 Y-0.3387 I-0.0009 J0.025
N8025 G1 X-0.2957 Y-0.2963
N8030 X-0.2185 Y0.5058
N8035 X-0.2149 Y0.5434
N8040 G3 X-0.2389 Y0.5707 I-0.0249 J0.0024
N8045 G1 X-0.3539
N8050 G3 X-0.4324 Y0.5484 I0.0058 J-0.1697
N8055 X-0.5088 Y0.4888 I0.1402 J-0.2584
N8060 G1 X-0.5292 Y0.4655
N8065 X-0.5336 Y0.4596
N8070 X-0.5398 Y0.4489
N8075 X-0.5437 Y0.4372
N8080 X-0.545 Y0.4249
N8085 G3 X-0.5053 Y0.4055 I0.025 J0.0009
N8090 G1 X-0.4855 Y0.4199
N8095 X-0.3535 Y0.5158
N8100 X-0.3401 Y0.5255
N8105 G3 X-0.3539 Y0.5707 I-0.0147 J0.0202
N8110 G1 X-0.4601
N8115 G3 X-0.5183 Y0.5564 I0. J-0.1258
N8120 X-0.545 Y0.5072 I0.0328 J-0.0497
N8125 G1 X-0.5446 Y0.5035
N8130 X-0.5436 Y0.4998
N8135 X-0.5421 Y0.4964
N8140 X-0.5401 Y0.4932
N8145 X-0.5377 Y0.4904
N8150 X-0.5348 Y0.4879
N8155 X-0.5317 Y0.4859
N8160 X-0.5282 Y0.4844
N8165 X-0.5246 Y0.4835
N8170 X-0.5208 Y0.4831
N8175 X-0.5171 Y0.4832
N8180 X-0.5134 Y0.4839
N8185 X-0.5099 Y0.4852
N8190 X-0.5066 Y0.487
N8195 X-0.4847 Y0.5009
N8200 X-0.4602 Y0.5166
N8205 X-0.4475 Y0.5247
N8210 G3 X-0.4601 Y0.5707 I-0.0134 J0.0211
N8215 G1 X-0.5131
N8220 G3 X-0.5338 Y0.5663 I-0.0043 J-0.03
N8225 X-0.5448 Y0.5485 I0.0146 J-0.0213
N8230 G1 X-0.545 Y0.5397
N8235 Y0.1984
N8240 G3 X-0.5058 Y0.1787 I0.025 J0.0009
N8245 G1 X-0.5037 Y0.1808 Z-0.2998
N8250 X-0.5016 Y0.1829 Z-0.2993
N8255 X-0.4995 Y0.1849 Z-0.2984
N8260 X-0.4982 Y0.1878 Z-0.2969
N8265 X-0.497 Y0.1905 Z-0.295
N8270 X-0.4958 Y0.1929 Z-0.2927
N8275 X-0.4956 Y0.195 Z-0.2902
N8280 X-0.4953 Y0.1968 Z-0.2875
N8285 X-0.4952 Y0.1982 Z-0.2846
N8290 X-0.495 Y0.1993 Z-0.2815
N8295 Y0.1995 Z-0.2808
N8300 Y0.2 Z-0.2779
N8305 Y0.2002 Z-0.275
N8310 G0 Z0.2
N8315 X0.0933 Y-0.0119
N8320 Z-0.175
N8325 G1 Z-0.2 F20.
N8330 G3 X0.0483 Y0.2213 Z-0.213 I-0.0225 J0.1166 F3.
N8335 X0.0933 Y-0.0119 Z-0.2261 I0.0225 J-0.1166
N8340 X0.0483 Y0.2213 Z-0.2391 I-0.0225 J0.1166
N8345 X0.0933 Y-0.0119 Z-0.2521 I0.0225 J-0.1166
N8350 X0.0483 Y0.2213 Z-0.2651 I-0.0225 J0.1166
N8355 X0.0933 Y-0.0119 Z-0.2782 I0.0225 J-0.1166
N8360 X0.0483 Y0.2213 Z-0.2912 I-0.0225 J0.1166
N8365 X0.0933 Y-0.0119 Z-0.3042 I0.0225 J-0.1166
N8370 X0.0483 Y0.2213 Z-0.3172 I-0.0225 J0.1166
N8375 X0.0933 Y-0.0119 Z-0.3303 I0.0225 J-0.1166
N8380 X0.1895 Y0.1047 Z-0.336 I-0.0225 J0.1166
N8385 X-0.048 I-0.1188 J0.
N8390 X0.1895 I0.1188 J0.
N8395 G1 X0.1897 Y0.1145 F20.
N8400 X0.1968 Y0.1528
N8405 G3 X0.187 Y0.22 I-0.0778 J0.0229
N8410 X0.1005 Y0.283 I-0.1152 J-0.0672
N8415 X-0.0753 Y0.2235 I-0.0413 J-0.1677
N8420 X0.0827 Y-0.0847 I0.145 J-0.1203
N8425 X0.2334 Y0.0064 I-0.0105 J0.1876
N8430 G1 X0.248 Y0.0327
N8435 X0.2605 Y0.0603
N8440 G3 X0.2784 Y0.1729 I-0.22 J0.0929
N8445 X0.1368 Y0.3502 I-0.21 J-0.0226
N8450 X-0.088 Y0.3178 I-0.0817 J-0.2286
N8455 X-0.1662 Y-0.0231 I0.1531 J-0.2145
N8460 X0.2606 Y-0.087 I0.2372 J0.1269
N8465 X0.3616 Y0.1234 I-0.23 J0.2399
N8470 X0.1676 Y0.4266 I-0.2975 J0.0233
N8475 X-0.0862 Y0.4158 I-0.1144 J-0.3016
N8480 X-0.2816 Y0.1333 I0.1468 J-0.3103
N8485 X0.1929 Y-0.2283 I0.3521 J-0.0301
N8490 X0.2961 Y-0.17 I-0.1231 J0.3389
N8495 X0.4476 Y0.1083 I-0.2541 J0.3187
N8500 X0.2328 Y0.4927 I-0.3853 J0.0369
N8505 X-0.0221 Y0.5278 I-0.1798 J-0.3632
N8510 X-0.2564 Y0.3981 I0.0769 J-0.4156
N8515 X-0.3709 Y0.0773 I0.3198 J-0.2949
N8520 X-0.0291 Y-0.3274 I0.4409 J0.0257
N8525 X0.251 Y-0.3007 I0.1002 J0.4319
N8530 G1 X0.2842 Y-0.2845
N8535 X0.3165 Y-0.2654
N8540 G3 X0.4309 Y-0.1615 I-0.2644 J0.4063
N8545 X0.5294 Y0.0483 I-0.3855 J0.3089
N8550 X0.5356 Y0.2024 I-0.4727 J0.0963
N8555 X0.379 Y0.5014 I-0.4731 J-0.0573
N8560 G1 X0.349 Y0.526
N8565 X0.3171 Y0.5482
N8570 X0.2918 Y0.5628
N8575 X0.2826 Y0.5672
N8580 X0.2727 Y0.5698
N8585 X0.2625 Y0.5707
N8590 X-0.0796
N8595 G3 X-0.1952 Y0.5458 I0. J-0.2804
N8600 G1 X-0.2198 Y0.5339
N8605 X-0.2462 Y0.5184
N8610 X-0.2734 Y0.4993
N8615 X-0.3006 Y0.4767
N8620 X-0.3268 Y0.4512
N8625 X-0.3513 Y0.423
N8630 X-0.3743 Y0.392
N8635 G3 X-0.4405 Y0.2514 I0.4186 J-0.283
N8640 X-0.3472 Y-0.2274 I0.5067 J-0.1497
N8645 X-0.2062 Y-0.352 I0.4159 J0.3286
N8650 G1 X-0.1963 Y-0.3571
N8655 X-0.1856 Y-0.3602
N8660 X-0.1745 Y-0.3613
N8665 X0.2389
N8670 G3 X0.3448 Y-0.3376 I-0.0026 J0.2604
N8675 G1 X0.3699 Y-0.3255
N8680 X0.3964 Y-0.3099
N8685 X0.4248 Y-0.29
N8690 X0.4537 Y-0.266
N8695 X0.4815 Y-0.2388
N8700 X0.5072 Y-0.2094
N8705 X0.5305 Y-0.1782
N8710 G3 X0.545 Y-0.1384 I-0.0525 J0.0417
N8715 G1 Y0.345
N8720 G3 X0.5233 Y0.4446 I-0.2413 J-0.0004
N8725 G1 X0.5123 Y0.4675
N8730 G3 X0.4493 Y0.5532 I-0.339 J-0.183
N8735 X0.4075 Y0.5707 I-0.042 J-0.0414
N8740 X0.3865 Y0.5336 I0.0009 J-0.025
N8745 G1 X0.3999 Y0.5096
N8750 X0.4916 Y0.3456
N8755 X0.4982 Y0.3337
N8760 G3 X0.545 Y0.345 I0.0218 J0.0122
N8765 G1 Y0.4866
N8770 G3 X0.5342 Y0.5407 I-0.1278 J0.0025
N8775 X0.4829 Y0.5708 I-0.0515 J-0.0291
N8780 G1 X0.4792 Y0.5703
N8785 X0.4756 Y0.5694
N8790 X0.4722 Y0.5679
N8795 X0.469 Y0.5659
N8800 X0.4662 Y0.5635
N8805 X0.4637 Y0.5607
N8810 X0.4617 Y0.5575
N8815 X0.4602 Y0.5541
N8820 X0.4593 Y0.5505
N8825 X0.4588 Y0.5468
N8830 X0.4589 Y0.5431
N8835 X0.4596 Y0.5394
N8840 X0.4608 Y0.5359
N8845 X0.4626 Y0.5326
N8850 X0.4764 Y0.5103
N8855 X0.491 Y0.4868
N8860 X0.4988 Y0.4743
N8865 G3 X0.545 Y0.4866 I0.0212 J0.0132
N8870 G1 Y0.5397
N8875 G3 X0.5397 Y0.5607 I-0.0285 J0.004
N8880 X0.522 Y0.5706 I-0.0209 J-0.0165
N8885 G1 X0.5131 Y0.5707
N8890 X0.2625
N8895 G3 X0.2384 Y0.5464 I0.0009 J-0.025
N8900 G1 X0.2373 Y0.5056
N8905 X0.2158 Y-0.2962
N8910 X0.2148 Y-0.3356
N8915 G3 X0.2389 Y-0.3613 I0.025 J-0.0007
N8920 G1 X0.3893
N8925 G3 X0.4613 Y-0.3442 I-0.0063 J0.1872
N8930 X0.5287 Y-0.3023 I-0.1042 J0.2428
N8935 X0.545 Y-0.2617 I-0.0429 J0.0408
N8940 X0.5077 Y-0.2409 I-0.025 J-0.0009
N8945 G1 X0.484 Y-0.2543
N8950 X0.3898 Y-0.3077
N8955 X0.3778 Y-0.3145
N8960 G3 X0.3893 Y-0.3613 I0.0123 J-0.0217
N8965 G1 X0.5043
N8970 G3 X0.545 Y-0.3212 I0.0007 J0.04
N8975 X0.5336 Y-0.2947 I-0.0398 J-0.0014
N8980 X0.4778 Y-0.3496 I-0.0279 J-0.0275
N8985 X0.5043 Y-0.3613 I0.0279 J0.0275
N8990 X0.5287 Y-0.3597 I0.0074 J0.0785
N8995 X0.545 Y-0.3362 I-0.0107 J0.0249
N9000 G1 Y-0.1384
N9005 G3 X0.5388 Y-0.1228 I-0.025 J-0.0009
N9010 G1 X0.4983 Y-0.0766
N9015 X-0.0234 Y0.5185
N9020 X-0.0617 Y0.5622
N9025 G3 X-0.0796 Y0.5707 I-0.0188 J-0.0165
N9030 G1 X-0.2389
N9035 G3 X-0.3283 Y0.5445 I0.0097 J-0.1983
N9040 G1 X-0.3477 Y0.5332
N9045 X-0.3698 Y0.5177
N9050 X-0.3915 Y0.4997
N9055 X-0.4142 Y0.4776
N9060 X-0.4374 Y0.4509
N9065 X-0.4603 Y0.42
N9070 G3 X-0.527 Y0.2796 I0.435 J-0.2927
N9075 X-0.545 Y0.2023 I0.4856 J-0.1541
N9080 G1 Y0.1984
N9085 Y0.0708
N9090 X-0.5431 Y0.0318
N9095 G3 X-0.5044 Y-0.1385 I0.531 J0.0309
N9100 X-0.3644 Y-0.3449 I0.561 J0.23
N9105 X-0.3237 Y-0.3613 I0.0408 J0.0425
N9110 G1 X-0.1745
N9115 G3 X-0.1564 Y-0.3201 I-0.0009 J0.025
N9120 G1 X-0.1709 Y-0.3029
N9125 X-0.489 Y0.072
N9130 X-0.501 Y0.0861
N9135 G3 X-0.545 Y0.0708 I-0.0191 J-0.0162
N9140 G1 Y-0.1681
N9145 G3 X-0.5308 Y-0.2476 I0.2462 J0.0031
N9150 X-0.4857 Y-0.3365 I0.3482 J0.1205
N9155 X-0.4379 Y-0.3613 I0.0479 J0.034
N9160 X-0.4163 Y-0.3254 I-0.0009 J0.025
N9165 G1 X-0.4289 Y-0.2994
N9170 X-0.4922 Y-0.169
N9175 X-0.4975 Y-0.1581
N9180 G3 X-0.545 Y-0.1681 I-0.0225 J-0.0109
N9185 G1 Y-0.3097
N9190 G3 X-0.5289 Y-0.3496 I0.0491 J-0.0034
N9195 G1 X-0.5196 Y-0.356
N9200 X-0.509 Y-0.3599
N9205 X-0.4979 Y-0.3613
N9210 G3 X-0.4795 Y-0.3204 I-0.0009 J0.025
N9215 G1 X-0.4892 Y-0.3086
N9220 X-0.5007 Y-0.2946
N9225 G3 X-0.545 Y-0.3097 I-0.0193 J-0.0159
N9230 G1 Y-0.3362
N9235 G3 X-0.5132 Y-0.3611 I0.0266 J0.0012
N9240 G1 X-0.3237 Y-0.3613
N9245 G3 X-0.2997 Y-0.3387 I-0.0009 J0.025
N9250 G1 X-0.2957 Y-0.2963
N9255 X-0.2185 Y0.5058
N9260 X-0.2149 Y0.5434
N9265 G3 X-0.2389 Y0.5707 I-0.0249 J0.0024
N9270 G1 X-0.3539
N9275 G3 X-0.4324 Y0.5484 I0.0058 J-0.1697
N9280 X-0.5088 Y0.4888 I0.1402 J-0.2584
N9285 G1 X-0.5292 Y0.4655
N9290 X-0.5336 Y0.4596
N9295 X-0.5398 Y0.4489
N9300 X-0.5437 Y0.4372
N9305 X-0.545 Y0.4249
N9310 G3 X-0.5053 Y0.4055 I0.025 J0.0009
N9315 G1 X-0.4855 Y0.4199
N9320 X-0.3535 Y0.5158
N9325 X-0.3401 Y0.5255
N9330 G3 X-0.3539 Y0.5707 I-0.0147 J0.0202
N9335 G1 X-0.4601
N9340 G3 X-0.5183 Y0.5564 I0. J-0.1258
N9345 X-0.545 Y0.5072 I0.0328 J-0.0497
N9350 G1 X-0.5446 Y0.5035
N9355 X-0.5436 Y0.4998
N9360 X-0.5421 Y0.4964
N9365 X-0.5401 Y0.4932
N9370 X-0.5377 Y0.4904
N9375 X-0.5348 Y0.4879
N9380 X-0.5317 Y0.4859
N9385 X-0.5282 Y0.4844
N9390 X-0.5246 Y0.4835
N9395 X-0.5208 Y0.4831
N9400 X-0.5171 Y0.4832
N9405 X-0.5134 Y0.4839
N9410 X-0.5099 Y0.4852
N9415 X-0.5066 Y0.487
N9420 X-0.4847 Y0.5009
N9425 X-0.4602 Y0.5166
N9430 X-0.4475 Y0.5247
N9435 G3 X-0.4601 Y0.5707 I-0.0134 J0.0211
N9440 G1 X-0.5131
N9445 G3 X-0.5338 Y0.5663 I-0.0043 J-0.03
N9450 X-0.5448 Y0.5485 I0.0146 J-0.0213
N9455 G1 X-0.545 Y0.5397
N9460 Y0.1984
N9465 G3 X-0.495 Y0.1995 I0.025 J0.0009
N9470 G1 Y0.2002
N9475 X-0.4952 Y0.2041 Z-0.3357
N9480 X-0.4953 Y0.2079 Z-0.3348
N9485 X-0.4954 Y0.2115 Z-0.3333
N9490 X-0.4955 Y0.2148 Z-0.3312
N9495 X-0.4956 Y0.2178 Z-0.3287
N9500 X-0.4957 Y0.2204 Z-0.3257
N9505 X-0.4958 Y0.2224 Z-0.3223
N9510 X-0.4959 Y0.2239 Z-0.3187
N9515 Y0.2248 Z-0.3149
N9520 Y0.2251 Z-0.311
N9525 G0 Z0.6
N9535 M9
N9540 G53 Z0.
N9545 M30
%
