%
(E_POCKET_WATCH_LOWER_BACK)
(E_POCKET_WATCH_LOWER_BACK 2MM END MILL 1 MINUTES)
(T1  D=0.0787 CR=0. - ZMIN=-0.45 - FLAT END MILL)
N10 G90 G94 G17 G91.1
N15 G20
N20 G53 G0 Z0.
(2D CONTOUR2)
N25 M9
N30 T1 M6
N35 S12000 M3
N40 G54
N45 M8
N55 G0 X-0.0079 Y-1.3479
N60 G43 Z0.6 H1
N65 G0 Z0.2
N70 G1 Z0.0394 F5.
N75 Z-0.4421 F1.
N80 G19 G2 Y-1.3558 Z-0.45 J-0.0079 K0.
N85 G1 Y-1.3636 F5.
N90 G17 G3 X0. Y-1.3715 I0.0079 J0.
N95 X0.1561 Y-1.3632 I0. J1.4762
N100 X0.1566 Y-1.3629 I-0.0001 J0.0006
N105 G1 X0.1945 Y-1.2972
N110 G3 X0.1939 Y-1.2963 I-0.0005 J0.0003
N115 G2 X-0.1939 I-0.1939 J1.401
N120 G3 X-0.1945 Y-1.2972 I-0.0001 J-0.0006
N125 G1 X-0.1566 Y-1.3629
N130 G3 X-0.1561 Y-1.3632 I0.0005 J0.0003
N135 X0. Y-1.3715 I0.1561 J1.468
N140 X0.0079 Y-1.3636 I0. J0.0079
N145 G1 Y-1.3558
N150 G19 G3 Y-1.3479 Z-0.4421 J0. K0.0079
N155 G0 Z0.6
N160 G17
N165 M9
N170 G53 G0 Z0.
N175 M30
%
