%
(E_POCKET_WATCH_LOWER_BACK)
(E_POCKET_WATCH_LOWER_BACK 14 END MILL 20 MINUTES)
(T2  D=0.25 CR=0. - ZMIN=-0.45 - FLAT END MILL)
N10 G90 G94 G17 G91.1
N15 G20
N20 G53 G0 Z0.
(RAMP2)
N25 M9
N30 T2 M6
N35 S12000 M3
N40 G54
N45 M8
N55 G0 X-1.5228 Y-0.0629
N60 G43 Z0.6 H2
N65 G0 Z0.035
N70 G18 G2 X-1.4978 Z0.01 I0.025 K0. F20.
N75 G17 G3 X-1.4728 Y-0.0379 I0. J0.025
N80 G1 X-1.4737 Y-0.028 Z0.0099
N85 X-1.4744 Y-0.02 Z0.0098
N90 X-1.4757 Y-0.004 Z0.0097
N95 X-1.4764 Y0.004 Z0.0096
N100 X-1.4768 Y0.012 Z0.0095
N105 X-1.4772 Y0.02 Z0.0094
N110 X-1.4776 Y0.0279
N115 X-1.4788 Y0.0519 Z0.0091
N120 X-1.4791 Y0.0599
N125 X-1.4793 Y0.0759 Z0.0089
N130 X-1.4797 Y0.0998 Z0.0087
N135 X-1.4798 Y0.1078 Z0.0086
N140 X-1.4794 Y0.1318 Z0.0084
N145 X-1.4792 Y0.1398 Z0.0083
N150 X-1.4791 Y0.1477 Z0.0082
N155 X-1.4789 Y0.1557 Z0.0081
N160 X-1.4785 Y0.1637 Z0.008
N165 X-1.4777 Y0.1797 Z0.0079
N170 X-1.4773 Y0.1877 Z0.0078
N175 X-1.4765 Y0.2037 Z0.0077
N180 X-1.4759 Y0.2116 Z0.0076
N185 X-1.4738 Y0.2356 Z0.0073
N190 X-1.4724 Y0.2516 Z0.0072
N195 X-1.4716 Y0.2596 Z0.0071
N200 X-1.4688 Y0.2835 Z0.0069
N205 X-1.4678 Y0.2915 Z0.0068
N210 X-1.4668 Y0.2995 Z0.0067
N215 X-1.4658 Y0.3075 Z0.0066
N220 X-1.4648 Y0.3141
N225 X-1.4622 Y0.3314 Z0.0064
N230 X-1.4609 Y0.3394 Z0.0063
N235 X-1.4584 Y0.3554 Z0.0062
N240 X-1.4569 Y0.3634 Z0.0061
N245 X-1.4539 Y0.3794 Z0.0059
N250 X-1.4524 Y0.3874
N255 X-1.4493 Y0.4033 Z0.0057
N260 X-1.4489 Y0.4057
N265 X-1.4476 Y0.4113 Z0.0056
N270 X-1.4423 Y0.4353 Z0.0054
N275 X-1.4409 Y0.4413 Z0.0053
N280 X-1.4386 Y0.4513 Z0.0052
N285 X-1.4367 Y0.4592
N290 X-1.4304 Y0.4832 Z0.0049
N295 X-1.4283 Y0.4912 Z0.0048
N300 X-1.4249 Y0.504 Z0.0047
N305 X-1.424 Y0.5072
N310 X-1.4169 Y0.5311 Z0.0044
N315 X-1.4145 Y0.5391 Z0.0043
N320 X-1.4121 Y0.5471
N325 X-1.4096 Y0.5551 Z0.0042
N330 X-1.4089 Y0.557
N335 X-1.401 Y0.5809 Z0.0039
N340 X-1.3989 Y0.587
N345 X-1.3961 Y0.595 Z0.0038
N350 X-1.3934 Y0.603 Z0.0037
N355 X-1.393 Y0.6041
N360 X-1.3844 Y0.627 Z0.0035
N365 X-1.3814 Y0.635 Z0.0034
N370 X-1.377 Y0.6465 Z0.0032
N375 X-1.3753 Y0.6509
N380 X-1.3654 Y0.6749 Z0.003
N385 X-1.3621 Y0.6829 Z0.0029
N390 X-1.3587 Y0.6909 Z0.0028
N395 X-1.3553 Y0.6988 Z0.0027
N400 X-1.3444 Y0.7228 Z0.0024
N405 X-1.3407 Y0.7308
N410 X-1.337 Y0.7388 Z0.0023
N415 X-1.3332 Y0.7468 Z0.0022
N420 X-1.3253 Y0.7627 Z0.002
N425 X-1.3214 Y0.7707 Z0.0019
N430 X-1.3133 Y0.7867 Z0.0018
N435 X-1.3132 Y0.7869
N440 X-1.309 Y0.7947 Z0.0017
N445 X-1.3004 Y0.8107 Z0.0015
N450 X-1.2972 Y0.8166 Z0.0014
N455 X-1.2892 Y0.8311 Z0.0013
N460 X-1.2872 Y0.8346 Z0.0012
N465 X-1.2779 Y0.8506 Z0.001
N470 X-1.2733 Y0.8586
N475 X-1.2638 Y0.8746 Z0.0008
N480 X-1.2588 Y0.8825 Z0.0007
N485 X-1.2488 Y0.8985 Z0.0005
N490 X-1.2437 Y0.9065 Z0.0004
N495 X-1.2385 Y0.9145 Z0.0003
N500 X-1.2333 Y0.9224 Z0.0002
N505 X-1.2225 Y0.9385 Z0.
N510 X-1.2174 Y0.9459
N515 X-1.2094 Y0.9574 Z-0.0002
N520 X-1.2058 Y0.9624
N525 X-1.1934 Y0.9795 Z-0.0004
N530 X-1.1884 Y0.9864 Z-0.0005
N535 X-1.1824 Y0.9944 Z-0.0006
N540 X-1.1775 Y1.001 Z-0.0007
N545 X-1.1764 Y1.0024
N550 X-1.1615 Y1.0215 Z-0.001
N555 X-1.1577 Y1.0263
N560 X-1.1513 Y1.0343 Z-0.0011
N565 X-1.1455 Y1.0415 Z-0.0012
N570 X-1.1448 Y1.0423
N575 X-1.1296 Y1.0606 Z-0.0014
N580 X-1.1248 Y1.0662 Z-0.0015
N585 X-1.1136 Y1.0792 Z-0.0017
N590 X-1.1109 Y1.0822
N595 X-1.0966 Y1.0982 Z-0.0019
N600 X-1.0896 Y1.1059 Z-0.002
N605 X-1.0817 Y1.1145 Z-0.0021
N610 X-1.0744 Y1.1222 Z-0.0022
N615 X-1.0591 Y1.1381 Z-0.0025
N620 X-1.0577 Y1.1396
N625 X-1.0497 Y1.1476 Z-0.0026
N630 X-1.0433 Y1.1541 Z-0.0027
N635 X-1.0418 Y1.1556
N640 X-1.0258 Y1.1712 Z-0.0029
N645 X-1.0186 Y1.1781 Z-0.003
N650 X-1.0098 Y1.1863 Z-0.0031
N655 X-1.0018 Y1.1937 Z-0.0032
N660 X-0.9859 Y1.2082 Z-0.0034
N665 X-0.9839 Y1.21 Z-0.0035
N670 X-0.9699 Y1.2223 Z-0.0036
N675 X-0.9656 Y1.226 Z-0.0037
N680 X-0.9539 Y1.2359 Z-0.0038
N685 X-0.9468 Y1.242 Z-0.0039
N690 X-0.946 Y1.2426
N695 X-0.937 Y1.2499 Z-0.0041
N700 X-0.93 Y1.2557
N705 X-0.9272 Y1.2579 Z-0.0042
N710 X-0.914 Y1.2684 Z-0.0043
N715 X-0.9071 Y1.2739 Z-0.0044
N720 X-0.9061 Y1.2747
N725 X-0.8966 Y1.2819 Z-0.0046
N730 X-0.8901 Y1.2868
N735 X-0.886 Y1.2899 Z-0.0047
N740 X-0.8741 Y1.2986 Z-0.0048
N745 X-0.8661 Y1.3045 Z-0.0049
N750 X-0.8643 Y1.3059
N755 X-0.8502 Y1.3158 Z-0.0051
N760 X-0.8422 Y1.3214 Z-0.0052
N765 X-0.8262 Y1.3323 Z-0.0054
N770 X-0.8182 Y1.3376 Z-0.0055
N775 X-0.8103 Y1.3429 Z-0.0056
N780 X-0.8058 Y1.3458
N785 X-0.7863 Y1.3583 Z-0.0059
N790 X-0.7808 Y1.3618
N795 X-0.7676 Y1.3697 Z-0.0061
N800 X-0.7624 Y1.3729
N805 X-0.7408 Y1.3857 Z-0.0064
N810 X-0.7384 Y1.3871
N815 X-0.7304 Y1.3916 Z-0.0065
N820 X-0.7225 Y1.3961 Z-0.0066
N825 X-0.7145 Y1.4005 Z-0.0067
N830 X-0.6977 Y1.4097 Z-0.0069
N835 X-0.6905 Y1.4135
N840 X-0.6824 Y1.4177 Z-0.007
N845 X-0.6746 Y1.4217 Z-0.0071
N850 X-0.6506 Y1.4338 Z-0.0074
N855 X-0.6426 Y1.4376
N860 X-0.6342 Y1.4416 Z-0.0075
N865 X-0.6267 Y1.4452 Z-0.0076
N870 X-0.6107 Y1.4525 Z-0.0078
N875 X-0.6027 Y1.4562 Z-0.0079
N880 X-0.5995 Y1.4576
N885 X-0.5868 Y1.4631 Z-0.008
N890 X-0.581 Y1.4656 Z-0.0081
N895 X-0.562 Y1.4736 Z-0.0083
N900 X-0.5548 Y1.4766 Z-0.0084
N905 X-0.5389 Y1.4828 Z-0.0085
N910 X-0.5309 Y1.4859 Z-0.0086
N915 X-0.5149 Y1.492 Z-0.0088
N920 X-0.5069 Y1.495 Z-0.0089
N925 X-0.491 Y1.5006 Z-0.009
N930 X-0.483 Y1.5033 Z-0.0091
N935 X-0.467 Y1.5088 Z-0.0093
N940 X-0.459 Y1.5115 Z-0.0094
N945 X-0.4431 Y1.5165 Z-0.0095
N950 X-0.4351 Y1.519 Z-0.0096
N955 X-0.4191 Y1.5239 Z-0.0098
N960 X-0.4111 Y1.5263 Z-0.0099
N965 X-0.3952 Y1.5307 Z-0.01
N970 X-0.3872 Y1.5328 Z-0.0101
N975 X-0.3699 Y1.5375 Z-0.0103
N980 X-0.3632 Y1.5393
N985 X-0.3553 Y1.5412 Z-0.0104
N990 X-0.3473 Y1.5431 Z-0.0105
N995 X-0.3393 Y1.5449 Z-0.0106
N1000 X-0.3233 Y1.5487 Z-0.0107
N1005 X-0.3154 Y1.5505 Z-0.0108
N1010 X-0.3074 Y1.5522 Z-0.0109
N1015 X-0.2994 Y1.5538 Z-0.011
N1020 X-0.2914 Y1.5554
N1025 X-0.2675 Y1.5601 Z-0.0113
N1030 X-0.2602 Y1.5614 Z-0.0114
N1035 X-0.2515 Y1.5629
N1040 X-0.2435 Y1.5642 Z-0.0115
N1045 X-0.2196 Y1.5681 Z-0.0117
N1050 X-0.2116 Y1.5693 Z-0.0118
N1055 X-0.1956 Y1.5714 Z-0.012
N1060 X-0.1876 Y1.5724 Z-0.0121
N1065 X-0.1717 Y1.5745 Z-0.0122
N1070 X-0.1637 Y1.5754 Z-0.0123
N1075 X-0.1557 Y1.5762 Z-0.0124
N1080 X-0.1477 Y1.577 Z-0.0125
N1085 X-0.1433 Y1.5774
N1090 X-0.1158 Y1.58 Z-0.0128
N1095 X-0.1078 Y1.5805
N1100 X-0.0998 Y1.581 Z-0.0129
N1105 X-0.0918 Y1.5815 Z-0.013
N1110 X-0.0679 Y1.5829 Z-0.0132
N1115 X-0.0599 Y1.5833 Z-0.0133
N1120 X-0.044 Y1.5837 Z-0.0135
N1125 X-0.036 Y1.5839
N1130 X-0.02 Y1.5843 Z-0.0137
N1135 X-0.012 Y1.5845 Z-0.0138
N1140 X-0.004 Y1.5844
N1145 X0.0199 Y1.5842 Z-0.0141
N1150 X0.0359 Y1.5841 Z-0.0142
N1155 X0.0439 Y1.5838 Z-0.0143
N1160 X0.0678 Y1.5828 Z-0.0145
N1165 X0.0838 Y1.5821 Z-0.0147
N1170 X0.0918 Y1.5817 Z-0.0148
N1175 X0.1157 Y1.5798 Z-0.015
N1180 X0.1237 Y1.5792 Z-0.0151
N1185 X0.1317 Y1.5786 Z-0.0152
N1190 X0.1396 Y1.5779
N1195 X0.1444 Y1.5774 Z-0.0153
N1200 X0.1636 Y1.5753 Z-0.0155
N1205 X0.1716 Y1.5744
N1210 X0.1875 Y1.5726 Z-0.0157
N1215 X0.1955 Y1.5715 Z-0.0158
N1220 X0.2195 Y1.568 Z-0.016
N1225 X0.2354 Y1.5656 Z-0.0162
N1230 X0.2434 Y1.5643
N1235 X0.2674 Y1.56 Z-0.0165
N1240 X0.2753 Y1.5586 Z-0.0166
N1245 X0.2833 Y1.5571
N1250 X0.2913 Y1.5556 Z-0.0167
N1255 X0.3153 Y1.5504 Z-0.017
N1260 X0.3232 Y1.5487
N1265 X0.3378 Y1.5455 Z-0.0172
N1270 X0.3392 Y1.5451
N1275 X0.3472 Y1.5431 Z-0.0173
N1280 X0.3632 Y1.5391 Z-0.0174
N1285 X0.3697 Y1.5375 Z-0.0175
N1290 X0.3791 Y1.535 Z-0.0176
N1295 X0.3871 Y1.533 Z-0.0177
N1300 X0.3951 Y1.5307 Z-0.0178
N1305 X0.411 Y1.5261 Z-0.0179
N1310 X0.419 Y1.5238 Z-0.018
N1315 X0.435 Y1.5191 Z-0.0182
N1320 X0.443 Y1.5166
N1325 X0.4589 Y1.5114 Z-0.0184
N1330 X0.4669 Y1.5088 Z-0.0185
N1335 X0.4829 Y1.5035 Z-0.0186
N1340 X0.4909 Y1.5007 Z-0.0187
N1345 X0.5068 Y1.4949 Z-0.0189
N1350 X0.5148 Y1.492 Z-0.019
N1355 X0.5308 Y1.486 Z-0.0191
N1360 X0.5388 Y1.4829 Z-0.0192
N1365 X0.5547 Y1.4765 Z-0.0194
N1370 X0.5619 Y1.4736 Z-0.0195
N1375 X0.5787 Y1.4667 Z-0.0196
N1380 X0.5812 Y1.4656 Z-0.0197
N1385 X0.6026 Y1.4561 Z-0.0199
N1390 X0.6106 Y1.4526 Z-0.02
N1395 X0.6186 Y1.449 Z-0.0201
N1400 X0.6266 Y1.4453
N1405 X0.6346 Y1.4415 Z-0.0202
N1410 X0.6507 Y1.4336 Z-0.0204
N1415 X0.6585 Y1.4298 Z-0.0205
N1420 X0.6669 Y1.4257 Z-0.0206
N1425 X0.6745 Y1.4218 Z-0.0207
N1430 X0.6976 Y1.4097 Z-0.0209
N1435 X0.6984 Y1.4092
N1440 X0.7064 Y1.4049 Z-0.021
N1445 X0.7144 Y1.4006 Z-0.0211
N1450 X0.7224 Y1.3962 Z-0.0212
N1455 X0.7407 Y1.3857 Z-0.0214
N1460 X0.7463 Y1.3824 Z-0.0215
N1465 X0.7544 Y1.3777
N1470 X0.7623 Y1.373 Z-0.0216
N1475 X0.7806 Y1.3618 Z-0.0218
N1480 X0.7862 Y1.3583 Z-0.0219
N1485 X0.8022 Y1.3482 Z-0.0221
N1490 X0.8059 Y1.3458
N1495 X0.8261 Y1.3323 Z-0.0224
N1500 X0.8299 Y1.3298
N1505 X0.8421 Y1.3215 Z-0.0226
N1510 X0.8501 Y1.3159
N1515 X0.866 Y1.3045 Z-0.0228
N1520 X0.874 Y1.2987 Z-0.0229
N1525 X0.882 Y1.2929 Z-0.023
N1530 X0.8861 Y1.2899 Z-0.0231
N1535 X0.89 Y1.2869
N1540 X0.907 Y1.2739 Z-0.0233
N1545 X0.9139 Y1.2685 Z-0.0234
N1550 X0.9219 Y1.2622 Z-0.0235
N1555 X0.9273 Y1.2579 Z-0.0236
N1560 X0.9299 Y1.2558
N1565 X0.9467 Y1.242 Z-0.0238
N1570 X0.9539 Y1.236 Z-0.0239
N1575 X0.9618 Y1.2292 Z-0.024
N1580 X0.9657 Y1.226 Z-0.0241
N1585 X0.9698 Y1.2223
N1590 X0.9858 Y1.2083 Z-0.0243
N1595 X0.9927 Y1.202 Z-0.0244
N1600 X1.0017 Y1.1938 Z-0.0245
N1605 X1.0097 Y1.1864 Z-0.0246
N1610 X1.0186 Y1.1781 Z-0.0248
N1615 X1.0257 Y1.1713 Z-0.0249
N1620 X1.027 Y1.1701
N1625 X1.0352 Y1.1621 Z-0.025
N1630 X1.0417 Y1.1557 Z-0.0251
N1635 X1.0591 Y1.1381 Z-0.0253
N1640 X1.0656 Y1.1314 Z-0.0254
N1645 X1.0745 Y1.1222 Z-0.0255
N1650 X1.0816 Y1.1145 Z-0.0256
N1655 X1.0896 Y1.1059 Z-0.0257
N1660 X1.0967 Y1.0982 Z-0.0258
N1665 X1.1055 Y1.0883 Z-0.026
N1670 X1.1109 Y1.0822
N1675 X1.1247 Y1.0662 Z-0.0263
N1680 X1.1295 Y1.0608
N1685 X1.1316 Y1.0583 Z-0.0264
N1690 X1.1382 Y1.0503 Z-0.0265
N1695 X1.1448 Y1.0423 Z-0.0266
N1700 X1.1577 Y1.0263 Z-0.0268
N1705 X1.1614 Y1.0217
N1710 X1.164 Y1.0183 Z-0.0269
N1715 X1.1702 Y1.0103
N1720 X1.1764 Y1.0024 Z-0.027
N1725 X1.1884 Y0.9864 Z-0.0272
N1730 X1.1933 Y0.9798 Z-0.0273
N1735 X1.2013 Y0.9687 Z-0.0275
N1740 X1.2058 Y0.9624
N1745 X1.2173 Y0.946 Z-0.0277
N1750 X1.2225 Y0.9385 Z-0.0278
N1755 X1.2279 Y0.9305 Z-0.0279
N1760 X1.2332 Y0.9225 Z-0.028
N1765 X1.2384 Y0.9145 Z-0.0281
N1770 X1.2488 Y0.8985 Z-0.0283
N1775 X1.2492 Y0.898
N1780 X1.2538 Y0.8905 Z-0.0284
N1785 X1.2588 Y0.8825 Z-0.0285
N1790 X1.2637 Y0.8746
N1795 X1.2733 Y0.8586 Z-0.0287
N1800 X1.278 Y0.8506 Z-0.0288
N1805 X1.2826 Y0.8426 Z-0.0289
N1810 X1.2872 Y0.8346 Z-0.029
N1815 X1.2971 Y0.8168 Z-0.0292
N1820 X1.3005 Y0.8107 Z-0.0293
N1825 X1.3048 Y0.8027
N1830 X1.309 Y0.7947 Z-0.0294
N1835 X1.3131 Y0.7869 Z-0.0295
N1840 X1.3214 Y0.7707 Z-0.0297
N1845 X1.3254 Y0.7627 Z-0.0298
N1850 X1.3332 Y0.7468 Z-0.03
N1855 X1.337 Y0.7386
N1860 X1.345 Y0.7217 Z-0.0302
N1865 X1.3481 Y0.7148 Z-0.0303
N1870 X1.353 Y0.7039 Z-0.0304
N1875 X1.3552 Y0.6988 Z-0.0305
N1880 X1.3655 Y0.6749 Z-0.0307
N1885 X1.3688 Y0.6669 Z-0.0308
N1890 X1.372 Y0.6589 Z-0.0309
N1895 X1.3752 Y0.6509 Z-0.031
N1900 X1.3846 Y0.627 Z-0.0312
N1905 X1.3849 Y0.6261
N1910 X1.3875 Y0.619 Z-0.0313
N1915 X1.3904 Y0.611 Z-0.0314
N1920 X1.3929 Y0.604 Z-0.0315
N1925 X1.4009 Y0.5814 Z-0.0317
N1930 X1.4017 Y0.579
N1935 X1.4043 Y0.5711 Z-0.0318
N1940 X1.4069 Y0.5631 Z-0.0319
N1945 X1.4089 Y0.557
N1950 X1.417 Y0.5311 Z-0.0322
N1955 X1.4193 Y0.5231 Z-0.0323
N1960 X1.4216 Y0.5151 Z-0.0324
N1965 X1.4239 Y0.5072
N1970 X1.4306 Y0.4832 Z-0.0327
N1975 X1.4326 Y0.4752 Z-0.0328
N1980 X1.4346 Y0.4672
N1985 X1.4366 Y0.4592 Z-0.0329
N1990 X1.4424 Y0.4353 Z-0.0332
N1995 X1.4442 Y0.4273
N2000 X1.4475 Y0.4113 Z-0.0334
N2005 X1.4525 Y0.3874 Z-0.0336
N2010 X1.4541 Y0.3794 Z-0.0337
N2015 X1.4569 Y0.3634 Z-0.0339
N2020 X1.4582 Y0.3554
N2025 X1.461 Y0.3394 Z-0.0341
N2030 X1.4623 Y0.3314 Z-0.0342
N2035 X1.4635 Y0.3235 Z-0.0343
N2040 X1.4647 Y0.3143
N2045 X1.4657 Y0.3075 Z-0.0344
N2050 X1.4689 Y0.2835 Z-0.0346
N2055 X1.4698 Y0.2755 Z-0.0347
N2060 X1.4707 Y0.2676 Z-0.0348
N2065 X1.4715 Y0.2596 Z-0.0349
N2070 X1.474 Y0.2356 Z-0.0351
N2075 X1.4746 Y0.2276 Z-0.0352
N2080 X1.4758 Y0.2116 Z-0.0353
N2085 X1.4763 Y0.2037 Z-0.0354
N2090 X1.4774 Y0.1877 Z-0.0356
N2095 X1.4779 Y0.1797 Z-0.0357
N2100 X1.4782 Y0.1717
N2105 X1.4785 Y0.1637 Z-0.0358
N2110 X1.4787 Y0.1557 Z-0.0359
N2115 X1.4793 Y0.1398 Z-0.036
N2120 X1.4795 Y0.1318 Z-0.0361
N2125 X1.4796 Y0.1238 Z-0.0362
N2130 Y0.0839 Z-0.0366
N2135 X1.4795 Y0.0759 Z-0.0367
N2140 X1.4787 Y0.0519 Z-0.0369
N2145 X1.4784 Y0.0439 Z-0.037
N2150 X1.4781 Y0.0359
N2155 X1.4778 Y0.0279 Z-0.0371
N2160 X1.4773 Y0.02 Z-0.0372
N2165 X1.4762 Y0.004 Z-0.0374
N2170 X1.4756 Y-0.004
N2175 X1.4745 Y-0.02 Z-0.0376
N2180 X1.4738 Y-0.028 Z-0.0377
N2185 X1.4713 Y-0.0519 Z-0.0379
N2190 X1.4696 Y-0.0679 Z-0.0381
N2195 X1.4687 Y-0.0759
N2200 X1.4654 Y-0.0998 Z-0.0384
N2205 X1.4647 Y-0.1048
N2210 X1.4632 Y-0.1158 Z-0.0385
N2215 X1.462 Y-0.1238 Z-0.0386
N2220 X1.4607 Y-0.1318 Z-0.0387
N2225 X1.4579 Y-0.1478 Z-0.0388
N2230 X1.4567 Y-0.1546 Z-0.0389
N2235 X1.4551 Y-0.1637 Z-0.039
N2240 X1.4537 Y-0.1717 Z-0.0391
N2245 X1.4521 Y-0.1797 Z-0.0392
N2250 X1.4488 Y-0.1959 Z-0.0393
N2255 X1.4472 Y-0.2037 Z-0.0394
N2260 X1.4438 Y-0.2196 Z-0.0395
N2265 X1.4419 Y-0.2276 Z-0.0396
N2270 X1.4381 Y-0.2436 Z-0.0398
N2275 X1.4361 Y-0.2516 Z-0.0399
N2280 X1.4322 Y-0.2676 Z-0.04
N2285 X1.43 Y-0.2756 Z-0.0401
N2290 X1.4234 Y-0.2995 Z-0.0403
N2295 X1.4211 Y-0.3075 Z-0.0404
N2300 X1.4188 Y-0.3155 Z-0.0405
N2305 X1.4168 Y-0.3222 Z-0.0406
N2310 X1.4089 Y-0.3475 Z-0.0408
N2315 X1.4063 Y-0.3554 Z-0.0409
N2320 X1.4037 Y-0.3634 Z-0.041
N2325 X1.4011 Y-0.3714 Z-0.0411
N2330 X1.3926 Y-0.3954 Z-0.0413
N2335 X1.3897 Y-0.4033 Z-0.0414
N2340 X1.3868 Y-0.4113 Z-0.0415
N2345 X1.3849 Y-0.4166
N2350 X1.3839 Y-0.4193 Z-0.0416
N2355 X1.3745 Y-0.4433 Z-0.0418
N2360 X1.3713 Y-0.4513 Z-0.0419
N2365 X1.3681 Y-0.4593 Z-0.042
N2370 X1.3647 Y-0.4672 Z-0.0421
N2375 X1.3578 Y-0.4832 Z-0.0422
N2380 X1.3544 Y-0.4912 Z-0.0423
N2385 X1.3473 Y-0.5072 Z-0.0425
N2390 X1.345 Y-0.5123
N2395 X1.3361 Y-0.5311 Z-0.0427
N2400 X1.3323 Y-0.5391 Z-0.0428
N2405 X1.3284 Y-0.5471 Z-0.0429
N2410 X1.3245 Y-0.5551 Z-0.043
N2415 X1.321 Y-0.5619 Z-0.0431
N2420 X1.3122 Y-0.5791 Z-0.0433
N2425 X1.308 Y-0.587 Z-0.0434
N2430 X1.3038 Y-0.595
N2435 X1.2995 Y-0.603 Z-0.0435
N2440 X1.2891 Y-0.6217 Z-0.0437
N2445 X1.2861 Y-0.627 Z-0.0438
N2450 X1.2811 Y-0.6357 Z-0.0439
N2455 X1.277 Y-0.643 Z-0.044
N2460 X1.2732 Y-0.6494
N2465 X1.2626 Y-0.6669 Z-0.0442
N2470 X1.2577 Y-0.6749 Z-0.0443
N2475 X1.2527 Y-0.6829 Z-0.0444
N2480 X1.2492 Y-0.6885 Z-0.0445
N2485 X1.2477 Y-0.6909
N2490 X1.2373 Y-0.7069 Z-0.0447
N2495 X1.2332 Y-0.713 Z-0.0448
N2500 X1.232 Y-0.7148
N2505 X1.2253 Y-0.7249 Z-0.0449
N2510 X1.2213 Y-0.7308 Z-0.045
N2515 X1.2173 Y-0.7366
N2520 X1.2093 Y-0.748 Z-0.0452
N2525 X1.2045 Y-0.7548 Z-0.0453
N2530 X1.2013 Y-0.7592
N2535 X1.193 Y-0.7707 Z-0.0455
N2540 X1.187 Y-0.7787
N2545 X1.175 Y-0.7947 Z-0.0457
N2550 X1.1694 Y-0.802 Z-0.0458
N2555 X1.1626 Y-0.8107 Z-0.0459
N2560 X1.1614 Y-0.8123 Z-0.046
N2565 X1.1562 Y-0.8187
N2570 X1.1433 Y-0.8346 Z-0.0462
N2575 X1.1375 Y-0.8417 Z-0.0463
N2580 X1.13 Y-0.8506 Z-0.0464
N2585 X1.1295 Y-0.8513
N2590 X1.1232 Y-0.8586 Z-0.0465
N2595 X1.1135 Y-0.8698 Z-0.0467
N2600 X1.1093 Y-0.8746
N2605 X1.0975 Y-0.8878 Z-0.0469
N2610 X1.095 Y-0.8906
N2615 X1.0802 Y-0.9065 Z-0.0472
N2620 X1.0736 Y-0.9136 Z-0.0473
N2625 X1.0651 Y-0.9225 Z-0.0474
N2630 X1.0576 Y-0.9301 Z-0.0475
N2635 X1.0415 Y-0.9465 Z-0.0477
N2640 X1.0337 Y-0.9541 Z-0.0478
N2645 X1.0257 Y-0.9619 Z-0.0479
N2650 X1.0251 Y-0.9624
N2655 X1.0177 Y-0.9694 Z-0.048
N2660 X1.0081 Y-0.9784 Z-0.0481
N2665 X1.0017 Y-0.9844 Z-0.0482
N2670 X0.9907 Y-0.9944 Z-0.0484
N2675 X0.9858 Y-0.9988
N2680 X0.9698 Y-1.0129 Z-0.0486
N2685 X0.9635 Y-1.0183 Z-0.0487
N2690 X0.9539 Y-1.0265 Z-0.0488
N2695 X0.9459 Y-1.0332 Z-0.0489
N2700 X0.9299 Y-1.0463 Z-0.0491
N2705 X0.925 Y-1.0503 Z-0.0492
N2710 X0.9139 Y-1.059 Z-0.0493
N2715 X0.906 Y-1.0652 Z-0.0494
N2720 X0.89 Y-1.0774 Z-0.0496
N2725 X0.8836 Y-1.0822 Z-0.0497
N2730 X0.8727 Y-1.0902 Z-0.0498
N2735 X0.866 Y-1.095 Z-0.0499
N2740 X0.8501 Y-1.1064 Z-0.0501
N2745 X0.8421 Y-1.112 Z-0.0502
N2750 X0.8341 Y-1.1175 Z-0.0503
N2755 X0.8272 Y-1.1222 Z-0.0504
N2760 X0.8102 Y-1.1335 Z-0.0506
N2765 X0.8031 Y-1.1381 Z-0.0507
N2770 X0.8022 Y-1.1387
N2775 X0.7905 Y-1.1461 Z-0.0508
N2780 X0.7862 Y-1.1488 Z-0.0509
N2785 X0.7782 Y-1.1538
N2790 X0.7623 Y-1.1636 Z-0.0511
N2795 X0.7543 Y-1.1683 Z-0.0512
N2800 X0.7463 Y-1.173 Z-0.0513
N2805 X0.7383 Y-1.1776 Z-0.0514
N2810 X0.7224 Y-1.1867 Z-0.0516
N2815 X0.7144 Y-1.1912 Z-0.0517
N2820 X0.7064 Y-1.1955 Z-0.0518
N2825 X0.6984 Y-1.1998
N2830 X0.6941 Y-1.202 Z-0.0519
N2835 X0.6745 Y-1.2124 Z-0.0521
N2840 X0.6665 Y-1.2164 Z-0.0522
N2845 X0.6585 Y-1.2204 Z-0.0523
N2850 X0.6505 Y-1.2243 Z-0.0524
N2855 X0.6304 Y-1.234 Z-0.0526
N2860 X0.6266 Y-1.2359
N2865 X0.6186 Y-1.2395 Z-0.0527
N2870 X0.6106 Y-1.2431 Z-0.0528
N2875 X0.6026 Y-1.2467 Z-0.0529
N2880 X0.5867 Y-1.2537 Z-0.053
N2885 X0.5787 Y-1.2572 Z-0.0531
N2890 X0.5769 Y-1.2579
N2895 X0.5627 Y-1.2638 Z-0.0533
N2900 X0.5574 Y-1.2659 Z-0.0534
N2905 X0.5375 Y-1.2739 Z-0.0536
N2910 X0.5308 Y-1.2766
N2915 X0.5148 Y-1.2825 Z-0.0538
N2920 X0.5068 Y-1.2854 Z-0.0539
N2925 X0.4909 Y-1.2912 Z-0.054
N2930 X0.4829 Y-1.294 Z-0.0541
N2935 X0.4669 Y-1.2993 Z-0.0543
N2940 X0.4589 Y-1.3019 Z-0.0544
N2945 X0.443 Y-1.3071 Z-0.0545
N2950 X0.435 Y-1.3097 Z-0.0546
N2955 X0.419 Y-1.3144 Z-0.0548
N2960 X0.411 Y-1.3167 Z-0.0549
N2965 X0.3931 Y-1.3218 Z-0.055
N2970 X0.3871 Y-1.3235 Z-0.0551
N2975 X0.3711 Y-1.3276 Z-0.0553
N2980 X0.3632 Y-1.3297
N2985 X0.3472 Y-1.3337 Z-0.0555
N2990 X0.3392 Y-1.3357 Z-0.0556
N2995 X0.3312 Y-1.3374
N3000 X0.3232 Y-1.3392 Z-0.0557
N3005 X0.3153 Y-1.3409 Z-0.0558
N3010 X0.2913 Y-1.3461 Z-0.056
N3015 X0.2833 Y-1.3476 Z-0.0561
N3020 X0.2753 Y-1.3491 Z-0.0562
N3025 X0.2674 Y-1.3506 Z-0.0563
N3030 X0.2434 Y-1.3549 Z-0.0565
N3035 X0.2354 Y-1.3562 Z-0.0566
N3040 X0.2195 Y-1.3585 Z-0.0568
N3045 X0.2115 Y-1.3597
N3050 X0.1955 Y-1.362 Z-0.057
N3055 X0.1875 Y-1.3631 Z-0.0571
N3060 X0.1716 Y-1.3649 Z-0.0572
N3065 X0.1636 Y-1.3658 Z-0.0573
N3070 X0.1476 Y-1.3676 Z-0.0575
N3075 X0.1396 Y-1.3685
N3080 X0.1317 Y-1.3691 Z-0.0576
N3085 X0.1233 Y-1.3698 Z-0.0577
N3090 X0.1157 Y-1.3704 Z-0.0578
N3095 X0.0918 Y-1.3722 Z-0.058
N3100 X0.0838 Y-1.3726 Z-0.0581
N3105 X0.0678 Y-1.3733 Z-0.0582
N3110 X0.0439 Y-1.3743 Z-0.0585
N3115 X0.0359 Y-1.3746
N3120 X0.0199 Y-1.3748 Z-0.0587
N3125 X-0.004 Y-1.375 Z-0.0589
N3130 X-0.012 Z-0.059
N3135 X-0.02 Y-1.3748 Z-0.0591
N3140 X-0.036 Y-1.3744 Z-0.0592
N3145 X-0.044 Y-1.3742 Z-0.0593
N3150 X-0.0599 Y-1.3738 Z-0.0595
N3155 X-0.0679 Y-1.3735
N3160 X-0.0918 Y-1.372 Z-0.0598
N3165 X-0.0998 Y-1.3715
N3170 X-0.1078 Y-1.3711 Z-0.0599
N3175 X-0.1158 Y-1.3705 Z-0.06
N3180 X-0.1397 Y-1.3683 Z-0.0602
N3185 X-0.1477 Y-1.3675 Z-0.0603
N3190 X-0.1557 Y-1.3668 Z-0.0604
N3195 X-0.1637 Y-1.366 Z-0.0605
N3200 X-0.1717 Y-1.365
N3205 X-0.1876 Y-1.3629 Z-0.0607
N3210 X-0.1956 Y-1.3619 Z-0.0608
N3215 X-0.2116 Y-1.3598 Z-0.0609
N3220 X-0.2196 Y-1.3586 Z-0.061
N3225 X-0.2435 Y-1.3547 Z-0.0613
N3230 X-0.2492 Y-1.3538
N3235 X-0.2595 Y-1.3521 Z-0.0614
N3240 X-0.2675 Y-1.3507 Z-0.0615
N3245 X-0.292 Y-1.3458 Z-0.0617
N3250 X-0.2994 Y-1.3443 Z-0.0618
N3255 X-0.3074 Y-1.3427 Z-0.0619
N3260 X-0.3154 Y-1.3411 Z-0.062
N3265 X-0.3233 Y-1.3392
N3270 X-0.3393 Y-1.3355 Z-0.0622
N3275 X-0.3473 Y-1.3336 Z-0.0623
N3280 X-0.3553 Y-1.3317 Z-0.0624
N3285 X-0.3631 Y-1.3298
N3290 X-0.3632
N3295 X-0.3712 Y-1.3277 Z-0.0625
N3300 X-0.3928 Y-1.3218 Z-0.0627
N3305 X-0.3952 Y-1.3212 Z-0.0628
N3310 X-0.4111 Y-1.3168 Z-0.0629
N3315 X-0.4191 Y-1.3144 Z-0.063
N3320 X-0.4351 Y-1.3095 Z-0.0632
N3325 X-0.4431 Y-1.307
N3330 X-0.459 Y-1.302 Z-0.0634
N3335 X-0.467 Y-1.2994 Z-0.0635
N3340 X-0.483 Y-1.2939 Z-0.0636
N3345 X-0.491 Y-1.2911 Z-0.0637
N3350 X-0.5069 Y-1.2855 Z-0.0639
N3355 X-0.5149 Y-1.2825 Z-0.064
N3360 X-0.5309 Y-1.2764 Z-0.0641
N3365 X-0.5374 Y-1.2739 Z-0.0642
N3370 X-0.5548 Y-1.2671 Z-0.0644
N3375 X-0.5577 Y-1.2659
N3380 X-0.5788 Y-1.257 Z-0.0646
N3385 X-0.5868 Y-1.2537 Z-0.0647
N3390 X-0.5953 Y-1.25 Z-0.0648
N3395 X-0.6027 Y-1.2467 Z-0.0649
N3400 X-0.6107 Y-1.2431 Z-0.065
N3405 X-0.6267 Y-1.2357 Z-0.0651
N3410 X-0.6303 Y-1.234 Z-0.0652
N3415 X-0.6347 Y-1.232
N3420 X-0.6472 Y-1.226 Z-0.0654
N3425 X-0.6506 Y-1.2243
N3430 X-0.6746 Y-1.2123 Z-0.0657
N3435 X-0.6789 Y-1.21
N3440 X-0.6905 Y-1.204 Z-0.0658
N3445 X-0.6943 Y-1.202 Z-0.0659
N3450 X-0.6985 Y-1.1998
N3455 X-0.7145 Y-1.191 Z-0.0661
N3460 X-0.7225 Y-1.1866 Z-0.0662
N3465 X-0.7376 Y-1.1781 Z-0.0664
N3470 X-0.7384 Y-1.1776
N3475 X-0.7464 Y-1.1729 Z-0.0665
N3480 X-0.7624 Y-1.1635 Z-0.0666
N3485 X-0.7646 Y-1.1621 Z-0.0667
N3490 X-0.7783 Y-1.1538 Z-0.0668
N3495 X-0.7863 Y-1.1488 Z-0.0669
N3500 X-0.803 Y-1.1381 Z-0.0671
N3505 X-0.8103 Y-1.1334 Z-0.0672
N3510 X-0.8182 Y-1.1282 Z-0.0673
N3515 X-0.8262 Y-1.1229 Z-0.0674
N3520 X-0.8422 Y-1.1119 Z-0.0676
N3525 X-0.8502 Y-1.1064
N3530 X-0.8617 Y-1.0982 Z-0.0678
N3535 X-0.8661 Y-1.0951
N3540 X-0.8727 Y-1.0902 Z-0.0679
N3545 X-0.8835 Y-1.0822 Z-0.068
N3550 X-0.8901 Y-1.0774 Z-0.0681
N3555 X-0.8942 Y-1.0743 Z-0.0682
N3560 X-0.9061 Y-1.0652 Z-0.0683
N3565 X-0.914 Y-1.0589 Z-0.0684
N3570 X-0.9249 Y-1.0503 Z-0.0686
N3575 X-0.93 Y-1.0462
N3580 X-0.9348 Y-1.0423 Z-0.0687
N3585 X-0.9446 Y-1.0343 Z-0.0688
N3590 X-0.946 Y-1.0332
N3595 X-0.954 Y-1.0263 Z-0.0689
N3600 X-0.9634 Y-1.0183 Z-0.069
N3605 X-0.9699 Y-1.0128 Z-0.0691
N3610 X-0.9818 Y-1.0024 Z-0.0693
N3615 X-0.9859 Y-0.9988
N3620 X-1.0018 Y-0.9842 Z-0.0695
N3625 X-1.0082 Y-0.9784 Z-0.0696
N3630 X-1.0178 Y-0.9694 Z-0.0697
N3635 X-1.0251 Y-0.9624 Z-0.0698
N3640 X-1.0418 Y-0.9462 Z-0.0701
N3645 X-1.0494 Y-0.9385 Z-0.0702
N3650 X-1.0573 Y-0.9305 Z-0.0703
N3655 X-1.0577 Y-0.9301
N3660 X-1.065 Y-0.9225 Z-0.0704
N3665 X-1.0737 Y-0.9135 Z-0.0705
N3670 X-1.0803 Y-0.9065 Z-0.0706
N3675 X-1.0896 Y-0.8964 Z-0.0707
N3680 X-1.095 Y-0.8906 Z-0.0708
N3685 X-1.1093 Y-0.8746 Z-0.071
N3690 X-1.1136 Y-0.8697 Z-0.0711
N3695 X-1.1232 Y-0.8586 Z-0.0712
N3700 X-1.1296 Y-0.8511 Z-0.0713
N3705 X-1.1433 Y-0.8346 Z-0.0715
N3710 X-1.1455 Y-0.832 Z-0.0716
N3715 X-1.1498 Y-0.8267
N3720 X-1.1562 Y-0.8187 Z-0.0717
N3725 X-1.1615 Y-0.812 Z-0.0718
N3730 X-1.175 Y-0.7947 Z-0.072
N3735 X-1.1775 Y-0.7915 Z-0.0721
N3740 X-1.1811 Y-0.7867
N3745 X-1.187 Y-0.7787 Z-0.0722
N3750 X-1.1929 Y-0.7707 Z-0.0723
N3755 X-1.2045 Y-0.7548 Z-0.0725
N3760 X-1.2094 Y-0.7479 Z-0.0726
N3765 X-1.2174 Y-0.7364 Z-0.0727
N3770 X-1.2212 Y-0.7308 Z-0.0728
N3775 X-1.2333 Y-0.7129 Z-0.073
N3780 X-1.2373 Y-0.7069 Z-0.0731
N3785 X-1.2425 Y-0.6989 Z-0.0732
N3790 X-1.2476 Y-0.6909 Z-0.0733
N3795 X-1.2576 Y-0.6749 Z-0.0734
N3800 X-1.2627 Y-0.6669 Z-0.0735
N3805 X-1.2653 Y-0.6626 Z-0.0736
N3810 X-1.2732 Y-0.6492 Z-0.0737
N3815 X-1.2769 Y-0.643 Z-0.0738
N3820 X-1.2862 Y-0.627 Z-0.074
N3825 X-1.2892 Y-0.6217
N3830 X-1.2972 Y-0.6072 Z-0.0742
N3835 X-1.2995 Y-0.603
N3840 X-1.308 Y-0.587 Z-0.0744
N3845 X-1.3123 Y-0.5791 Z-0.0745
N3850 X-1.3132 Y-0.5774
N3855 X-1.3164 Y-0.5711 Z-0.0746
N3860 X-1.3211 Y-0.5617 Z-0.0747
N3865 X-1.3244 Y-0.5551 Z-0.0748
N3870 X-1.3323 Y-0.5391 Z-0.0749
N3875 X-1.3362 Y-0.5311 Z-0.075
N3880 X-1.3436 Y-0.5152 Z-0.0752
N3885 X-1.3451 Y-0.5119
N3890 X-1.3544 Y-0.4912 Z-0.0754
N3895 X-1.3579 Y-0.4832 Z-0.0755
N3900 X-1.3613 Y-0.4752 Z-0.0756
N3905 X-1.3647 Y-0.4672 Z-0.0757
N3910 X-1.3745 Y-0.4433 Z-0.0759
N3915 X-1.377 Y-0.437 Z-0.076
N3920 X-1.3807 Y-0.4273 Z-0.0761
N3925 X-1.3838 Y-0.4193 Z-0.0762
N3930 X-1.393 Y-0.3946 Z-0.0765
N3935 X-1.3955 Y-0.3874
N3940 X-1.3983 Y-0.3794 Z-0.0766
N3945 X-1.401 Y-0.3714 Z-0.0767
N3950 X-1.409 Y-0.3474 Z-0.0769
N3955 X-1.4115 Y-0.3395 Z-0.077
N3960 X-1.4139 Y-0.3315 Z-0.0771
N3965 X-1.4164 Y-0.3235 Z-0.0772
N3970 X-1.4235 Y-0.2995 Z-0.0774
N3975 X-1.4249 Y-0.2945 Z-0.0775
N3980 X-1.4278 Y-0.2835 Z-0.0776
N3985 X-1.43 Y-0.2756 Z-0.0777
N3990 X-1.4362 Y-0.2516 Z-0.0779
N3995 X-1.4382 Y-0.2436 Z-0.078
N4000 X-1.4418 Y-0.2276 Z-0.0781
N4005 X-1.4436 Y-0.2196 Z-0.0782
N4010 X-1.4472 Y-0.2037 Z-0.0784
N4015 X-1.4489 Y-0.1963
N4020 X-1.449 Y-0.1957 Z-0.0785
N4025 X-1.4521 Y-0.1797 Z-0.0786
N4030 X-1.4536 Y-0.1717 Z-0.0787
N4035 X-1.4568 Y-0.1545 Z-0.0789
N4040 X-1.4581 Y-0.1478
N4045 X-1.4594 Y-0.1398 Z-0.079
N4050 X-1.4606 Y-0.1318 Z-0.0791
N4055 X-1.4619 Y-0.1238 Z-0.0792
N4060 X-1.4656 Y-0.0998 Z-0.0794
N4065 X-1.4666 Y-0.0919 Z-0.0795
N4070 X-1.4676 Y-0.0839 Z-0.0796
N4075 X-1.4686 Y-0.0759
N4080 X-1.4714 Y-0.0519 Z-0.0799
N4085 X-1.4723 Y-0.0439
N4090 X-1.4728 Y-0.0379 Z-0.08
N4095 X-1.4744 Y-0.0239 Z-0.0801
N4100 X-1.4757 Y-0.0099 Z-0.0803
N4105 X-1.477 Y0.004 Z-0.0804
N4110 X-1.4778 Y0.0174 Z-0.0805
N4115 X-1.4787 Y0.0315 Z-0.0807
N4120 X-1.4795 Y0.0455 Z-0.0808
N4125 X-1.4802 Y0.059 Z-0.0809
N4130 X-1.4805 Y0.0729 Z-0.0811
N4135 X-1.4813 Y0.1008 Z-0.0813
N4140 Y0.1145 Z-0.0815
N4145 X-1.4812 Y0.1285 Z-0.0816
N4150 X-1.4811 Y0.1426 Z-0.0817
N4155 X-1.481 Y0.156 Z-0.0819
N4160 X-1.4804 Y0.1701 Z-0.082
N4165 X-1.4798 Y0.1841 Z-0.0821
N4170 X-1.4792 Y0.1981 Z-0.0823
N4175 X-1.4785 Y0.2116 Z-0.0824
N4180 X-1.4774 Y0.2256 Z-0.0825
N4185 X-1.4763 Y0.2396 Z-0.0827
N4190 X-1.4753 Y0.2535 Z-0.0828
N4195 X-1.4739 Y0.267 Z-0.0829
N4200 X-1.4724 Y0.281 Z-0.0831
N4205 X-1.4708 Y0.295 Z-0.0832
N4210 X-1.4693 Y0.3084 Z-0.0833
N4215 X-1.4673 Y0.3223 Z-0.0834
N4220 X-1.4652 Y0.3362 Z-0.0836
N4225 X-1.4632 Y0.3501 Z-0.0837
N4230 X-1.461 Y0.3634 Z-0.0838
N4235 X-1.4586 Y0.3773 Z-0.084
N4240 X-1.4561 Y0.3911 Z-0.0841
N4245 X-1.4536 Y0.4047 Z-0.0842
N4250 X-1.4508 Y0.4182 Z-0.0844
N4255 X-1.4478 Y0.4319 Z-0.0845
N4260 X-1.4449 Y0.4456 Z-0.0846
N4265 X-1.4419 Y0.4589 Z-0.0848
N4270 X-1.4351 Y0.4861 Z-0.085
N4275 X-1.4316 Y0.4997 Z-0.0852
N4280 X-1.4281 Y0.5128 Z-0.0853
N4285 X-1.4203 Y0.5398 Z-0.0856
N4290 X-1.4165 Y0.5529 Z-0.0857
N4295 X-1.4122 Y0.5663 Z-0.0858
N4300 X-1.4079 Y0.5796 Z-0.086
N4305 X-1.4035 Y0.593 Z-0.0861
N4310 X-1.3991 Y0.6059 Z-0.0862
N4315 X-1.3896 Y0.6323 Z-0.0865
N4320 X-1.3848 Y0.6455 Z-0.0866
N4325 X-1.3798 Y0.6582 Z-0.0868
N4330 X-1.3694 Y0.6843 Z-0.087
N4335 X-1.3642 Y0.6969 Z-0.0872
N4340 X-1.3585 Y0.7097 Z-0.0873
N4345 X-1.3529 Y0.7226 Z-0.0874
N4350 X-1.3472 Y0.7354 Z-0.0876
N4355 X-1.3415 Y0.7478 Z-0.0877
N4360 X-1.3293 Y0.7732 Z-0.088
N4365 X-1.3232 Y0.7856 Z-0.0881
N4370 X-1.3168 Y0.7979 Z-0.0882
N4375 X-1.3038 Y0.8228 Z-0.0885
N4380 X-1.2972 Y0.8349 Z-0.0886
N4385 X-1.2903 Y0.8471 Z-0.0888
N4390 X-1.2834 Y0.8593 Z-0.0889
N4395 X-1.2764 Y0.8714 Z-0.089
N4400 X-1.2694 Y0.8832 Z-0.0892
N4405 X-1.2547 Y0.9072 Z-0.0894
N4410 X-1.2474 Y0.9188 Z-0.0896
N4415 X-1.2397 Y0.9306 Z-0.0897
N4420 X-1.2319 Y0.9423 Z-0.0898
N4425 X-1.2242 Y0.954 Z-0.09
N4430 X-1.2164 Y0.9653 Z-0.0901
N4435 X-1.2001 Y0.9882 Z-0.0904
N4440 X-1.192 Y0.9995 Z-0.0905
N4445 X-1.1837 Y1.0106 Z-0.0906
N4450 X-1.1666 Y1.0329 Z-0.0909
N4455 X-1.158 Y1.0439 Z-0.091
N4460 X-1.1492 Y1.0547 Z-0.0912
N4465 X-1.1403 Y1.0655 Z-0.0913
N4470 X-1.1314 Y1.0764 Z-0.0914
N4475 X-1.1225 Y1.0869 Z-0.0916
N4480 X-1.1039 Y1.108 Z-0.0918
N4485 X-1.0947 Y1.1184 Z-0.092
N4490 X-1.0852 Y1.1286 Z-0.0921
N4495 X-1.066 Y1.1491 Z-0.0924
N4500 X-1.0564 Y1.159 Z-0.0925
N4505 X-1.0464 Y1.1689 Z-0.0926
N4510 X-1.0364 Y1.1788 Z-0.0928
N4515 X-1.0265 Y1.1887 Z-0.0929
N4520 X-1.0164 Y1.1982 Z-0.093
N4525 X-0.9958 Y1.2174 Z-0.0933
N4530 X-0.9855 Y1.2268 Z-0.0934
N4535 X-0.975 Y1.236 Z-0.0936
N4540 X-0.9538 Y1.2544 Z-0.0938
N4545 X-0.9432 Y1.2633 Z-0.094
N4550 X-0.9213 Y1.2809 Z-0.0942
N4555 X-0.9105 Y1.2897 Z-0.0944
N4560 X-0.8994 Y1.2982 Z-0.0945
N4565 X-0.8769 Y1.3151 Z-0.0948
N4570 X-0.8657 Y1.3234 Z-0.0949
N4575 X-0.8543 Y1.3315 Z-0.095
N4580 X-0.8313 Y1.3476 Z-0.0953
N4585 X-0.8197 Y1.3554 Z-0.0954
N4590 X-0.7962 Y1.3708 Z-0.0957
N4595 X-0.7844 Y1.3784 Z-0.0958
N4600 X-0.7725 Y1.3857 Z-0.096
N4605 X-0.7485 Y1.4002 Z-0.0962
N4610 X-0.7365 Y1.4073 Z-0.0964
N4615 X-0.6997 Y1.4279 Z-0.0968
N4620 X-0.6873 Y1.4344 Z-0.0969
N4625 X-0.6624 Y1.4473 Z-0.0972
N4630 X-0.6499 Y1.4537 Z-0.0973
N4635 X-0.6372 Y1.4597 Z-0.0975
N4640 X-0.6118 Y1.4717 Z-0.0977
N4645 X-0.5991 Y1.4775 Z-0.0979
N4650 X-0.5733 Y1.4886 Z-0.0981
N4655 X-0.5604 Y1.4942 Z-0.0983
N4660 X-0.5474 Y1.4994 Z-0.0984
N4665 X-0.5212 Y1.5097 Z-0.0987
N4670 X-0.5081 Y1.5147 Z-0.0988
N4675 X-0.4684 Y1.5288 Z-0.0992
N4680 X-0.4551 Y1.5332 Z-0.0993
N4685 X-0.4283 Y1.5417 Z-0.0996
N4690 X-0.4149 Y1.5459 Z-0.0997
N4695 X-0.4013 Y1.5497 Z-0.0999
N4700 X-0.3879 Y1.5533 Z-0.1
N4705 X-0.3878 Y1.5535
N4710 X-0.3743 Y1.5572 Z-0.1001
N4715 X-0.3606 Y1.5607 Z-0.1003
N4720 X-0.3193 Y1.5703 Z-0.1007
N4725 X-0.3055 Y1.5732 Z-0.1008
N4730 X-0.2778 Y1.5787 Z-0.1011
N4735 X-0.2639 Y1.5813 Z-0.1012
N4740 X-0.222 Y1.5881 Z-0.1016
N4745 X-0.2081 Y1.5901 Z-0.1018
N4750 X-0.18 Y1.5937 Z-0.102
N4755 X-0.166 Y1.5955 Z-0.1022
N4760 X-0.1519 Y1.5969 Z-0.1023
N4765 X-0.1238 Y1.5995 Z-0.1026
N4770 X-0.1097 Y1.6007 Z-0.1027
N4775 X-0.0674 Y1.6032 Z-0.1031
N4780 X-0.0533 Y1.6037 Z-0.1032
N4785 X-0.025 Y1.6044 Z-0.1035
N4790 X-0.0109 Y1.6047 Z-0.1036
N4795 X0.0032 Y1.6046 Z-0.1038
N4800 X0.0315 Y1.6043 Z-0.104
N4805 X0.0456 Y1.604 Z-0.1042
N4810 X0.0738 Y1.6028 Z-0.1045
N4815 X0.0879 Y1.6021 Z-0.1046
N4820 X0.102 Y1.6011 Z-0.1047
N4825 X0.1302 Y1.599 Z-0.105
N4830 X0.1443 Y1.5977 Z-0.1051
N4835 X0.1864 Y1.5931 Z-0.1055
N4840 X0.2004 Y1.5912 Z-0.1057
N4845 X0.2284 Y1.5871 Z-0.1059
N4850 X0.2424 Y1.585 Z-0.1061
N4855 X0.2563 Y1.5825 Z-0.1062
N4860 X0.2841 Y1.5775 Z-0.1065
N4865 X0.2979 Y1.5748 Z-0.1066
N4870 X0.3256 Y1.5688 Z-0.1069
N4875 X0.3394 Y1.5658 Z-0.107
N4880 X0.3531 Y1.5624 Z-0.1072
N4885 X0.3805 Y1.5556 Z-0.1074
N4890 X0.3942 Y1.552 Z-0.1076
N4895 X0.4349 Y1.5403 Z-0.108
N4900 X0.4484 Y1.536 Z-0.1081
N4905 X0.4753 Y1.5273 Z-0.1084
N4910 X0.4887 Y1.5229 Z-0.1085
N4915 X0.502 Y1.5181 Z-0.1086
N4920 X0.5285 Y1.5084 Z-0.1089
N4925 X0.5417 Y1.5034 Z-0.109
N4930 X0.5679 Y1.4929 Z-0.1093
N4935 X0.5811 Y1.4876 Z-0.1094
N4940 X0.594 Y1.482 Z-0.1096
N4945 X0.6199 Y1.4705 Z-0.1098
N4950 X0.6327 Y1.4647 Z-0.11
N4955 X0.6709 Y1.4463 Z-0.1104
N4960 X0.6835 Y1.4399 Z-0.1105
N4965 X0.7085 Y1.4267 Z-0.1108
N4970 X0.721 Y1.4201 Z-0.1109
N4975 X0.7333 Y1.4131 Z-0.1111
N4980 X0.7578 Y1.3991 Z-0.1113
N4985 X0.77 Y1.3919 Z-0.1115
N4990 X0.7941 Y1.3771 Z-0.1117
N4995 X0.8061 Y1.3697 Z-0.1119
N5000 X0.8179 Y1.362 Z-0.112
N5005 X0.8414 Y1.3463 Z-0.1123
N5010 X0.8532 Y1.3384 Z-0.1124
N5015 X0.8877 Y1.3138 Z-0.1128
N5020 X0.899 Y1.3054 Z-0.113
N5025 X0.9214 Y1.2882 Z-0.1132
N5030 X0.9326 Y1.2796 Z-0.1134
N5035 X0.9435 Y1.2706 Z-0.1135
N5040 X0.9654 Y1.2527 Z-0.1138
N5045 X0.9762 Y1.2436 Z-0.1139
N5050 X0.9974 Y1.2249 Z-0.1142
N5055 X1.008 Y1.2155 Z-0.1143
N5060 X1.0183 Y1.2059 Z-0.1144
N5065 X1.0389 Y1.1865 Z-0.1147
N5070 X1.0491 Y1.1768 Z-0.1148
N5075 X1.079 Y1.1467 Z-0.1152
N5080 X1.0887 Y1.1365 Z-0.1154
N5085 X1.1079 Y1.1157 Z-0.1157
N5090 X1.1175 Y1.1053 Z-0.1158
N5095 X1.1268 Y1.0947 Z-0.1159
N5100 X1.1452 Y1.0733 Z-0.1162
N5105 X1.1543 Y1.0625 Z-0.1163
N5110 X1.1721 Y1.0405 Z-0.1166
N5115 X1.181 Y1.0295 Z-0.1167
N5120 X1.1896 Y1.0183 Z-0.1169
N5125 X1.2066 Y0.9957 Z-0.1171
N5130 X1.215 Y0.9844 Z-0.1173
N5135 X1.2393 Y0.9497 Z-0.1177
N5140 X1.2472 Y0.9379 Z-0.1178
N5145 X1.2626 Y0.9143 Z-0.1181
N5150 X1.2703 Y0.9024 Z-0.1182
N5155 X1.2777 Y0.8903 Z-0.1183
N5160 X1.2923 Y0.8662 Z-0.1186
N5165 X1.2994 Y0.854 Z-0.1188
N5170 X1.3132 Y0.8293 Z-0.119
N5175 X1.3201 Y0.817 Z-0.1192
N5180 X1.3267 Y0.8045 Z-0.1193
N5185 X1.3396 Y0.7793 Z-0.1196
N5190 X1.346 Y0.7667 Z-0.1197
N5195 X1.352 Y0.754 Z-0.1198
N5200 X1.3641 Y0.7284 Z-0.1201
N5205 X1.3699 Y0.7155 Z-0.1202
N5210 X1.3811 Y0.6896 Z-0.1205
N5215 X1.3867 Y0.6766 Z-0.1206
N5220 X1.3919 Y0.6635 Z-0.1208
N5225 X1.4022 Y0.6372 Z-0.121
N5230 X1.4072 Y0.6239 Z-0.1212
N5235 X1.4166 Y0.5973 Z-0.1215
N5240 X1.4213 Y0.584 Z-0.1216
N5245 X1.4257 Y0.5705 Z-0.1217
N5250 X1.4342 Y0.5436 Z-0.122
N5255 X1.4384 Y0.5301 Z-0.1221
N5260 X1.4422 Y0.5165 Z-0.1223
N5265 X1.4498 Y0.4893 Z-0.1225
N5270 X1.4533 Y0.4756 Z-0.1227
N5275 X1.46 Y0.4481 Z-0.1229
N5280 X1.4633 Y0.4344 Z-0.1231
N5285 X1.4662 Y0.4206 Z-0.1232
N5290 X1.472 Y0.3929 Z-0.1235
N5295 X1.4747 Y0.379 Z-0.1236
N5300 X1.4818 Y0.3373 Z-0.124
N5305 X1.4839 Y0.3233 Z-0.1241
N5310 X1.4877 Y0.2953 Z-0.1244
N5315 X1.4896 Y0.2813 Z-0.1246
N5320 X1.491 Y0.2672 Z-0.1247
N5325 X1.4939 Y0.2391 Z-0.125
N5330 X1.4951 Y0.225 Z-0.1251
N5335 X1.497 Y0.1968 Z-0.1254
N5340 X1.498 Y0.1827 Z-0.1255
N5345 X1.4985 Y0.1686 Z-0.1256
N5350 X1.4995 Y0.1404 Z-0.1259
N5355 X1.4998 Y0.1263 Z-0.126
N5360 Y0.098 Z-0.1263
N5365 Y0.0839 Z-0.1264
N5370 X1.4995 Y0.0697 Z-0.1266
N5375 X1.4985 Y0.0415 Z-0.1268
N5380 X1.498 Y0.0274 Z-0.127
N5385 X1.4971 Y0.0133 Z-0.1271
N5390 X1.4951 Y-0.0149 Z-0.1274
N5395 X1.494 Y-0.029 Z-0.1275
N5400 X1.4911 Y-0.0571 Z-0.1278
N5405 X1.4896 Y-0.0712 Z-0.1279
N5410 X1.4878 Y-0.0852 Z-0.1281
N5415 X1.484 Y-0.1132 Z-0.1283
N5420 X1.4819 Y-0.1272 Z-0.1285
N5425 X1.4772 Y-0.155 Z-0.1287
N5430 X1.4748 Y-0.1689 Z-0.1289
N5435 X1.4721 Y-0.1828 Z-0.129
N5440 X1.4664 Y-0.2105 Z-0.1293
N5445 X1.4635 Y-0.2243 Z-0.1294
N5450 X1.4602 Y-0.238 Z-0.1295
N5455 X1.4535 Y-0.2655 Z-0.1298
N5460 X1.45 Y-0.2792 Z-0.13
N5465 X1.4424 Y-0.3064 Z-0.1302
N5470 X1.4386 Y-0.32 Z-0.1304
N5475 X1.4344 Y-0.3335 Z-0.1305
N5480 X1.4259 Y-0.3605 Z-0.1308
N5485 X1.4216 Y-0.3739 Z-0.1309
N5490 X1.4121 Y-0.4006 Z-0.1312
N5495 X1.4074 Y-0.4139 Z-0.1313
N5500 X1.4025 Y-0.4271 Z-0.1314
N5505 X1.3921 Y-0.4534 Z-0.1317
N5510 X1.387 Y-0.4665 Z-0.1318
N5515 X1.3814 Y-0.4795 Z-0.132
N5520 X1.3702 Y-0.5055 Z-0.1322
N5525 X1.3644 Y-0.5184 Z-0.1324
N5530 X1.3523 Y-0.5439 Z-0.1326
N5535 X1.3463 Y-0.5567 Z-0.1328
N5540 X1.3399 Y-0.5693 Z-0.1329
N5545 X1.327 Y-0.5944 Z-0.1332
N5550 X1.3204 Y-0.6069 Z-0.1333
N5555 X1.2997 Y-0.6439 Z-0.1337
N5560 X1.2926 Y-0.6561 Z-0.1339
N5565 X1.278 Y-0.6803 Z-0.1341
N5570 X1.2707 Y-0.6924 Z-0.1343
N5575 X1.263 Y-0.7043 Z-0.1344
N5580 X1.2475 Y-0.7279 Z-0.1347
N5585 X1.2397 Y-0.7397 Z-0.1348
N5590 X1.2235 Y-0.7628 Z-0.1351
N5595 X1.2153 Y-0.7744 Z-0.1352
N5600 X1.2069 Y-0.7857 Z-0.1353
N5605 X1.1899 Y-0.8083 Z-0.1356
N5610 X1.1814 Y-0.8196 Z-0.1358
N5615 X1.1725 Y-0.8305 Z-0.1359
N5620 X1.1548 Y-0.8525 Z-0.1362
N5625 X1.1457 Y-0.8634 Z-0.1363
N5630 X1.1272 Y-0.8847 Z-0.1366
N5635 X1.1179 Y-0.8954 Z-0.1367
N5640 X1.1083 Y-0.9058 Z-0.1368
N5645 X1.0891 Y-0.9265 Z-0.1371
N5650 X1.0794 Y-0.9368 Z-0.1372
N5655 X1.0595 Y-0.9568 Z-0.1375
N5660 X1.0496 Y-0.9669 Z-0.1376
N5665 X1.0394 Y-0.9766 Z-0.1378
N5670 X1.0188 Y-0.996 Z-0.138
N5675 X1.0085 Y-1.0057 Z-0.1382
N5680 X0.9979 Y-1.015 Z-0.1383
N5685 X0.9767 Y-1.0337 Z-0.1386
N5690 X0.9659 Y-1.0428 Z-0.1387
N5695 X0.944 Y-1.0607 Z-0.139
N5700 X0.9331 Y-1.0697 Z-0.1391
N5705 X0.9219 Y-1.0783 Z-0.1393
N5710 X0.8995 Y-1.0955 Z-0.1395
N5715 X0.8882 Y-1.104 Z-0.1397
N5720 X0.8652 Y-1.1204 Z-0.1399
N5725 X0.8537 Y-1.1286 Z-0.1401
N5730 X0.842 Y-1.1365 Z-0.1402
N5735 X0.8184 Y-1.1522 Z-0.1405
N5740 X0.8066 Y-1.1599 Z-0.1406
N5745 X0.7946 Y-1.1673 Z-0.1407
N5750 X0.7705 Y-1.1821 Z-0.141
N5755 X0.7584 Y-1.1893 Z-0.1411
N5760 X0.7338 Y-1.2033 Z-0.1414
N5765 X0.7215 Y-1.2103 Z-0.1416
N5770 X0.7091 Y-1.2169 Z-0.1417
N5775 X0.6841 Y-1.2301 Z-0.142
N5780 X0.6715 Y-1.2365 Z-0.1421
N5785 X0.646 Y-1.2488 Z-0.1424
N5790 X0.6333 Y-1.255 Z-0.1425
N5795 X0.6204 Y-1.2608 Z-0.1426
N5800 X0.5946 Y-1.2722 Z-0.1429
N5805 X0.5817 Y-1.2779 Z-0.143
N5810 X0.5685 Y-1.2832 Z-0.1432
N5815 X0.5423 Y-1.2937 Z-0.1434
N5820 X0.5291 Y-1.2988 Z-0.1436
N5825 X0.5026 Y-1.3084 Z-0.1438
N5830 X0.4893 Y-1.3132 Z-0.144
N5835 X0.4759 Y-1.3177 Z-0.1441
N5840 X0.4624 Y-1.322 Z-0.1443
N5845 X0.449 Y-1.3264 Z-0.1444
N5850 X0.4355 Y-1.3306 Z-0.1445
N5855 X0.4084 Y-1.3384 Z-0.1448
N5860 X0.3948 Y-1.3423 Z-0.1449
N5865 X0.3811 Y-1.3459 Z-0.1451
N5870 X0.3537 Y-1.3528 Z-0.1453
N5875 X0.34 Y-1.3562 Z-0.1455
N5880 X0.3262 Y-1.3592 Z-0.1456
N5885 X0.2986 Y-1.3652 Z-0.1459
N5890 X0.2847 Y-1.3679 Z-0.146
N5895 X0.2708 Y-1.3705 Z-0.1461
N5900 X0.2569 Y-1.373 Z-0.1463
N5905 X0.243 Y-1.3754 Z-0.1464
N5910 X0.229 Y-1.3776 Z-0.1465
N5915 X0.2011 Y-1.3817 Z-0.1468
N5920 X0.1871 Y-1.3835 Z-0.147
N5925 X0.173 Y-1.3851 Z-0.1471
N5930 X0.1449 Y-1.3882 Z-0.1474
N5935 X0.1308 Y-1.3895 Z-0.1475
N5940 X0.1027 Y-1.3916 Z-0.1478
N5945 X0.0886 Y-1.3926 Z-0.1479
N5950 X0.0745 Y-1.3933 Z-0.148
N5955 X0.0462 Y-1.3945 Z-0.1483
N5960 X0.0321 Y-1.3949 Z-0.1484
N5965 X0.0039 Y-1.3951 Z-0.1487
N5970 X-0.0103 Y-1.3952 Z-0.1488
N5975 X-0.0244 Y-1.395 Z-0.149
N5980 X-0.0527 Y-1.3942 Z-0.1492
N5985 X-0.0668 Y-1.3938 Z-0.1494
N5990 X-0.095 Y-1.3921 Z-0.1497
N5995 X-0.1091 Y-1.3912 Z-0.1498
N6000 X-0.1232 Y-1.3901 Z-0.1499
N6005 X-0.1513 Y-1.3875 Z-0.1502
N6010 X-0.1654 Y-1.3861 Z-0.1503
N6015 X-0.1794 Y-1.3844 Z-0.1505
N6020 X-0.2074 Y-1.3808 Z-0.1507
N6025 X-0.2214 Y-1.3788 Z-0.1509
N6030 X-0.2354 Y-1.3765 Z-0.151
N6035 X-0.2493 Y-1.3743 Z-0.1511
N6040 X-0.2632 Y-1.372 Z-0.1513
N6045 X-0.2771 Y-1.3694 Z-0.1514
N6050 X-0.3049 Y-1.3639 Z-0.1517
N6055 X-0.3187 Y-1.361 Z-0.1518
N6060 X-0.3325 Y-1.3578 Z-0.1519
N6065 X-0.3462 Y-1.3546 Z-0.1521
N6070 X-0.36 Y-1.3514 Z-0.1522
N6075 X-0.3737 Y-1.3479 Z-0.1523
N6080 X-0.3873 Y-1.3443 Z-0.1525
N6085 X-0.401 Y-1.3406 Z-0.1526
N6090 X-0.4146 Y-1.3368 Z-0.1528
N6095 X-0.4281 Y-1.3328 Z-0.1529
N6100 X-0.4416 Y-1.3286 Z-0.153
N6105 X-0.4551 Y-1.3245 Z-0.1532
N6110 X-0.4686 Y-1.3202 Z-0.1533
N6115 X-0.4819 Y-1.3156 Z-0.1534
N6120 X-0.4953 Y-1.311 Z-0.1536
N6125 X-0.5087 Y-1.3064 Z-0.1537
N6130 X-0.5219 Y-1.3014 Z-0.1538
N6135 X-0.5483 Y-1.2913 Z-0.1541
N6140 X-0.5615 Y-1.2862 Z-0.1542
N6145 X-0.5745 Y-1.2807 Z-0.1544
N6150 X-0.5875 Y-1.2752 Z-0.1545
N6155 X-0.6005 Y-1.2697 Z-0.1546
N6160 X-0.6134 Y-1.264 Z-0.1548
N6165 X-0.6391 Y-1.2522 Z-0.155
N6170 X-0.6519 Y-1.2462 Z-0.1552
N6175 X-0.6645 Y-1.2399 Z-0.1553
N6180 X-0.6898 Y-1.2272 Z-0.1556
N6185 X-0.7023 Y-1.2207 Z-0.1557
N6190 X-0.7271 Y-1.2071 Z-0.156
N6195 X-0.7395 Y-1.2003 Z-0.1561
N6200 X-0.7517 Y-1.1932 Z-0.1563
N6205 X-0.776 Y-1.1788 Z-0.1565
N6210 X-0.7881 Y-1.1715 Z-0.1567
N6215 X-0.8 Y-1.1639 Z-0.1568
N6220 X-0.8119 Y-1.1563 Z-0.1569
N6225 X-0.8238 Y-1.1487 Z-0.1571
N6230 X-0.8356 Y-1.1409 Z-0.1572
N6235 X-0.8589 Y-1.1248 Z-0.1575
N6240 X-0.8705 Y-1.1168 Z-0.1576
N6245 X-0.8819 Y-1.1085 Z-0.1577
N6250 X-0.9046 Y-1.0917 Z-0.158
N6255 X-0.9159 Y-1.0831 Z-0.1582
N6260 X-0.938 Y-1.0656 Z-0.1584
N6265 X-0.9491 Y-1.0568 Z-0.1586
N6270 X-0.9599 Y-1.0477 Z-0.1587
N6275 X-0.9815 Y-1.0294 Z-0.159
N6280 X-0.9922 Y-1.0202 Z-0.1591
N6285 X-1.0026 Y-1.0107 Z-0.1592
N6290 X-1.0131 Y-1.0012 Z-0.1594
N6295 X-1.0235 Y-0.9917 Z-0.1595
N6300 X-1.0338 Y-0.982 Z-0.1596
N6305 X-1.0541 Y-0.9623 Z-0.1599
N6310 X-1.0642 Y-0.9524 Z-0.16
N6315 X-1.074 Y-0.9422 Z-0.1602
N6320 X-1.0935 Y-0.9218 Z-0.1604
N6325 X-1.1032 Y-0.9115 Z-0.1606
N6330 X-1.1126 Y-0.901 Z-0.1607
N6335 X-1.1315 Y-0.88 Z-0.161
N6340 X-1.1407 Y-0.8692 Z-0.1611
N6345 X-1.1588 Y-0.8475 Z-0.1614
N6350 X-1.1678 Y-0.8367 Z-0.1615
N6355 X-1.1765 Y-0.8255 Z-0.1617
N6360 X-1.1939 Y-0.8032 Z-0.1619
N6365 X-1.2024 Y-0.7919 Z-0.1621
N6370 X-1.2107 Y-0.7805 Z-0.1622
N6375 X-1.219 Y-0.7691 Z-0.1623
N6380 X-1.2273 Y-0.7577 Z-0.1625
N6385 X-1.2353 Y-0.746 Z-0.1626
N6390 X-1.2511 Y-0.7226 Z-0.1629
N6395 X-1.2589 Y-0.7108 Z-0.163
N6400 X-1.2664 Y-0.6988 Z-0.1631
N6405 X-1.2814 Y-0.6749 Z-0.1634
N6410 X-1.2887 Y-0.6628 Z-0.1635
N6415 X-1.3029 Y-0.6383 Z-0.1638
N6420 X-1.3099 Y-0.6261 Z-0.164
N6425 X-1.3166 Y-0.6136 Z-0.1641
N6430 X-1.33 Y-0.5887 Z-0.1644
N6435 X-1.3365 Y-0.5762 Z-0.1645
N6440 X-1.3427 Y-0.5635 Z-0.1646
N6445 X-1.349 Y-0.5509 Z-0.1648
N6450 X-1.3552 Y-0.5382 Z-0.1649
N6455 X-1.3611 Y-0.5253 Z-0.165
N6460 X-1.3728 Y-0.4996 Z-0.1653
N6465 X-1.3785 Y-0.4867 Z-0.1654
N6470 X-1.3839 Y-0.4736 Z-0.1656
N6475 X-1.3946 Y-0.4475 Z-0.1658
N6480 X-1.3997 Y-0.4343 Z-0.166
N6485 X-1.4096 Y-0.4078 Z-0.1662
N6490 X-1.4145 Y-0.3946 Z-0.1664
N6495 X-1.419 Y-0.3812 Z-0.1665
N6500 X-1.4279 Y-0.3544 Z-0.1668
N6505 X-1.4322 Y-0.3409 Z-0.1669
N6510 X-1.4363 Y-0.3274 Z-0.1671
N6515 X-1.4403 Y-0.3138 Z-0.1672
N6520 X-1.4443 Y-0.3003 Z-0.1673
N6525 X-1.448 Y-0.2866 Z-0.1675
N6530 X-1.4551 Y-0.2593 Z-0.1677
N6535 X-1.4585 Y-0.2456 Z-0.1679
N6540 X-1.4616 Y-0.2318 Z-0.168
N6545 X-1.4678 Y-0.2042 Z-0.1683
N6550 X-1.4706 Y-0.1904 Z-0.1684
N6555 X-1.4732 Y-0.1765 Z-0.1685
N6560 X-1.4759 Y-0.1626 Z-0.1687
N6565 X-1.4784 Y-0.1487 Z-0.1688
N6570 X-1.4806 Y-0.1347 Z-0.1689
N6575 X-1.4849 Y-0.1068 Z-0.1692
N6580 X-1.4869 Y-0.0928 Z-0.1693
N6585 X-1.4886 Y-0.0788 Z-0.1695
N6590 X-1.4903 Y-0.0648 Z-0.1696
N6595 X-1.4919 Y-0.0507 Z-0.1698
N6600 X-1.4932 Y-0.0367 Z-0.1699
N6605 X-1.4956 Y-0.0085 Z-0.1702
N6610 X-1.4967 Y0.0056 Z-0.1703
N6615 X-1.4974 Y0.0197 Z-0.1704
N6620 X-1.4989 Y0.0479 Z-0.1707
N6625 X-1.4993 Y0.062 Z-0.1708
N6630 X-1.4998 Y0.0903 Z-0.1711
N6635 X-1.5 Y0.1044 Z-0.1712
N6640 X-1.4998 Y0.1185 Z-0.1714
N6645 X-1.4993 Y0.1468 Z-0.1716
N6650 X-1.4989 Y0.1609 Z-0.1718
N6655 X-1.4982 Y0.175 Z-0.1719
N6660 X-1.4975 Y0.1891 Z-0.172
N6665 X-1.4967 Y0.2033 Z-0.1722
N6670 X-1.4957 Y0.2173 Z-0.1723
N6675 X-1.4933 Y0.2455 Z-0.1726
N6680 X-1.492 Y0.2596 Z-0.1727
N6685 X-1.4903 Y0.2736 Z-0.1729
N6690 X-1.4887 Y0.2876 Z-0.173
N6695 X-1.487 Y0.3017 Z-0.1731
N6700 X-1.485 Y0.3157 Z-0.1733
N6705 X-1.4829 Y0.3296 Z-0.1734
N6710 X-1.4808 Y0.3436 Z-0.1735
N6715 X-1.4785 Y0.3575 Z-0.1737
N6720 X-1.476 Y0.3714 Z-0.1738
N6725 X-1.4708 Y0.3992 Z-0.1741
N6730 X-1.4679 Y0.4131 Z-0.1742
N6735 X-1.4649 Y0.4269 Z-0.1743
N6740 X-1.4618 Y0.4406 Z-0.1745
N6745 X-1.4587 Y0.4544 Z-0.1746
N6750 X-1.4552 Y0.4681 Z-0.1747
N6755 X-1.4481 Y0.4955 Z-0.175
N6760 X-1.4445 Y0.5091 Z-0.1752
N6765 X-1.4405 Y0.5227 Z-0.1753
N6770 X-1.4324 Y0.5498 Z-0.1756
N6775 X-1.4282 Y0.5632 Z-0.1757
N6780 X-1.4192 Y0.59 Z-0.176
N6785 X-1.4147 Y0.6034 Z-0.1761
N6790 X-1.4098 Y0.6167 Z-0.1762
N6795 X-1.4 Y0.6432 Z-0.1765
N6800 X-1.3949 Y0.6564 Z-0.1766
N6805 X-1.3895 Y0.6694 Z-0.1768
N6810 X-1.3841 Y0.6825 Z-0.1769
N6815 X-1.3787 Y0.6955 Z-0.177
N6820 X-1.373 Y0.7085 Z-0.1772
N6825 X-1.3614 Y0.7342 Z-0.1774
N6830 X-1.3555 Y0.7471 Z-0.1776
N6835 X-1.3493 Y0.7598 Z-0.1777
N6840 X-1.3368 Y0.7851 Z-0.178
N6845 X-1.3303 Y0.7977 Z-0.1781
N6850 X-1.3236 Y0.8101 Z-0.1783
N6855 X-1.3169 Y0.8226 Z-0.1784
N6860 X-1.3102 Y0.835 Z-0.1785
N6865 X-1.3032 Y0.8473 Z-0.1787
N6870 X-1.289 Y0.8717 Z-0.1789
N6875 X-1.2818 Y0.8838 Z-0.1791
N6880 X-1.2743 Y0.8958 Z-0.1792
N6885 X-1.2668 Y0.9078 Z-0.1793
N6890 X-1.2592 Y0.9197 Z-0.1795
N6895 X-1.2515 Y0.9315 Z-0.1796
N6900 X-1.2357 Y0.9549 Z-0.1799
N6905 X-1.2277 Y0.9666 Z-0.18
N6910 X-1.2194 Y0.9781 Z-0.1801
N6915 X-1.2028 Y1.0009 Z-0.1804
N6920 X-1.1943 Y1.0122 Z-0.1805
N6925 X-1.1856 Y1.0234 Z-0.1807
N6930 X-1.1769 Y1.0345 Z-0.1808
N6935 X-1.1682 Y1.0456 Z-0.181
N6940 X-1.1592 Y1.0565 Z-0.1811
N6945 X-1.1411 Y1.0782 Z-0.1814
N6950 X-1.1319 Y1.089 Z-0.1815
N6955 X-1.1225 Y1.0995 Z-0.1816
N6960 X-1.1131 Y1.11 Z-0.1818
N6965 X-1.1037 Y1.1205 Z-0.1819
N6970 X-1.094 Y1.1309 Z-0.182
N6975 X-1.0745 Y1.1513 Z-0.1823
N6980 X-1.0646 Y1.1614 Z-0.1824
N6985 X-1.0545 Y1.1713 Z-0.1826
N6990 X-1.0343 Y1.191 Z-0.1828
N6995 X-1.024 Y1.2007 Z-0.183
N7000 X-1.0136 Y1.2103 Z-0.1831
N7005 X-1.0032 Y1.2198 Z-0.1832
N7010 X-0.9927 Y1.2293 Z-0.1834
N7015 X-0.982 Y1.2385 Z-0.1835
N7020 X-0.9605 Y1.2568 Z-0.1838
N7025 X-0.9496 Y1.2659 Z-0.1839
N7030 X-0.9386 Y1.2747 Z-0.1841
N7035 X-0.9275 Y1.2834 Z-0.1842
N7040 X-0.9164 Y1.2922 Z-0.1843
N7045 X-0.9052 Y1.3008 Z-0.1845
N7050 X-0.8824 Y1.3176 Z-0.1847
N7055 X-0.871 Y1.3259 Z-0.1849
N7060 X-0.8594 Y1.334 Z-0.185
N7065 X-0.8362 Y1.35 Z-0.1853
N7070 X-0.8244 Y1.3578 Z-0.1854
N7075 X-0.8125 Y1.3655 Z-0.1855
N7080 X-0.8006 Y1.3731 Z-0.1857
N7085 X-0.7887 Y1.3806 Z-0.1858
N7090 X-0.7766 Y1.388 Z-0.1859
N7095 X-0.7523 Y1.4024 Z-0.1862
N7100 X-0.74 Y1.4094 Z-0.1864
N7105 X-0.7277 Y1.4163 Z-0.1865
N7110 X-0.7153 Y1.423 Z-0.1866
N7115 X-0.7029 Y1.4298 Z-0.1868
N7120 X-0.6904 Y1.4364 Z-0.1869
N7125 X-0.6651 Y1.4491 Z-0.1872
N7130 X-0.6525 Y1.4554 Z-0.1873
N7135 X-0.6397 Y1.4614 Z-0.1874
N7140 X-0.614 Y1.4732 Z-0.1877
N7145 X-0.6011 Y1.479 Z-0.1878
N7150 X-0.5881 Y1.4845 Z-0.188
N7155 X-0.5751 Y1.49 Z-0.1881
N7160 X-0.5621 Y1.4954 Z-0.1882
N7165 X-0.5489 Y1.5006 Z-0.1884
N7170 X-0.5225 Y1.5107 Z-0.1886
N7175 X-0.5093 Y1.5156 Z-0.1888
N7180 X-0.4959 Y1.5203 Z-0.1889
N7185 X-0.4826 Y1.5248 Z-0.189
N7190 X-0.4692 Y1.5294 Z-0.1892
N7195 X-0.4557 Y1.5338 Z-0.1893
N7200 X-0.4287 Y1.542 Z-0.1896
N7205 X-0.4152 Y1.5461 Z-0.1897
N7210 X-0.4016 Y1.5499 Z-0.1899
N7215 X-0.3873 Y1.5537 Z-0.19
N7220 X-0.3737 Y1.5574 Z-0.1901
N7225 X-0.36 Y1.5609 Z-0.1903
N7230 X-0.3462 Y1.5641 Z-0.1904
N7235 X-0.3325 Y1.5673 Z-0.1905
N7240 X-0.3187 Y1.5705 Z-0.1907
N7245 X-0.3049 Y1.5733 Z-0.1908
N7250 X-0.2772 Y1.5788 Z-0.1911
N7255 X-0.2634 Y1.5814 Z-0.1912
N7260 X-0.2495 Y1.5837 Z-0.1913
N7265 X-0.2355 Y1.586 Z-0.1915
N7270 X-0.2216 Y1.5882 Z-0.1916
N7275 X-0.2076 Y1.5902 Z-0.1918
N7280 X-0.1796 Y1.5938 Z-0.192
N7285 X-0.1656 Y1.5956 Z-0.1922
N7290 X-0.1516 Y1.597 Z-0.1923
N7295 X-0.1235 Y1.5996 Z-0.1926
N7300 X-0.1094 Y1.6007 Z-0.1927
N7305 X-0.0953 Y1.6016 Z-0.1928
N7310 X-0.0812 Y1.6024 Z-0.193
N7315 X-0.0672 Y1.6032 Z-0.1931
N7320 X-0.0531 Y1.6037 Z-0.1932
N7325 X-0.0248 Y1.6044 Z-0.1935
N7330 X-0.0107 Y1.6047 Z-0.1936
N7335 X0.0034 Y1.6046 Z-0.1938
N7340 X0.0175 Y1.6045 Z-0.1939
N7345 X0.0316 Y1.6044 Z-0.194
N7350 X0.0457 Y1.604 Z-0.1942
N7355 X0.0739 Y1.6028 Z-0.1944
N7360 X0.088 Y1.6021 Z-0.1946
N7365 X0.1021 Y1.6012 Z-0.1947
N7370 X0.1302 Y1.599 Z-0.195
N7375 X0.1443 Y1.5978 Z-0.1951
N7380 X0.1583 Y1.5962 Z-0.1953
N7385 X0.1723 Y1.5947 Z-0.1954
N7390 X0.1863 Y1.5931 Z-0.1955
N7395 X0.2003 Y1.5912 Z-0.1957
N7400 X0.2283 Y1.5872 Z-0.1959
N7405 X0.2422 Y1.585 Z-0.1961
N7410 X0.2561 Y1.5826 Z-0.1962
N7415 X0.27 Y1.5801 Z-0.1963
N7420 X0.2839 Y1.5776 Z-0.1965
N7425 X0.2977 Y1.5749 Z-0.1966
N7430 X0.3253 Y1.5689 Z-0.1969
N7435 X0.3391 Y1.5659 Z-0.197
N7440 X0.3528 Y1.5626 Z-0.1971
N7445 X0.3802 Y1.5557 Z-0.1974
N7450 X0.3938 Y1.5521 Z-0.1975
N7455 X0.4074 Y1.5482 Z-0.1977
N7460 X0.421 Y1.5443 Z-0.1978
N7465 X0.4345 Y1.5404 Z-0.198
N7470 X0.448 Y1.5362 Z-0.1981
N7475 X0.4748 Y1.5275 Z-0.1984
N7480 X0.4882 Y1.5231 Z-0.1985
N7485 X0.5015 Y1.5183 Z-0.1986
N7490 X0.5148 Y1.5135 Z-0.1988
N7495 X0.528 Y1.5087 Z-0.1989
N7500 X0.5412 Y1.5037 Z-0.199
N7505 X0.5543 Y1.4984 Z-0.1992
N7510 X0.5674 Y1.4931 Z-0.1993
N7515 X0.5805 Y1.4878 Z-0.1994
N7520 X0.5935 Y1.4823 Z-0.1996
N7525 X0.6193 Y1.4708 Z-0.1998
N7530 X0.6321 Y1.465 Z-0.2
N7535 X0.6449 Y1.4589 Z-0.2001
N7540 X0.6576 Y1.4528 Z-0.2002
N7545 X0.6703 Y1.4466 Z-0.2004
N7550 X0.6828 Y1.4402 Z-0.2005
N7555 X0.7078 Y1.4271 Z-0.2008
N7560 X0.7203 Y1.4205 Z-0.2009
N7565 X0.7326 Y1.4136 Z-0.2011
N7570 X0.7448 Y1.4066 Z-0.2012
N7575 X0.7571 Y1.3996 Z-0.2013
N7580 X0.7693 Y1.3924 Z-0.2015
N7585 X0.7813 Y1.385 Z-0.2016
N7590 X0.7933 Y1.3776 Z-0.2017
N7595 X0.8053 Y1.3702 Z-0.2019
N7600 X0.8171 Y1.3625 Z-0.202
N7605 X0.8407 Y1.3469 Z-0.2023
N7610 X0.8523 Y1.339 Z-0.2024
N7615 X0.8639 Y1.3309 Z-0.2025
N7620 X0.8753 Y1.3227 Z-0.2027
N7625 X0.8868 Y1.3145 Z-0.2028
N7630 X0.8982 Y1.3061 Z-0.2029
N7635 X0.9206 Y1.2889 Z-0.2032
N7640 X0.9317 Y1.2803 Z-0.2033
N7645 X0.9427 Y1.2714 Z-0.2035
N7650 X0.9536 Y1.2624 Z-0.2036
N7655 X0.9645 Y1.2535 Z-0.2037
N7660 X0.9753 Y1.2444 Z-0.2039
N7665 X0.9859 Y1.2351 Z-0.204
N7670 X0.9965 Y1.2257 Z-0.2041
N7675 X1.007 Y1.2164 Z-0.2043
N7680 X1.0174 Y1.2068 Z-0.2044
N7685 X1.038 Y1.1875 Z-0.2047
N7690 X1.0482 Y1.1777 Z-0.2048
N7695 X1.0581 Y1.1677 Z-0.205
N7700 X1.0681 Y1.1577 Z-0.2051
N7705 X1.078 Y1.1477 Z-0.2052
N7710 X1.0878 Y1.1375 Z-0.2054
N7715 X1.107 Y1.1168 Z-0.2056
N7720 X1.1165 Y1.1064 Z-0.2058
N7725 X1.1258 Y1.0958 Z-0.2059
N7730 X1.1351 Y1.0851 Z-0.206
N7735 X1.1443 Y1.0745 Z-0.2062
N7740 X1.1534 Y1.0637 Z-0.2063
N7745 X1.1623 Y1.0527 Z-0.2064
N7750 X1.1711 Y1.0418 Z-0.2066
N7755 X1.18 Y1.0308 Z-0.2067
N7760 X1.1886 Y1.0196 Z-0.2068
N7765 X1.2056 Y0.9971 Z-0.2071
N7770 X1.214 Y0.9857 Z-0.2072
N7775 X1.2222 Y0.9742 Z-0.2074
N7780 X1.2303 Y0.9626 Z-0.2075
N7785 X1.2383 Y0.9511 Z-0.2077
N7790 X1.2463 Y0.9394 Z-0.2078
N7795 X1.2617 Y0.9158 Z-0.2081
N7800 X1.2694 Y0.9039 Z-0.2082
N7805 X1.2768 Y0.8919 Z-0.2083
N7810 X1.2841 Y0.8798 Z-0.2085
N7815 X1.2913 Y0.8677 Z-0.2086
N7820 X1.2985 Y0.8556 Z-0.2087
N7825 X1.3054 Y0.8433 Z-0.2089
N7830 X1.3123 Y0.831 Z-0.209
N7835 X1.3192 Y0.8186 Z-0.2091
N7840 X1.3258 Y0.8062 Z-0.2093
N7845 X1.3387 Y0.7811 Z-0.2095
N7850 X1.3451 Y0.7685 Z-0.2097
N7855 X1.3512 Y0.7558 Z-0.2098
N7860 X1.3573 Y0.743 Z-0.2099
N7865 X1.3633 Y0.7303 Z-0.2101
N7870 X1.3691 Y0.7174 Z-0.2102
N7875 X1.3803 Y0.6915 Z-0.2105
N7880 X1.3859 Y0.6786 Z-0.2106
N7885 X1.3912 Y0.6655 Z-0.2108
N7890 X1.3963 Y0.6523 Z-0.2109
N7895 X1.4015 Y0.6392 Z-0.211
N7900 X1.4065 Y0.626 Z-0.2112
N7905 X1.4112 Y0.6127 Z-0.2113
N7910 X1.4159 Y0.5994 Z-0.2114
N7915 X1.4206 Y0.5861 Z-0.2116
N7920 X1.4251 Y0.5727 Z-0.2117
N7925 X1.4336 Y0.5458 Z-0.212
N7930 X1.4378 Y0.5323 Z-0.2121
N7935 X1.4416 Y0.5188 Z-0.2122
N7940 X1.4454 Y0.5052 Z-0.2124
N7945 X1.4492 Y0.4916 Z-0.2125
N7950 X1.4528 Y0.4779 Z-0.2126
N7955 X1.4561 Y0.4642 Z-0.2128
N7960 X1.4595 Y0.4505 Z-0.2129
N7965 X1.4628 Y0.4368 Z-0.213
N7970 X1.4658 Y0.423 Z-0.2132
N7975 X1.4686 Y0.4092 Z-0.2133
N7980 X1.4715 Y0.3954 Z-0.2134
N7985 X1.4742 Y0.3815 Z-0.2136
N7990 X1.4767 Y0.3676 Z-0.2137
N7995 X1.479 Y0.3537 Z-0.2139
N8000 X1.4814 Y0.3398 Z-0.214
N8005 X1.4836 Y0.3258 Z-0.2141
N8010 X1.4874 Y0.2979 Z-0.2144
N8015 X1.4893 Y0.2839 Z-0.2145
N8020 X1.4908 Y0.2699 Z-0.2147
N8025 X1.4922 Y0.2558 Z-0.2148
N8030 X1.4936 Y0.2418 Z-0.2149
N8035 X1.4949 Y0.2277 Z-0.2151
N8040 X1.4959 Y0.2137 Z-0.2152
N8045 X1.4969 Y0.1996 Z-0.2153
N8050 X1.4978 Y0.1855 Z-0.2155
N8055 X1.4985 Y0.1714 Z-0.2156
N8060 X1.4989 Y0.1573 Z-0.2157
N8065 X1.4994 Y0.1432 Z-0.2159
N8070 X1.4998 Y0.1291 Z-0.216
N8075 Y0.115 Z-0.2161
N8080 Y0.1009 Z-0.2163
N8085 Y0.0868 Z-0.2164
N8090 X1.4996 Y0.0727 Z-0.2165
N8095 X1.4991 Y0.0586 Z-0.2167
N8100 X1.4986 Y0.0444 Z-0.2168
N8105 X1.4981 Y0.0303 Z-0.217
N8110 X1.4973 Y0.0163 Z-0.2171
N8115 X1.4963 Y0.0022 Z-0.2172
N8120 X1.4953 Y-0.0119 Z-0.2174
N8125 X1.4943 Y-0.026 Z-0.2175
N8130 X1.4914 Y-0.054 Z-0.2178
N8135 X1.49 Y-0.0681 Z-0.2179
N8140 X1.4882 Y-0.0821 Z-0.218
N8145 X1.4863 Y-0.0961 Z-0.2182
N8150 X1.4844 Y-0.11 Z-0.2183
N8155 X1.4825 Y-0.124 Z-0.2184
N8160 X1.4801 Y-0.1379 Z-0.2186
N8165 X1.4777 Y-0.1518 Z-0.2187
N8170 X1.4753 Y-0.1658 Z-0.2188
N8175 X1.4728 Y-0.1796 Z-0.219
N8180 X1.467 Y-0.2073 Z-0.2192
N8185 X1.4642 Y-0.2211 Z-0.2194
N8190 X1.461 Y-0.2348 Z-0.2195
N8195 X1.4576 Y-0.2485 Z-0.2196
N8200 X1.4543 Y-0.2622 Z-0.2198
N8205 X1.4509 Y-0.2759 Z-0.2199
N8210 X1.4471 Y-0.2895 Z-0.2201
N8215 X1.4433 Y-0.3031 Z-0.2202
N8220 X1.4395 Y-0.3167 Z-0.2203
N8225 X1.4355 Y-0.3302 Z-0.2205
N8230 X1.4312 Y-0.3437 Z-0.2206
N8235 X1.427 Y-0.3571 Z-0.2207
N8240 X1.4227 Y-0.3706 Z-0.2209
N8245 X1.418 Y-0.3839 Z-0.221
N8250 X1.4133 Y-0.3972 Z-0.2211
N8255 X1.4086 Y-0.4105 Z-0.2213
N8260 X1.4038 Y-0.4238 Z-0.2214
N8265 X1.3935 Y-0.45 Z-0.2217
N8270 X1.3883 Y-0.4632 Z-0.2218
N8275 X1.3828 Y-0.4762 Z-0.2219
N8280 X1.3772 Y-0.4891 Z-0.2221
N8285 X1.3716 Y-0.5021 Z-0.2222
N8290 X1.366 Y-0.515 Z-0.2223
N8295 X1.36 Y-0.5278 Z-0.2225
N8300 X1.3539 Y-0.5405 Z-0.2226
N8305 X1.3479 Y-0.5533 Z-0.2227
N8310 X1.3416 Y-0.5659 Z-0.2229
N8315 X1.3352 Y-0.5785 Z-0.223
N8320 X1.3287 Y-0.591 Z-0.2232
N8325 X1.3222 Y-0.6036 Z-0.2233
N8330 X1.3154 Y-0.6159 Z-0.2234
N8335 X1.3085 Y-0.6282 Z-0.2236
N8340 X1.3016 Y-0.6406 Z-0.2237
N8345 X1.2946 Y-0.6528 Z-0.2238
N8350 X1.28 Y-0.677 Z-0.2241
N8355 X1.2727 Y-0.689 Z-0.2242
N8360 X1.2652 Y-0.7009 Z-0.2244
N8365 X1.2575 Y-0.7128 Z-0.2245
N8370 X1.2498 Y-0.7246 Z-0.2246
N8375 X1.242 Y-0.7364 Z-0.2248
N8380 X1.2339 Y-0.7479 Z-0.2249
N8385 X1.2258 Y-0.7595 Z-0.225
N8390 X1.2177 Y-0.771 Z-0.2252
N8395 X1.2094 Y-0.7825 Z-0.2253
N8400 X1.1925 Y-0.805 Z-0.2256
N8405 X1.1839 Y-0.8163 Z-0.2257
N8410 X1.1752 Y-0.8273 Z-0.2258
N8415 X1.1663 Y-0.8383 Z-0.226
N8420 X1.1574 Y-0.8493 Z-0.2261
N8425 X1.1485 Y-0.8602 Z-0.2262
N8430 X1.1392 Y-0.8708 Z-0.2264
N8435 X1.13 Y-0.8815 Z-0.2265
N8440 X1.1207 Y-0.8922 Z-0.2267
N8445 X1.1113 Y-0.9027 Z-0.2268
N8450 X1.1017 Y-0.913 Z-0.2269
N8455 X1.0921 Y-0.9233 Z-0.2271
N8460 X1.0825 Y-0.9337 Z-0.2272
N8465 X1.0726 Y-0.9437 Z-0.2273
N8470 X1.0626 Y-0.9537 Z-0.2275
N8475 X1.0527 Y-0.9637 Z-0.2276
N8480 X1.0426 Y-0.9736 Z-0.2277
N8485 X1.0221 Y-0.993 Z-0.228
N8490 X1.0118 Y-1.0026 Z-0.2281
N8495 X1.0013 Y-1.012 Z-0.2283
N8500 X0.9907 Y-1.0214 Z-0.2284
N8505 X0.9801 Y-1.0307 Z-0.2285
N8510 X0.9694 Y-1.0399 Z-0.2287
N8515 X0.9585 Y-1.0489 Z-0.2288
N8520 X0.9476 Y-1.0579 Z-0.2289
N8525 X0.9367 Y-1.0668 Z-0.2291
N8530 X0.9256 Y-1.0755 Z-0.2292
N8535 X0.9144 Y-1.0841 Z-0.2293
N8540 X0.9032 Y-1.0927 Z-0.2295
N8545 X0.892 Y-1.1012 Z-0.2296
N8550 X0.8805 Y-1.1095 Z-0.2298
N8555 X0.869 Y-1.1177 Z-0.2299
N8560 X0.8575 Y-1.1259 Z-0.23
N8565 X0.846 Y-1.1339 Z-0.2302
N8570 X0.8225 Y-1.1495 Z-0.2304
N8575 X0.8107 Y-1.1573 Z-0.2306
N8580 X0.7987 Y-1.1648 Z-0.2307
N8585 X0.7867 Y-1.1722 Z-0.2308
N8590 X0.7747 Y-1.1796 Z-0.231
N8595 X0.7626 Y-1.1869 Z-0.2311
N8600 X0.7504 Y-1.1939 Z-0.2312
N8605 X0.7381 Y-1.2009 Z-0.2314
N8610 X0.7258 Y-1.2079 Z-0.2315
N8615 X0.7135 Y-1.2147 Z-0.2316
N8620 X0.701 Y-1.2212 Z-0.2318
N8625 X0.6885 Y-1.2278 Z-0.2319
N8630 X0.676 Y-1.2343 Z-0.232
N8635 X0.6633 Y-1.2405 Z-0.2322
N8640 X0.6506 Y-1.2467 Z-0.2323
N8645 X0.6379 Y-1.2528 Z-0.2324
N8650 X0.6251 Y-1.2588 Z-0.2326
N8655 X0.6122 Y-1.2645 Z-0.2327
N8660 X0.5993 Y-1.2702 Z-0.2329
N8665 X0.5864 Y-1.2759 Z-0.233
N8670 X0.5733 Y-1.2813 Z-0.2331
N8675 X0.5603 Y-1.2866 Z-0.2333
N8680 X0.5472 Y-1.2918 Z-0.2334
N8685 X0.534 Y-1.297 Z-0.2335
N8690 X0.5208 Y-1.3018 Z-0.2337
N8695 X0.5075 Y-1.3067 Z-0.2338
N8700 X0.4942 Y-1.3114 Z-0.2339
N8705 X0.4809 Y-1.3161 Z-0.2341
N8710 X0.4675 Y-1.3205 Z-0.2342
N8715 X0.4406 Y-1.3291 Z-0.2345
N8720 X0.4271 Y-1.3331 Z-0.2346
N8725 X0.4135 Y-1.337 Z-0.2347
N8730 X0.4 Y-1.3409 Z-0.2349
N8735 X0.3864 Y-1.3446 Z-0.235
N8740 X0.3727 Y-1.3481 Z-0.2351
N8745 X0.3453 Y-1.3549 Z-0.2354
N8750 X0.3315 Y-1.3581 Z-0.2355
N8755 X0.3178 Y-1.3611 Z-0.2357
N8760 X0.304 Y-1.3641 Z-0.2358
N8765 X0.2902 Y-1.3669 Z-0.236
N8770 X0.2763 Y-1.3695 Z-0.2361
N8775 X0.2624 Y-1.372 Z-0.2362
N8780 X0.2485 Y-1.3745 Z-0.2364
N8785 X0.2346 Y-1.3768 Z-0.2365
N8790 X0.2206 Y-1.3789 Z-0.2366
N8795 X0.2067 Y-1.3809 Z-0.2368
N8800 X0.1927 Y-1.3828 Z-0.2369
N8805 X0.1787 Y-1.3845 Z-0.237
N8810 X0.1646 Y-1.3861 Z-0.2372
N8815 X0.1506 Y-1.3876 Z-0.2373
N8820 X0.1366 Y-1.389 Z-0.2374
N8825 X0.1225 Y-1.3902 Z-0.2376
N8830 X0.1084 Y-1.3912 Z-0.2377
N8835 X0.0944 Y-1.3923 Z-0.2378
N8840 X0.0803 Y-1.3931 Z-0.238
N8845 X0.0662 Y-1.3937 Z-0.2381
N8850 X0.0521 Y-1.3943 Z-0.2382
N8855 X0.038 Y-1.3948 Z-0.2384
N8860 X0.0239 Y-1.395 Z-0.2385
N8865 X0.0098 Y-1.3951 Z-0.2386
N8870 X-0.0044 Y-1.3952 Z-0.2388
N8875 X-0.0185 Y-1.3951 Z-0.2389
N8880 X-0.0467 Y-1.3944 Z-0.2392
N8885 X-0.0608 Y-1.394 Z-0.2393
N8890 X-0.0749 Y-1.3933 Z-0.2395
N8895 X-0.089 Y-1.3925 Z-0.2396
N8900 X-0.103 Y-1.3916 Z-0.2397
N8905 X-0.1171 Y-1.3907 Z-0.2399
N8910 X-0.1312 Y-1.3894 Z-0.24
N8915 X-0.1452 Y-1.3881 Z-0.2401
N8920 X-0.1593 Y-1.3867 Z-0.2403
N8925 X-0.1733 Y-1.3851 Z-0.2404
N8930 X-0.1873 Y-1.3834 Z-0.2405
N8935 X-0.2013 Y-1.3816 Z-0.2407
N8940 X-0.2153 Y-1.3797 Z-0.2408
N8945 X-0.2292 Y-1.3776 Z-0.2409
N8950 X-0.2432 Y-1.3754 Z-0.2411
N8955 X-0.2571 Y-1.3731 Z-0.2412
N8960 X-0.271 Y-1.3705 Z-0.2413
N8965 X-0.2848 Y-1.3679 Z-0.2415
N8970 X-0.2987 Y-1.3652 Z-0.2416
N8975 X-0.3125 Y-1.3623 Z-0.2417
N8980 X-0.3263 Y-1.3593 Z-0.2419
N8985 X-0.34 Y-1.3562 Z-0.242
N8990 X-0.3538 Y-1.3529 Z-0.2422
N8995 X-0.3675 Y-1.3495 Z-0.2423
N9000 X-0.3811 Y-1.346 Z-0.2424
N9005 X-0.3948 Y-1.3423 Z-0.2426
N9010 X-0.4084 Y-1.3386 Z-0.2427
N9015 X-0.4219 Y-1.3347 Z-0.2428
N9020 X-0.4354 Y-1.3306 Z-0.243
N9025 X-0.4489 Y-1.3264 Z-0.2431
N9030 X-0.4624 Y-1.3222 Z-0.2432
N9035 X-0.4758 Y-1.3178 Z-0.2434
N9040 X-0.4891 Y-1.3132 Z-0.2435
N9045 X-0.5024 Y-1.3085 Z-0.2436
N9050 X-0.5157 Y-1.3038 Z-0.2438
N9055 X-0.5289 Y-1.2988 Z-0.2439
N9060 X-0.5421 Y-1.2937 Z-0.244
N9065 X-0.5553 Y-1.2887 Z-0.2442
N9070 X-0.5683 Y-1.2834 Z-0.2443
N9075 X-0.5814 Y-1.2779 Z-0.2444
N9080 X-0.5943 Y-1.2724 Z-0.2446
N9085 X-0.6073 Y-1.2668 Z-0.2447
N9090 X-0.6202 Y-1.2609 Z-0.2448
N9095 X-0.633 Y-1.255 Z-0.245
N9100 X-0.6458 Y-1.2491 Z-0.2451
N9105 X-0.6585 Y-1.243 Z-0.2453
N9110 X-0.6711 Y-1.2366 Z-0.2454
N9115 X-0.6837 Y-1.2303 Z-0.2455
N9120 X-0.6963 Y-1.2239 Z-0.2457
N9125 X-0.7087 Y-1.2172 Z-0.2458
N9130 X-0.7211 Y-1.2104 Z-0.2459
N9135 X-0.7334 Y-1.2036 Z-0.2461
N9140 X-0.7458 Y-1.1967 Z-0.2462
N9145 X-0.7579 Y-1.1896 Z-0.2463
N9150 X-0.77 Y-1.1824 Z-0.2465
N9155 X-0.7822 Y-1.1751 Z-0.2466
N9160 X-0.7942 Y-1.1677 Z-0.2467
N9165 X-0.806 Y-1.1601 Z-0.2469
N9170 X-0.8179 Y-1.1525 Z-0.247
N9175 X-0.8298 Y-1.1448 Z-0.2471
N9180 X-0.8414 Y-1.1369 Z-0.2473
N9185 X-0.8531 Y-1.1289 Z-0.2474
N9190 X-0.8647 Y-1.1209 Z-0.2475
N9195 X-0.8762 Y-1.1127 Z-0.2477
N9200 X-0.8875 Y-1.1043 Z-0.2478
N9205 X-0.8989 Y-1.0959 Z-0.2479
N9210 X-0.9102 Y-1.0875 Z-0.2481
N9215 X-0.9213 Y-1.0788 Z-0.2482
N9220 X-0.9324 Y-1.0701 Z-0.2484
N9225 X-0.9434 Y-1.0613 Z-0.2485
N9230 X-0.9544 Y-1.0524 Z-0.2486
N9235 X-0.9652 Y-1.0433 Z-0.2488
N9240 X-0.9759 Y-1.0342 Z-0.2489
N9245 X-0.9867 Y-1.025 Z-0.249
N9250 X-0.9972 Y-1.0157 Z-0.2492
N9255 X-1.0077 Y-1.0061 Z-0.2493
N9260 X-1.0181 Y-0.9966 Z-0.2494
N9265 X-1.0285 Y-0.9871 Z-0.2496
N9270 X-1.0386 Y-0.9773 Z-0.2497
N9275 X-1.0487 Y-0.9674 Z-0.2498
N9280 X-1.0588 Y-0.9576 Z-0.25
N9285 X-1.0688 Y-0.9476 Z-0.2501
N9290 X-1.0981 Y-0.9171 Z-0.2505
N9295 X-1.1076 Y-0.9066 Z-0.2506
N9300 X-1.117 Y-0.8961 Z-0.2508
N9305 X-1.1264 Y-0.8856 Z-0.2509
N9310 X-1.1358 Y-0.875 Z-0.251
N9315 X-1.1449 Y-0.8642 Z-0.2512
N9320 X-1.1539 Y-0.8534 Z-0.2513
N9325 X-1.163 Y-0.8426 Z-0.2514
N9330 X-1.1718 Y-0.8316 Z-0.2516
N9335 X-1.1805 Y-0.8204 Z-0.2517
N9340 X-1.1892 Y-0.8093 Z-0.2519
N9345 X-1.1978 Y-0.7982 Z-0.252
N9350 X-1.2062 Y-0.7868 Z-0.2521
N9355 X-1.2145 Y-0.7754 Z-0.2523
N9360 X-1.2228 Y-0.7639 Z-0.2524
N9365 X-1.2309 Y-0.7524 Z-0.2525
N9370 X-1.2388 Y-0.7408 Z-0.2527
N9375 X-1.2467 Y-0.7291 Z-0.2528
N9380 X-1.2546 Y-0.7174 Z-0.2529
N9385 X-1.2622 Y-0.7055 Z-0.2531
N9390 X-1.2698 Y-0.6935 Z-0.2532
N9395 X-1.2773 Y-0.6816 Z-0.2533
N9400 X-1.2847 Y-0.6696 Z-0.2535
N9405 X-1.2918 Y-0.6574 Z-0.2536
N9410 X-1.2989 Y-0.6452 Z-0.2537
N9415 X-1.306 Y-0.633 Z-0.2539
N9420 X-1.3128 Y-0.6207 Z-0.254
N9425 X-1.3195 Y-0.6083 Z-0.2541
N9430 X-1.3262 Y-0.5958 Z-0.2543
N9435 X-1.3329 Y-0.5834 Z-0.2544
N9440 X-1.3392 Y-0.5708 Z-0.2545
N9445 X-1.3454 Y-0.5581 Z-0.2547
N9450 X-1.3517 Y-0.5455 Z-0.2548
N9455 X-1.3578 Y-0.5327 Z-0.255
N9460 X-1.3636 Y-0.5199 Z-0.2551
N9465 X-1.3694 Y-0.507 Z-0.2552
N9470 X-1.3752 Y-0.4942 Z-0.2554
N9475 X-1.3807 Y-0.4812 Z-0.2555
N9480 X-1.3861 Y-0.4681 Z-0.2556
N9485 X-1.3915 Y-0.4551 Z-0.2558
N9490 X-1.3968 Y-0.442 Z-0.2559
N9495 X-1.4018 Y-0.4288 Z-0.256
N9500 X-1.4067 Y-0.4156 Z-0.2562
N9505 X-1.4117 Y-0.4024 Z-0.2563
N9510 X-1.4163 Y-0.389 Z-0.2564
N9515 X-1.4209 Y-0.3757 Z-0.2566
N9520 X-1.4253 Y-0.3623 Z-0.2567
N9525 X-1.4298 Y-0.3489 Z-0.2568
N9530 X-1.4339 Y-0.3354 Z-0.257
N9535 X-1.4379 Y-0.3219 Z-0.2571
N9540 X-1.442 Y-0.3084 Z-0.2572
N9545 X-1.4458 Y-0.2948 Z-0.2574
N9550 X-1.4494 Y-0.2811 Z-0.2575
N9555 X-1.453 Y-0.2675 Z-0.2576
N9560 X-1.4565 Y-0.2538 Z-0.2578
N9565 X-1.4598 Y-0.2401 Z-0.2579
N9570 X-1.4629 Y-0.2263 Z-0.2581
N9575 X-1.466 Y-0.2126 Z-0.2582
N9580 X-1.469 Y-0.1988 Z-0.2583
N9585 X-1.4717 Y-0.1849 Z-0.2585
N9590 X-1.4743 Y-0.1711 Z-0.2586
N9595 X-1.4769 Y-0.1572 Z-0.2587
N9600 X-1.4793 Y-0.1433 Z-0.2589
N9605 X-1.4815 Y-0.1293 Z-0.259
N9610 X-1.4837 Y-0.1154 Z-0.2591
N9615 X-1.4858 Y-0.1014 Z-0.2593
N9620 X-1.4876 Y-0.0874 Z-0.2594
N9625 X-1.4893 Y-0.0734 Z-0.2595
N9630 X-1.4909 Y-0.0594 Z-0.2597
N9635 X-1.4924 Y-0.0454 Z-0.2598
N9640 X-1.4937 Y-0.0313 Z-0.2599
N9645 X-1.4949 Y-0.0173 Z-0.2601
N9650 X-1.4961 Y-0.0032 Z-0.2602
N9655 X-1.497 Y0.0109 Z-0.2603
N9660 X-1.4978 Y0.0249 Z-0.2605
N9665 X-1.4985 Y0.039 Z-0.2606
N9670 X-1.4991 Y0.0531 Z-0.2607
N9675 X-1.4994 Y0.0672 Z-0.2609
N9680 X-1.4997 Y0.0814 Z-0.261
N9685 X-1.4999 Y0.0955 Z-0.2612
N9690 X-1.5 Y0.1096 Z-0.2613
N9695 X-1.4998 Y0.1237 Z-0.2614
N9700 X-1.4995 Y0.1378 Z-0.2616
N9705 X-1.4992 Y0.1519 Z-0.2617
N9710 X-1.4987 Y0.166 Z-0.2618
N9715 X-1.498 Y0.1801 Z-0.262
N9720 X-1.4973 Y0.1942 Z-0.2621
N9725 X-1.4964 Y0.2083 Z-0.2622
N9730 X-1.4953 Y0.2223 Z-0.2624
N9735 X-1.4941 Y0.2364 Z-0.2625
N9740 Y0.2366
N9745 X-1.4929 Y0.2507 Z-0.2626
N9750 X-1.4914 Y0.2647 Z-0.2628
N9755 X-1.4898 Y0.2788 Z-0.2629
N9760 X-1.4881 Y0.2928 Z-0.263
N9765 X-1.4863 Y0.3068 Z-0.2632
N9770 X-1.4843 Y0.3208 Z-0.2633
N9775 X-1.4822 Y0.3348 Z-0.2634
N9780 X-1.48 Y0.3487 Z-0.2635
N9785 X-1.4776 Y0.3626 Z-0.2637
N9790 X-1.4751 Y0.3765 Z-0.2638
N9795 X-1.4725 Y0.3904 Z-0.2639
N9800 X-1.4698 Y0.4043 Z-0.2641
N9805 X-1.4668 Y0.4181 Z-0.2642
N9810 X-1.4638 Y0.4319 Z-0.2643
N9815 X-1.4607 Y0.4457 Z-0.2645
N9820 X-1.4575 Y0.4594 Z-0.2646
N9825 X-1.454 Y0.4731 Z-0.2647
N9830 X-1.4505 Y0.4868 Z-0.2649
N9835 X-1.4468 Y0.5005 Z-0.265
N9840 X-1.443 Y0.5141 Z-0.2651
N9845 X-1.4391 Y0.5276 Z-0.2653
N9850 X-1.435 Y0.5412 Z-0.2654
N9855 X-1.4309 Y0.5547 Z-0.2655
N9860 X-1.4266 Y0.5681 Z-0.2656
N9865 X-1.4221 Y0.5815 Z-0.2658
N9870 X-1.4176 Y0.5949 Z-0.2659
N9875 X-1.4129 Y0.6082 Z-0.266
N9880 X-1.4081 Y0.6215 Z-0.2662
N9885 X-1.4031 Y0.6348 Z-0.2663
N9890 X-1.3982 Y0.648 Z-0.2664
N9895 X-1.3929 Y0.6611 Z-0.2666
N9900 X-1.3876 Y0.6742 Z-0.2667
N9905 X-1.3822 Y0.6872 Z-0.2668
N9910 X-1.3767 Y0.7002 Z-0.267
N9915 X-1.371 Y0.7132 Z-0.2671
N9920 X-1.3652 Y0.726 Z-0.2672
N9925 X-1.3593 Y0.7389 Z-0.2674
N9930 X-1.3533 Y0.7517 Z-0.2675
N9935 X-1.3471 Y0.7644 Z-0.2676
N9940 X-1.3408 Y0.777 Z-0.2677
N9945 X-1.3345 Y0.7897 Z-0.2679
N9950 X-1.3279 Y0.8022 Z-0.268
N9955 X-1.3213 Y0.8146 Z-0.2681
N9960 X-1.3146 Y0.8271 Z-0.2683
N9965 X-1.3077 Y0.8394 Z-0.2684
N9970 X-1.3007 Y0.8517 Z-0.2685
N9975 X-1.2936 Y0.8639 Z-0.2687
N9980 X-1.2864 Y0.8761 Z-0.2688
N9985 X-1.2791 Y0.8881 Z-0.2689
N9990 X-1.2716 Y0.9001 Z-0.2691
N9995 X-1.2641 Y0.9121 Z-0.2692
N10000 X-1.2565 Y0.924 Z-0.2693
N10005 X-1.2487 Y0.9358 Z-0.2695
N10010 X-1.2408 Y0.9475 Z-0.2696
N10015 X-1.2328 Y0.9591 Z-0.2697
N10020 X-1.2247 Y0.9707 Z-0.2698
N10025 X-1.2165 Y0.9822 Z-0.27
N10030 X-1.2082 Y0.9936 Z-0.2701
N10035 X-1.1998 Y1.005 Z-0.2702
N10040 X-1.1912 Y1.0162 Z-0.2704
N10045 X-1.1826 Y1.0274 Z-0.2705
N10050 X-1.1739 Y1.0385 Z-0.2706
N10055 X-1.165 Y1.0495 Z-0.2708
N10060 X-1.156 Y1.0604 Z-0.2709
N10065 X-1.147 Y1.0713 Z-0.271
N10070 X-1.1379 Y1.0821 Z-0.2712
N10075 X-1.1286 Y1.0927 Z-0.2713
N10080 X-1.1192 Y1.1033 Z-0.2714
N10085 X-1.1098 Y1.1138 Z-0.2716
N10090 X-1.1003 Y1.1242 Z-0.2717
N10095 X-1.0906 Y1.1345 Z-0.2718
N10100 X-1.0808 Y1.1447 Z-0.2719
N10105 X-1.071 Y1.1549 Z-0.2721
N10110 X-1.0611 Y1.1649 Z-0.2722
N10115 X-1.051 Y1.1748 Z-0.2723
N10120 X-1.0409 Y1.1847 Z-0.2725
N10125 X-1.0307 Y1.1945 Z-0.2726
N10130 X-1.0204 Y1.2041 Z-0.2727
N10135 X-1.0099 Y1.2137 Z-0.2729
N10140 X-0.9995 Y1.2232 Z-0.273
N10145 X-0.9889 Y1.2326 Z-0.2731
N10150 X-0.9782 Y1.2418 Z-0.2733
N10155 X-0.9675 Y1.2509 Z-0.2734
N10160 X-0.9567 Y1.26 Z-0.2735
N10165 X-0.9457 Y1.269 Z-0.2737
N10170 X-0.9347 Y1.2778 Z-0.2738
N10175 X-0.9236 Y1.2866 Z-0.2739
N10180 X-0.9125 Y1.2953 Z-0.274
N10185 X-0.9012 Y1.3038 Z-0.2742
N10190 X-0.8898 Y1.3122 Z-0.2743
N10195 X-0.8785 Y1.3205 Z-0.2744
N10200 X-0.867 Y1.3288 Z-0.2746
N10205 X-0.8554 Y1.3368 Z-0.2747
N10210 X-0.8437 Y1.3448 Z-0.2748
N10215 X-0.8321 Y1.3528 Z-0.275
N10220 X-0.8203 Y1.3605 Z-0.2751
N10225 X-0.8084 Y1.3682 Z-0.2752
N10230 X-0.7964 Y1.3758 Z-0.2754
N10235 X-0.7845 Y1.3832 Z-0.2755
N10240 X-0.7724 Y1.3905 Z-0.2756
N10245 X-0.7602 Y1.3977 Z-0.2758
N10250 X-0.748 Y1.4049 Z-0.2759
N10255 X-0.7357 Y1.4119 Z-0.276
N10260 X-0.7234 Y1.4187 Z-0.2761
N10265 X-0.711 Y1.4255 Z-0.2763
N10270 X-0.6985 Y1.4322 Z-0.2764
N10275 X-0.686 Y1.4386 Z-0.2765
N10280 X-0.6734 Y1.445 Z-0.2767
N10285 X-0.6607 Y1.4513 Z-0.2768
N10290 X-0.648 Y1.4575 Z-0.2769
N10295 X-0.6352 Y1.4635 Z-0.2771
N10300 X-0.6224 Y1.4694 Z-0.2772
N10305 X-0.6096 Y1.4753 Z-0.2773
N10310 X-0.5966 Y1.4809 Z-0.2775
N10315 X-0.5836 Y1.4864 Z-0.2776
N10320 X-0.5706 Y1.4919 Z-0.2777
N10325 X-0.5575 Y1.4973 Z-0.2778
N10330 X-0.5443 Y1.5024 Z-0.278
N10335 X-0.5311 Y1.5074 Z-0.2781
N10340 X-0.5179 Y1.5124 Z-0.2782
N10345 X-0.5047 Y1.5173 Z-0.2784
N10350 X-0.4913 Y1.5219 Z-0.2785
N10355 X-0.4779 Y1.5265 Z-0.2786
N10360 X-0.4646 Y1.531 Z-0.2788
N10365 X-0.4511 Y1.5353 Z-0.2789
N10370 X-0.4376 Y1.5394 Z-0.279
N10375 X-0.4241 Y1.5435 Z-0.2792
N10380 X-0.4105 Y1.5474 Z-0.2793
N10385 X-0.3969 Y1.5512 Z-0.2794
N10390 X-0.3832 Y1.5549 Z-0.2796
N10395 X-0.3696 Y1.5585 Z-0.2797
N10400 X-0.3559 Y1.5619 Z-0.2798
N10405 X-0.3421 Y1.5651 Z-0.2799
N10410 X-0.3283 Y1.5683 Z-0.2801
N10415 X-0.3146 Y1.5714 Z-0.2802
N10420 X-0.3007 Y1.5742 Z-0.2803
N10425 X-0.2869 Y1.577 Z-0.2805
N10430 X-0.273 Y1.5796 Z-0.2806
N10435 X-0.2591 Y1.5822 Z-0.2807
N10440 X-0.2452 Y1.5845 Z-0.2809
N10445 X-0.2312 Y1.5867 Z-0.281
N10450 X-0.2173 Y1.5889 Z-0.2811
N10455 X-0.2033 Y1.5909 Z-0.2813
N10460 X-0.1893 Y1.5926 Z-0.2814
N10465 X-0.1752 Y1.5944 Z-0.2815
N10470 X-0.1612 Y1.596 Z-0.2817
N10475 X-0.1471 Y1.5974 Z-0.2818
N10480 X-0.1331 Y1.5987 Z-0.2819
N10485 X-0.119 Y1.6 Z-0.282
N10490 X-0.1049 Y1.601 Z-0.2822
N10495 X-0.0908 Y1.6019 Z-0.2823
N10500 X-0.0767 Y1.6027 Z-0.2824
N10505 X-0.0626 Y1.6034 Z-0.2826
N10510 X-0.0485 Y1.6039 Z-0.2827
N10515 X-0.0344 Y1.6042 Z-0.2828
N10520 X-0.0202 Y1.6045 Z-0.283
N10525 X-0.0061 Y1.6047 Z-0.2831
N10530 X0.008 Y1.6046 Z-0.2832
N10535 X0.0221 Y1.6045 Z-0.2834
N10540 X0.0363 Y1.6043 Z-0.2835
N10545 X0.0504 Y1.6038 Z-0.2836
N10550 X0.0645 Y1.6032 Z-0.2838
N10555 X0.0786 Y1.6026 Z-0.2839
N10560 X0.0927 Y1.6018 Z-0.284
N10565 X0.1068 Y1.6008 Z-0.2841
N10570 X0.1209 Y1.5998 Z-0.2843
N10575 X0.135 Y1.5986 Z-0.2844
N10580 X0.149 Y1.5973 Z-0.2845
N10585 X0.1631 Y1.5957 Z-0.2847
N10590 X0.1771 Y1.5942 Z-0.2848
N10595 X0.1912 Y1.5925 Z-0.2849
N10600 X0.2052 Y1.5906 Z-0.2851
N10605 X0.2191 Y1.5885 Z-0.2852
N10610 X0.2331 Y1.5865 Z-0.2853
N10615 X0.2471 Y1.5842 Z-0.2855
N10620 X0.261 Y1.5818 Z-0.2856
N10625 X0.2749 Y1.5793 Z-0.2857
N10630 X0.2888 Y1.5767 Z-0.2859
N10635 X0.3026 Y1.5739 Z-0.286
N10640 X0.3164 Y1.5709 Z-0.2861
N10645 X0.3302 Y1.5679 Z-0.2862
N10650 X0.344 Y1.5647 Z-0.2864
N10655 X0.3577 Y1.5614 Z-0.2865
N10660 X0.3714 Y1.5579 Z-0.2866
N10665 X0.3851 Y1.5544 Z-0.2868
N10670 X0.3987 Y1.5507 Z-0.2869
N10675 X0.4123 Y1.5469 Z-0.287
N10680 X0.4259 Y1.5429 Z-0.2872
N10685 X0.4394 Y1.5389 Z-0.2873
N10690 X0.4529 Y1.5347 Z-0.2874
N10695 X0.4663 Y1.5303 Z-0.2876
N10700 X0.4798 Y1.5259 Z-0.2877
N10705 X0.4931 Y1.5213 Z-0.2878
N10710 X0.5064 Y1.5166 Z-0.288
N10715 X0.5197 Y1.5117 Z-0.2881
N10720 X0.533 Y1.5068 Z-0.2882
N10725 X0.5461 Y1.5017 Z-0.2883
N10730 X0.5592 Y1.4965 Z-0.2885
N10735 X0.5723 Y1.4912 Z-0.2886
N10740 X0.5854 Y1.4858 Z-0.2887
N10745 X0.5983 Y1.4801 Z-0.2889
N10750 X0.6113 Y1.4744 Z-0.289
N10755 X0.6242 Y1.4687 Z-0.2891
N10760 X0.637 Y1.4627 Z-0.2893
N10765 X0.6497 Y1.4566 Z-0.2894
N10770 X0.6624 Y1.4504 Z-0.2895
N10775 X0.6751 Y1.4442 Z-0.2897
N10780 X0.6877 Y1.4378 Z-0.2898
N10785 X0.7002 Y1.4312 Z-0.2899
N10790 X0.7127 Y1.4246 Z-0.2901
N10795 X0.7251 Y1.4178 Z-0.2902
N10800 X0.7374 Y1.4109 Z-0.2903
N10805 X0.7496 Y1.4039 Z-0.2904
N10810 X0.7619 Y1.3968 Z-0.2906
N10815 X0.774 Y1.3896 Z-0.2907
N10820 X0.786 Y1.3822 Z-0.2908
N10825 X0.7981 Y1.3747 Z-0.291
N10830 X0.81 Y1.3672 Z-0.2911
N10835 X0.8218 Y1.3595 Z-0.2912
N10840 X0.8336 Y1.3517 Z-0.2914
N10845 X0.8453 Y1.3438 Z-0.2915
N10850 X0.857 Y1.3358 Z-0.2916
N10855 X0.8685 Y1.3276 Z-0.2918
N10860 X0.88 Y1.3194 Z-0.2919
N10865 X0.8914 Y1.3111 Z-0.292
N10870 X0.9027 Y1.3026 Z-0.2921
N10875 X0.9139 Y1.294 Z-0.2923
N10880 X0.9251 Y1.2854 Z-0.2924
N10885 X0.9362 Y1.2767 Z-0.2925
N10890 X0.9472 Y1.2677 Z-0.2927
N10895 X0.9581 Y1.2588 Z-0.2928
N10900 X0.969 Y1.2497 Z-0.2929
N10905 X0.9797 Y1.2406 Z-0.2931
N10910 X0.9903 Y1.2312 Z-0.2932
N10915 X1.0009 Y1.2219 Z-0.2933
N10920 X1.0114 Y1.2124 Z-0.2935
N10925 X1.0218 Y1.2028 Z-0.2936
N10930 X1.032 Y1.1931 Z-0.2937
N10935 X1.0423 Y1.1834 Z-0.2939
N10940 X1.0524 Y1.1736 Z-0.294
N10945 X1.0624 Y1.1635 Z-0.2941
N10950 X1.0723 Y1.1535 Z-0.2942
N10955 X1.0822 Y1.1434 Z-0.2944
N10960 X1.0919 Y1.1331 Z-0.2945
N10965 X1.1015 Y1.1228 Z-0.2946
N10970 X1.1111 Y1.1124 Z-0.2948
N10975 X1.1205 Y1.1019 Z-0.2949
N10980 X1.1298 Y1.0913 Z-0.295
N10985 X1.1391 Y1.0806 Z-0.2952
N10990 X1.1482 Y1.0698 Z-0.2953
N10995 X1.1573 Y1.059 Z-0.2954
N11000 X1.1662 Y1.048 Z-0.2956
N11005 X1.175 Y1.037 Z-0.2957
N11010 X1.1838 Y1.0259 Z-0.2958
N11015 X1.1924 Y1.0147 Z-0.296
N11020 X1.2009 Y1.0034 Z-0.2961
N11025 X1.2093 Y0.9921 Z-0.2962
N11030 X1.2177 Y0.9807 Z-0.2963
N11035 X1.2258 Y0.9691 Z-0.2965
N11040 X1.2339 Y0.9575 Z-0.2966
N11045 X1.2419 Y0.9459 Z-0.2967
N11050 X1.2498 Y0.9342 Z-0.2969
N11055 X1.2575 Y0.9223 Z-0.297
N11060 X1.2651 Y0.9105 Z-0.2971
N11065 X1.2727 Y0.8986 Z-0.2973
N11070 X1.2801 Y0.8865 Z-0.2974
N11075 X1.2874 Y0.8744 Z-0.2975
N11080 X1.2946 Y0.8623 Z-0.2977
N11085 X1.3017 Y0.85 Z-0.2978
N11090 X1.3086 Y0.8377 Z-0.2979
N11095 X1.3155 Y0.8254 Z-0.2981
N11100 X1.3223 Y0.813 Z-0.2982
N11105 X1.3288 Y0.8005 Z-0.2983
N11110 X1.3353 Y0.7879 Z-0.2984
N11115 X1.3417 Y0.7753 Z-0.2986
N11120 X1.348 Y0.7627 Z-0.2987
N11125 X1.354 Y0.7499 Z-0.2988
N11130 X1.3601 Y0.7371 Z-0.299
N11135 X1.366 Y0.7243 Z-0.2991
N11140 X1.3718 Y0.7114 Z-0.2992
N11145 X1.3774 Y0.6985 Z-0.2994
N11150 X1.3829 Y0.6855 Z-0.2995
N11155 X1.3884 Y0.6724 Z-0.2996
N11160 X1.3936 Y0.6593 Z-0.2998
N11165 X1.3988 Y0.6462 Z-0.2999
N11170 X1.4039 Y0.633 Z-0.3
N11175 X1.4088 Y0.6197 Z-0.3002
N11180 X1.4135 Y0.6064 Z-0.3003
N11185 X1.4182 Y0.5931 Z-0.3004
N11190 X1.4228 Y0.5797 Z-0.3005
N11195 X1.4271 Y0.5663 Z-0.3007
N11200 X1.4314 Y0.5528 Z-0.3008
N11205 X1.4356 Y0.5393 Z-0.3009
N11210 X1.4397 Y0.5258 Z-0.3011
N11215 X1.4435 Y0.5122 Z-0.3012
N11220 X1.4473 Y0.4986 Z-0.3013
N11225 X1.451 Y0.485 Z-0.3015
N11230 X1.4545 Y0.4713 Z-0.3016
N11235 X1.4578 Y0.4575 Z-0.3017
N11240 X1.4611 Y0.4438 Z-0.3019
N11245 X1.4643 Y0.43 Z-0.302
N11250 X1.4672 Y0.4162 Z-0.3021
N11255 X1.4701 Y0.4024 Z-0.3023
N11260 X1.4729 Y0.3885 Z-0.3024
N11265 X1.4755 Y0.3747 Z-0.3025
N11270 X1.4779 Y0.3607 Z-0.3026
N11275 X1.4802 Y0.3468 Z-0.3028
N11280 X1.4825 Y0.3329 Z-0.3029
N11285 X1.4846 Y0.3189 Z-0.303
N11290 X1.4865 Y0.3049 Z-0.3032
N11295 X1.4883 Y0.2909 Z-0.3033
N11300 X1.4901 Y0.2769 Z-0.3034
N11305 X1.4915 Y0.2628 Z-0.3036
N11310 X1.493 Y0.2488 Z-0.3037
N11315 X1.4943 Y0.2347 Z-0.3038
N11320 X1.4955 Y0.2206 Z-0.304
N11325 X1.4964 Y0.2065 Z-0.3041
N11330 X1.4973 Y0.1924 Z-0.3042
N11335 X1.4982 Y0.1783 Z-0.3044
N11340 X1.4987 Y0.1642 Z-0.3045
N11345 X1.4992 Y0.1501 Z-0.3046
N11350 X1.4996 Y0.136 Z-0.3047
N11355 X1.4999 Y0.1218 Z-0.3049
N11360 Y0.1077 Z-0.305
N11365 X1.4998 Y0.0936 Z-0.3051
N11370 Y0.0795 Z-0.3053
N11375 X1.4994 Y0.0653 Z-0.3054
N11380 X1.4989 Y0.0512 Z-0.3055
N11385 X1.4984 Y0.0371 Z-0.3057
N11390 X1.4978 Y0.023 Z-0.3058
N11395 X1.4968 Y0.0089 Z-0.3059
N11400 X1.4948 Y-0.0193 Z-0.3062
N11405 X1.4935 Y-0.0334 Z-0.3063
N11410 X1.4921 Y-0.0474 Z-0.3065
N11415 X1.4906 Y-0.0615 Z-0.3066
N11420 X1.4891 Y-0.0755 Z-0.3067
N11425 X1.4872 Y-0.0895 Z-0.3068
N11430 X1.4853 Y-0.1035 Z-0.307
N11435 X1.4834 Y-0.1175 Z-0.3071
N11440 X1.4812 Y-0.1315 Z-0.3072
N11445 X1.4788 Y-0.1454 Z-0.3074
N11450 X1.4764 Y-0.1593 Z-0.3075
N11455 X1.474 Y-0.1732 Z-0.3076
N11460 X1.4712 Y-0.1871 Z-0.3078
N11465 X1.4684 Y-0.2009 Z-0.3079
N11470 X1.4655 Y-0.2147 Z-0.308
N11475 X1.4625 Y-0.2285 Z-0.3082
N11480 X1.4592 Y-0.2423 Z-0.3083
N11485 X1.4558 Y-0.256 Z-0.3084
N11490 X1.4525 Y-0.2697 Z-0.3085
N11495 X1.4488 Y-0.2834 Z-0.3087
N11500 X1.445 Y-0.297 Z-0.3088
N11505 X1.4412 Y-0.3106 Z-0.3089
N11510 X1.4374 Y-0.3242 Z-0.3091
N11515 X1.4332 Y-0.3377 Z-0.3092
N11520 X1.4289 Y-0.3511 Z-0.3093
N11525 X1.4246 Y-0.3646 Z-0.3095
N11530 X1.4202 Y-0.378 Z-0.3096
N11535 X1.4155 Y-0.3913 Z-0.3097
N11540 X1.4107 Y-0.4046 Z-0.3099
N11545 X1.406 Y-0.4179 Z-0.31
N11550 X1.4009 Y-0.4311 Z-0.3101
N11555 X1.3958 Y-0.4443 Z-0.3103
N11560 X1.3906 Y-0.4574 Z-0.3104
N11565 X1.3853 Y-0.4705 Z-0.3105
N11570 X1.3797 Y-0.4835 Z-0.3106
N11575 X1.3741 Y-0.4965 Z-0.3108
N11580 X1.3685 Y-0.5094 Z-0.3109
N11585 X1.3626 Y-0.5223 Z-0.311
N11590 X1.3566 Y-0.535 Z-0.3112
N11595 X1.3505 Y-0.5478 Z-0.3113
N11600 X1.3444 Y-0.5605 Z-0.3114
N11605 X1.338 Y-0.5731 Z-0.3116
N11610 X1.3315 Y-0.5857 Z-0.3117
N11615 X1.325 Y-0.5982 Z-0.3118
N11620 X1.3184 Y-0.6107 Z-0.312
N11625 X1.3115 Y-0.623 Z-0.3121
N11630 X1.3046 Y-0.6353 Z-0.3122
N11635 X1.2976 Y-0.6477 Z-0.3124
N11640 X1.2904 Y-0.6598 Z-0.3125
N11645 X1.2831 Y-0.6719 Z-0.3126
N11650 X1.2758 Y-0.684 Z-0.3127
N11655 X1.2684 Y-0.696 Z-0.3129
N11660 X1.2607 Y-0.7079 Z-0.313
N11665 X1.253 Y-0.7197 Z-0.3131
N11670 X1.2452 Y-0.7315 Z-0.3133
N11675 X1.2373 Y-0.7432 Z-0.3134
N11680 X1.2292 Y-0.7548 Z-0.3135
N11685 X1.221 Y-0.7663 Z-0.3137
N11690 X1.2129 Y-0.7778 Z-0.3138
N11695 X1.2044 Y-0.7892 Z-0.3139
N11700 X1.1959 Y-0.8004 Z-0.3141
N11705 X1.1874 Y-0.8117 Z-0.3142
N11710 X1.1788 Y-0.8229 Z-0.3143
N11715 X1.1699 Y-0.8339 Z-0.3145
N11720 X1.161 Y-0.8448 Z-0.3146
N11725 X1.1521 Y-0.8558 Z-0.3147
N11730 X1.1429 Y-0.8666 Z-0.3148
N11735 X1.1337 Y-0.8773 Z-0.315
N11740 X1.1244 Y-0.8879 Z-0.3151
N11745 X1.1151 Y-0.8985 Z-0.3152
N11750 X1.1055 Y-0.9089 Z-0.3154
N11755 X1.0959 Y-0.9193 Z-0.3155
N11760 X1.0863 Y-0.9296 Z-0.3156
N11765 X1.0765 Y-0.9398 Z-0.3158
N11770 X1.0665 Y-0.9498 Z-0.3159
N11775 X1.0566 Y-0.9598 Z-0.316
N11780 X1.0466 Y-0.9698 Z-0.3162
N11785 X1.0364 Y-0.9796 Z-0.3163
N11790 X1.0261 Y-0.9892 Z-0.3164
N11795 X1.0158 Y-0.9989 Z-0.3166
N11800 X1.0054 Y-1.0085 Z-0.3167
N11805 X0.9948 Y-1.0178 Z-0.3168
N11810 X0.9841 Y-1.0271 Z-0.3169
N11815 X0.9735 Y-1.0364 Z-0.3171
N11820 X0.9627 Y-1.0455 Z-0.3172
N11825 X0.9518 Y-1.0545 Z-0.3173
N11830 X0.9408 Y-1.0634 Z-0.3175
N11835 X0.9298 Y-1.0723 Z-0.3176
N11840 X0.9187 Y-1.0809 Z-0.3177
N11845 X0.9074 Y-1.0895 Z-0.3179
N11850 X0.8962 Y-1.0981 Z-0.318
N11855 X0.8848 Y-1.1065 Z-0.3181
N11860 X0.8733 Y-1.1147 Z-0.3183
N11865 X0.8618 Y-1.1228 Z-0.3184
N11870 X0.8503 Y-1.131 Z-0.3185
N11875 X0.8386 Y-1.1389 Z-0.3187
N11880 X0.8268 Y-1.1467 Z-0.3188
N11885 X0.815 Y-1.1545 Z-0.3189
N11890 X0.8031 Y-1.1621 Z-0.319
N11895 X0.7911 Y-1.1696 Z-0.3192
N11900 X0.7791 Y-1.1769 Z-0.3193
N11905 X0.767 Y-1.1843 Z-0.3194
N11910 X0.7548 Y-1.1915 Z-0.3196
N11915 X0.7425 Y-1.1984 Z-0.3197
N11920 X0.7302 Y-1.2054 Z-0.3198
N11925 X0.7179 Y-1.2123 Z-0.32
N11930 X0.7054 Y-1.2189 Z-0.3201
N11935 X0.6929 Y-1.2255 Z-0.3202
N11940 X0.6804 Y-1.232 Z-0.3204
N11945 X0.6678 Y-1.2384 Z-0.3205
N11950 X0.6551 Y-1.2445 Z-0.3206
N11955 X0.6423 Y-1.2507 Z-0.3208
N11960 X0.6296 Y-1.2567 Z-0.3209
N11965 X0.6167 Y-1.2625 Z-0.321
N11970 X0.6038 Y-1.2683 Z-0.3211
N11975 X0.5908 Y-1.2739 Z-0.3213
N11980 X0.5779 Y-1.2795 Z-0.3214
N11985 X0.5648 Y-1.2848 Z-0.3215
N11990 X0.5516 Y-1.29 Z-0.3217
N11995 X0.5385 Y-1.2952 Z-0.3218
N12000 X0.5253 Y-1.3002 Z-0.3219
N12005 X0.512 Y-1.3051 Z-0.3221
N12010 X0.4987 Y-1.3098 Z-0.3222
N12015 X0.4854 Y-1.3145 Z-0.3223
N12020 X0.4789 Y-1.3168 Z-0.3224
N12025 X0.4767 Y-1.3177
N12030 X0.4766 Y-1.3178
N12035 X0.4759 Y-1.3187
N12040 X0.4741 Y-1.3218 Z-0.3225
N12045 X0.46 Y-1.3462 Z-0.3228
N12050 X0.4458 Y-1.3707 Z-0.3231
N12055 X0.4388 Y-1.3829 Z-0.3232
N12060 X0.4246 Y-1.4074 Z-0.3235
N12065 X0.4105 Y-1.4319 Z-0.3238
N12070 X0.3964 Y-1.4563 Z-0.3241
N12075 X0.3823 Y-1.4808 Z-0.3244
N12080 X0.3752 Y-1.493 Z-0.3245
N12085 X0.3611 Y-1.5175 Z-0.3247
N12090 X0.3538 Y-1.5296 Z-0.3248
N12095 X0.3496 Y-1.5353 Z-0.3249
N12100 X0.3452 Y-1.5409
N12105 X0.3405 Y-1.5461 Z-0.325
N12110 X0.3355 Y-1.5511
N12115 X0.3302 Y-1.5558
N12120 X0.3247 Y-1.5601 Z-0.3251
N12125 X0.3189 Y-1.5642
N12130 X0.3129 Y-1.5679 Z-0.3252
N12135 X0.3067 Y-1.5713
N12140 X0.3003 Y-1.5743 Z-0.3253
N12145 X0.2937 Y-1.577
N12150 X0.2871 Y-1.5793 Z-0.3254
N12155 X0.2803 Y-1.5812
N12160 X0.2734 Y-1.5827 Z-0.3255
N12165 X0.2664 Y-1.5838
N12170 X0.2314 Y-1.5888 Z-0.3257
N12175 X0.2174 Y-1.5908 Z-0.3258
N12180 X0.2034 Y-1.5924 Z-0.326
N12185 X0.1753 Y-1.5956 Z-0.3262
N12190 X0.1613 Y-1.5971 Z-0.3263
N12195 X0.1472 Y-1.5982 Z-0.3265
N12200 X0.119 Y-1.6005 Z-0.3267
N12205 X0.1049 Y-1.6015 Z-0.3268
N12210 X0.0908 Y-1.6021 Z-0.327
N12215 X0.0626 Y-1.6035 Z-0.3272
N12220 X0.0485 Y-1.604 Z-0.3274
N12225 X0.0061 Y-1.6047 Z-0.3277
N12230 X-0.008 Y-1.6046 Z-0.3279
N12235 X-0.0363 Y-1.6042 Z-0.3281
N12240 X-0.0504 Y-1.604 Z-0.3283
N12245 X-0.0645 Y-1.6034 Z-0.3284
N12250 X-0.0927 Y-1.6021 Z-0.3286
N12255 X-0.1068 Y-1.6014 Z-0.3288
N12260 X-0.1209 Y-1.6003 Z-0.3289
N12265 X-0.1491 Y-1.5981 Z-0.3291
N12270 X-0.1632 Y-1.5969 Z-0.3293
N12275 X-0.1772 Y-1.5954 Z-0.3294
N12280 X-0.2053 Y-1.5922 Z-0.3297
N12285 X-0.2193 Y-1.5906 Z-0.3298
N12290 X-0.2333 Y-1.5886 Z-0.3299
N12295 X-0.2613 Y-1.5845 Z-0.3301
N12300 X-0.2752 Y-1.5823 Z-0.3302
N12305 X-0.2821 Y-1.5807
N12310 X-0.2889 Y-1.5787 Z-0.3303
N12315 X-0.2955 Y-1.5763
N12320 X-0.302 Y-1.5735 Z-0.3304
N12325 X-0.3084 Y-1.5704
N12330 X-0.3145 Y-1.5669 Z-0.3305
N12335 X-0.3205 Y-1.5631
N12340 X-0.3262 Y-1.559 Z-0.3306
N12345 X-0.3317 Y-1.5545
N12350 X-0.3369 Y-1.5498 Z-0.3307
N12355 X-0.3418 Y-1.5447
N12360 X-0.3465 Y-1.5394 Z-0.3308
N12365 X-0.3508 Y-1.5338
N12370 X-0.3548 Y-1.528 Z-0.3309
N12375 X-0.362 Y-1.5158 Z-0.331
N12380 X-0.3761 Y-1.4914 Z-0.3312
N12385 X-0.3832 Y-1.4791 Z-0.3313
N12390 X-0.3973 Y-1.4547 Z-0.3316
N12395 X-0.4115 Y-1.4302 Z-0.3319
N12400 X-0.4256 Y-1.4057 Z-0.3322
N12405 X-0.4397 Y-1.3813 Z-0.3325
N12410 X-0.4538 Y-1.3568 Z-0.3328
N12415 X-0.468 Y-1.3323 Z-0.333
N12420 X-0.4751 Y-1.3201 Z-0.3332
N12425 X-0.4766 Y-1.3177
N12430 X-0.4767
N12435 X-0.4774 Y-1.3174
N12440 X-0.4807 Y-1.3161 Z-0.3333
N12445 X-0.4872 Y-1.3138
N12450 X-0.5005 Y-1.3092 Z-0.3335
N12455 X-0.5139 Y-1.3045 Z-0.3336
N12460 X-0.5271 Y-1.2995 Z-0.3337
N12465 X-0.5403 Y-1.2945 Z-0.3338
N12470 X-0.5535 Y-1.2894 Z-0.334
N12475 X-0.5666 Y-1.2841 Z-0.3341
N12480 X-0.5796 Y-1.2787 Z-0.3342
N12485 X-0.5926 Y-1.2731 Z-0.3344
N12490 X-0.6056 Y-1.2676 Z-0.3345
N12495 X-0.6185 Y-1.2618 Z-0.3346
N12500 X-0.6313 Y-1.2558 Z-0.3348
N12505 X-0.6441 Y-1.2499 Z-0.3349
N12510 X-0.6568 Y-1.2438 Z-0.335
N12515 X-0.6695 Y-1.2375 Z-0.3352
N12520 X-0.6821 Y-1.2311 Z-0.3353
N12525 X-0.6947 Y-1.2247 Z-0.3354
N12530 X-0.7072 Y-1.2181 Z-0.3356
N12535 X-0.7195 Y-1.2113 Z-0.3357
N12540 X-0.7319 Y-1.2045 Z-0.3358
N12545 X-0.7443 Y-1.1976 Z-0.3359
N12550 X-0.7564 Y-1.1904 Z-0.3361
N12555 X-0.7686 Y-1.1832 Z-0.3362
N12560 X-0.7807 Y-1.176 Z-0.3363
N12565 X-0.7928 Y-1.1686 Z-0.3365
N12570 X-0.8047 Y-1.161 Z-0.3366
N12575 X-0.8166 Y-1.1534 Z-0.3367
N12580 X-0.8284 Y-1.1457 Z-0.3369
N12585 X-0.8401 Y-1.1378 Z-0.337
N12590 X-0.8518 Y-1.1298 Z-0.3371
N12595 X-0.8634 Y-1.1217 Z-0.3373
N12600 X-0.875 Y-1.1136 Z-0.3374
N12605 X-0.8863 Y-1.1052 Z-0.3375
N12610 X-0.8977 Y-1.0968 Z-0.3377
N12615 X-0.909 Y-1.0884 Z-0.3378
N12620 X-0.9202 Y-1.0798 Z-0.3379
N12625 X-0.9312 Y-1.071 Z-0.338
N12630 X-0.9423 Y-1.0622 Z-0.3382
N12635 X-0.9533 Y-1.0534 Z-0.3383
N12640 X-0.9641 Y-1.0442 Z-0.3384
N12645 X-0.9749 Y-1.0351 Z-0.3386
N12650 X-0.9856 Y-1.0259 Z-0.3387
N12655 X-0.9962 Y-1.0166 Z-0.3388
N12660 X-1.0067 Y-1.0071 Z-0.339
N12665 X-1.0171 Y-0.9975 Z-0.3391
N12670 X-1.0275 Y-0.988 Z-0.3392
N12675 X-1.0377 Y-0.9782 Z-0.3394
N12680 X-1.0478 Y-0.9683 Z-0.3395
N12685 X-1.0579 Y-0.9585 Z-0.3396
N12690 X-1.068 Y-0.9485 Z-0.3397
N12695 X-1.0973 Y-0.9179 Z-0.3401
N12700 X-1.1068 Y-0.9075 Z-0.3403
N12705 X-1.1162 Y-0.897 Z-0.3404
N12710 X-1.1257 Y-0.8865 Z-0.3405
N12715 X-1.1351 Y-0.8759 Z-0.3407
N12720 X-1.1441 Y-0.8651 Z-0.3408
N12725 X-1.1532 Y-0.8542 Z-0.3409
N12730 X-1.1623 Y-0.8434 Z-0.3411
N12735 X-1.1711 Y-0.8324 Z-0.3412
N12740 X-1.1798 Y-0.8213 Z-0.3413
N12745 X-1.1885 Y-0.8101 Z-0.3415
N12750 X-1.1972 Y-0.799 Z-0.3416
N12755 X-1.2056 Y-0.7876 Z-0.3417
N12760 X-1.2139 Y-0.7762 Z-0.3418
N12765 X-1.2222 Y-0.7648 Z-0.342
N12770 X-1.2304 Y-0.7532 Z-0.3421
N12775 X-1.2383 Y-0.7415 Z-0.3422
N12780 X-1.2462 Y-0.7299 Z-0.3424
N12785 X-1.2541 Y-0.7181 Z-0.3425
N12790 X-1.2618 Y-0.7063 Z-0.3426
N12795 X-1.2693 Y-0.6943 Z-0.3428
N12800 X-1.2768 Y-0.6823 Z-0.3429
N12805 X-1.2842 Y-0.6703 Z-0.343
N12810 X-1.2914 Y-0.6581 Z-0.3432
N12815 X-1.2985 Y-0.6459 Z-0.3433
N12820 X-1.3056 Y-0.6337 Z-0.3434
N12825 X-1.3125 Y-0.6214 Z-0.3436
N12830 X-1.3192 Y-0.6089 Z-0.3437
N12835 X-1.3259 Y-0.5965 Z-0.3438
N12840 X-1.3325 Y-0.584 Z-0.3439
N12845 X-1.3388 Y-0.5714 Z-0.3441
N12850 X-1.3451 Y-0.5588 Z-0.3442
N12855 X-1.3514 Y-0.5461 Z-0.3443
N12860 X-1.3575 Y-0.5333 Z-0.3445
N12865 X-1.3633 Y-0.5205 Z-0.3446
N12870 X-1.3692 Y-0.5076 Z-0.3447
N12875 X-1.375 Y-0.4947 Z-0.3449
N12880 X-1.3805 Y-0.4817 Z-0.345
N12885 X-1.3859 Y-0.4687 Z-0.3451
N12890 X-1.3913 Y-0.4556 Z-0.3453
N12895 X-1.3966 Y-0.4425 Z-0.3454
N12900 X-1.4016 Y-0.4293 Z-0.3455
N12905 X-1.4066 Y-0.4161 Z-0.3457
N12910 X-1.4115 Y-0.4029 Z-0.3458
N12915 X-1.4162 Y-0.3895 Z-0.3459
N12920 X-1.4207 Y-0.3762 Z-0.346
N12925 X-1.4252 Y-0.3628 Z-0.3462
N12930 X-1.4296 Y-0.3493 Z-0.3463
N12935 X-1.4338 Y-0.3358 Z-0.3464
N12940 X-1.4378 Y-0.3223 Z-0.3466
N12945 X-1.4419 Y-0.3088 Z-0.3467
N12950 X-1.4457 Y-0.2952 Z-0.3468
N12955 X-1.4529 Y-0.2679 Z-0.3471
N12960 X-1.4564 Y-0.2542 Z-0.3472
N12965 X-1.4597 Y-0.2404 Z-0.3474
N12970 X-1.4628 Y-0.2266 Z-0.3475
N12975 X-1.466 Y-0.2129 Z-0.3476
N12980 X-1.4689 Y-0.1991 Z-0.3478
N12985 X-1.4716 Y-0.1852 Z-0.3479
N12990 X-1.4743 Y-0.1713 Z-0.348
N12995 X-1.4769 Y-0.1574 Z-0.3481
N13000 X-1.4793 Y-0.1435 Z-0.3483
N13005 X-1.4815 Y-0.1296 Z-0.3484
N13010 X-1.4837 Y-0.1156 Z-0.3485
N13015 X-1.4857 Y-0.1016 Z-0.3487
N13020 X-1.4875 Y-0.0876 Z-0.3488
N13025 X-1.4893 Y-0.0736 Z-0.3489
N13030 X-1.491 Y-0.0596 Z-0.3491
N13035 X-1.4924 Y-0.0455 Z-0.3492
N13040 X-1.4937 Y-0.0314 Z-0.3493
N13045 X-1.495 Y-0.0174 Z-0.3495
N13050 X-1.4961 Y-0.0033 Z-0.3496
N13055 X-1.497 Y0.0108 Z-0.3497
N13060 X-1.4978 Y0.0249 Z-0.3499
N13065 X-1.4985 Y0.039 Z-0.35
N13070 X-1.4991 Y0.0531 Z-0.3501
N13075 X-1.4994 Y0.0673 Z-0.3502
N13080 X-1.4997 Y0.0814 Z-0.3504
N13085 X-1.4999 Y0.0955 Z-0.3505
N13090 X-1.5 Y0.1096 Z-0.3506
N13095 X-1.4998 Y0.1238 Z-0.3508
N13100 X-1.4996 Y0.1379 Z-0.3509
N13105 X-1.4992 Y0.152 Z-0.351
N13110 X-1.4987 Y0.1661 Z-0.3512
N13115 X-1.498 Y0.1802 Z-0.3513
N13120 X-1.4973 Y0.1943 Z-0.3514
N13125 X-1.4964 Y0.2084 Z-0.3516
N13130 X-1.4953 Y0.2225 Z-0.3517
N13135 X-1.4941 Y0.2366 Z-0.3518
N13140 X-1.4929 Y0.2507 Z-0.352
N13145 X-1.4914 Y0.2647 Z-0.3521
N13150 X-1.4898 Y0.2788 Z-0.3522
N13155 X-1.4881 Y0.2928 Z-0.3523
N13160 X-1.4863 Y0.3068 Z-0.3525
N13165 X-1.486 Y0.3094
N13170 X-1.4839 Y0.3234 Z-0.3526
N13175 X-1.4818 Y0.3373 Z-0.3528
N13180 X-1.4796 Y0.3513 Z-0.3529
N13185 X-1.4772 Y0.3652 Z-0.353
N13190 X-1.4746 Y0.3791 Z-0.3532
N13195 X-1.472 Y0.3929 Z-0.3533
N13200 X-1.4693 Y0.4068 Z-0.3534
N13205 X-1.4663 Y0.4206 Z-0.3535
N13210 X-1.4633 Y0.4344 Z-0.3537
N13215 X-1.4601 Y0.4481 Z-0.3538
N13220 X-1.4568 Y0.4618 Z-0.3539
N13225 X-1.4534 Y0.4755 Z-0.3541
N13230 X-1.4499 Y0.4892 Z-0.3542
N13235 X-1.4462 Y0.5028 Z-0.3543
N13240 X-1.4424 Y0.5164 Z-0.3545
N13245 X-1.4384 Y0.5299 Z-0.3546
N13250 X-1.4344 Y0.5434 Z-0.3547
N13255 X-1.4302 Y0.5569 Z-0.3549
N13260 X-1.4258 Y0.5703 Z-0.355
N13265 X-1.4214 Y0.5837 Z-0.3551
N13270 X-1.4169 Y0.5971 Z-0.3553
N13275 X-1.4122 Y0.6104 Z-0.3554
N13280 X-1.4073 Y0.6237 Z-0.3555
N13285 X-1.4024 Y0.6369 Z-0.3556
N13290 X-1.3973 Y0.6501 Z-0.3558
N13295 X-1.3921 Y0.6632 Z-0.3559
N13300 X-1.3868 Y0.6762 Z-0.356
N13305 X-1.3814 Y0.6893 Z-0.3562
N13310 X-1.3758 Y0.7022 Z-0.3563
N13315 X-1.3701 Y0.7151 Z-0.3564
N13320 X-1.3643 Y0.728 Z-0.3566
N13325 X-1.3584 Y0.7408 Z-0.3567
N13330 X-1.3524 Y0.7536 Z-0.3568
N13335 X-1.3462 Y0.7663 Z-0.357
N13340 X-1.3399 Y0.7789 Z-0.3571
N13345 X-1.3335 Y0.7915 Z-0.3572
N13350 X-1.327 Y0.804 Z-0.3573
N13355 X-1.3203 Y0.8164 Z-0.3575
N13360 X-1.3136 Y0.8288 Z-0.3576
N13365 X-1.3067 Y0.8412 Z-0.3577
N13370 X-1.2997 Y0.8534 Z-0.3579
N13375 X-1.2926 Y0.8656 Z-0.358
N13380 X-1.2855 Y0.8778 Z-0.3581
N13385 X-1.2781 Y0.8898 Z-0.3583
N13390 X-1.2706 Y0.9018 Z-0.3584
N13395 X-1.2631 Y0.9137 Z-0.3585
N13400 X-1.2555 Y0.9256 Z-0.3587
N13405 X-1.2477 Y0.9373 Z-0.3588
N13410 X-1.2398 Y0.949 Z-0.3589
N13415 X-1.2318 Y0.9607 Z-0.3591
N13420 X-1.2237 Y0.9722 Z-0.3592
N13425 X-1.2154 Y0.9837 Z-0.3593
N13430 X-1.2071 Y0.9951 Z-0.3594
N13435 X-1.1987 Y1.0064 Z-0.3596
N13440 X-1.1902 Y1.0176 Z-0.3597
N13445 X-1.1815 Y1.0288 Z-0.3598
N13450 X-1.1728 Y1.0399 Z-0.36
N13455 X-1.1639 Y1.0509 Z-0.3601
N13460 X-1.155 Y1.0618 Z-0.3602
N13465 X-1.1459 Y1.0726 Z-0.3604
N13470 X-1.1368 Y1.0833 Z-0.3605
N13475 X-1.1275 Y1.094 Z-0.3606
N13480 X-1.1181 Y1.1045 Z-0.3608
N13485 X-1.1087 Y1.115 Z-0.3609
N13490 X-1.0992 Y1.1254 Z-0.361
N13495 X-1.0895 Y1.1357 Z-0.3611
N13500 X-1.0797 Y1.1459 Z-0.3613
N13505 X-1.0699 Y1.156 Z-0.3614
N13510 X-1.06 Y1.166 Z-0.3615
N13515 X-1.0499 Y1.176 Z-0.3617
N13520 X-1.0398 Y1.1858 Z-0.3618
N13525 X-1.0296 Y1.1955 Z-0.3619
N13530 X-1.0193 Y1.2052 Z-0.3621
N13535 X-1.0089 Y1.2147 Z-0.3622
N13540 X-0.9984 Y1.2241 Z-0.3623
N13545 X-0.9878 Y1.2335 Z-0.3625
N13550 X-0.9772 Y1.2427 Z-0.3626
N13555 X-0.9664 Y1.2519 Z-0.3627
N13560 X-0.9556 Y1.2609 Z-0.3629
N13565 X-0.9447 Y1.2698 Z-0.363
N13570 X-0.9337 Y1.2787 Z-0.3631
N13575 X-0.9226 Y1.2874 Z-0.3632
N13580 X-0.9114 Y1.2961 Z-0.3634
N13585 X-0.9002 Y1.3046 Z-0.3635
N13590 X-0.8888 Y1.313 Z-0.3636
N13595 X-0.8774 Y1.3213 Z-0.3638
N13600 X-0.8659 Y1.3295 Z-0.3639
N13605 X-0.8544 Y1.3376 Z-0.364
N13610 X-0.8427 Y1.3456 Z-0.3642
N13615 X-0.831 Y1.3535 Z-0.3643
N13620 X-0.8192 Y1.3612 Z-0.3644
N13625 X-0.8074 Y1.3688 Z-0.3646
N13630 X-0.7955 Y1.3764 Z-0.3647
N13635 X-0.7835 Y1.3838 Z-0.3648
N13640 X-0.7714 Y1.3911 Z-0.3649
N13645 X-0.7593 Y1.3983 Z-0.3651
N13650 X-0.7471 Y1.4054 Z-0.3652
N13655 X-0.7348 Y1.4124 Z-0.3653
N13660 X-0.7225 Y1.4192 Z-0.3655
N13665 X-0.71 Y1.426 Z-0.3656
N13670 X-0.6976 Y1.4326 Z-0.3657
N13675 X-0.6851 Y1.4391 Z-0.3659
N13680 X-0.6725 Y1.4455 Z-0.366
N13685 X-0.6598 Y1.4518 Z-0.3661
N13690 X-0.6471 Y1.4579 Z-0.3663
N13695 X-0.6344 Y1.4639 Z-0.3664
N13700 X-0.6216 Y1.4698 Z-0.3665
N13705 X-0.6087 Y1.4757 Z-0.3667
N13710 X-0.5958 Y1.4813 Z-0.3668
N13715 X-0.5828 Y1.4868 Z-0.3669
N13720 X-0.5698 Y1.4922 Z-0.367
N13725 X-0.5567 Y1.4976 Z-0.3672
N13730 X-0.5436 Y1.5027 Z-0.3673
N13735 X-0.5304 Y1.5078 Z-0.3674
N13740 X-0.5172 Y1.5127 Z-0.3676
N13745 X-0.5039 Y1.5175 Z-0.3677
N13750 X-0.4906 Y1.5222 Z-0.3678
N13755 X-0.4772 Y1.5267 Z-0.368
N13760 X-0.4638 Y1.5312 Z-0.3681
N13765 X-0.4504 Y1.5355 Z-0.3682
N13770 X-0.4369 Y1.5396 Z-0.3684
N13775 X-0.4234 Y1.5437 Z-0.3685
N13780 X-0.4098 Y1.5476 Z-0.3686
N13785 X-0.3962 Y1.5514 Z-0.3687
N13790 X-0.3826 Y1.5551 Z-0.3689
N13795 X-0.369 Y1.5586 Z-0.369
N13800 X-0.3553 Y1.562 Z-0.3691
N13805 X-0.3415 Y1.5653 Z-0.3693
N13810 X-0.3278 Y1.5684 Z-0.3694
N13815 X-0.314 Y1.5715 Z-0.3695
N13820 X-0.3002 Y1.5744 Z-0.3697
N13825 X-0.2863 Y1.5771 Z-0.3698
N13830 X-0.2725 Y1.5797 Z-0.3699
N13835 X-0.2586 Y1.5822 Z-0.3701
N13840 X-0.2447 Y1.5846 Z-0.3702
N13845 X-0.2307 Y1.5868 Z-0.3703
N13850 X-0.2168 Y1.589 Z-0.3705
N13855 X-0.2028 Y1.5909 Z-0.3706
N13860 X-0.1888 Y1.5928 Z-0.3707
N13865 X-0.1748 Y1.5945 Z-0.3708
N13870 X-0.1608 Y1.5961 Z-0.371
N13875 X-0.1468 Y1.5975 Z-0.3711
N13880 X-0.1327 Y1.5988 Z-0.3712
N13885 X-0.1186 Y1.6 Z-0.3714
N13890 X-0.1046 Y1.6011 Z-0.3715
N13895 X-0.0905 Y1.602 Z-0.3716
N13900 X-0.0764 Y1.6027 Z-0.3718
N13905 X-0.0623 Y1.6034 Z-0.3719
N13910 X-0.0482 Y1.6039 Z-0.372
N13915 X-0.0341 Y1.6043 Z-0.3722
N13920 X-0.02 Y1.6046 Z-0.3723
N13925 X-0.0059 Y1.6047 Z-0.3724
N13930 X0.0082 Z-0.3726
N13935 X0.0223 Y1.6045 Z-0.3727
N13940 X0.0365 Y1.6043 Z-0.3728
N13945 X0.0506 Y1.6039 Z-0.3729
N13950 X0.0647 Y1.6033 Z-0.3731
N13955 X0.0788 Y1.6026 Z-0.3732
N13960 X0.0928 Y1.6018 Z-0.3733
N13965 X0.1069 Y1.6009 Z-0.3735
N13970 X0.121 Y1.5998 Z-0.3736
N13975 X0.1351 Y1.5986 Z-0.3737
N13980 X0.1491 Y1.5973 Z-0.3739
N13985 X0.1631 Y1.5958 Z-0.374
N13990 X0.1772 Y1.5942 Z-0.3741
N13995 X0.1912 Y1.5925 Z-0.3743
N14000 X0.2052 Y1.5906 Z-0.3744
N14005 X0.2191 Y1.5886 Z-0.3745
N14010 X0.2331 Y1.5865 Z-0.3746
N14015 X0.247 Y1.5842 Z-0.3748
N14020 X0.2609 Y1.5818 Z-0.3749
N14025 X0.2748 Y1.5793 Z-0.375
N14030 X0.2887 Y1.5767 Z-0.3752
N14035 X0.3025 Y1.5739 Z-0.3753
N14040 X0.3163 Y1.571 Z-0.3754
N14045 X0.3301 Y1.5679 Z-0.3756
N14050 X0.3438 Y1.5648 Z-0.3757
N14055 X0.3575 Y1.5615 Z-0.3758
N14060 X0.3712 Y1.558 Z-0.376
N14065 X0.3849 Y1.5545 Z-0.3761
N14070 X0.3985 Y1.5508 Z-0.3762
N14075 X0.4121 Y1.547 Z-0.3764
N14080 X0.4256 Y1.543 Z-0.3765
N14085 X0.4392 Y1.539 Z-0.3766
N14090 X0.4526 Y1.5348 Z-0.3767
N14095 X0.4661 Y1.5304 Z-0.3769
N14100 X0.4795 Y1.526 Z-0.377
N14105 X0.4928 Y1.5214 Z-0.3771
N14110 X0.5061 Y1.5167 Z-0.3773
N14115 X0.5194 Y1.5119 Z-0.3774
N14120 X0.5326 Y1.507 Z-0.3775
N14125 X0.5458 Y1.5019 Z-0.3777
N14130 X0.5589 Y1.4967 Z-0.3778
N14135 X0.5719 Y1.4913 Z-0.3779
N14140 X0.585 Y1.486 Z-0.3781
N14145 X0.5979 Y1.4804 Z-0.3782
N14150 X0.6108 Y1.4746 Z-0.3783
N14155 X0.6237 Y1.4689 Z-0.3784
N14160 X0.6365 Y1.463 Z-0.3786
N14165 X0.6493 Y1.4569 Z-0.3787
N14170 X0.6619 Y1.4507 Z-0.3788
N14175 X0.6746 Y1.4445 Z-0.379
N14180 X0.6872 Y1.4381 Z-0.3791
N14185 X0.6997 Y1.4315 Z-0.3792
N14190 X0.7121 Y1.4248 Z-0.3794
N14195 X0.7245 Y1.4181 Z-0.3795
N14200 X0.7368 Y1.4112 Z-0.3796
N14205 X0.7491 Y1.4042 Z-0.3798
N14210 X0.7613 Y1.3971 Z-0.3799
N14215 X0.7734 Y1.3899 Z-0.38
N14220 X0.7855 Y1.3826 Z-0.3802
N14225 X0.7974 Y1.3751 Z-0.3803
N14230 X0.8094 Y1.3676 Z-0.3804
N14235 X0.8212 Y1.3599 Z-0.3805
N14240 X0.833 Y1.3521 Z-0.3807
N14245 X0.8447 Y1.3442 Z-0.3808
N14250 X0.8563 Y1.3363 Z-0.3809
N14255 X0.8679 Y1.3281 Z-0.3811
N14260 X0.8793 Y1.3199 Z-0.3812
N14265 X0.8907 Y1.3116 Z-0.3813
N14270 X0.9021 Y1.3032 Z-0.3815
N14275 X0.9133 Y1.2946 Z-0.3816
N14280 X0.9244 Y1.2859 Z-0.3817
N14285 X0.9355 Y1.2772 Z-0.3819
N14290 X0.9465 Y1.2684 Z-0.382
N14295 X0.9574 Y1.2594 Z-0.3821
N14300 X0.9682 Y1.2504 Z-0.3822
N14305 X0.979 Y1.2412 Z-0.3824
N14310 X0.9896 Y1.2319 Z-0.3825
N14315 X1.0001 Y1.2225 Z-0.3826
N14320 X1.0107 Y1.2131 Z-0.3828
N14325 X1.021 Y1.2036 Z-0.3829
N14330 X1.0313 Y1.1939 Z-0.383
N14335 X1.0415 Y1.1841 Z-0.3832
N14340 X1.0516 Y1.1743 Z-0.3833
N14345 X1.0616 Y1.1644 Z-0.3834
N14350 X1.0715 Y1.1543 Z-0.3836
N14355 X1.0814 Y1.1442 Z-0.3837
N14360 X1.0911 Y1.134 Z-0.3838
N14365 X1.1007 Y1.1236 Z-0.384
N14370 X1.1103 Y1.1132 Z-0.3841
N14375 X1.1197 Y1.1028 Z-0.3842
N14380 X1.1291 Y1.0922 Z-0.3843
N14385 X1.1383 Y1.0815 Z-0.3845
N14390 X1.1474 Y1.0708 Z-0.3846
N14395 X1.1565 Y1.06 Z-0.3847
N14400 X1.1654 Y1.049 Z-0.3849
N14405 X1.1742 Y1.038 Z-0.385
N14410 X1.183 Y1.027 Z-0.3851
N14415 X1.1916 Y1.0158 Z-0.3853
N14420 X1.2001 Y1.0045 Z-0.3854
N14425 X1.2085 Y0.9932 Z-0.3855
N14430 X1.2169 Y0.9818 Z-0.3857
N14435 X1.225 Y0.9703 Z-0.3858
N14440 X1.2331 Y0.9587 Z-0.3859
N14445 X1.2411 Y0.9471 Z-0.386
N14450 X1.249 Y0.9354 Z-0.3862
N14455 X1.2567 Y0.9236 Z-0.3863
N14460 X1.2643 Y0.9117 Z-0.3864
N14465 X1.2719 Y0.8998 Z-0.3866
N14470 X1.2793 Y0.8878 Z-0.3867
N14475 X1.2866 Y0.8757 Z-0.3868
N14480 X1.2938 Y0.8636 Z-0.387
N14485 X1.3009 Y0.8514 Z-0.3871
N14490 X1.3079 Y0.8391 Z-0.3872
N14495 X1.3147 Y0.8267 Z-0.3874
N14500 X1.3215 Y0.8144 Z-0.3875
N14505 X1.3281 Y0.8019 Z-0.3876
N14510 X1.3345 Y0.7894 Z-0.3878
N14515 X1.3409 Y0.7768 Z-0.3879
N14520 X1.3473 Y0.7642 Z-0.388
N14525 X1.3534 Y0.7514 Z-0.3881
N14530 X1.3593 Y0.7387 Z-0.3883
N14535 X1.3653 Y0.7259 Z-0.3884
N14540 X1.3711 Y0.713 Z-0.3885
N14545 X1.3767 Y0.7001 Z-0.3887
N14550 X1.3822 Y0.6871 Z-0.3888
N14555 X1.3877 Y0.6741 Z-0.3889
N14560 X1.393 Y0.661 Z-0.3891
N14565 X1.3981 Y0.6478 Z-0.3892
N14570 X1.4032 Y0.6347 Z-0.3893
N14575 X1.4082 Y0.6215 Z-0.3895
N14580 X1.4129 Y0.6082 Z-0.3896
N14585 X1.4222 Y0.5815 Z-0.3898
N14590 X1.4266 Y0.5681 Z-0.39
N14595 X1.4308 Y0.5546 Z-0.3901
N14600 X1.435 Y0.5412 Z-0.3902
N14605 X1.4391 Y0.5277 Z-0.3904
N14610 X1.443 Y0.5141 Z-0.3905
N14615 X1.4467 Y0.5005 Z-0.3906
N14620 X1.4505 Y0.4869 Z-0.3908
N14625 X1.454 Y0.4732 Z-0.3909
N14630 X1.4573 Y0.4595 Z-0.391
N14635 X1.4606 Y0.4458 Z-0.3912
N14640 X1.4638 Y0.432 Z-0.3913
N14645 X1.4668 Y0.4183 Z-0.3914
N14650 X1.4696 Y0.4044 Z-0.3916
N14655 X1.4724 Y0.3906 Z-0.3917
N14660 X1.4751 Y0.3767 Z-0.3918
N14665 X1.4775 Y0.3628 Z-0.3919
N14670 X1.4822 Y0.335 Z-0.3922
N14675 X1.4843 Y0.321 Z-0.3923
N14680 X1.4862 Y0.3071 Z-0.3925
N14685 X1.488 Y0.2931 Z-0.3926
N14690 X1.4898 Y0.2791 Z-0.3927
N14695 X1.4913 Y0.265 Z-0.3929
N14700 X1.4927 Y0.251 Z-0.393
N14705 X1.4941 Y0.237 Z-0.3931
N14710 X1.4953 Y0.2229 Z-0.3933
N14715 X1.4963 Y0.2088 Z-0.3934
N14720 X1.4972 Y0.1947 Z-0.3935
N14725 X1.4981 Y0.1807 Z-0.3936
N14730 X1.4987 Y0.1666 Z-0.3938
N14735 X1.4995 Y0.1383 Z-0.394
N14740 X1.4999 Y0.1242 Z-0.3942
N14745 Y0.1101 Z-0.3943
N14750 X1.4998 Y0.0819 Z-0.3946
N14755 X1.4995 Y0.0678 Z-0.3947
N14760 X1.4985 Y0.0396 Z-0.395
N14765 X1.4979 Y0.0255 Z-0.3951
N14770 X1.497 Y0.0114 Z-0.3952
N14775 X1.495 Y-0.0167 Z-0.3955
N14780 X1.4938 Y-0.0308 Z-0.3956
N14785 X1.4924 Y-0.0448 Z-0.3957
N14790 X1.4909 Y-0.0589 Z-0.3959
N14795 X1.4894 Y-0.0729 Z-0.396
N14800 X1.4876 Y-0.0869 Z-0.3961
N14805 X1.4837 Y-0.1149 Z-0.3964
N14810 X1.4817 Y-0.1288 Z-0.3965
N14815 X1.4793 Y-0.1427 Z-0.3967
N14820 X1.4745 Y-0.1705 Z-0.3969
N14825 X1.4718 Y-0.1844 Z-0.3971
N14830 X1.4689 Y-0.1982 Z-0.3972
N14835 X1.4661 Y-0.212 Z-0.3973
N14840 X1.4631 Y-0.2258 Z-0.3974
N14845 X1.4598 Y-0.2395 Z-0.3976
N14850 X1.4531 Y-0.267 Z-0.3978
N14855 X1.4496 Y-0.2806 Z-0.398
N14860 X1.4458 Y-0.2942 Z-0.3981
N14865 X1.442 Y-0.3078 Z-0.3982
N14870 X1.4382 Y-0.3214 Z-0.3984
N14875 X1.4341 Y-0.3349 Z-0.3985
N14880 X1.4298 Y-0.3483 Z-0.3986
N14885 X1.4255 Y-0.3618 Z-0.3988
N14890 X1.4211 Y-0.3752 Z-0.3989
N14895 X1.4165 Y-0.3885 Z-0.399
N14900 X1.407 Y-0.4151 Z-0.3993
N14905 X1.402 Y-0.4283 Z-0.3994
N14910 X1.3969 Y-0.4414 Z-0.3995
N14915 X1.3917 Y-0.4546 Z-0.3997
N14920 X1.3865 Y-0.4677 Z-0.3998
N14925 X1.381 Y-0.4807 Z-0.3999
N14930 X1.3697 Y-0.5066 Z-0.4002
N14935 X1.364 Y-0.5194 Z-0.4003
N14940 X1.3579 Y-0.5322 Z-0.4005
N14945 X1.3458 Y-0.5577 Z-0.4007
N14950 X1.3395 Y-0.5703 Z-0.4009
N14955 X1.333 Y-0.5828 Z-0.401
N14960 X1.3265 Y-0.5954 Z-0.4011
N14965 X1.3199 Y-0.6078 Z-0.4012
N14970 X1.3198 Y-0.608
N14975 X1.313 Y-0.6204 Z-0.4014
N14980 X1.2992 Y-0.645 Z-0.4016
N14985 X1.2921 Y-0.6572 Z-0.4018
N14990 X1.2847 Y-0.6692 Z-0.4019
N14995 X1.2774 Y-0.6813 Z-0.402
N15000 X1.2701 Y-0.6933 Z-0.4022
N15005 X1.2624 Y-0.7052 Z-0.4023
N15010 X1.247 Y-0.7288 Z-0.4026
N15015 X1.2391 Y-0.7406 Z-0.4027
N15020 X1.231 Y-0.7521 Z-0.4028
N15025 X1.2148 Y-0.7752 Z-0.4031
N15030 X1.2064 Y-0.7865 Z-0.4032
N15035 X1.1979 Y-0.7978 Z-0.4033
N15040 X1.1894 Y-0.8091 Z-0.4035
N15045 X1.1808 Y-0.8203 Z-0.4036
N15050 X1.172 Y-0.8313 Z-0.4037
N15055 X1.1542 Y-0.8532 Z-0.404
N15060 X1.1452 Y-0.864 Z-0.4041
N15065 X1.1359 Y-0.8747 Z-0.4043
N15070 X1.1267 Y-0.8853 Z-0.4044
N15075 X1.1174 Y-0.896 Z-0.4045
N15080 X1.1079 Y-0.9064 Z-0.4047
N15085 X1.0983 Y-0.9167 Z-0.4048
N15090 X1.0887 Y-0.9271 Z-0.4049
N15095 X1.079 Y-0.9373 Z-0.4051
N15100 X1.069 Y-0.9473 Z-0.4052
N15105 X1.0491 Y-0.9673 Z-0.4054
N15110 X1.039 Y-0.9771 Z-0.4056
N15115 X1.0287 Y-0.9868 Z-0.4057
N15120 X1.0184 Y-0.9964 Z-0.4058
N15125 X1.008 Y-1.006 Z-0.406
N15130 X0.9975 Y-1.0154 Z-0.4061
N15135 X0.9763 Y-1.034 Z-0.4064
N15140 X0.9655 Y-1.0432 Z-0.4065
N15145 X0.9546 Y-1.0521 Z-0.4066
N15150 X0.9437 Y-1.0611 Z-0.4068
N15155 X0.9328 Y-1.07 Z-0.4069
N15160 X0.9216 Y-1.0787 Z-0.407
N15165 X0.9104 Y-1.0872 Z-0.4071
N15170 X0.8992 Y-1.0958 Z-0.4073
N15175 X0.8879 Y-1.1042 Z-0.4074
N15180 X0.8764 Y-1.1125 Z-0.4075
N15185 X0.8534 Y-1.1288 Z-0.4078
N15190 X0.8418 Y-1.1368 Z-0.4079
N15195 X0.83 Y-1.1446 Z-0.4081
N15200 X0.8182 Y-1.1523 Z-0.4082
N15205 X0.8064 Y-1.16 Z-0.4083
N15210 X0.7945 Y-1.1675 Z-0.4085
N15215 X0.7704 Y-1.1823 Z-0.4087
N15220 X0.7583 Y-1.1895 Z-0.4089
N15225 X0.746 Y-1.1965 Z-0.409
N15230 X0.7337 Y-1.2034 Z-0.4091
N15235 X0.7214 Y-1.2104 Z-0.4092
N15240 X0.709 Y-1.2171 Z-0.4094
N15245 X0.6965 Y-1.2236 Z-0.4095
N15250 X0.684 Y-1.2301 Z-0.4096
N15255 X0.6714 Y-1.2366 Z-0.4098
N15260 X0.6588 Y-1.2428 Z-0.4099
N15265 X0.6333 Y-1.255 Z-0.4102
N15270 X0.6205 Y-1.2609 Z-0.4103
N15275 X0.6076 Y-1.2666 Z-0.4104
N15280 X0.5947 Y-1.2722 Z-0.4106
N15285 X0.5817 Y-1.2779 Z-0.4107
N15290 X0.5687 Y-1.2832 Z-0.4108
N15295 X0.5556 Y-1.2885 Z-0.4109
N15300 X0.5425 Y-1.2937 Z-0.4111
N15305 X0.5293 Y-1.2988 Z-0.4112
N15310 X0.516 Y-1.3036 Z-0.4113
N15315 X0.4895 Y-1.3131 Z-0.4116
N15320 X0.4828 Y-1.3154 Z-0.4117
N15325 X0.4795 Y-1.3166
N15330 X0.4766 Y-1.3177
N15335 X0.4765 Y-1.3178
N15340 X0.4764 Y-1.3181
N15345 X0.4692 Y-1.3302 Z-0.4119
N15350 X0.3633 Y-1.5136 Z-0.4138
N15355 X0.3562 Y-1.5257 Z-0.414
N15360 X0.3524 Y-1.5316
N15365 X0.3481 Y-1.5373 Z-0.4141
N15370 X0.3436 Y-1.5427 Z-0.4142
N15375 X0.3388 Y-1.5479
N15380 X0.3337 Y-1.5527 Z-0.4143
N15385 X0.3283 Y-1.5573 Z-0.4144
N15390 X0.3227 Y-1.5616
N15395 X0.3168 Y-1.5655 Z-0.4145
N15400 X0.3108 Y-1.5691 Z-0.4146
N15405 X0.3045 Y-1.5724
N15410 X0.2981 Y-1.5753 Z-0.4147
N15415 X0.2915 Y-1.5778
N15420 X0.2848 Y-1.58 Z-0.4148
N15425 X0.2779 Y-1.5817 Z-0.4149
N15430 X0.264 Y-1.5842 Z-0.415
N15435 X0.2221 Y-1.5902 Z-0.4154
N15440 X0.2081 Y-1.5919 Z-0.4155
N15445 X0.1661 Y-1.5966 Z-0.4159
N15450 X0.152 Y-1.5978 Z-0.4161
N15455 X0.1239 Y-1.6001 Z-0.4163
N15460 X0.1098 Y-1.6012 Z-0.4165
N15465 X0.0957 Y-1.6019 Z-0.4166
N15470 X0.0675 Y-1.6033 Z-0.4168
N15475 X0.0534 Y-1.6039 Z-0.417
N15480 X0.0393 Y-1.6041 Z-0.4171
N15485 X0.0111 Y-1.6046 Z-0.4174
N15490 X-0.003 Y-1.6047 Z-0.4175
N15495 X-0.0453 Y-1.604 Z-0.4179
N15500 X-0.0594 Y-1.6036 Z-0.418
N15505 X-0.1017 Y-1.6016 Z-0.4184
N15510 X-0.1158 Y-1.6007 Z-0.4185
N15515 X-0.158 Y-1.5974 Z-0.4189
N15520 X-0.1721 Y-1.5959 Z-0.4191
N15525 X-0.2141 Y-1.5913 Z-0.4195
N15530 X-0.2281 Y-1.5893 Z-0.4196
N15535 X-0.256 Y-1.5853 Z-0.4199
N15540 X-0.27 Y-1.5833 Z-0.42
N15545 X-0.2769 Y-1.5819 Z-0.4201
N15550 X-0.2838 Y-1.5802
N15555 X-0.2905 Y-1.5781 Z-0.4202
N15560 X-0.2971 Y-1.5757 Z-0.4203
N15565 X-0.3036 Y-1.5728
N15570 X-0.3099 Y-1.5696 Z-0.4204
N15575 X-0.316 Y-1.5661
N15580 X-0.3219 Y-1.5622 Z-0.4205
N15585 X-0.3275 Y-1.5579 Z-0.4206
N15590 X-0.3329 Y-1.5534
N15595 X-0.3381 Y-1.5486 Z-0.4207
N15600 X-0.3429 Y-1.5435 Z-0.4208
N15605 X-0.3475 Y-1.5381
N15610 X-0.3518 Y-1.5325 Z-0.4209
N15615 X-0.3557 Y-1.5266 Z-0.421
N15620 X-0.3593 Y-1.5206
N15625 X-0.4722 Y-1.325 Z-0.4231
N15630 X-0.4757 Y-1.3191 Z-0.4232
N15635 X-0.4765 Y-1.3178
N15640 X-0.4766 Y-1.3177
N15645 X-0.4785 Y-1.317
N15650 X-0.4818 Y-1.3157 Z-0.4233
N15655 X-0.5085 Y-1.3064 Z-0.4235
N15660 X-0.5217 Y-1.3016 Z-0.4237
N15665 X-0.5349 Y-1.2966 Z-0.4238
N15670 X-0.5481 Y-1.2915 Z-0.4239
N15675 X-0.5612 Y-1.2863 Z-0.4241
N15680 X-0.5743 Y-1.2809 Z-0.4242
N15685 X-0.6002 Y-1.2699 Z-0.4244
N15690 X-0.6131 Y-1.2642 Z-0.4246
N15695 X-0.626 Y-1.2583 Z-0.4247
N15700 X-0.6387 Y-1.2523 Z-0.4248
N15705 X-0.6515 Y-1.2464 Z-0.425
N15710 X-0.6642 Y-1.2402 Z-0.4251
N15715 X-0.6768 Y-1.2338 Z-0.4252
N15720 X-0.6894 Y-1.2274 Z-0.4254
N15725 X-0.7019 Y-1.2209 Z-0.4255
N15730 X-0.7143 Y-1.2142 Z-0.4256
N15735 X-0.739 Y-1.2005 Z-0.4259
N15740 X-0.7513 Y-1.1935 Z-0.426
N15745 X-0.7634 Y-1.1863 Z-0.4261
N15750 X-0.7755 Y-1.1791 Z-0.4263
N15755 X-0.7876 Y-1.1718 Z-0.4264
N15760 X-0.7995 Y-1.1643 Z-0.4265
N15765 X-0.8233 Y-1.149 Z-0.4268
N15770 X-0.8351 Y-1.1413 Z-0.4269
N15775 X-0.8467 Y-1.1333 Z-0.4271
N15780 X-0.8699 Y-1.1172 Z-0.4273
N15785 X-0.8813 Y-1.1089 Z-0.4275
N15790 X-0.904 Y-1.0921 Z-0.4277
N15795 X-0.9153 Y-1.0837 Z-0.4279
N15800 X-0.9263 Y-1.0749 Z-0.428
N15805 X-0.9484 Y-1.0573 Z-0.4282
N15810 X-0.9593 Y-1.0483 Z-0.4284
N15815 X-0.9808 Y-1.03 Z-0.4286
N15820 X-0.9915 Y-1.0208 Z-0.4288
N15825 X-1.002 Y-1.0114 Z-0.4289
N15830 X-1.0228 Y-0.9923 Z-0.4292
N15835 X-1.0331 Y-0.9827 Z-0.4293
N15840 X-1.0634 Y-0.9531 Z-0.4297
N15845 X-1.0732 Y-0.943 Z-0.4298
N15850 X-1.0928 Y-0.9226 Z-0.4301
N15855 X-1.1025 Y-0.9124 Z-0.4302
N15860 X-1.1307 Y-0.8808 Z-0.4306
N15865 X-1.1399 Y-0.8701 Z-0.4307
N15870 X-1.158 Y-0.8485 Z-0.431
N15875 X-1.167 Y-0.8376 Z-0.4311
N15880 X-1.1757 Y-0.8265 Z-0.4313
N15885 X-1.1931 Y-0.8043 Z-0.4315
N15890 X-1.2016 Y-0.793 Z-0.4317
N15895 X-1.2182 Y-0.7702 Z-0.4319
N15900 X-1.2265 Y-0.7588 Z-0.432
N15905 X-1.2345 Y-0.7472 Z-0.4322
N15910 X-1.2503 Y-0.7238 Z-0.4324
N15915 X-1.2581 Y-0.712 Z-0.4326
N15920 X-1.2732 Y-0.6882 Z-0.4328
N15925 X-1.2807 Y-0.6762 Z-0.433
N15930 X-1.2879 Y-0.6641 Z-0.4331
N15935 X-1.3021 Y-0.6397 Z-0.4334
N15940 X-1.3092 Y-0.6275 Z-0.4335
N15945 X-1.3159 Y-0.6151 Z-0.4336
