%
(1001)
(18 END MILL)
(T1  D=0.125 CR=0.0625 - ZMIN=-0.067 - BALL END MILL)
N10 G90 G94 G17 G91.1
N15 G20
N20 G53 G0 Z0.
(DRILL6)
N25 M9
N30 T1 M6
N35 S1500 M3
N40 G54
N45 M8
N50 G0 X0.1382 Y-0.4917
N55 G43 Z0.15 H1
N60 G0 Z0.05
N65 G98 G81 X0.1382 Y-0.4917 Z-0.067 R0.05 F2.
N70 Y-0.315
N75 Y-0.1382
N80 X0.4917
N85 Y-0.315
N90 Y-0.4917
N95 G80
N100 G0 Z0.15
N105 M9
N110 G53 Z0.
N115 M30
%
