%
(1001)
(18 END MILL)
(T1  D=0.125 CR=0.0625 - ZMIN=-0.07 - BALL END MILL)
N10 G90 G94 G17 G91.1
N15 G20
N20 G53 G0 Z0.
(DRILL5)
N25 M9
N30 T1 M6
N35 S1500 M3
N40 G54
N45 M8
N50 G0 X0.4741 Y-0.1559
N55 G43 Z0.15 H1
N60 G0 Z0.05
N65 G98 G81 X0.4741 Y-0.1559 Z-0.07 R0.05 F2.
N70 X0.315 Y-0.315
N75 X0.1559 Y-0.1559
N80 Y-0.4741
N85 X0.4741
N90 G80
N95 G0 Z0.15
N100 M9
N105 G53 Z0.
N110 M30
%
