%
(1001)
(18 END MILL)
(T1  D=0.125 CR=0.0625 - ZMIN=-0.08 - BALL END MILL)
N10 G90 G94 G17 G91.1
N15 G20
N20 G53 G0 Z0.
(DRILL4)
N25 M9
N30 T1 M6
N35 S1500 M3
N40 G54
N45 M8
N50 G0 X0.1382 Y-0.1382
N55 G43 Z0.2 H1
N60 G0 Z0.1
N65 G98 G81 X0.1382 Y-0.1382 Z-0.08 R0.05 F2.
N70 X0.4917
N75 Y-0.4917
N80 X0.1382
N85 G80
N90 G0 Z0.2
N95 M9
N100 G53 Z0.
N105 M30
%
