%
(1001)
(18 END MILL)
(T1  D=0.125 CR=0.0625 - ZMIN=-0.35 - BALL END MILL)
N10 G90 G94 G17 G91.1
N15 G20
N20 G53 G0 Z0.
(DRILL1)
N25 M9
N30 T1 M6
N35 S1500 M3
N40 G54
N45 M8
N50 G0 X0.315 Y-0.315
N55 G43 Z0.6 H1
N60 G0 Z0.2
N65 Z0.08
N70 G1 Z-0.1 F2.
N75 G0 Z0.
N80 G1 Z-0.2 F2.
N85 G0 Z-0.1
N90 G1 Z-0.3 F2.
N95 G0 Z-0.2
N100 G1 Z-0.35 F2.
N105 G0 Z0.2
N110 Z0.6
N115 M9
N120 G53 Z0.
N125 M30
%
