%
(1001)
(T8  D=0.25 CR=0. - ZMIN=-0.25 - FLAT END MILL)
N10 G90 G94 G17 G91.1
N15 G20
N20 G53 G0 Z0.
(2D ADAPTIVE1 2)
N25 M9
N30 T8 M6
N35 S1400 M3
N40 G54
N45 M9
N55 G0 X-0.2116 Y-0.1956
N60 G43 Z0.6 H8
N65 G0 Z0.2
N70 Z-0.0946
N75 G1 Z-0.1196 F4.
N80 X-0.2113 Y-0.1954 Z-0.1235
N85 X-0.2106 Y-0.1949 Z-0.1273
N90 X-0.2093 Y-0.1941 Z-0.131
N95 X-0.2076 Y-0.193 Z-0.1343
N100 X-0.2054 Y-0.1916 Z-0.1373
N105 X-0.2029 Y-0.19 Z-0.1398
N110 X-0.2001 Y-0.1882 Z-0.1419
N115 X-0.1971 Y-0.1862 Z-0.1434
N120 X-0.1939 Y-0.1841 Z-0.1443
N125 X-0.1906 Y-0.182 Z-0.1446
N130 G3 X-0.0839 Y-0.0953 I-0.3468 J0.5358
N135 G1 X-0.0803 Y-0.0914 F5.5
N140 X-0.0724 Y-0.0773
N145 X-0.0641 Y-0.0591
N150 X-0.0553 Y-0.0349
N155 X-0.0462 Y-0.0017
N160 X-0.0389 Y0.0366
N165 X-0.034 Y0.0752
N170 X-0.0307 Y0.1141
N175 X-0.0285 Y0.153
N180 X-0.027 Y0.192
N185 X-0.0259 Y0.231
N190 X-0.0252 Y0.2699
N195 X-0.0248 Y0.3089
N200 X-0.0244 Y0.3479
N205 X-0.0242 Y0.3869
N210 X-0.0241 Y0.4259
N215 X-0.0239 Y0.5039
N220 X-0.0238 Y0.6128
N225 X-0.0239 Y0.6165
N230 X-0.0242 Y0.6203
N235 X-0.0248 Y0.624
N240 X-0.0294 Y0.6506
N245 X-0.0338 Y0.6772
N250 X-0.0344 Y0.6861
N255 X-0.0348 Y0.7038
N260 X-0.0343 Y0.7127
N265 X-0.0336 Y0.7202
N270 X-0.0318 Y0.7591
N275 X-0.0292 Y0.798
N280 X-0.0275 Y0.837
N285 X-0.0263 Y0.8759
N290 X-0.0261 Y0.8857
N295 X-0.0224 Y0.9048
N300 X-0.0031 Y0.9387
N305 X0.0267 Y0.9639
N310 X0.0612 Y0.982
N315 X0.098 Y0.9949
N320 X0.1356 Y1.0038
N325 X0.1398 Y1.0049
N330 X0.1439 Y1.0064
N335 X0.1478 Y1.0081
N340 G3 X0.1554 Y1.0143 I-0.0117 J0.0221 F4.
N345 G1 X0.1578 Y1.0173 Z-0.1443
N350 X0.1603 Y1.0203 Z-0.1434
N355 X0.1626 Y1.0231 Z-0.1419
N360 X0.1647 Y1.0256 Z-0.1398
N365 X0.1666 Y1.0279 Z-0.1373
N370 X0.1682 Y1.0299 Z-0.1343
N375 X0.1695 Y1.0315 Z-0.131
N380 X0.1705 Y1.0327 Z-0.1273
N385 X0.171 Y1.0334 Z-0.1235
N390 X0.1712 Y1.0336 Z-0.1196
N395 G0 Z0.2
N400 X-0.0657 Y0.7114
N405 Z-0.0946
N410 G1 Z-0.1196 F4.
N415 X-0.0654 Z-0.1235
N420 X-0.0644 Y0.7115 Z-0.1273
N425 X-0.063 Y0.7116 Z-0.131
N430 X-0.0609 Y0.7117 Z-0.1343
N435 X-0.0584 Y0.712 Z-0.1373
N440 X-0.0554 Y0.7122 Z-0.1398
N445 X-0.0521 Y0.7125 Z-0.1419
N450 X-0.0484 Y0.7128 Z-0.1434
N455 X-0.0446 Y0.7131 Z-0.1443
N460 X-0.0407 Y0.7134 Z-0.1446
N465 G3 X-0.0336 Y0.7202 I-0.0006 J0.0078
N470 G1 X-0.0301 Y0.757 F5.5
N475 X-0.0289 Y0.7658
N480 X-0.0248 Y0.7884
N485 X-0.0234 Y0.7924
N490 X-0.0159 Y0.8136
N495 X-0.0139 Y0.819
N500 X-0.0071 Y0.837
N505 X-0.0037 Y0.8456
N510 X0.0043 Y0.8633
N515 X0.0084 Y0.8721
N520 X0.0201 Y0.8899
N525 X0.0461 Y0.9253
N530 X0.0531 Y0.9342
N535 X0.0549 Y0.9364
N540 X0.0608 Y0.943
N545 X0.07 Y0.9519
N550 X0.0726 Y0.9543
N555 X0.0815 Y0.9614
N560 X0.103 Y0.9785
N565 X0.1081 Y0.9824
N570 X0.1268 Y0.9962
N575 X0.1346 Y1.0013
N580 X0.1435 Y1.006
N585 X0.1524 Y1.0104
N590 X0.1815 Y1.0228
N595 X0.1878 Y1.0254
N600 X0.2144 Y1.0358
N605 X0.2166 Y1.0365
N610 X0.2364 Y1.0405
N615 X0.2409 Y1.0414
N620 X0.2675 Y1.0449
N625 X0.2941 Y1.0483
N630 X0.3029 Y1.0488
N635 X0.3206 Y1.0492
N640 X0.3295 Y1.0493
N645 X3.5091
N650 X3.5179 Y1.0489
N655 X3.5356 Y1.0474
N660 X3.5445 Y1.0464
N665 X3.5622 Y1.0436
N670 X3.5711 Y1.042
N675 X3.6096 Y1.0358
N680 X3.6484 Y1.0319
N685 X3.666 Y1.0237
N690 X3.6972 Y1.0002
N695 X3.72 Y0.9686
N700 X3.7357 Y0.9346
N705 X3.7368 Y0.9324
N710 X3.738 Y0.9302
N715 X3.7394 Y0.9281
N720 G3 X3.7462 Y0.9212 I0.0208 J0.0139 F4.
N725 X3.7742 Y0.9627 I0.0139 J0.0208 F5.5
N730 G1 X3.5912 Y1.0869
N735 G3 X3.5623 Y1.0462 I-0.014 J-0.0207
N740 X3.5711 Y1.042 I0.0149 J0.0201 F4.
N745 G1 X3.5888 Y1.0382 F5.5
N750 X3.5976 Y1.0361
N755 X3.6065 Y1.0329
N760 X3.6096 Y1.0316
N765 X3.6154 Y1.029
N770 X3.6242 Y1.0247
N775 X3.6508 Y1.0112
N780 X3.6596 Y1.006
N785 X3.675 Y0.9962
N790 X3.6774 Y0.9944
N795 X3.6862 Y0.9867
N800 X3.6951 Y0.9784
N805 X3.7128 Y0.9607
N810 X3.7212 Y0.9519
N815 X3.7298 Y0.942
N820 X3.7305 Y0.9412
N825 X3.7354 Y0.9342
N830 X3.7394 Y0.9281
N835 X3.7503 Y0.9076
N840 X3.755 Y0.8987
N845 X3.7571 Y0.8947
N850 X3.7659 Y0.8765
N855 X3.7678 Y0.8721
N860 X3.771 Y0.8633
N865 X3.7736 Y0.8544
N870 X3.7748 Y0.8498
N875 X3.7756 Y0.8456
N880 X3.7786 Y0.8278
N885 X3.78 Y0.819
N890 X3.7839 Y0.7924
N895 X3.7843 Y0.7835
N900 X3.7846 Y0.7658
N905 X3.7853 Y0.4468
N910 X3.7851 Y0.438
N915 X3.7846 Y0.4291
N920 X3.7837 Y0.4203
N925 X3.78 Y0.3814
N930 X3.778 Y0.3425
N935 X3.7766 Y0.3035
N940 X3.7757 Y0.2646
N945 X3.7751 Y0.2256
N950 X3.7747 Y0.1866
N955 X3.7744 Y0.1476
N960 X3.7742 Y0.1086
N965 X3.7677 Y0.0902
N970 X3.7464 Y0.0575
N975 X3.7158 Y0.0334
N980 X3.6809 Y0.016
N985 X3.6439 Y0.0038
N990 X3.6059 Y-0.0048
N995 X3.5673 Y-0.0107
N1000 X3.5286 Y-0.0148
N1005 X3.4897 Y-0.0177
N1010 X3.4507 Y-0.0196
N1015 X3.4118 Y-0.0209
N1020 X3.3728 Y-0.0218
N1025 X3.3338 Y-0.0224
N1030 X3.2948 Y-0.0228
N1035 X3.2558 Y-0.0231
N1040 X3.2168 Y-0.0233
N1045 X3.1778 Y-0.0235
N1050 X3.0999 Y-0.0236
N1055 X2.9439 Y-0.0237
N1060 X2.1641
N1065 X1.1639 Y-0.0238
N1070 X1.1587 Y-0.024
N1075 X1.1535 Y-0.0247
N1080 X1.1484 Y-0.0258
N1085 X1.1443 Y-0.027
N1090 X1.1177 Y-0.0332
N1095 X1.1089 Y-0.035
N1100 X1.1 Y-0.0368
N1105 X1.0912 Y-0.0383
N1110 X1.0823 Y-0.0397
N1115 X1.0646 Y-0.0424
N1120 X1.0557 Y-0.0435
N1125 X1.038 Y-0.0454
N1130 X1.0292 Y-0.0463
N1135 X1.0026 Y-0.0482
N1140 X0.976 Y-0.0491
N1145 X0.9672
N1150 X0.9495
N1155 X0.9406 Y-0.0489
N1160 X0.9229 Y-0.0483
N1165 X0.914 Y-0.0479
N1170 X0.8875 Y-0.0459
N1175 X0.8609 Y-0.0432
N1180 X0.852 Y-0.0421
N1185 X0.8343 Y-0.0396
N1190 X0.7567 Y-0.0319
N1195 X0.7178 Y-0.0293
N1200 X0.6789 Y-0.0275
N1205 X0.6399 Y-0.0263
N1210 X0.6009 Y-0.0255
N1215 X0.5619 Y-0.0249
N1220 X0.5229 Y-0.0246
N1225 X0.484 Y-0.0243
N1230 X0.445 Y-0.0241
N1235 X0.367 Y-0.0239
N1240 X0.25 Y-0.0238
N1245 X0.2013
N1250 X0.1917 Y-0.0222
N1255 X0.1733 Y-0.0158
N1260 X0.1424 Y0.0081
N1265 X0.1207 Y0.0405
N1270 X0.1058 Y0.0766
N1275 X0.0957 Y0.1142
N1280 X0.089 Y0.1526
N1285 X0.0846 Y0.1914
N1290 X0.0816 Y0.2302
N1295 X0.0797 Y0.2692
N1300 X0.0785 Y0.3082
N1305 X0.0777 Y0.3471
N1310 X0.0772 Y0.3861
N1315 X0.0769 Y0.4175
N1320 X0.0755 Y0.4298
N1325 X0.0715 Y0.4415
N1330 X0.0652 Y0.4521
N1335 X0.0625 Y0.4557
N1340 X0.0497 Y0.4734
N1345 X0.0434 Y0.4823
N1350 X0.0372 Y0.4914
N1355 X0.0254 Y0.5089
N1360 X0.0198 Y0.5177
N1365 X0.0102 Y0.5354
N1370 X0.0056 Y0.5443
N1375 X-0.0071 Y0.5713
N1380 X-0.0159 Y0.5918
N1385 X-0.0182 Y0.5975
N1390 X-0.0233 Y0.6179
N1395 X-0.0248 Y0.624
N1400 G3 X-0.0292 Y0.6328 I-0.0241 J-0.0067 F4.
N1405 G1 X-0.0316 Y0.6358 Z-0.1443
N1410 X-0.0339 Y0.6388 Z-0.1434
N1415 X-0.0362 Y0.6417 Z-0.1419
N1420 X-0.0382 Y0.6443 Z-0.1398
N1425 X-0.0401 Y0.6467 Z-0.1373
N1430 X-0.0417 Y0.6487 Z-0.1343
N1435 X-0.0429 Y0.6503 Z-0.131
N1440 X-0.0439 Y0.6515 Z-0.1273
N1445 X-0.0444 Y0.6522 Z-0.1235
N1450 X-0.0446 Y0.6524 Z-0.1196
N1455 G0 Z0.2
N1460 X0.8414 Y-0.0721
N1465 Z-0.0946
N1470 G1 Z-0.1196 F4.
N1475 Y-0.0718 Z-0.1235
N1480 Y-0.0709 Z-0.1273
N1485 X0.8413 Y-0.0694 Z-0.131
N1490 Y-0.0673 Z-0.1343
N1495 X0.8412 Y-0.0648 Z-0.1373
N1500 X0.8411 Y-0.0618 Z-0.1398
N1505 X0.841 Y-0.0584 Z-0.1419
N1510 X0.8409 Y-0.0548 Z-0.1434
N1515 X0.8408 Y-0.051 Z-0.1443
N1520 X0.8407 Y-0.0471 Z-0.1446
N1525 G3 X0.8343 Y-0.0396 I-0.0078 J-0.0002
N1530 G1 X0.8255 Y-0.0383 F5.5
N1535 X0.8166 Y-0.0369
N1540 X0.8078 Y-0.0353
N1545 X0.7989 Y-0.0336
N1550 X0.7723 Y-0.0283
N1555 X0.7458 Y-0.0221
N1560 X0.7369 Y-0.0198
N1565 X0.715 Y-0.0139
N1570 X0.6926 Y-0.0073
N1575 X0.6838 Y-0.0045
N1580 X0.6572 Y0.0042
N1585 X0.6306 Y0.0138
N1590 X0.6218 Y0.0172
N1595 X0.6107 Y0.0215
N1600 X0.6041 Y0.0242
N1605 X0.5952 Y0.0279
N1610 X0.5894 Y0.0304
N1615 X0.5535 Y0.0437
N1620 X0.5206 Y0.0529
N1625 X0.4824 Y0.0604
N1630 X0.4437 Y0.0655
N1635 X0.4049 Y0.0689
N1640 X0.366 Y0.0712
N1645 X0.327 Y0.0728
N1650 X0.3086 Y0.0791
N1655 X0.2747 Y0.0984
N1660 X0.2479 Y0.1268
N1665 X0.2278 Y0.1602
N1670 X0.213 Y0.1962
N1675 X0.2022 Y0.2337
N1680 X0.1945 Y0.2719
N1685 X0.1923 Y0.2873
N1690 X0.1894 Y0.299
N1695 X0.1842 Y0.3098
N1700 X0.1768 Y0.3193
N1705 X0.1651 Y0.3316
N1710 X0.157 Y0.3405
N1715 X0.1411 Y0.3582
N1720 X0.1333 Y0.3671
N1725 X0.1183 Y0.3848
N1730 X0.1081 Y0.3969
N1735 X0.0895 Y0.4203
N1740 X0.0825 Y0.4291
N1745 X0.0726 Y0.4421
N1750 X0.0652 Y0.4521
N1755 G3 X0.0577 Y0.4583 I-0.0195 J-0.0157 F4.
N1760 G1 X0.0543 Y0.4602 Z-0.1443
N1765 X0.0509 Y0.462 Z-0.1434
N1770 X0.0477 Y0.4637 Z-0.1419
N1775 X0.0448 Y0.4653 Z-0.1398
N1780 X0.0422 Y0.4668 Z-0.1373
N1785 X0.04 Y0.468 Z-0.1343
N1790 X0.0382 Y0.469 Z-0.131
N1795 X0.0368 Y0.4697 Z-0.1273
N1800 X0.036 Y0.4701 Z-0.1235
N1805 X0.0358 Y0.4703 Z-0.1196
N1810 G0 Z0.2
N1815 X0.5881 Y-0.0028
N1820 Z-0.0946
N1825 G1 Z-0.1196 F4.
N1830 X0.5882 Y-0.0025 Z-0.1235
N1835 X0.5884 Y-0.0016 Z-0.1273
N1840 X0.5887 Y-0.0001 Z-0.131
N1845 X0.5892 Y0.0019 Z-0.1343
N1850 X0.5897 Y0.0043 Z-0.1373
N1855 X0.5904 Y0.0072 Z-0.1398
N1860 X0.5912 Y0.0105 Z-0.1419
N1865 X0.592 Y0.014 Z-0.1434
N1870 X0.5928 Y0.0177 Z-0.1443
N1875 X0.5937 Y0.0216 Z-0.1446
N1880 G3 X0.5894 Y0.0304 I-0.0076 J0.0018
N1885 G1 X0.5775 Y0.0355 F5.5
N1890 X0.5686 Y0.0394
N1895 X0.5496 Y0.0481
N1900 X0.5421 Y0.0516
N1905 X0.5132 Y0.0658
N1910 X0.4889 Y0.0787
N1915 X0.4801 Y0.0836
N1920 X0.4623 Y0.0937
N1925 X0.4535 Y0.0988
N1930 X0.4446 Y0.104
N1935 X0.4345 Y0.1101
N1940 X0.4269 Y0.1149
N1945 X0.4003 Y0.1319
N1950 X0.393 Y0.1367
N1955 X0.3738 Y0.1499
N1960 X0.3673 Y0.1544
N1965 X0.355 Y0.1633
N1970 X0.3472 Y0.169
N1975 X0.3383 Y0.1756
N1980 X0.3118 Y0.1961
N1985 X0.2852 Y0.2177
N1990 X0.2761 Y0.2253
N1995 X0.2558 Y0.243
N2000 X0.2498 Y0.2484
N2005 X0.2459 Y0.2519
N2010 X0.2232 Y0.2729
N2015 X0.2144 Y0.2814
N2020 X0.1966 Y0.2989
N2025 X0.1878 Y0.3079
N2030 X0.182 Y0.3139
N2035 X0.1768 Y0.3193
N2040 G3 X0.1686 Y0.3247 I-0.0175 J-0.0179 F4.
N2045 G1 X0.165 Y0.3261 Z-0.1443
N2050 X0.1615 Y0.3275 Z-0.1434
N2055 X0.1581 Y0.3289 Z-0.1419
N2060 X0.155 Y0.3301 Z-0.1398
N2065 X0.1522 Y0.3313 Z-0.1373
N2070 X0.1499 Y0.3322 Z-0.1343
N2075 X0.148 Y0.333 Z-0.131
N2080 X0.1466 Y0.3335 Z-0.1273
N2085 X0.1457 Y0.3339 Z-0.1235
N2090 X0.1454 Y0.334 Z-0.1196
N2095 G0 Z0.2
N2100 X3.8161 Y0.4275
N2105 Z-0.0946
N2110 G1 Z-0.1196 F4.
N2115 X3.8158 Z-0.1235
N2120 X3.8149 Z-0.1273
N2125 X3.8134 Y0.4274 Z-0.131
N2130 X3.8113 Y0.4273 Z-0.1343
N2135 X3.8088 Z-0.1373
N2140 X3.8058 Y0.4272 Z-0.1398
N2145 X3.8024 Y0.427 Z-0.1419
N2150 X3.7988 Y0.4269 Z-0.1434
N2155 X3.795 Y0.4268 Z-0.1443
N2160 X3.7911 Y0.4267 Z-0.1446
N2165 G3 X3.7837 Y0.4203 I0.0003 J-0.0078
N2170 G1 X3.7823 Y0.4114 F5.5
N2175 X3.7796 Y0.3937
N2180 X3.7781 Y0.3848
N2185 X3.7727 Y0.3604
N2190 X3.7725 Y0.3599
N2195 X3.7644 Y0.3405
N2200 X3.7605 Y0.3316
N2205 X3.7471 Y0.3051
N2210 X3.7422 Y0.2962
N2215 X3.7394 Y0.2913
N2220 X3.7366 Y0.2873
N2225 X3.7287 Y0.2748
N2230 X3.7205 Y0.2592
N2235 X3.7052 Y0.2234
N2240 X3.6861 Y0.1894
N2245 X3.6592 Y0.1612
N2250 X3.627 Y0.1391
N2255 X3.5918 Y0.1223
N2260 X3.5549 Y0.1097
N2265 X3.5171 Y0.1004
N2270 X3.4787 Y0.0936
N2275 X3.44 Y0.0887
N2280 X3.4012 Y0.0851
N2285 X3.3623 Y0.0826
N2290 X3.3233 Y0.0807
N2295 X3.2844 Y0.0794
N2300 X3.2454 Y0.0785
N2305 X3.2064 Y0.0778
N2310 X3.1674 Y0.0774
N2315 X3.1284 Y0.077
N2320 X3.0894 Y0.0768
N2325 X3.0504 Y0.0766
N2330 X2.9725 Y0.0764
N2335 X2.8555 Y0.0763
N2340 X2.5825
N2345 X1.8417
N2350 X1.3791
N2355 X1.3672 Y0.075
N2360 X1.3559 Y0.0715
N2365 X1.3455 Y0.0656
N2370 X1.3392 Y0.0612
N2375 X1.3215 Y0.0491
N2380 X1.3199 Y0.0481
N2385 X1.3126 Y0.0436
N2390 X1.2901 Y0.0304
N2395 X1.286 Y0.0281
N2400 X1.2737 Y0.0215
N2405 X1.2683 Y0.0188
N2410 X1.2595 Y0.0145
N2415 X1.2329 Y0.0027
N2420 X1.224 Y-0.0009
N2425 X1.2063 Y-0.0079
N2430 X1.1975 Y-0.0109
N2435 X1.1797 Y-0.0168
N2440 X1.1709 Y-0.0196
N2445 X1.1484 Y-0.0258
N2450 G3 X1.1398 Y-0.0305 I0.0075 J-0.0239 F4.
N2455 G1 X1.1368 Y-0.033 Z-0.1443
N2460 X1.1339 Y-0.0355 Z-0.1434
N2465 X1.1311 Y-0.0378 Z-0.1419
N2470 X1.1286 Y-0.0399 Z-0.1398
N2475 X1.1263 Y-0.0418 Z-0.1373
N2480 X1.1243 Y-0.0435 Z-0.1343
N2485 X1.1227 Y-0.0448 Z-0.131
N2490 X1.1216 Y-0.0457 Z-0.1273
N2495 X1.1209 Y-0.0463 Z-0.1235
N2500 X1.1207 Y-0.0465 Z-0.1196
N2505 G0 Z0.2
N2510 X3.7688 Y0.2791
N2515 Z-0.0946
N2520 G1 Z-0.1196 F4.
N2525 X3.7685 Y0.2793 Z-0.1235
N2530 X3.7676 Y0.2797 Z-0.1273
N2535 X3.7663 Y0.2803 Z-0.131
N2540 X3.7644 Y0.2812 Z-0.1343
N2545 X3.7621 Y0.2822 Z-0.1373
N2550 X3.7594 Y0.2835 Z-0.1398
N2555 X3.7564 Y0.2849 Z-0.1419
N2560 X3.7531 Y0.2864 Z-0.1434
N2565 X3.7496 Y0.2881 Z-0.1443
N2570 X3.7461 Y0.2897 Z-0.1446
N2575 G3 X3.7366 Y0.2873 I-0.0033 J-0.0071
N2580 G1 X3.7305 Y0.2787 F5.5
N2585 X3.7216 Y0.2687
N2590 X3.714 Y0.2608
N2595 X3.7039 Y0.2506
N2600 X3.6951 Y0.2418
N2605 X3.6872 Y0.2342
N2610 X3.6767 Y0.2253
N2615 X3.6621 Y0.2165
N2620 X3.6508 Y0.2096
N2625 X3.6472 Y0.2076
N2630 X3.6242 Y0.1958
N2635 X3.6154 Y0.1916
N2640 X3.6115 Y0.1899
N2645 X3.6065 Y0.1878
N2650 X3.5976 Y0.1847
N2655 X3.5888 Y0.1826
N2660 X3.5711 Y0.1789
N2665 X3.5622 Y0.1773
N2670 X3.5445 Y0.1745
N2675 X3.5356 Y0.1735
N2680 X3.5179 Y0.1721
N2685 X3.5091 Y0.1717
N2690 X3.2788 Y0.1711
N2695 X3.2522 Y0.1716
N2700 X3.2466 Y0.1722
N2705 X3.2214 Y0.1747
N2710 X3.1824 Y0.1754
N2715 X3.1434 Y0.1758
N2720 X3.1044 Y0.176
N2725 X3.0654 Y0.1762
N2730 X2.9875 Y0.1763
N2735 X2.7535
N2740 X1.4849 Y0.1762
N2745 X1.4721 Y0.1748
N2750 X1.4599 Y0.1706
N2755 X1.4489 Y0.1639
N2760 X1.4397 Y0.1549
N2765 X1.4277 Y0.1403
N2770 X1.4245 Y0.1367
N2775 X1.4189 Y0.1306
N2780 X1.4012 Y0.1124
N2785 X1.3989 Y0.1101
N2790 X1.3923 Y0.104
N2795 X1.3746 Y0.0884
N2800 X1.3688 Y0.0836
N2805 X1.3657 Y0.0811
N2810 X1.3569 Y0.0742
N2815 X1.3455 Y0.0656
N2820 G3 X1.339 Y0.0584 I0.0151 J-0.0199 F4.
N2825 G1 X1.3371 Y0.055 Z-0.1443
N2830 X1.3351 Y0.0517 Z-0.1434
N2835 X1.3333 Y0.0486 Z-0.1419
N2840 X1.3316 Y0.0457 Z-0.1398
N2845 X1.3301 Y0.0431 Z-0.1373
N2850 X1.3288 Y0.0409 Z-0.1343
N2855 X1.3278 Y0.0391 Z-0.131
N2860 X1.327 Y0.0378 Z-0.1273
N2865 X1.3265 Y0.0371 Z-0.1235
N2870 X1.3264 Y0.0368 Z-0.1196
N2875 G0 Z0.2
N2880 X3.2537 Y0.1397
N2885 Z-0.0946
N2890 G1 Z-0.1196 F4.
N2895 Y0.14 Z-0.1235
N2900 Y0.1409 Z-0.1273
N2905 Y0.1424 Z-0.131
N2910 X3.2536 Y0.1445 Z-0.1343
N2915 X3.2535 Y0.147 Z-0.1373
N2920 X3.2534 Y0.15 Z-0.1398
N2925 X3.2533 Y0.1534 Z-0.1419
N2930 X3.2532 Y0.157 Z-0.1434
N2935 X3.2531 Y0.1608 Z-0.1443
N2940 X3.253 Y0.1647 Z-0.1446
N2945 G3 X3.2466 Y0.1722 I-0.0078 J-0.0002
N2950 G1 X3.2257 Y0.1753 F5.5
N2955 X3.2168 Y0.1768
N2960 X3.1991 Y0.1798
N2965 X3.1926 Y0.181
N2970 X3.1814 Y0.1836
N2975 X3.1725 Y0.1864
N2980 X3.1637 Y0.19
N2985 X3.1548 Y0.1942
N2990 X3.1459 Y0.1985
N2995 X3.1144 Y0.2165
N3000 X3.1105 Y0.2188
N3005 X3.0935 Y0.2281
N3010 X3.0749 Y0.2365
N3015 X3.0503 Y0.2453
N3020 X3.0163 Y0.2545
N3025 X2.9779 Y0.2616
N3030 X2.9392 Y0.2663
N3035 X2.9004 Y0.2695
N3040 X2.8615 Y0.2717
N3045 X2.8225 Y0.2731
N3050 X2.7835 Y0.2741
N3055 X2.7445 Y0.2748
N3060 X2.7055 Y0.2753
N3065 X2.6666 Y0.2756
N3070 X2.6276 Y0.2758
N3075 X2.5886 Y0.2759
N3080 X2.5106 Y0.2761
N3085 X2.3936 Y0.2762
N3090 X1.9257
N3095 X1.5748
N3100 X1.5477 Y0.2756
N3105 X1.535 Y0.2739
N3110 X1.5229 Y0.2695
N3115 X1.512 Y0.2627
N3120 X1.5029 Y0.2538
N3125 X1.4958 Y0.243
N3130 X1.4867 Y0.2253
N3135 X1.4819 Y0.2165
N3140 X1.4656 Y0.1899
N3145 X1.4632 Y0.1862
N3150 X1.4595 Y0.181
N3155 X1.4543 Y0.1736
N3160 X1.4454 Y0.1618
N3165 X1.4397 Y0.1549
N3170 G3 X1.4355 Y0.1461 I0.0199 J-0.0152 F4.
N3175 G1 X1.4345 Y0.1423 Z-0.1443
N3180 X1.4335 Y0.1387 Z-0.1434
N3185 X1.4326 Y0.1351 Z-0.1419
N3190 X1.4317 Y0.1319 Z-0.1398
N3195 X1.4309 Y0.129 Z-0.1373
N3200 X1.4303 Y0.1266 Z-0.1343
N3205 X1.4298 Y0.1246 Z-0.131
N3210 X1.4294 Y0.1231 Z-0.1273
N3215 X1.4291 Y0.1222 Z-0.1235
N3220 Y0.122 Z-0.1196
N3225 G0 Z0.2
N3230 X3.1043 Y0.1862
N3235 Z-0.0946
N3240 G1 Z-0.1196 F4.
N3245 X3.1044 Y0.1864 Z-0.1235
N3250 X3.1047 Y0.1873 Z-0.1273
N3255 X3.1053 Y0.1887 Z-0.131
N3260 X3.106 Y0.1906 Z-0.1343
N3265 X3.1069 Y0.193 Z-0.1373
N3270 X3.108 Y0.1957 Z-0.1398
N3275 X3.1093 Y0.1989 Z-0.1419
N3280 X3.1106 Y0.2022 Z-0.1434
N3285 X3.112 Y0.2058 Z-0.1443
N3290 X3.1134 Y0.2094 Z-0.1446
N3295 G3 X3.1105 Y0.2188 I-0.0073 J0.0029
N3300 G1 X3.0999 Y0.2253 F5.5
N3305 X3.0885 Y0.2342
N3310 X3.084 Y0.2385
N3315 X3.0751 Y0.2474
N3320 X3.0707 Y0.2519
N3325 X3.0485 Y0.2779
N3330 X3.0384 Y0.2886
N3335 X3.0293 Y0.2968
N3340 X3.0184 Y0.3052
N3345 X3.0042 Y0.3143
N3350 X2.9869 Y0.3236
N3355 X2.9645 Y0.3334
N3360 X2.9352 Y0.3435
N3365 X2.8975 Y0.3532
N3370 X2.8591 Y0.36
N3375 X2.8204 Y0.3648
N3380 X2.7815 Y0.3682
N3385 X2.7426 Y0.3706
N3390 X2.7037 Y0.3722
N3395 X2.6647 Y0.3734
N3400 X2.6257 Y0.3743
N3405 X2.6048 Y0.3746
N3410 X1.6492
N3415 X1.6102 Y0.3726
N3420 X1.5847 Y0.3709
N3425 X1.5736 Y0.3692
N3430 X1.5626 Y0.3665
N3435 X1.5524 Y0.3616
N3440 X1.5433 Y0.3549
N3445 X1.5356 Y0.3465
N3450 X1.5297 Y0.3368
N3455 X1.5258 Y0.3262
N3460 G3 X1.5256 Y0.3165 I0.0244 J-0.0054 F4.
N3465 X1.5573 Y0.2968 I0.0246 J0.0043 F5.5
N3470 G1 X1.6553 Y0.3256
N3475 G3 X1.6586 Y0.3723 I-0.0071 J0.024
N3480 X1.6492 Y0.3746 I-0.0104 J-0.0227 F4.
N3485 G1 X1.5562 F5.5
N3490 X1.5539 Y0.3744
N3495 X1.5517 Y0.374
N3500 X1.5495 Y0.3734
N3505 X1.5473 Y0.3726
N3510 X1.5429 Y0.3702
N3515 X1.5409 Y0.3688
N3520 X1.539 Y0.3671
N3525 X1.5374 Y0.3654
N3530 X1.5361 Y0.3637
N3535 X1.534 Y0.3603
N3540 X1.5331 Y0.3582
N3545 X1.5323 Y0.356
N3550 X1.5318 Y0.3538
N3555 X1.531 Y0.3494
N3560 X1.5292 Y0.3405
N3565 X1.5272 Y0.3316
N3570 X1.5249 Y0.3228
N3575 X1.52 Y0.3051
N3580 X1.5172 Y0.2962
N3585 X1.5142 Y0.2873
N3590 X1.5111 Y0.2785
N3595 X1.5074 Y0.2695
N3600 X1.4986 Y0.2491
N3605 X1.4958 Y0.243
N3610 G3 X1.4939 Y0.2335 I0.0231 J-0.0097 F4.
N3615 G1 X1.4938 Y0.2296 Z-0.1443
N3620 Y0.2258 Z-0.1434
N3625 Y0.2221 Z-0.1419
N3630 Y0.2188 Z-0.1398
N3635 Y0.2158 Z-0.1373
N3640 Y0.2133 Z-0.1343
N3645 Y0.2112 Z-0.131
N3650 Y0.2097 Z-0.1273
N3655 X1.4937 Y0.2088 Z-0.1235
N3660 Y0.2085 Z-0.1196
N3665 G0 Z0.2
N3670 X3.0326 Y0.2487
N3675 Z-0.0946
N3680 G1 Z-0.1196 F4.
N3685 X3.0328 Y0.249 Z-0.1235
N3690 X3.0334 Y0.2497 Z-0.1273
N3695 X3.0343 Y0.2509 Z-0.131
N3700 X3.0356 Y0.2524 Z-0.1343
N3705 X3.0372 Y0.2544 Z-0.1373
N3710 X3.0391 Y0.2567 Z-0.1398
N3715 X3.0413 Y0.2593 Z-0.1419
N3720 X3.0436 Y0.2621 Z-0.1434
N3725 X3.046 Y0.2651 Z-0.1443
N3730 X3.0485 Y0.2681 Z-0.1446
N3735 G3 Y0.2779 I-0.006 J0.005
N3740 G1 X3.048 Y0.2785 F5.5
N3745 X3.0397 Y0.2893
N3750 X3.0344 Y0.2962
N3755 X3.0308 Y0.3014
N3760 X3.0286 Y0.3051
N3765 X3.0165 Y0.3316
N3770 X3.0147 Y0.3365
N3775 X3.0122 Y0.3422
N3780 X3.0111 Y0.3441
N3785 X3.004 Y0.3543
N3790 X2.9949 Y0.3629
N3795 X2.9842 Y0.3693
N3800 X2.9723 Y0.3732
N3805 X2.9599 Y0.3746
N3810 G3 X2.9504 Y0.3723 I0.0009 J-0.025 F4.
N3815 X2.9464 Y0.3291 I0.0104 J-0.0227 F5.5
N3820 G1 X2.9767 Y0.3079
N3825 G3 X3.016 Y0.3269 I0.0143 J0.0205
N3830 X3.0147 Y0.3365 I-0.025 J0.0015 F4.
N3835 G1 X3.0098 Y0.3494 F5.5
N3840 X3.0064 Y0.3582
N3845 X3.0055 Y0.3604
N3850 X3.0042 Y0.3626
N3855 X3.0026 Y0.3648
N3860 X3.0007 Y0.3671
N3865 X2.998 Y0.3694
N3870 X2.9954 Y0.3712
N3875 X2.9932 Y0.3723
N3880 X2.991 Y0.3732
N3885 X2.9887 Y0.3739
N3890 X2.9865 Y0.3743
N3895 X2.9777 Y0.3746
N3900 X2.6048
N3905 X2.6027 Y0.3741 Z-0.1444 F4.
N3910 X2.6007 Y0.3737 Z-0.1436
N3915 X2.5989 Y0.3733 Z-0.1425
N3920 X2.5974 Y0.373 Z-0.1409
N3925 X2.5962 Y0.3727 Z-0.1391
N3930 X2.5956 Y0.3724 Z-0.137
N3935 X2.5953 Y0.3723 Z-0.1348
N3940 G0 Z0.2
N3945 X-0.2116 Y-0.1956
N3950 Z-0.2
N3955 G1 Z-0.225 F4.
N3960 X-0.2113 Y-0.1954 Z-0.2289
N3965 X-0.2106 Y-0.1949 Z-0.2327
N3970 X-0.2093 Y-0.1941 Z-0.2363
N3975 X-0.2076 Y-0.193 Z-0.2397
N3980 X-0.2054 Y-0.1916 Z-0.2427
N3985 X-0.2029 Y-0.19 Z-0.2452
N3990 X-0.2001 Y-0.1882 Z-0.2473
N3995 X-0.1971 Y-0.1862 Z-0.2488
N4000 X-0.1939 Y-0.1841 Z-0.2497
N4005 X-0.1906 Y-0.182 Z-0.25
N4010 G3 X-0.0839 Y-0.0953 I-0.3468 J0.5358
N4015 G1 X-0.0803 Y-0.0914 F5.5
N4020 X-0.0724 Y-0.0773
N4025 X-0.0641 Y-0.0591
N4030 X-0.0553 Y-0.0349
N4035 X-0.0462 Y-0.0017
N4040 X-0.0389 Y0.0366
N4045 X-0.034 Y0.0752
N4050 X-0.0307 Y0.1141
N4055 X-0.0285 Y0.153
N4060 X-0.027 Y0.192
N4065 X-0.0259 Y0.231
N4070 X-0.0252 Y0.2699
N4075 X-0.0248 Y0.3089
N4080 X-0.0244 Y0.3479
N4085 X-0.0242 Y0.3869
N4090 X-0.0241 Y0.4259
N4095 X-0.0239 Y0.5039
N4100 X-0.0238 Y0.6128
N4105 X-0.0239 Y0.6165
N4110 X-0.0242 Y0.6203
N4115 X-0.0248 Y0.624
N4120 X-0.0294 Y0.6506
N4125 X-0.0338 Y0.6772
N4130 X-0.0344 Y0.6861
N4135 X-0.0348 Y0.7038
N4140 X-0.0343 Y0.7127
N4145 X-0.0336 Y0.7202
N4150 X-0.0318 Y0.7591
N4155 X-0.0292 Y0.798
N4160 X-0.0275 Y0.837
N4165 X-0.0263 Y0.8759
N4170 X-0.0261 Y0.8857
N4175 X-0.0224 Y0.9048
N4180 X-0.0031 Y0.9387
N4185 X0.0267 Y0.9639
N4190 X0.0612 Y0.982
N4195 X0.098 Y0.9949
N4200 X0.1356 Y1.0038
N4205 X0.1398 Y1.0049
N4210 X0.1439 Y1.0064
N4215 X0.1478 Y1.0081
N4220 G3 X0.1554 Y1.0143 I-0.0117 J0.0221 F4.
N4225 G1 X0.1578 Y1.0173 Z-0.2497
N4230 X0.1603 Y1.0203 Z-0.2488
N4235 X0.1626 Y1.0231 Z-0.2473
N4240 X0.1647 Y1.0256 Z-0.2452
N4245 X0.1666 Y1.0279 Z-0.2427
N4250 X0.1682 Y1.0299 Z-0.2397
N4255 X0.1695 Y1.0315 Z-0.2363
N4260 X0.1705 Y1.0327 Z-0.2327
N4265 X0.171 Y1.0334 Z-0.2289
N4270 X0.1712 Y1.0336 Z-0.225
N4275 G0 Z0.2
N4280 X-0.0657 Y0.7114
N4285 Z-0.2
N4290 G1 Z-0.225 F4.
N4295 X-0.0654 Z-0.2289
N4300 X-0.0644 Y0.7115 Z-0.2327
N4305 X-0.063 Y0.7116 Z-0.2363
N4310 X-0.0609 Y0.7117 Z-0.2397
N4315 X-0.0584 Y0.712 Z-0.2427
N4320 X-0.0554 Y0.7122 Z-0.2452
N4325 X-0.0521 Y0.7125 Z-0.2473
N4330 X-0.0484 Y0.7128 Z-0.2488
N4335 X-0.0446 Y0.7131 Z-0.2497
N4340 X-0.0407 Y0.7134 Z-0.25
N4345 G3 X-0.0336 Y0.7202 I-0.0006 J0.0078
N4350 G1 X-0.0301 Y0.757 F5.5
N4355 X-0.0289 Y0.7658
N4360 X-0.0248 Y0.7884
N4365 X-0.0234 Y0.7924
N4370 X-0.0159 Y0.8136
N4375 X-0.0139 Y0.819
N4380 X-0.0071 Y0.837
N4385 X-0.0037 Y0.8456
N4390 X0.0043 Y0.8633
N4395 X0.0084 Y0.8721
N4400 X0.0201 Y0.8899
N4405 X0.0461 Y0.9253
N4410 X0.0531 Y0.9342
N4415 X0.0549 Y0.9364
N4420 X0.0608 Y0.943
N4425 X0.07 Y0.9519
N4430 X0.0726 Y0.9543
N4435 X0.0815 Y0.9614
N4440 X0.103 Y0.9785
N4445 X0.1081 Y0.9824
N4450 X0.1268 Y0.9962
N4455 X0.1346 Y1.0013
N4460 X0.1435 Y1.006
N4465 X0.1524 Y1.0104
N4470 X0.1815 Y1.0228
N4475 X0.1878 Y1.0254
N4480 X0.2144 Y1.0358
N4485 X0.2166 Y1.0365
N4490 X0.2364 Y1.0405
N4495 X0.2409 Y1.0414
N4500 X0.2675 Y1.0449
N4505 X0.2941 Y1.0483
N4510 X0.3029 Y1.0488
N4515 X0.3206 Y1.0492
N4520 X0.3295 Y1.0493
N4525 X3.5091
N4530 X3.5179 Y1.0489
N4535 X3.5356 Y1.0474
N4540 X3.5445 Y1.0464
N4545 X3.5622 Y1.0436
N4550 X3.5711 Y1.042
N4555 X3.6096 Y1.0358
N4560 X3.6484 Y1.0319
N4565 X3.666 Y1.0237
N4570 X3.6972 Y1.0002
N4575 X3.72 Y0.9686
N4580 X3.7357 Y0.9346
N4585 X3.7368 Y0.9324
N4590 X3.738 Y0.9302
N4595 X3.7394 Y0.9281
N4600 G3 X3.7462 Y0.9212 I0.0208 J0.0139 F4.
N4605 X3.7742 Y0.9627 I0.0139 J0.0208 F5.5
N4610 G1 X3.5912 Y1.0869
N4615 G3 X3.5623 Y1.0462 I-0.014 J-0.0207
N4620 X3.5711 Y1.042 I0.0149 J0.0201 F4.
N4625 G1 X3.5888 Y1.0382 F5.5
N4630 X3.5976 Y1.0361
N4635 X3.6065 Y1.0329
N4640 X3.6096 Y1.0316
N4645 X3.6154 Y1.029
N4650 X3.6242 Y1.0247
N4655 X3.6508 Y1.0112
N4660 X3.6596 Y1.006
N4665 X3.675 Y0.9962
N4670 X3.6774 Y0.9944
N4675 X3.6862 Y0.9867
N4680 X3.6951 Y0.9784
N4685 X3.7128 Y0.9607
N4690 X3.7212 Y0.9519
N4695 X3.7298 Y0.942
N4700 X3.7305 Y0.9412
N4705 X3.7354 Y0.9342
N4710 X3.7394 Y0.9281
N4715 X3.7503 Y0.9076
N4720 X3.755 Y0.8987
N4725 X3.7571 Y0.8947
N4730 X3.7659 Y0.8765
N4735 X3.7678 Y0.8721
N4740 X3.771 Y0.8633
N4745 X3.7736 Y0.8544
N4750 X3.7748 Y0.8498
N4755 X3.7756 Y0.8456
N4760 X3.7786 Y0.8278
N4765 X3.78 Y0.819
N4770 X3.7839 Y0.7924
N4775 X3.7843 Y0.7835
N4780 X3.7846 Y0.7658
N4785 X3.7853 Y0.4468
N4790 X3.7851 Y0.438
N4795 X3.7846 Y0.4291
N4800 X3.7837 Y0.4203
N4805 X3.78 Y0.3814
N4810 X3.778 Y0.3425
N4815 X3.7766 Y0.3035
N4820 X3.7757 Y0.2646
N4825 X3.7751 Y0.2256
N4830 X3.7747 Y0.1866
N4835 X3.7744 Y0.1476
N4840 X3.7742 Y0.1086
N4845 X3.7677 Y0.0902
N4850 X3.7464 Y0.0575
N4855 X3.7158 Y0.0334
N4860 X3.6809 Y0.016
N4865 X3.6439 Y0.0038
N4870 X3.6059 Y-0.0048
N4875 X3.5673 Y-0.0107
N4880 X3.5286 Y-0.0148
N4885 X3.4897 Y-0.0177
N4890 X3.4507 Y-0.0196
N4895 X3.4118 Y-0.0209
N4900 X3.3728 Y-0.0218
N4905 X3.3338 Y-0.0224
N4910 X3.2948 Y-0.0228
N4915 X3.2558 Y-0.0231
N4920 X3.2168 Y-0.0233
N4925 X3.1778 Y-0.0235
N4930 X3.0999 Y-0.0236
N4935 X2.9439 Y-0.0237
N4940 X2.1641
N4945 X1.1639 Y-0.0238
N4950 X1.1587 Y-0.024
N4955 X1.1535 Y-0.0247
N4960 X1.1484 Y-0.0258
N4965 X1.1443 Y-0.027
N4970 X1.1177 Y-0.0332
N4975 X1.1089 Y-0.035
N4980 X1.1 Y-0.0368
N4985 X1.0912 Y-0.0383
N4990 X1.0823 Y-0.0397
N4995 X1.0646 Y-0.0424
N5000 X1.0557 Y-0.0435
N5005 X1.038 Y-0.0454
N5010 X1.0292 Y-0.0463
N5015 X1.0026 Y-0.0482
N5020 X0.976 Y-0.0491
N5025 X0.9672
N5030 X0.9495
N5035 X0.9406 Y-0.0489
N5040 X0.9229 Y-0.0483
N5045 X0.914 Y-0.0479
N5050 X0.8875 Y-0.0459
N5055 X0.8609 Y-0.0432
N5060 X0.852 Y-0.0421
N5065 X0.8343 Y-0.0396
N5070 X0.7567 Y-0.0319
N5075 X0.7178 Y-0.0293
N5080 X0.6789 Y-0.0275
N5085 X0.6399 Y-0.0263
N5090 X0.6009 Y-0.0255
N5095 X0.5619 Y-0.0249
N5100 X0.5229 Y-0.0246
N5105 X0.484 Y-0.0243
N5110 X0.445 Y-0.0241
N5115 X0.367 Y-0.0239
N5120 X0.25 Y-0.0238
N5125 X0.2013
N5130 X0.1917 Y-0.0222
N5135 X0.1733 Y-0.0158
N5140 X0.1424 Y0.0081
N5145 X0.1207 Y0.0405
N5150 X0.1058 Y0.0766
N5155 X0.0957 Y0.1142
N5160 X0.089 Y0.1526
N5165 X0.0846 Y0.1914
N5170 X0.0816 Y0.2302
N5175 X0.0797 Y0.2692
N5180 X0.0785 Y0.3082
N5185 X0.0777 Y0.3471
N5190 X0.0772 Y0.3861
N5195 X0.0769 Y0.4175
N5200 X0.0755 Y0.4298
N5205 X0.0715 Y0.4415
N5210 X0.0652 Y0.4521
N5215 X0.0625 Y0.4557
N5220 X0.0497 Y0.4734
N5225 X0.0434 Y0.4823
N5230 X0.0372 Y0.4914
N5235 X0.0254 Y0.5089
N5240 X0.0198 Y0.5177
N5245 X0.0102 Y0.5354
N5250 X0.0056 Y0.5443
N5255 X-0.0071 Y0.5713
N5260 X-0.0159 Y0.5918
N5265 X-0.0182 Y0.5975
N5270 X-0.0233 Y0.6179
N5275 X-0.0248 Y0.624
N5280 G3 X-0.0292 Y0.6328 I-0.0241 J-0.0067 F4.
N5285 G1 X-0.0316 Y0.6358 Z-0.2497
N5290 X-0.0339 Y0.6388 Z-0.2488
N5295 X-0.0362 Y0.6417 Z-0.2473
N5300 X-0.0382 Y0.6443 Z-0.2452
N5305 X-0.0401 Y0.6467 Z-0.2427
N5310 X-0.0417 Y0.6487 Z-0.2397
N5315 X-0.0429 Y0.6503 Z-0.2363
N5320 X-0.0439 Y0.6515 Z-0.2327
N5325 X-0.0444 Y0.6522 Z-0.2289
N5330 X-0.0446 Y0.6524 Z-0.225
N5335 G0 Z0.2
N5340 X0.8414 Y-0.0721
N5345 Z-0.2
N5350 G1 Z-0.225 F4.
N5355 Y-0.0718 Z-0.2289
N5360 Y-0.0709 Z-0.2327
N5365 X0.8413 Y-0.0694 Z-0.2363
N5370 Y-0.0673 Z-0.2397
N5375 X0.8412 Y-0.0648 Z-0.2427
N5380 X0.8411 Y-0.0618 Z-0.2452
N5385 X0.841 Y-0.0584 Z-0.2473
N5390 X0.8409 Y-0.0548 Z-0.2488
N5395 X0.8408 Y-0.051 Z-0.2497
N5400 X0.8407 Y-0.0471 Z-0.25
N5405 G3 X0.8343 Y-0.0396 I-0.0078 J-0.0002
N5410 G1 X0.8255 Y-0.0383 F5.5
N5415 X0.8166 Y-0.0369
N5420 X0.8078 Y-0.0353
N5425 X0.7989 Y-0.0336
N5430 X0.7723 Y-0.0283
N5435 X0.7458 Y-0.0221
N5440 X0.7369 Y-0.0198
N5445 X0.715 Y-0.0139
N5450 X0.6926 Y-0.0073
N5455 X0.6838 Y-0.0045
N5460 X0.6572 Y0.0042
N5465 X0.6306 Y0.0138
N5470 X0.6218 Y0.0172
N5475 X0.6107 Y0.0215
N5480 X0.6041 Y0.0242
N5485 X0.5952 Y0.0279
N5490 X0.5894 Y0.0304
N5495 X0.5535 Y0.0437
N5500 X0.5206 Y0.0529
N5505 X0.4824 Y0.0604
N5510 X0.4437 Y0.0655
N5515 X0.4049 Y0.0689
N5520 X0.366 Y0.0712
N5525 X0.327 Y0.0728
N5530 X0.3086 Y0.0791
N5535 X0.2747 Y0.0984
N5540 X0.2479 Y0.1268
N5545 X0.2278 Y0.1602
N5550 X0.213 Y0.1962
N5555 X0.2022 Y0.2337
N5560 X0.1945 Y0.2719
N5565 X0.1923 Y0.2873
N5570 X0.1894 Y0.299
N5575 X0.1842 Y0.3098
N5580 X0.1768 Y0.3193
N5585 X0.1651 Y0.3316
N5590 X0.157 Y0.3405
N5595 X0.1411 Y0.3582
N5600 X0.1333 Y0.3671
N5605 X0.1183 Y0.3848
N5610 X0.1081 Y0.3969
N5615 X0.0895 Y0.4203
N5620 X0.0825 Y0.4291
N5625 X0.0726 Y0.4421
N5630 X0.0652 Y0.4521
N5635 G3 X0.0577 Y0.4583 I-0.0195 J-0.0157 F4.
N5640 G1 X0.0543 Y0.4602 Z-0.2497
N5645 X0.0509 Y0.462 Z-0.2488
N5650 X0.0477 Y0.4637 Z-0.2473
N5655 X0.0448 Y0.4653 Z-0.2452
N5660 X0.0422 Y0.4668 Z-0.2427
N5665 X0.04 Y0.468 Z-0.2397
N5670 X0.0382 Y0.469 Z-0.2363
N5675 X0.0368 Y0.4697 Z-0.2327
N5680 X0.036 Y0.4701 Z-0.2289
N5685 X0.0358 Y0.4703 Z-0.225
N5690 G0 Z0.2
N5695 X0.5881 Y-0.0028
N5700 Z-0.2
N5705 G1 Z-0.225 F4.
N5710 X0.5882 Y-0.0025 Z-0.2289
N5715 X0.5884 Y-0.0016 Z-0.2327
N5720 X0.5887 Y-0.0001 Z-0.2363
N5725 X0.5892 Y0.0019 Z-0.2397
N5730 X0.5897 Y0.0043 Z-0.2427
N5735 X0.5904 Y0.0072 Z-0.2452
N5740 X0.5912 Y0.0105 Z-0.2473
N5745 X0.592 Y0.014 Z-0.2488
N5750 X0.5928 Y0.0177 Z-0.2497
N5755 X0.5937 Y0.0216 Z-0.25
N5760 G3 X0.5894 Y0.0304 I-0.0076 J0.0018
N5765 G1 X0.5775 Y0.0355 F5.5
N5770 X0.5686 Y0.0394
N5775 X0.5496 Y0.0481
N5780 X0.5421 Y0.0516
N5785 X0.5132 Y0.0658
N5790 X0.4889 Y0.0787
N5795 X0.4801 Y0.0836
N5800 X0.4623 Y0.0937
N5805 X0.4535 Y0.0988
N5810 X0.4446 Y0.104
N5815 X0.4345 Y0.1101
N5820 X0.4269 Y0.1149
N5825 X0.4003 Y0.1319
N5830 X0.393 Y0.1367
N5835 X0.3738 Y0.1499
N5840 X0.3673 Y0.1544
N5845 X0.355 Y0.1633
N5850 X0.3472 Y0.169
N5855 X0.3383 Y0.1756
N5860 X0.3118 Y0.1961
N5865 X0.2852 Y0.2177
N5870 X0.2761 Y0.2253
N5875 X0.2558 Y0.243
N5880 X0.2498 Y0.2484
N5885 X0.2459 Y0.2519
N5890 X0.2232 Y0.2729
N5895 X0.2144 Y0.2814
N5900 X0.1966 Y0.2989
N5905 X0.1878 Y0.3079
N5910 X0.182 Y0.3139
N5915 X0.1768 Y0.3193
N5920 G3 X0.1686 Y0.3247 I-0.0175 J-0.0179 F4.
N5925 G1 X0.165 Y0.3261 Z-0.2497
N5930 X0.1615 Y0.3275 Z-0.2488
N5935 X0.1581 Y0.3289 Z-0.2473
N5940 X0.155 Y0.3301 Z-0.2452
N5945 X0.1522 Y0.3313 Z-0.2427
N5950 X0.1499 Y0.3322 Z-0.2397
N5955 X0.148 Y0.333 Z-0.2363
N5960 X0.1466 Y0.3335 Z-0.2327
N5965 X0.1457 Y0.3339 Z-0.2289
N5970 X0.1454 Y0.334 Z-0.225
N5975 G0 Z0.2
N5980 X3.8161 Y0.4275
N5985 Z-0.2
N5990 G1 Z-0.225 F4.
N5995 X3.8158 Z-0.2289
N6000 X3.8149 Z-0.2327
N6005 X3.8134 Y0.4274 Z-0.2363
N6010 X3.8113 Y0.4273 Z-0.2397
N6015 X3.8088 Z-0.2427
N6020 X3.8058 Y0.4272 Z-0.2452
N6025 X3.8024 Y0.427 Z-0.2473
N6030 X3.7988 Y0.4269 Z-0.2488
N6035 X3.795 Y0.4268 Z-0.2497
N6040 X3.7911 Y0.4267 Z-0.25
N6045 G3 X3.7837 Y0.4203 I0.0003 J-0.0078
N6050 G1 X3.7823 Y0.4114 F5.5
N6055 X3.7796 Y0.3937
N6060 X3.7781 Y0.3848
N6065 X3.7727 Y0.3604
N6070 X3.7725 Y0.3599
N6075 X3.7644 Y0.3405
N6080 X3.7605 Y0.3316
N6085 X3.7471 Y0.3051
N6090 X3.7422 Y0.2962
N6095 X3.7394 Y0.2913
N6100 X3.7366 Y0.2873
N6105 X3.7287 Y0.2748
N6110 X3.7205 Y0.2592
N6115 X3.7052 Y0.2234
N6120 X3.6861 Y0.1894
N6125 X3.6592 Y0.1612
N6130 X3.627 Y0.1391
N6135 X3.5918 Y0.1223
N6140 X3.5549 Y0.1097
N6145 X3.5171 Y0.1004
N6150 X3.4787 Y0.0936
N6155 X3.44 Y0.0887
N6160 X3.4012 Y0.0851
N6165 X3.3623 Y0.0826
N6170 X3.3233 Y0.0807
N6175 X3.2844 Y0.0794
N6180 X3.2454 Y0.0785
N6185 X3.2064 Y0.0778
N6190 X3.1674 Y0.0774
N6195 X3.1284 Y0.077
N6200 X3.0894 Y0.0768
N6205 X3.0504 Y0.0766
N6210 X2.9725 Y0.0764
N6215 X2.8555 Y0.0763
N6220 X2.5825
N6225 X1.8417
N6230 X1.3791
N6235 X1.3672 Y0.075
N6240 X1.3559 Y0.0715
N6245 X1.3455 Y0.0656
N6250 X1.3392 Y0.0612
N6255 X1.3215 Y0.0491
N6260 X1.3199 Y0.0481
N6265 X1.3126 Y0.0436
N6270 X1.2901 Y0.0304
N6275 X1.286 Y0.0281
N6280 X1.2737 Y0.0215
N6285 X1.2683 Y0.0188
N6290 X1.2595 Y0.0145
N6295 X1.2329 Y0.0027
N6300 X1.224 Y-0.0009
N6305 X1.2063 Y-0.0079
N6310 X1.1975 Y-0.0109
N6315 X1.1797 Y-0.0168
N6320 X1.1709 Y-0.0196
N6325 X1.1484 Y-0.0258
N6330 G3 X1.1398 Y-0.0305 I0.0075 J-0.0239 F4.
N6335 G1 X1.1368 Y-0.033 Z-0.2497
N6340 X1.1339 Y-0.0355 Z-0.2488
N6345 X1.1311 Y-0.0378 Z-0.2473
N6350 X1.1286 Y-0.0399 Z-0.2452
N6355 X1.1263 Y-0.0418 Z-0.2427
N6360 X1.1243 Y-0.0435 Z-0.2397
N6365 X1.1227 Y-0.0448 Z-0.2363
N6370 X1.1216 Y-0.0457 Z-0.2327
N6375 X1.1209 Y-0.0463 Z-0.2289
N6380 X1.1207 Y-0.0465 Z-0.225
N6385 G0 Z0.2
N6390 X3.7688 Y0.2791
N6395 Z-0.2
N6400 G1 Z-0.225 F4.
N6405 X3.7685 Y0.2793 Z-0.2289
N6410 X3.7676 Y0.2797 Z-0.2327
N6415 X3.7663 Y0.2803 Z-0.2363
N6420 X3.7644 Y0.2812 Z-0.2397
N6425 X3.7621 Y0.2822 Z-0.2427
N6430 X3.7594 Y0.2835 Z-0.2452
N6435 X3.7564 Y0.2849 Z-0.2473
N6440 X3.7531 Y0.2864 Z-0.2488
N6445 X3.7496 Y0.2881 Z-0.2497
N6450 X3.7461 Y0.2897 Z-0.25
N6455 G3 X3.7366 Y0.2873 I-0.0033 J-0.0071
N6460 G1 X3.7305 Y0.2787 F5.5
N6465 X3.7216 Y0.2687
N6470 X3.714 Y0.2608
N6475 X3.7039 Y0.2506
N6480 X3.6951 Y0.2418
N6485 X3.6872 Y0.2342
N6490 X3.6767 Y0.2253
N6495 X3.6621 Y0.2165
N6500 X3.6508 Y0.2096
N6505 X3.6472 Y0.2076
N6510 X3.6242 Y0.1958
N6515 X3.6154 Y0.1916
N6520 X3.6115 Y0.1899
N6525 X3.6065 Y0.1878
N6530 X3.5976 Y0.1847
N6535 X3.5888 Y0.1826
N6540 X3.5711 Y0.1789
N6545 X3.5622 Y0.1773
N6550 X3.5445 Y0.1745
N6555 X3.5356 Y0.1735
N6560 X3.5179 Y0.1721
N6565 X3.5091 Y0.1717
N6570 X3.2788 Y0.1711
N6575 X3.2522 Y0.1716
N6580 X3.2466 Y0.1722
N6585 X3.2214 Y0.1747
N6590 X3.1824 Y0.1754
N6595 X3.1434 Y0.1758
N6600 X3.1044 Y0.176
N6605 X3.0654 Y0.1762
N6610 X2.9875 Y0.1763
N6615 X2.7535
N6620 X1.4849 Y0.1762
N6625 X1.4721 Y0.1748
N6630 X1.4599 Y0.1706
N6635 X1.4489 Y0.1639
N6640 X1.4397 Y0.1549
N6645 X1.4277 Y0.1403
N6650 X1.4245 Y0.1367
N6655 X1.4189 Y0.1306
N6660 X1.4012 Y0.1124
N6665 X1.3989 Y0.1101
N6670 X1.3923 Y0.104
N6675 X1.3746 Y0.0884
N6680 X1.3688 Y0.0836
N6685 X1.3657 Y0.0811
N6690 X1.3569 Y0.0742
N6695 X1.3455 Y0.0656
N6700 G3 X1.339 Y0.0584 I0.0151 J-0.0199 F4.
N6705 G1 X1.3371 Y0.055 Z-0.2497
N6710 X1.3351 Y0.0517 Z-0.2488
N6715 X1.3333 Y0.0486 Z-0.2473
N6720 X1.3316 Y0.0457 Z-0.2452
N6725 X1.3301 Y0.0431 Z-0.2427
N6730 X1.3288 Y0.0409 Z-0.2397
N6735 X1.3278 Y0.0391 Z-0.2363
N6740 X1.327 Y0.0378 Z-0.2327
N6745 X1.3265 Y0.0371 Z-0.2289
N6750 X1.3264 Y0.0368 Z-0.225
N6755 G0 Z0.2
N6760 X3.2537 Y0.1397
N6765 Z-0.2
N6770 G1 Z-0.225 F4.
N6775 Y0.14 Z-0.2289
N6780 Y0.1409 Z-0.2327
N6785 Y0.1424 Z-0.2363
N6790 X3.2536 Y0.1445 Z-0.2397
N6795 X3.2535 Y0.147 Z-0.2427
N6800 X3.2534 Y0.15 Z-0.2452
N6805 X3.2533 Y0.1534 Z-0.2473
N6810 X3.2532 Y0.157 Z-0.2488
N6815 X3.2531 Y0.1608 Z-0.2497
N6820 X3.253 Y0.1647 Z-0.25
N6825 G3 X3.2466 Y0.1722 I-0.0078 J-0.0002
N6830 G1 X3.2257 Y0.1753 F5.5
N6835 X3.2168 Y0.1768
N6840 X3.1991 Y0.1798
N6845 X3.1926 Y0.181
N6850 X3.1814 Y0.1836
N6855 X3.1725 Y0.1864
N6860 X3.1637 Y0.19
N6865 X3.1548 Y0.1942
N6870 X3.1459 Y0.1985
N6875 X3.1144 Y0.2165
N6880 X3.1105 Y0.2188
N6885 X3.0935 Y0.2281
N6890 X3.0749 Y0.2365
N6895 X3.0503 Y0.2453
N6900 X3.0163 Y0.2545
N6905 X2.9779 Y0.2616
N6910 X2.9392 Y0.2663
N6915 X2.9004 Y0.2695
N6920 X2.8615 Y0.2717
N6925 X2.8225 Y0.2731
N6930 X2.7835 Y0.2741
N6935 X2.7445 Y0.2748
N6940 X2.7055 Y0.2753
N6945 X2.6666 Y0.2756
N6950 X2.6276 Y0.2758
N6955 X2.5886 Y0.2759
N6960 X2.5106 Y0.2761
N6965 X2.3936 Y0.2762
N6970 X1.9257
N6975 X1.5748
N6980 X1.5477 Y0.2756
N6985 X1.535 Y0.2739
N6990 X1.5229 Y0.2695
N6995 X1.512 Y0.2627
N7000 X1.5029 Y0.2538
N7005 X1.4958 Y0.243
N7010 X1.4867 Y0.2253
N7015 X1.4819 Y0.2165
N7020 X1.4656 Y0.1899
N7025 X1.4632 Y0.1862
N7030 X1.4595 Y0.181
N7035 X1.4543 Y0.1736
N7040 X1.4454 Y0.1618
N7045 X1.4397 Y0.1549
N7050 G3 X1.4355 Y0.1461 I0.0199 J-0.0152 F4.
N7055 G1 X1.4345 Y0.1423 Z-0.2497
N7060 X1.4335 Y0.1387 Z-0.2488
N7065 X1.4326 Y0.1351 Z-0.2473
N7070 X1.4317 Y0.1319 Z-0.2452
N7075 X1.4309 Y0.129 Z-0.2427
N7080 X1.4303 Y0.1266 Z-0.2397
N7085 X1.4298 Y0.1246 Z-0.2363
N7090 X1.4294 Y0.1231 Z-0.2327
N7095 X1.4291 Y0.1222 Z-0.2289
N7100 Y0.122 Z-0.225
N7105 G0 Z0.2
N7110 X3.1043 Y0.1862
N7115 Z-0.2
N7120 G1 Z-0.225 F4.
N7125 X3.1044 Y0.1864 Z-0.2289
N7130 X3.1047 Y0.1873 Z-0.2327
N7135 X3.1053 Y0.1887 Z-0.2363
N7140 X3.106 Y0.1906 Z-0.2397
N7145 X3.1069 Y0.193 Z-0.2427
N7150 X3.108 Y0.1957 Z-0.2452
N7155 X3.1093 Y0.1989 Z-0.2473
N7160 X3.1106 Y0.2022 Z-0.2488
N7165 X3.112 Y0.2058 Z-0.2497
N7170 X3.1134 Y0.2094 Z-0.25
N7175 G3 X3.1105 Y0.2188 I-0.0073 J0.0029
N7180 G1 X3.0999 Y0.2253 F5.5
N7185 X3.0885 Y0.2342
N7190 X3.084 Y0.2385
N7195 X3.0751 Y0.2474
N7200 X3.0707 Y0.2519
N7205 X3.0485 Y0.2779
N7210 X3.0384 Y0.2886
N7215 X3.0293 Y0.2968
N7220 X3.0184 Y0.3052
N7225 X3.0042 Y0.3143
N7230 X2.9869 Y0.3236
N7235 X2.9645 Y0.3334
N7240 X2.9352 Y0.3435
N7245 X2.8975 Y0.3532
N7250 X2.8591 Y0.36
N7255 X2.8204 Y0.3648
N7260 X2.7815 Y0.3682
N7265 X2.7426 Y0.3706
N7270 X2.7037 Y0.3722
N7275 X2.6647 Y0.3734
N7280 X2.6257 Y0.3743
N7285 X2.6048 Y0.3746
N7290 X1.6492
N7295 X1.6102 Y0.3726
N7300 X1.5847 Y0.3709
N7305 X1.5736 Y0.3692
N7310 X1.5626 Y0.3665
N7315 X1.5524 Y0.3616
N7320 X1.5433 Y0.3549
N7325 X1.5356 Y0.3465
N7330 X1.5297 Y0.3368
N7335 X1.5258 Y0.3262
N7340 G3 X1.5256 Y0.3165 I0.0244 J-0.0054 F4.
N7345 X1.5573 Y0.2968 I0.0246 J0.0043 F5.5
N7350 G1 X1.6553 Y0.3256
N7355 G3 X1.6586 Y0.3723 I-0.0071 J0.024
N7360 X1.6492 Y0.3746 I-0.0104 J-0.0227 F4.
N7365 G1 X1.5562 F5.5
N7370 X1.5539 Y0.3744
N7375 X1.5517 Y0.374
N7380 X1.5495 Y0.3734
N7385 X1.5473 Y0.3726
N7390 X1.5429 Y0.3702
N7395 X1.5409 Y0.3688
N7400 X1.539 Y0.3671
N7405 X1.5374 Y0.3654
N7410 X1.5361 Y0.3637
N7415 X1.534 Y0.3603
N7420 X1.5331 Y0.3582
N7425 X1.5323 Y0.356
N7430 X1.5318 Y0.3538
N7435 X1.531 Y0.3494
N7440 X1.5292 Y0.3405
N7445 X1.5272 Y0.3316
N7450 X1.5249 Y0.3228
N7455 X1.52 Y0.3051
N7460 X1.5172 Y0.2962
N7465 X1.5142 Y0.2873
N7470 X1.5111 Y0.2785
N7475 X1.5074 Y0.2695
N7480 X1.4986 Y0.2491
N7485 X1.4958 Y0.243
N7490 G3 X1.4939 Y0.2335 I0.0231 J-0.0097 F4.
N7495 G1 X1.4938 Y0.2296 Z-0.2497
N7500 Y0.2258 Z-0.2488
N7505 Y0.2221 Z-0.2473
N7510 Y0.2188 Z-0.2452
N7515 Y0.2158 Z-0.2427
N7520 Y0.2133 Z-0.2397
N7525 Y0.2112 Z-0.2363
N7530 Y0.2097 Z-0.2327
N7535 X1.4937 Y0.2088 Z-0.2289
N7540 Y0.2085 Z-0.225
N7545 G0 Z0.2
N7550 X3.0326 Y0.2487
N7555 Z-0.2
N7560 G1 Z-0.225 F4.
N7565 X3.0328 Y0.249 Z-0.2289
N7570 X3.0334 Y0.2497 Z-0.2327
N7575 X3.0343 Y0.2509 Z-0.2363
N7580 X3.0356 Y0.2524 Z-0.2397
N7585 X3.0372 Y0.2544 Z-0.2427
N7590 X3.0391 Y0.2567 Z-0.2452
N7595 X3.0413 Y0.2593 Z-0.2473
N7600 X3.0436 Y0.2621 Z-0.2488
N7605 X3.046 Y0.2651 Z-0.2497
N7610 X3.0485 Y0.2681 Z-0.25
N7615 G3 Y0.2779 I-0.006 J0.005
N7620 G1 X3.048 Y0.2785 F5.5
N7625 X3.0397 Y0.2893
N7630 X3.0344 Y0.2962
N7635 X3.0308 Y0.3014
N7640 X3.0286 Y0.3051
N7645 X3.0165 Y0.3316
N7650 X3.0147 Y0.3365
N7655 X3.0122 Y0.3422
N7660 X3.0111 Y0.3441
N7665 X3.004 Y0.3543
N7670 X2.9949 Y0.3629
N7675 X2.9842 Y0.3693
N7680 X2.9723 Y0.3732
N7685 X2.9599 Y0.3746
N7690 G3 X2.9504 Y0.3723 I0.0009 J-0.025 F4.
N7695 X2.9464 Y0.3291 I0.0104 J-0.0227 F5.5
N7700 G1 X2.9767 Y0.3079
N7705 G3 X3.016 Y0.3269 I0.0143 J0.0205
N7710 X3.0147 Y0.3365 I-0.025 J0.0015 F4.
N7715 G1 X3.0098 Y0.3494 F5.5
N7720 X3.0064 Y0.3582
N7725 X3.0055 Y0.3604
N7730 X3.0042 Y0.3626
N7735 X3.0026 Y0.3648
N7740 X3.0007 Y0.3671
N7745 X2.998 Y0.3694
N7750 X2.9954 Y0.3712
N7755 X2.9932 Y0.3723
N7760 X2.991 Y0.3732
N7765 X2.9887 Y0.3739
N7770 X2.9865 Y0.3743
N7775 X2.9777 Y0.3746
N7780 X2.6048
N7785 G3 X2.5953 Y0.3723 I0.0009 J-0.025 F4.
N7790 G1 X2.5918 Y0.3707 Z-0.2497
N7795 X2.5883 Y0.3691 Z-0.2488
N7800 X2.585 Y0.3676 Z-0.2473
N7805 X2.582 Y0.3662 Z-0.2452
N7810 X2.5793 Y0.365 Z-0.2427
N7815 X2.5769 Y0.364 Z-0.2397
N7820 X2.5751 Y0.3631 Z-0.2363
N7825 X2.5737 Y0.3625 Z-0.2327
N7830 X2.5729 Y0.3621 Z-0.2289
N7835 X2.5726 Y0.362 Z-0.225
N7840 G0 Z0.6
N7850 M9
N7855 G53 Z0.
N7860 M30
%
