%
(1001)
(T8  D=0.25 CR=0. - ZMIN=-0.28 - FLAT END MILL)
N10 G90 G94 G17 G91.1
N15 G20
N20 G53 G0 Z0.
(2D CONTOUR4 2)
N25 M9
N30 T8 M6
N35 S1400 M3
N40 G54
N45 M8
N55 G0 X3.5412 Y0.1168
N60 G43 Z0.6 H8
N65 G0 Z0.2
N70 G1 Z0.0394 F3.5
N75 Z-0.255 F1.
N80 Y0.1171 Z-0.2589
N85 Y0.118 Z-0.2627
N90 Y0.1195 Z-0.2663
N95 Y0.1216 Z-0.2697
N100 Y0.1241 Z-0.2727
N105 X3.5411 Y0.1271 Z-0.2752
N110 Y0.1304 Z-0.2773
N115 Y0.1341 Z-0.2788
N120 Y0.1379 Z-0.2797
N125 Y0.1418 Z-0.28
N130 Y0.1668 F3.5
N135 G3 X3.516 Y0.1917 I-0.025 J-0.0001
N140 G1 X3.2624 Y0.1911
N145 G2 X3.0161 Y0.3946 I-0.0006 J0.25
N150 G1 X1.5236
N155 G2 X1.517 Y0.3948 I0. J0.125
N160 X1.5169 Y0.3943 I-0.1245 J0.0106
N165 G1 X1.5167 Y0.3918
N170 G2 X1.5166 Y0.3905 I-0.1245 J0.0106
N175 G1 X1.5164 Y0.388
N180 G2 X1.5163 Y0.3868 I-0.1244 J0.012
N185 G1 X1.516 Y0.3843
N190 G2 X1.5159 Y0.3834 I-0.1243 J0.0131
N195 G1 X1.5156 Y0.3809
N200 G2 X1.5155 Y0.3796 I-0.1242 J0.014
N205 G1 X1.5151 Y0.3771
N210 G2 X1.515 Y0.376 I-0.1241 J0.0154
N215 G1 X1.5147 Y0.3734
N220 G2 X1.5145 Y0.3723 I-0.1239 J0.0165
N225 G1 X1.5142 Y0.3698
N230 G2 X1.514 Y0.3685 I-0.1238 J0.0176
N235 G1 X1.5136 Y0.366
N240 G2 X1.5134 Y0.3651 I-0.1236 J0.0189
N245 G1 X1.513 Y0.3626
N250 G2 X1.5128 Y0.3613 I-0.1234 J0.0198
N255 G1 X1.5124 Y0.3588
N260 G2 X1.5122 Y0.3577 I-0.1232 J0.021
N265 G1 X1.5117 Y0.3551
N270 G2 X1.5115 Y0.3539 I-0.123 J0.0221
N275 G1 X1.511 Y0.3513
N280 G2 X1.5108 Y0.3503 I-0.1228 J0.0234
N285 G1 X1.5103 Y0.3477
N290 G2 X1.5101 Y0.3465 I-0.1226 J0.0244
N295 G1 X1.5095 Y0.3439
N300 G2 X1.5093 Y0.3429 I-0.1223 J0.0257
N305 G1 X1.5087 Y0.3403
N310 G2 X1.5085 Y0.3391 I-0.1221 J0.0267
N315 G1 X1.5079 Y0.3366
N320 G2 X1.5076 Y0.3354 I-0.1218 J0.0279
N325 G1 X1.507 Y0.3328
N330 G2 X1.5067 Y0.3318 I-0.1216 J0.0292
N335 G1 X1.5061 Y0.3292
N340 G2 X1.5058 Y0.328 I-0.1213 J0.0302
N345 G1 X1.5051 Y0.3255
N350 G2 X1.5048 Y0.3243 I-0.121 J0.0314
N355 G1 X1.5041 Y0.3217
N360 G2 X1.5038 Y0.3207 I-0.1207 J0.0326
N365 G1 X1.5031 Y0.3181
N370 G2 X1.5028 Y0.3168 I-0.1204 J0.0336
N375 G1 X1.502 Y0.3142
N380 G2 X1.5017 Y0.3132 I-0.12 J0.0349
N385 G1 X1.5009 Y0.3107
N390 G2 X1.5006 Y0.3095 I-0.1197 J0.0359
N395 G1 X1.4998 Y0.307
N400 G2 X1.499 Y0.3044 I-0.1194 J0.037
N405 G1 X1.4962 Y0.2961
N410 G2 X1.4949 Y0.2924 I-0.1186 J0.0395
N415 G1 X1.4919 Y0.2841
N420 G2 X1.4905 Y0.2805 I-0.1173 J0.0432
N425 G1 X1.4871 Y0.2722
N430 G2 X1.4856 Y0.2686 I-0.1159 J0.0469
N435 G1 X1.4819 Y0.2603
N440 G2 X1.4803 Y0.2568 I-0.1144 J0.0504
N445 G1 X1.4763 Y0.2485
N450 G2 X1.4746 Y0.245 I-0.1127 J0.054
N455 G1 X1.4703 Y0.2367
N460 G2 X1.4685 Y0.2334 I-0.111 J0.0575
N465 G1 X1.4639 Y0.2251
N470 G2 X1.4619 Y0.2217 I-0.1092 J0.0609
N475 G1 X1.457 Y0.2136
N480 G2 X1.455 Y0.2103 I-0.1072 J0.0643
N485 G1 X1.4498 Y0.2022
N490 G2 X1.4476 Y0.1989 I-0.1052 J0.0676
N495 G1 X1.4421 Y0.1909
N500 G2 X1.4398 Y0.1877 I-0.103 J0.0708
N505 G1 X1.434 Y0.1797
N510 G2 X1.4316 Y0.1766 I-0.1008 J0.074
N515 G1 X1.4254 Y0.1687
N520 G2 X1.423 Y0.1657 I-0.0984 J0.0771
N525 G1 X1.4165 Y0.1579
N530 G2 X1.414 Y0.155 I-0.096 J0.0801
N535 G1 X1.4071 Y0.1472
N540 G2 X1.4045 Y0.1444 I-0.0935 J0.083
N545 G1 X1.3973 Y0.1368
N550 G2 X1.3946 Y0.134 I-0.0908 J0.0859
N555 G1 X1.3871 Y0.1265
N560 G2 X1.3843 Y0.1238 I-0.0882 J0.0886
N565 G1 X1.3764 Y0.1165
N570 G2 X1.3736 Y0.1139 I-0.0854 J0.0913
N575 G1 X1.3654 Y0.1067
N580 G2 X1.3625 Y0.1042 I-0.0825 J0.0939
N585 G1 X1.3539 Y0.0971
N590 G2 X1.3509 Y0.0948 I-0.0796 J0.0964
N595 G1 X1.342 Y0.0878
N600 G2 X1.339 Y0.0856 I-0.0766 J0.0987
N605 G1 X1.3297 Y0.0788
N610 G2 X1.3266 Y0.0766 I-0.0736 J0.101
N615 G1 X1.317 Y0.0701
N620 G2 X1.3139 Y0.068 I-0.0705 J0.1032
N625 G1 X1.3039 Y0.0616
N630 G2 X1.3007 Y0.0596 I-0.0674 J0.1053
N635 G1 X1.2904 Y0.0534
N640 G2 X1.2872 Y0.0516 I-0.0642 J0.1072
N645 G1 X1.2765 Y0.0456
N650 G2 X1.2731 Y0.0438 I-0.061 J0.1091
N655 G1 X1.2621 Y0.038
N660 G2 X1.2587 Y0.0364 I-0.0577 J0.1109
N665 G1 X1.2473 Y0.0308
N670 G2 X1.244 Y0.0293 I-0.0544 J0.1125
N675 G1 X1.2322 Y0.024
N680 G2 X1.2289 Y0.0226 I-0.0511 J0.1141
N685 G1 X1.2167 Y0.0175
N690 G2 X1.2134 Y0.0162 I-0.0478 J0.1155
N695 G1 X1.2008 Y0.0114
N700 G2 X1.1975 Y0.0102 I-0.0445 J0.1168
N705 G1 X1.1846 Y0.0057
N710 G2 X1.1813 Y0.0046 I-0.0412 J0.118
N715 G1 X1.1681 Y0.0004
N720 G2 X1.1648 Y-0.0006 I-0.0379 J0.1191
N725 G1 X1.1512 Y-0.0045
N730 G2 X1.1479 Y-0.0054 I-0.0346 J0.1201
N735 G1 X1.134 Y-0.009
N740 G2 X1.1307 Y-0.0098 I-0.0312 J0.121
N745 G1 X1.1164 Y-0.0131
N750 G2 X1.1131 Y-0.0138 I-0.0279 J0.1218
N755 G1 X1.0985 Y-0.0167
N760 G2 X1.0953 Y-0.0173 I-0.0246 J0.1225
N765 G1 X1.0804 Y-0.0199
N770 G2 X1.0771 Y-0.0204 I-0.0214 J0.1232
N775 G1 X1.0619 Y-0.0227
N780 G2 X1.0586 Y-0.0231 I-0.0181 J0.1237
N785 G1 X1.0431 Y-0.025
N790 G2 X1.0398 Y-0.0253 I-0.0148 J0.1241
N795 G1 X1.024 Y-0.0268
N800 G2 X1.0207 Y-0.027 I-0.0116 J0.1245
N805 G1 X1.0046 Y-0.0281
N810 G2 X1.0014 Y-0.0283 I-0.0083 J0.1247
N815 G1 X0.9849 Y-0.0289
N820 G2 X0.9817 Y-0.029 I-0.0051 J0.1249
N825 G1 X0.965 Y-0.0293
N830 G2 X0.9618 I-0.0019 J0.125
N835 G1 X0.9447 Y-0.0291
N840 G2 X0.9416 Y-0.029 I0.0013 J0.125
N845 G1 X0.9243 Y-0.0284
N850 G2 X0.9211 Y-0.0283 I0.0044 J0.1249
N855 G1 X0.9035 Y-0.0272
N860 G2 X0.9004 Y-0.027 I0.0076 J0.1248
N865 G1 X0.8826 Y-0.0255
N870 G2 X0.8795 Y-0.0252 I0.0106 J0.1245
N875 G1 X0.8613 Y-0.0232
N880 G2 X0.8583 Y-0.0228 I0.0137 J0.1242
N885 G1 X0.8399 Y-0.0203
N890 G2 X0.8368 Y-0.0199 I0.0167 J0.1239
N895 G1 X0.8181 Y-0.0169
N900 G2 X0.8151 Y-0.0163 I0.0198 J0.1234
N905 G1 X0.7962 Y-0.0128
N910 G2 X0.7932 Y-0.0122 I0.0228 J0.1229
N915 G1 X0.774 Y-0.0082
N920 G2 X0.7711 Y-0.0075 I0.0258 J0.1223
N925 G1 X0.7517 Y-0.003
N930 G2 X0.7488 Y-0.0023 I0.0287 J0.1217
N935 G1 X0.7293 Y0.0028
N940 G2 X0.7264 Y0.0036 I0.0316 J0.1209
N945 G1 X0.7066 Y0.0093
N950 G2 X0.7038 Y0.0101 I0.0344 J0.1202
N955 G1 X0.6839 Y0.0163
N960 G2 X0.6811 Y0.0172 I0.0372 J0.1193
N965 G1 X0.6611 Y0.024
N970 G2 X0.6583 Y0.025 I0.04 J0.1184
N975 G1 X0.6381 Y0.0323
N980 G2 X0.6354 Y0.0334 I0.0427 J0.1175
N985 G1 X0.6151 Y0.0413
N990 G2 X0.6124 Y0.0424 I0.0454 J0.1165
N995 G1 X0.592 Y0.0509
N1000 G2 X0.5893 Y0.052 I0.0481 J0.1154
N1005 G1 X0.5688 Y0.0611
N1010 G2 X0.5662 Y0.0623 I0.0507 J0.1142
N1015 G1 X0.5456 Y0.072
N1020 G2 X0.543 Y0.0733 I0.0533 J0.1131
N1025 G1 X0.5224 Y0.0836
N1030 G2 X0.5198 Y0.0849 I0.0559 J0.1118
N1035 G1 X0.4991 Y0.0959
N1040 G2 X0.4966 Y0.0972 I0.0585 J0.1105
N1045 G1 X0.4759 Y0.1088
N1050 G2 X0.4734 Y0.1102 I0.061 J0.1091
N1055 G1 X0.4527 Y0.1225
N1060 G2 X0.4502 Y0.1239 I0.0634 J0.1077
N1065 G1 X0.4295 Y0.1368
N1070 G2 X0.4271 Y0.1383 I0.0659 J0.1062
N1075 G1 X0.4064 Y0.1518
N1080 G2 X0.404 Y0.1534 I0.0683 J0.1047
N1085 G1 X0.3833 Y0.1676
N1090 G2 X0.381 Y0.1692 I0.0707 J0.1031
N1095 G1 X0.3604 Y0.1841
N1100 G2 X0.3581 Y0.1857 I0.073 J0.1015
N1105 G1 X0.3375 Y0.2013
N1110 G2 X0.3353 Y0.203 I0.0753 J0.0998
N1115 G1 X0.3148 Y0.2192
N1120 G2 X0.3131 Y0.2206 I0.0775 J0.098
N1125 G1 X0.3019 Y0.2298
N1130 G2 X0.3006 Y0.2308 I0.0792 J0.0967
N1135 G1 X0.2894 Y0.2402
N1140 G2 X0.2882 Y0.2412 I0.0805 J0.0957
N1145 G1 X0.2771 Y0.2509
N1150 G2 X0.2759 Y0.2519 I0.0817 J0.0946
N1155 G1 X0.2647 Y0.2618
N1160 G2 X0.2636 Y0.2628 I0.0829 J0.0936
N1165 G1 X0.2525 Y0.2729
N1170 G2 X0.2513 Y0.274 I0.0841 J0.0925
N1175 G1 X0.2403 Y0.2842
N1180 G2 X0.2392 Y0.2853 I0.0853 J0.0914
N1185 G1 X0.2282 Y0.2958
N1190 G2 X0.2271 Y0.2969 I0.0864 J0.0903
N1195 G1 X0.2162 Y0.3076
N1200 G2 X0.2151 Y0.3087 I0.0876 J0.0892
N1205 G1 X0.2042 Y0.3196
N1210 G2 X0.2031 Y0.3208 I0.0887 J0.0881
N1215 G1 X0.1924 Y0.3319
N1220 G2 X0.1913 Y0.333 I0.0898 J0.0869
N1225 G1 X0.1806 Y0.3443
N1230 G2 X0.1795 Y0.3455 I0.0909 J0.0858
N1235 G1 X0.1689 Y0.357
N1240 G2 X0.1678 Y0.3582 I0.092 J0.0846
N1245 G1 X0.1573 Y0.3699
N1250 G2 X0.1563 Y0.3711 I0.0931 J0.0834
N1255 G1 X0.1459 Y0.3831
N1260 G2 X0.1448 Y0.3843 I0.0942 J0.0822
N1265 G1 X0.1345 Y0.3964
N1270 G2 X0.1335 Y0.3976 I0.0952 J0.081
N1275 G1 X0.1232 Y0.41
N1280 G2 X0.1222 Y0.4112 I0.0962 J0.0798
N1285 G1 X0.1121 Y0.4238
N1290 G2 X0.1111 Y0.425 I0.0973 J0.0785
N1295 G1 X0.1011 Y0.4378
N1300 G2 X0.1001 Y0.4391 I0.0983 J0.0773
N1305 G1 X0.0902 Y0.452
N1310 G2 X0.0892 Y0.4533 I0.0993 J0.076
N1315 G1 X0.0794 Y0.4665
N1320 G2 X0.0784 Y0.4678 I0.1002 J0.0747
N1325 G1 X0.0687 Y0.4811
N1330 G2 X0.0678 Y0.4824 I0.1012 J0.0734
N1335 G1 X0.0582 Y0.496
N1340 G2 X0.0573 Y0.4973 I0.1022 J0.072
N1345 G1 X0.0479 Y0.5111
N1350 G2 X0.047 Y0.5124 I0.1031 J0.0707
N1355 G1 X0.0377 Y0.5264
N1360 G2 X0.0367 Y0.5278 I0.104 J0.0693
N1365 X0.3096 Y1.0293 I0.2729 J0.1765
N1370 G1 X3.5145
N1375 G2 X3.7645 Y0.7799 I0. J-0.25
N1380 G1 X3.7654 Y0.4423
N1385 G2 X3.516 Y0.1917 I-0.25 J-0.0006
N1390 G3 X3.4911 Y0.1667 I0.0001 J-0.025
N1395 G1 Y0.1417
N1400 Y0.1377 Z-0.2797
N1405 Y0.1339 Z-0.2788
N1410 Y0.1303 Z-0.2773
N1415 X3.4912 Y0.127 Z-0.2752
N1420 Y0.124 Z-0.2727
N1425 Y0.1214 Z-0.2697
N1430 Y0.1194 Z-0.2663
N1435 Y0.1179 Z-0.2627
N1440 Y0.117 Z-0.2589
N1445 Y0.1167 Z-0.255
N1450 G0 Z0.6
N1460 M9
N1465 G53 Z0.
N1470 M30
%
