%
(1001)
(T8  D=0.25 CR=0. - ZMIN=-0.25 - FLAT END MILL)
N10 G90 G94 G17 G91.1
N15 G20
N20 G53 G0 Z0.
(2D ADAPTIVE1)
N25 M9
N30 T8 M6
N35 S1400 M3
N40 G54
N45 M9
N55 G0 X-0.0245 Y-0.2855
N60 G43 Z0.6 H8
N65 G0 Z0.2
N70 Z-0.0946
N75 G1 Z-0.1196 F4.
N80 X-0.0244 Y-0.2852 Z-0.1235
N85 X-0.0242 Y-0.2843 Z-0.1273
N90 X-0.0239 Y-0.2829 Z-0.131
N95 X-0.0233 Y-0.2809 Z-0.1343
N100 X-0.0227 Y-0.2784 Z-0.1373
N105 X-0.022 Y-0.2755 Z-0.1398
N110 X-0.0211 Y-0.2723 Z-0.1419
N115 X-0.0202 Y-0.2688 Z-0.1434
N120 X-0.0193 Y-0.2651 Z-0.1443
N125 X-0.0183 Y-0.2613 Z-0.1446
N130 G3 X0.0013 Y-0.1252 I-0.6183 J0.1584
N135 G1 X0.0012 Y-0.1192 F5.5
N140 X-0.0065 Y-0.081
N145 X-0.0119 Y-0.0424
N150 X-0.0157 Y-0.0036
N155 X-0.0182 Y0.0354
N160 X-0.02 Y0.0743
N165 X-0.0212 Y0.1133
N170 X-0.022 Y0.1523
N175 X-0.0226 Y0.1912
N180 X-0.0229 Y0.2302
N185 X-0.0232 Y0.2692
N190 X-0.0234 Y0.3082
N195 X-0.0236 Y0.3862
N200 X-0.0237 Y0.5032
N205 Y0.8151
N210 Y0.8833
N215 X-0.0205 Y0.9026
N220 X-0.0113 Y0.9197
N225 X0.0134 Y0.9499
N230 X0.0455 Y0.972
N235 X0.0811 Y0.9878
N240 X0.1185 Y0.9989
N245 X0.1567 Y1.0067
N250 X0.1954 Y1.012
N255 X0.2342 Y1.0157
N260 X0.2731 Y1.0183
N265 X0.312 Y1.02
N270 X0.351 Y1.0212
N275 X0.39 Y1.022
N280 X0.429 Y1.0226
N285 X0.468 Y1.0229
N290 X0.507 Y1.0232
N295 X0.5459 Y1.0234
N300 X0.6239 Y1.0236
N305 X0.7409 Y1.0237
N310 X0.8969
N315 X2.6319 Y1.0238
N320 X2.6512 Y1.0206
N325 X2.6685 Y1.0117
N330 X2.699 Y0.9874
N335 X2.7214 Y0.9554
N340 X2.7374 Y0.9199
N345 X2.7486 Y0.8825
N350 X2.7564 Y0.8444
N355 X2.7619 Y0.8057
N360 X2.7656 Y0.7669
N365 X2.7682 Y0.728
N370 X2.77 Y0.6891
N375 X2.7712 Y0.6501
N380 X2.772 Y0.6111
N385 X2.7725 Y0.5721
N390 X2.7729 Y0.5331
N395 X2.7732 Y0.4942
N400 X2.7734 Y0.4552
N405 X2.7736 Y0.3772
N410 X2.7737 Y0.2602
N415 Y0.114
N420 X2.7721 Y0.1044
N425 X2.7657 Y0.086
N430 X2.7429 Y0.0543
N435 X2.7116 Y0.0311
N440 X2.6764 Y0.0144
N445 X2.6392 Y0.0026
N450 X2.6011 Y-0.0056
N455 X2.5625 Y-0.0113
N460 X2.5237 Y-0.0152
N465 X2.4848 Y-0.0179
N470 X2.4459 Y-0.0198
N475 X2.4069 Y-0.021
N480 X2.3679 Y-0.0219
N485 X2.329 Y-0.0225
N490 X2.29 Y-0.0229
N495 X2.251 Y-0.0232
N500 X2.212 Y-0.0233
N505 X2.173 Y-0.0235
N510 X2.095 Y-0.0236
N515 X1.9391 Y-0.0237
N520 X1.5881
N525 X0.2235 Y-0.0238
N530 X0.2043 Y-0.0201
N535 X0.1869 Y-0.0114
N540 X0.1559 Y0.0123
N545 X0.1328 Y0.0437
N550 X0.1161 Y0.079
N555 X0.1041 Y0.1161
N560 X0.0957 Y0.1541
N565 X0.0898 Y0.1927
N570 X0.0856 Y0.2314
N575 X0.0827 Y0.2703
N580 X0.0807 Y0.3093
N585 X0.0793 Y0.3482
N590 X0.0784 Y0.3872
N595 X0.0777 Y0.4262
N600 X0.0773 Y0.4652
N605 X0.0771 Y0.4821
N610 X0.0764 Y0.4911
N615 X0.0742 Y0.4998
N620 X0.0707 Y0.5082
N625 X0.068 Y0.5138
N630 X0.0582 Y0.5354
N635 X0.0563 Y0.5398
N640 X0.0508 Y0.562
N645 X0.0503 Y0.5645
N650 X0.0465 Y0.5886
N655 X0.0453 Y0.5974
N660 X0.0432 Y0.6151
N665 X0.0426 Y0.624
N670 X0.0425 Y0.6506
N675 Y0.7303
N680 X0.0426 Y0.7391
N685 X0.043 Y0.7568
N690 X0.0435 Y0.7657
N695 X0.0474 Y0.7923
N700 X0.0518 Y0.8188
N705 X0.0542 Y0.8277
N710 X0.0569 Y0.8365
N715 X0.0591 Y0.8427
N720 X0.0603 Y0.8454
N725 X0.0733 Y0.872
N730 X0.0824 Y0.8897
N735 X0.0857 Y0.8957
N740 X0.0874 Y0.8985
N745 X0.0946 Y0.9091
N750 X0.1003 Y0.9162
N755 X0.108 Y0.9251
N760 X0.1345 Y0.9517
N765 X0.1389 Y0.9559
N770 X0.1478 Y0.9635
N775 X0.1555 Y0.9694
N780 X0.1566 Y0.9701
N785 X0.1655 Y0.976
N790 X0.1694 Y0.9782
N795 X0.1743 Y0.9809
N800 X0.1921 Y0.9899
N805 X0.2186 Y1.0029
N810 X0.2237 Y1.0048
N815 X0.2275 Y1.0062
N820 X0.2364 Y1.0087
N825 X0.2452 Y1.0109
N830 X0.2718 Y1.0154
N835 X0.2984 Y1.0192
N840 X0.3073 Y1.0196
N845 X0.325 Y1.0199
N850 X0.3338 Y1.02
N855 X2.1858
N860 X2.2124 Y1.0182
N865 X2.2212 Y1.0173
N870 X2.2655 Y1.0127
N875 X2.2744 Y1.0117
N880 X2.2921 Y1.0089
N885 X2.301 Y1.0073
N890 X2.3098 Y1.0046
N895 X2.3373 Y0.996
N900 X2.3652 Y0.9871
N905 X2.3807 Y0.9821
N910 X2.3896 Y0.979
N915 X2.3916 Y0.9782
N920 X2.3984 Y0.9748
N925 X2.4282 Y0.9619
N930 X2.4542 Y0.9531
N935 X2.4906 Y0.9439
N940 X2.529 Y0.9373
N945 X2.5635 Y0.9191
N950 X2.5915 Y0.892
N955 X2.6133 Y0.8596
N960 X2.6297 Y0.8243
N965 X2.6419 Y0.7872
N970 X2.6509 Y0.7493
N975 X2.6541 Y0.7302
N980 X2.6553 Y0.7249
N985 X2.6569 Y0.7198
N990 X2.659 Y0.7148
N995 X2.6643 Y0.7037
N1000 X2.6684 Y0.6948
N1005 X2.6757 Y0.6771
N1010 X2.6793 Y0.6683
N1015 X2.6861 Y0.6417
N1020 X2.6997 Y0.5861
N1025 X2.701 Y0.5797
N1030 X2.7026 Y0.5708
N1035 X2.7034 Y0.562
N1040 X2.704 Y0.5531
N1045 X2.7058 Y0.5
N1050 X2.7065 Y0.4734
N1055 X2.7058 Y0.4646
N1060 X2.7038 Y0.4469
N1065 X2.7025 Y0.438
N1070 X2.6933 Y0.3849
N1075 X2.6875 Y0.3463
N1080 X2.683 Y0.3076
N1085 X2.68 Y0.2687
N1090 X2.678 Y0.2298
N1095 X2.6639 Y0.1934
N1100 X2.6389 Y0.1635
N1105 X2.6076 Y0.1403
N1110 X2.5728 Y0.1228
N1115 X2.5363 Y0.1099
N1120 X2.5308 Y0.1076
N1125 X2.5255 Y0.1047
N1130 X2.5205 Y0.1014
N1135 G3 X2.5143 Y0.0938 I0.0158 J-0.0194 F4.
N1140 G1 X2.5124 Y0.0904 Z-0.1443
N1145 X2.5106 Y0.087 Z-0.1434
N1150 X2.5089 Y0.0838 Z-0.1419
N1155 X2.5073 Y0.0809 Z-0.1398
N1160 X2.5059 Y0.0783 Z-0.1373
N1165 X2.5047 Y0.076 Z-0.1343
N1170 X2.5037 Y0.0742 Z-0.131
N1175 X2.503 Y0.0729 Z-0.1273
N1180 X2.5026 Y0.0721 Z-0.1235
N1185 X2.5024 Y0.0718 Z-0.1196
N1190 G0 Z0.2
N1195 X2.7261 Y0.3902
N1200 Z-0.0946
N1205 G1 Z-0.1196 F4.
N1210 X2.7258 Z-0.1235
N1215 X2.7249 Y0.3903 Z-0.1273
N1220 X2.7234 Z-0.131
N1225 X2.7214 Z-0.1343
N1230 X2.7188 Y0.3904 Z-0.1373
N1235 X2.7158 Y0.3905 Z-0.1398
N1240 X2.7125 Y0.3906 Z-0.1419
N1245 X2.7089 Y0.3907 Z-0.1434
N1250 X2.705 Z-0.1443
N1255 X2.7011 Y0.3908 Z-0.1446
N1260 G3 X2.6933 Y0.3849 I-0.0002 J-0.0078
N1265 G1 X2.6897 Y0.3672 F5.5
N1270 X2.6877 Y0.3583
N1275 X2.678 Y0.3317
N1280 X2.6554 Y0.2744
N1285 X2.6492 Y0.2609
N1290 X2.644 Y0.252
N1295 X2.6385 Y0.2432
N1300 X2.6037 Y0.19
N1305 X2.5977 Y0.1812
N1310 X2.5934 Y0.1752
N1315 X2.5834 Y0.1635
N1320 X2.5747 Y0.1546
N1325 X2.5305 Y0.1103
N1330 X2.5225 Y0.1029
N1335 X2.4973 Y0.0837
N1340 X2.4959 Y0.0828
N1345 X2.4427 Y0.0478
N1350 X2.4339 Y0.0425
N1355 X2.4286 Y0.0395
N1360 X2.425 Y0.0375
N1365 X2.4162 Y0.0335
N1370 X2.4092 Y0.0306
N1375 X2.3541 Y0.0088
N1380 X2.3275 Y-0.0007
N1385 X2.301 Y-0.0061
N1390 X2.2478 Y-0.0153
N1395 X2.2389 Y-0.0166
N1400 X2.2212 Y-0.0184
N1405 X2.2124 Y-0.019
N1410 X2.1858 Y-0.0183
N1415 X2.1326 Y-0.0165
N1420 X2.1237 Y-0.0158
N1425 X2.1149 Y-0.0148
N1430 X2.106 Y-0.0131
N1435 X2.0972 Y-0.0111
N1440 X2.044 Y0.0018
N1445 X2.0174 Y0.0087
N1450 X1.9908 Y0.02
N1455 X1.982 Y0.0241
N1460 X1.9731 Y0.0283
N1465 X1.9453 Y0.0399
N1470 X1.9176 Y0.0488
N1475 X1.8796 Y0.0577
N1480 X1.8411 Y0.0637
N1485 X1.8023 Y0.0678
N1490 X1.7634 Y0.0705
N1495 X1.7245 Y0.0723
N1500 X1.6855 Y0.0736
N1505 X1.6465 Y0.0744
N1510 X1.6075 Y0.075
N1515 X1.5686 Y0.0754
N1520 X1.5296 Y0.0757
N1525 X1.4906 Y0.0759
N1530 X1.4126 Y0.0761
N1535 X1.2956 Y0.0762
N1540 X0.9837
N1545 X0.3598
N1550 X0.3404 Y0.0777
N1555 X0.3216 Y0.083
N1560 X0.2866 Y0.1001
N1565 X0.2583 Y0.1269
N1570 X0.2364 Y0.1592
N1575 X0.2199 Y0.1945
N1580 X0.2078 Y0.2316
N1585 X0.1989 Y0.2695
N1590 X0.1924 Y0.308
N1595 X0.1878 Y0.3467
N1600 X0.1844 Y0.3855
N1605 X0.1839 Y0.3877
N1610 X0.1827 Y0.3896
N1615 X0.1809 Y0.391
N1620 X0.1655 Y0.3991
N1625 X0.1596 Y0.4026
N1630 X0.1566 Y0.4047
N1635 X0.1476 Y0.4114
N1640 X0.1389 Y0.4191
N1645 X0.1376 Y0.4203
N1650 X0.111 Y0.4469
N1655 X0.1027 Y0.4557
N1660 X0.0957 Y0.4646
N1665 X0.0946 Y0.466
N1670 X0.0894 Y0.4734
N1675 X0.084 Y0.4823
N1680 X0.0769 Y0.4962
N1685 X0.0707 Y0.5082
N1690 G3 X0.0644 Y0.5156 I-0.0218 J-0.0122 F4.
N1695 G1 X0.0614 Y0.518 Z-0.1443
N1700 X0.0584 Y0.5204 Z-0.1434
N1705 X0.0555 Y0.5227 Z-0.1419
N1710 X0.0529 Y0.5247 Z-0.1398
N1715 X0.0506 Y0.5266 Z-0.1373
N1720 X0.0486 Y0.5282 Z-0.1343
N1725 X0.047 Y0.5294 Z-0.131
N1730 X0.0458 Y0.5304 Z-0.1273
N1735 X0.0451 Y0.5309 Z-0.1235
N1740 X0.0448 Y0.5311 Z-0.1196
N1745 G0 Z0.2
N1750 X1.9705 Y-0.0048
N1755 Z-0.0946
N1760 G1 Z-0.1196 F4.
N1765 X1.9706 Y-0.0045 Z-0.1235
N1770 X1.9708 Y-0.0036 Z-0.1273
N1775 X1.9712 Y-0.0021 Z-0.131
N1780 X1.9718 Y-0.0002 Z-0.1343
N1785 X1.9724 Y0.0023 Z-0.1373
N1790 X1.9732 Y0.0052 Z-0.1398
N1795 X1.9741 Y0.0084 Z-0.1419
N1800 X1.975 Y0.0119 Z-0.1434
N1805 X1.976 Y0.0156 Z-0.1443
N1810 X1.9771 Y0.0193 Z-0.1446
N1815 G3 X1.9731 Y0.0283 I-0.0075 J0.002
N1820 G1 X1.931 Y0.0483 F5.5
N1825 X1.9288 Y0.0494
N1830 X1.9199 Y0.0547
N1835 X1.9111 Y0.0603
N1840 X1.9022 Y0.0663
N1845 X1.8557 Y0.1015
N1850 X1.8367 Y0.1144
N1855 X1.8214 Y0.1231
N1860 X1.8019 Y0.1322
N1865 X1.7764 Y0.1416
N1870 X1.7419 Y0.1514
N1875 X1.7036 Y0.159
N1880 X1.665 Y0.1642
N1885 X1.6261 Y0.1679
N1890 X1.5872 Y0.1704
N1895 X1.5483 Y0.1722
N1900 X1.5093 Y0.1734
N1905 X1.4703 Y0.1743
N1910 X1.4314 Y0.1749
N1915 X1.3924 Y0.1753
N1920 X1.3534 Y0.1756
N1925 X1.3144 Y0.1758
N1930 X1.2754 Y0.1759
N1935 X1.1974 Y0.1761
N1940 X1.0804 Y0.1762
N1945 X0.6905
N1950 X0.4566
N1955 X0.4185 Y0.1848
N1960 X0.3853 Y0.2051
N1965 X0.3583 Y0.2333
N1970 X0.3373 Y0.2661
N1975 X0.3212 Y0.3017
N1980 X0.3137 Y0.3225
N1985 X0.3083 Y0.3336
N1990 X0.3007 Y0.3433
N1995 X0.2912 Y0.3512
N2000 X0.2803 Y0.3569
N2005 X0.2684 Y0.3602
N2010 X0.2452 Y0.3641
N2015 X0.2364 Y0.3662
N2020 X0.2328 Y0.3672
N2025 X0.2275 Y0.3689
N2030 X0.2186 Y0.3721
N2035 X0.2098 Y0.3761
N2040 X0.1921 Y0.3851
N2045 X0.1809 Y0.391
N2050 G3 X0.1715 Y0.3934 I-0.0109 J-0.0225 F4.
N2055 G1 X0.1676 Y0.3937 Z-0.1443
N2060 X0.1638 Y0.3939 Z-0.1434
N2065 X0.1601 Y0.3941 Z-0.1419
N2070 X0.1568 Y0.3943 Z-0.1398
N2075 X0.1538 Y0.3945 Z-0.1373
N2080 X0.1513 Y0.3946 Z-0.1343
N2085 X0.1492 Y0.3947 Z-0.131
N2090 X0.1477 Y0.3948 Z-0.1273
N2095 X0.1468 Y0.3949 Z-0.1235
N2100 X0.1465 Z-0.1196
N2105 G0 Z0.2
N2110 X1.8464 Y0.0696
N2115 Z-0.0946
N2120 G1 Z-0.1196 F4.
N2125 X1.8465 Y0.0698 Z-0.1235
N2130 X1.8469 Y0.0707 Z-0.1273
N2135 X1.8476 Y0.072 Z-0.131
N2140 X1.8485 Y0.0738 Z-0.1343
N2145 X1.8497 Y0.0761 Z-0.1373
N2150 X1.851 Y0.0788 Z-0.1398
N2155 X1.8526 Y0.0817 Z-0.1419
N2160 X1.8542 Y0.085 Z-0.1434
N2165 X1.8559 Y0.0884 Z-0.1443
N2170 X1.8577 Y0.0919 Z-0.1446
N2175 G3 X1.8557 Y0.1015 I-0.007 J0.0035
N2180 G1 X1.8491 Y0.1064 F5.5
N2185 X1.8442 Y0.1103
N2190 X1.8402 Y0.1136
N2195 X1.8336 Y0.1192
N2200 X1.8225 Y0.1306
N2205 X1.8169 Y0.1369
N2210 X1.7859 Y0.1723
N2215 X1.7817 Y0.1772
N2220 X1.7732 Y0.186
N2225 X1.7633 Y0.1948
N2230 X1.7516 Y0.2035
N2235 X1.7365 Y0.2131
N2240 X1.7179 Y0.2228
N2245 X1.694 Y0.2331
N2250 X1.6626 Y0.2435
N2255 X1.6248 Y0.2529
N2260 X1.5864 Y0.2596
N2265 X1.5477 Y0.2643
N2270 X1.5088 Y0.2677
N2275 X1.4699 Y0.2702
N2280 X1.431 Y0.2719
N2285 X1.392 Y0.2731
N2290 X1.353 Y0.274
N2295 X1.314 Y0.2747
N2300 X1.275 Y0.2751
N2305 X1.2361 Y0.2755
N2310 X1.1971 Y0.2757
N2315 X1.1581 Y0.2758
N2320 X1.0801 Y0.276
N2325 X0.9631 Y0.2762
N2330 X0.6902
N2335 X0.5732
N2340 X0.5345 Y0.2807
N2345 X0.4993 Y0.2974
N2350 X0.4686 Y0.3215
N2355 X0.4498 Y0.3392
N2360 X0.4411 Y0.3459
N2365 X0.4314 Y0.3509
N2370 X0.4208 Y0.354
N2375 X0.4099 Y0.355
N2380 X0.3338
N2385 X0.325 Y0.3551
N2390 X0.3073 Y0.3554
N2395 X0.2984 Y0.3558
N2400 X0.2718 Y0.3596
N2405 X0.2684 Y0.3602
N2410 G3 X0.2587 Y0.3596 I-0.0032 J-0.0248 F4.
N2415 G1 X0.2549 Y0.3585 Z-0.1443
N2420 X0.2512 Y0.3575 Z-0.1434
N2425 X0.2477 Y0.3566 Z-0.1419
N2430 X0.2445 Y0.3557 Z-0.1398
N2435 X0.2416 Y0.355 Z-0.1373
N2440 X0.2391 Y0.3543 Z-0.1343
N2445 X0.2372 Y0.3538 Z-0.131
N2450 X0.2357 Y0.3534 Z-0.1273
N2455 X0.2348 Y0.3531 Z-0.1235
N2460 X0.2345 Y0.353 Z-0.1196
N2465 G0 Z0.2
N2470 X1.766 Y0.1479
N2475 Z-0.0946
N2480 G1 Z-0.1196 F4.
N2485 X1.7662 Y0.1481 Z-0.1235
N2490 X1.7668 Y0.1488 Z-0.1273
N2495 X1.7677 Y0.15 Z-0.131
N2500 X1.769 Y0.1516 Z-0.1343
N2505 X1.7706 Y0.1536 Z-0.1373
N2510 X1.7725 Y0.1559 Z-0.1398
N2515 X1.7746 Y0.1585 Z-0.1419
N2520 X1.7769 Y0.1613 Z-0.1434
N2525 X1.7792 Y0.1643 Z-0.1443
N2530 X1.7817 Y0.1674 Z-0.1446
N2535 G3 Y0.1772 I-0.0061 J0.0049
N2540 G1 X1.7693 Y0.1914 F5.5
N2545 X1.7637 Y0.1989
N2550 X1.7527 Y0.2166
N2555 X1.7516 Y0.2184
N2560 X1.7339 Y0.2498
N2565 X1.73 Y0.256
N2570 X1.7236 Y0.2644
N2575 X1.7157 Y0.2734
N2580 X1.7062 Y0.2824
N2585 X1.6939 Y0.2925
N2590 X1.6794 Y0.3026
N2595 X1.6607 Y0.3134
N2600 X1.6381 Y0.3241
N2605 X1.6087 Y0.3353
N2610 X1.5713 Y0.3463
N2615 X1.5331 Y0.3543
N2620 X1.5298 Y0.3547
N2625 X1.5269 Y0.3549
N2630 X1.5239 Y0.355
N2635 G3 X1.5144 Y0.3528 I0.0009 J-0.025 F4.
N2640 X1.5138 Y0.3076 I0.0104 J-0.0227 F5.5
N2645 G1 X1.7007 Y0.2158
N2650 G3 X1.7366 Y0.2404 I0.011 J0.0224
N2655 X1.7339 Y0.2498 I-0.0249 J-0.0022 F4.
N2660 G1 X1.7226 Y0.2697 F5.5
N2665 X1.7176 Y0.2786
N2670 X1.7021 Y0.3052
N2675 X1.6984 Y0.3114
N2680 X1.6963 Y0.314
N2685 X1.688 Y0.3229
N2690 X1.6807 Y0.3301
N2695 X1.6785 Y0.3317
N2700 X1.6649 Y0.3406
N2705 X1.663 Y0.3418
N2710 X1.6608 Y0.3431
N2715 X1.6585 Y0.344
N2720 X1.6435 Y0.3494
N2725 X1.64 Y0.3507
N2730 X1.6364 Y0.3515
N2735 X1.6275 Y0.3525
N2740 X1.601 Y0.3547
N2745 X1.5921 Y0.355
N2750 X0.4099
N2755 G3 X0.4004 Y0.3528 I0.0009 J-0.025 F4.
N2760 G1 X0.3968 Y0.3511 Z-0.1443
N2765 X0.3934 Y0.3496 Z-0.1434
N2770 X0.3901 Y0.3481 Z-0.1419
N2775 X0.387 Y0.3467 Z-0.1398
N2780 X0.3843 Y0.3454 Z-0.1373
N2785 X0.382 Y0.3444 Z-0.1343
N2790 X0.3801 Y0.3435 Z-0.131
N2795 X0.3787 Y0.3429 Z-0.1273
N2800 X0.3779 Y0.3425 Z-0.1235
N2805 X0.3776 Y0.3424 Z-0.1196
N2810 G0 Z0.2
N2815 X2.4016 Y1.0079
N2820 Z-0.0946
N2825 G1 Z-0.1196 F4.
N2830 X2.4015 Y1.0076 Z-0.1235
N2835 X2.4012 Y1.0067 Z-0.1273
N2840 X2.4008 Y1.0053 Z-0.131
N2845 X2.4003 Y1.0033 Z-0.1343
N2850 X2.3995 Y1.0009 Z-0.1373
N2855 X2.3987 Y0.998 Z-0.1398
N2860 X2.3978 Y0.9948 Z-0.1419
N2865 X2.3968 Y0.9913 Z-0.1434
N2870 X2.3957 Y0.9877 Z-0.1443
N2875 X2.3946 Y0.9839 Z-0.1446
N2880 G3 X2.3984 Y0.9748 I0.0075 J-0.0022
N2885 G1 X2.4095 Y0.9694 F5.5
N2890 X2.4162 Y0.9657
N2895 X2.4605 Y0.9408
N2900 X2.4693 Y0.9358
N2905 X2.487 Y0.9246
N2910 X2.4959 Y0.9183
N2915 X2.5136 Y0.9029
N2920 X2.5492 Y0.872
N2925 X2.5579 Y0.8642
N2930 X2.5679 Y0.8542
N2935 X2.5757 Y0.8451
N2940 X2.5824 Y0.8365
N2945 X2.62 Y0.787
N2950 X2.6227 Y0.7834
N2955 X2.6288 Y0.7741
N2960 X2.634 Y0.7657
N2965 X2.6377 Y0.7594
N2970 X2.6432 Y0.748
N2975 X2.659 Y0.7148
N2980 X2.6603 Y0.7131 Z-0.1444 F4.
N2985 X2.6615 Y0.7115 Z-0.1436
N2990 X2.6627 Y0.71 Z-0.1425
N2995 X2.6636 Y0.7088 Z-0.1409
N3000 X2.6643 Y0.7079 Z-0.1391
N3005 X2.6649 Y0.7074 Z-0.137
N3010 X2.6651 Y0.7072 Z-0.1348
N3015 G0 Z0.2
N3020 X-0.0245 Y-0.2855
N3025 Z-0.2
N3030 G1 Z-0.225 F4.
N3035 X-0.0244 Y-0.2852 Z-0.2289
N3040 X-0.0242 Y-0.2843 Z-0.2327
N3045 X-0.0239 Y-0.2829 Z-0.2363
N3050 X-0.0233 Y-0.2809 Z-0.2397
N3055 X-0.0227 Y-0.2784 Z-0.2427
N3060 X-0.022 Y-0.2755 Z-0.2452
N3065 X-0.0211 Y-0.2723 Z-0.2473
N3070 X-0.0202 Y-0.2688 Z-0.2488
N3075 X-0.0193 Y-0.2651 Z-0.2497
N3080 X-0.0183 Y-0.2613 Z-0.25
N3085 G3 X0.0013 Y-0.1252 I-0.6183 J0.1584
N3090 G1 X0.0012 Y-0.1192 F5.5
N3095 X-0.0065 Y-0.081
N3100 X-0.0119 Y-0.0424
N3105 X-0.0157 Y-0.0036
N3110 X-0.0182 Y0.0354
N3115 X-0.02 Y0.0743
N3120 X-0.0212 Y0.1133
N3125 X-0.022 Y0.1523
N3130 X-0.0226 Y0.1912
N3135 X-0.0229 Y0.2302
N3140 X-0.0232 Y0.2692
N3145 X-0.0234 Y0.3082
N3150 X-0.0236 Y0.3862
N3155 X-0.0237 Y0.5032
N3160 Y0.8151
N3165 Y0.8833
N3170 X-0.0205 Y0.9026
N3175 X-0.0113 Y0.9197
N3180 X0.0134 Y0.9499
N3185 X0.0455 Y0.972
N3190 X0.0811 Y0.9878
N3195 X0.1185 Y0.9989
N3200 X0.1567 Y1.0067
N3205 X0.1954 Y1.012
N3210 X0.2342 Y1.0157
N3215 X0.2731 Y1.0183
N3220 X0.312 Y1.02
N3225 X0.351 Y1.0212
N3230 X0.39 Y1.022
N3235 X0.429 Y1.0226
N3240 X0.468 Y1.0229
N3245 X0.507 Y1.0232
N3250 X0.5459 Y1.0234
N3255 X0.6239 Y1.0236
N3260 X0.7409 Y1.0237
N3265 X0.8969
N3270 X2.6319 Y1.0238
N3275 X2.6512 Y1.0206
N3280 X2.6685 Y1.0117
N3285 X2.699 Y0.9874
N3290 X2.7214 Y0.9554
N3295 X2.7374 Y0.9199
N3300 X2.7486 Y0.8825
N3305 X2.7564 Y0.8444
N3310 X2.7619 Y0.8057
N3315 X2.7656 Y0.7669
N3320 X2.7682 Y0.728
N3325 X2.77 Y0.6891
N3330 X2.7712 Y0.6501
N3335 X2.772 Y0.6111
N3340 X2.7725 Y0.5721
N3345 X2.7729 Y0.5331
N3350 X2.7732 Y0.4942
N3355 X2.7734 Y0.4552
N3360 X2.7736 Y0.3772
N3365 X2.7737 Y0.2602
N3370 Y0.114
N3375 X2.7721 Y0.1044
N3380 X2.7657 Y0.086
N3385 X2.7429 Y0.0543
N3390 X2.7116 Y0.0311
N3395 X2.6764 Y0.0144
N3400 X2.6392 Y0.0026
N3405 X2.6011 Y-0.0056
N3410 X2.5625 Y-0.0113
N3415 X2.5237 Y-0.0152
N3420 X2.4848 Y-0.0179
N3425 X2.4459 Y-0.0198
N3430 X2.4069 Y-0.021
N3435 X2.3679 Y-0.0219
N3440 X2.329 Y-0.0225
N3445 X2.29 Y-0.0229
N3450 X2.251 Y-0.0232
N3455 X2.212 Y-0.0233
N3460 X2.173 Y-0.0235
N3465 X2.095 Y-0.0236
N3470 X1.9391 Y-0.0237
N3475 X1.5881
N3480 X0.2235 Y-0.0238
N3485 X0.2043 Y-0.0201
N3490 X0.1869 Y-0.0114
N3495 X0.1559 Y0.0123
N3500 X0.1328 Y0.0437
N3505 X0.1161 Y0.079
N3510 X0.1041 Y0.1161
N3515 X0.0957 Y0.1541
N3520 X0.0898 Y0.1927
N3525 X0.0856 Y0.2314
N3530 X0.0827 Y0.2703
N3535 X0.0807 Y0.3093
N3540 X0.0793 Y0.3482
N3545 X0.0784 Y0.3872
N3550 X0.0777 Y0.4262
N3555 X0.0773 Y0.4652
N3560 X0.0771 Y0.4821
N3565 X0.0764 Y0.4911
N3570 X0.0742 Y0.4998
N3575 X0.0707 Y0.5082
N3580 X0.068 Y0.5138
N3585 X0.0582 Y0.5354
N3590 X0.0563 Y0.5398
N3595 X0.0508 Y0.562
N3600 X0.0503 Y0.5645
N3605 X0.0465 Y0.5886
N3610 X0.0453 Y0.5974
N3615 X0.0432 Y0.6151
N3620 X0.0426 Y0.624
N3625 X0.0425 Y0.6506
N3630 Y0.7303
N3635 X0.0426 Y0.7391
N3640 X0.043 Y0.7568
N3645 X0.0435 Y0.7657
N3650 X0.0474 Y0.7923
N3655 X0.0518 Y0.8188
N3660 X0.0542 Y0.8277
N3665 X0.0569 Y0.8365
N3670 X0.0591 Y0.8427
N3675 X0.0603 Y0.8454
N3680 X0.0733 Y0.872
N3685 X0.0824 Y0.8897
N3690 X0.0857 Y0.8957
N3695 X0.0874 Y0.8985
N3700 X0.0946 Y0.9091
N3705 X0.1003 Y0.9162
N3710 X0.108 Y0.9251
N3715 X0.1345 Y0.9517
N3720 X0.1389 Y0.9559
N3725 X0.1478 Y0.9635
N3730 X0.1555 Y0.9694
N3735 X0.1566 Y0.9701
N3740 X0.1655 Y0.976
N3745 X0.1694 Y0.9782
N3750 X0.1743 Y0.9809
N3755 X0.1921 Y0.9899
N3760 X0.2186 Y1.0029
N3765 X0.2237 Y1.0048
N3770 X0.2275 Y1.0062
N3775 X0.2364 Y1.0087
N3780 X0.2452 Y1.0109
N3785 X0.2718 Y1.0154
N3790 X0.2984 Y1.0192
N3795 X0.3073 Y1.0196
N3800 X0.325 Y1.0199
N3805 X0.3338 Y1.02
N3810 X2.1858
N3815 X2.2124 Y1.0182
N3820 X2.2212 Y1.0173
N3825 X2.2655 Y1.0127
N3830 X2.2744 Y1.0117
N3835 X2.2921 Y1.0089
N3840 X2.301 Y1.0073
N3845 X2.3098 Y1.0046
N3850 X2.3373 Y0.996
N3855 X2.3652 Y0.9871
N3860 X2.3807 Y0.9821
N3865 X2.3896 Y0.979
N3870 X2.3916 Y0.9782
N3875 X2.3984 Y0.9748
N3880 X2.4282 Y0.9619
N3885 X2.4542 Y0.9531
N3890 X2.4906 Y0.9439
N3895 X2.529 Y0.9373
N3900 X2.5635 Y0.9191
N3905 X2.5915 Y0.892
N3910 X2.6133 Y0.8596
N3915 X2.6297 Y0.8243
N3920 X2.6419 Y0.7872
N3925 X2.6509 Y0.7493
N3930 X2.6541 Y0.7302
N3935 X2.6553 Y0.7249
N3940 X2.6569 Y0.7198
N3945 X2.659 Y0.7148
N3950 X2.6643 Y0.7037
N3955 X2.6684 Y0.6948
N3960 X2.6757 Y0.6771
N3965 X2.6793 Y0.6683
N3970 X2.6861 Y0.6417
N3975 X2.6997 Y0.5861
N3980 X2.701 Y0.5797
N3985 X2.7026 Y0.5708
N3990 X2.7034 Y0.562
N3995 X2.704 Y0.5531
N4000 X2.7058 Y0.5
N4005 X2.7065 Y0.4734
N4010 X2.7058 Y0.4646
N4015 X2.7038 Y0.4469
N4020 X2.7025 Y0.438
N4025 X2.6933 Y0.3849
N4030 X2.6875 Y0.3463
N4035 X2.683 Y0.3076
N4040 X2.68 Y0.2687
N4045 X2.678 Y0.2298
N4050 X2.6639 Y0.1934
N4055 X2.6389 Y0.1635
N4060 X2.6076 Y0.1403
N4065 X2.5728 Y0.1228
N4070 X2.5363 Y0.1099
N4075 X2.5308 Y0.1076
N4080 X2.5255 Y0.1047
N4085 X2.5205 Y0.1014
N4090 G3 X2.5143 Y0.0938 I0.0158 J-0.0194 F4.
N4095 G1 X2.5124 Y0.0904 Z-0.2497
N4100 X2.5106 Y0.087 Z-0.2488
N4105 X2.5089 Y0.0838 Z-0.2473
N4110 X2.5073 Y0.0809 Z-0.2452
N4115 X2.5059 Y0.0783 Z-0.2427
N4120 X2.5047 Y0.076 Z-0.2397
N4125 X2.5037 Y0.0742 Z-0.2363
N4130 X2.503 Y0.0729 Z-0.2327
N4135 X2.5026 Y0.0721 Z-0.2289
N4140 X2.5024 Y0.0718 Z-0.225
N4145 G0 Z0.2
N4150 X2.7261 Y0.3902
N4155 Z-0.2
N4160 G1 Z-0.225 F4.
N4165 X2.7258 Z-0.2289
N4170 X2.7249 Y0.3903 Z-0.2327
N4175 X2.7234 Z-0.2363
N4180 X2.7214 Z-0.2397
N4185 X2.7188 Y0.3904 Z-0.2427
N4190 X2.7158 Y0.3905 Z-0.2452
N4195 X2.7125 Y0.3906 Z-0.2473
N4200 X2.7089 Y0.3907 Z-0.2488
N4205 X2.705 Z-0.2497
N4210 X2.7011 Y0.3908 Z-0.25
N4215 G3 X2.6933 Y0.3849 I-0.0002 J-0.0078
N4220 G1 X2.6897 Y0.3672 F5.5
N4225 X2.6877 Y0.3583
N4230 X2.678 Y0.3317
N4235 X2.6554 Y0.2744
N4240 X2.6492 Y0.2609
N4245 X2.644 Y0.252
N4250 X2.6385 Y0.2432
N4255 X2.6037 Y0.19
N4260 X2.5977 Y0.1812
N4265 X2.5934 Y0.1752
N4270 X2.5834 Y0.1635
N4275 X2.5747 Y0.1546
N4280 X2.5305 Y0.1103
N4285 X2.5225 Y0.1029
N4290 X2.4973 Y0.0837
N4295 X2.4959 Y0.0828
N4300 X2.4427 Y0.0478
N4305 X2.4339 Y0.0425
N4310 X2.4286 Y0.0395
N4315 X2.425 Y0.0375
N4320 X2.4162 Y0.0335
N4325 X2.4092 Y0.0306
N4330 X2.3541 Y0.0088
N4335 X2.3275 Y-0.0007
N4340 X2.301 Y-0.0061
N4345 X2.2478 Y-0.0153
N4350 X2.2389 Y-0.0166
N4355 X2.2212 Y-0.0184
N4360 X2.2124 Y-0.019
N4365 X2.1858 Y-0.0183
N4370 X2.1326 Y-0.0165
N4375 X2.1237 Y-0.0158
N4380 X2.1149 Y-0.0148
N4385 X2.106 Y-0.0131
N4390 X2.0972 Y-0.0111
N4395 X2.044 Y0.0018
N4400 X2.0174 Y0.0087
N4405 X1.9908 Y0.02
N4410 X1.982 Y0.0241
N4415 X1.9731 Y0.0283
N4420 X1.9453 Y0.0399
N4425 X1.9176 Y0.0488
N4430 X1.8796 Y0.0577
N4435 X1.8411 Y0.0637
N4440 X1.8023 Y0.0678
N4445 X1.7634 Y0.0705
N4450 X1.7245 Y0.0723
N4455 X1.6855 Y0.0736
N4460 X1.6465 Y0.0744
N4465 X1.6075 Y0.075
N4470 X1.5686 Y0.0754
N4475 X1.5296 Y0.0757
N4480 X1.4906 Y0.0759
N4485 X1.4126 Y0.0761
N4490 X1.2956 Y0.0762
N4495 X0.9837
N4500 X0.3598
N4505 X0.3404 Y0.0777
N4510 X0.3216 Y0.083
N4515 X0.2866 Y0.1001
N4520 X0.2583 Y0.1269
N4525 X0.2364 Y0.1592
N4530 X0.2199 Y0.1945
N4535 X0.2078 Y0.2316
N4540 X0.1989 Y0.2695
N4545 X0.1924 Y0.308
N4550 X0.1878 Y0.3467
N4555 X0.1844 Y0.3855
N4560 X0.1839 Y0.3877
N4565 X0.1827 Y0.3896
N4570 X0.1809 Y0.391
N4575 X0.1655 Y0.3991
N4580 X0.1596 Y0.4026
N4585 X0.1566 Y0.4047
N4590 X0.1476 Y0.4114
N4595 X0.1389 Y0.4191
N4600 X0.1376 Y0.4203
N4605 X0.111 Y0.4469
N4610 X0.1027 Y0.4557
N4615 X0.0957 Y0.4646
N4620 X0.0946 Y0.466
N4625 X0.0894 Y0.4734
N4630 X0.084 Y0.4823
N4635 X0.0769 Y0.4962
N4640 X0.0707 Y0.5082
N4645 G3 X0.0644 Y0.5156 I-0.0218 J-0.0122 F4.
N4650 G1 X0.0614 Y0.518 Z-0.2497
N4655 X0.0584 Y0.5204 Z-0.2488
N4660 X0.0555 Y0.5227 Z-0.2473
N4665 X0.0529 Y0.5247 Z-0.2452
N4670 X0.0506 Y0.5266 Z-0.2427
N4675 X0.0486 Y0.5282 Z-0.2397
N4680 X0.047 Y0.5294 Z-0.2363
N4685 X0.0458 Y0.5304 Z-0.2327
N4690 X0.0451 Y0.5309 Z-0.2289
N4695 X0.0448 Y0.5311 Z-0.225
N4700 G0 Z0.2
N4705 X1.9705 Y-0.0048
N4710 Z-0.2
N4715 G1 Z-0.225 F4.
N4720 X1.9706 Y-0.0045 Z-0.2289
N4725 X1.9708 Y-0.0036 Z-0.2327
N4730 X1.9712 Y-0.0021 Z-0.2363
N4735 X1.9718 Y-0.0002 Z-0.2397
N4740 X1.9724 Y0.0023 Z-0.2427
N4745 X1.9732 Y0.0052 Z-0.2452
N4750 X1.9741 Y0.0084 Z-0.2473
N4755 X1.975 Y0.0119 Z-0.2488
N4760 X1.976 Y0.0156 Z-0.2497
N4765 X1.9771 Y0.0193 Z-0.25
N4770 G3 X1.9731 Y0.0283 I-0.0075 J0.002
N4775 G1 X1.931 Y0.0483 F5.5
N4780 X1.9288 Y0.0494
N4785 X1.9199 Y0.0547
N4790 X1.9111 Y0.0603
N4795 X1.9022 Y0.0663
N4800 X1.8557 Y0.1015
N4805 X1.8367 Y0.1144
N4810 X1.8214 Y0.1231
N4815 X1.8019 Y0.1322
N4820 X1.7764 Y0.1416
N4825 X1.7419 Y0.1514
N4830 X1.7036 Y0.159
N4835 X1.665 Y0.1642
N4840 X1.6261 Y0.1679
N4845 X1.5872 Y0.1704
N4850 X1.5483 Y0.1722
N4855 X1.5093 Y0.1734
N4860 X1.4703 Y0.1743
N4865 X1.4314 Y0.1749
N4870 X1.3924 Y0.1753
N4875 X1.3534 Y0.1756
N4880 X1.3144 Y0.1758
N4885 X1.2754 Y0.1759
N4890 X1.1974 Y0.1761
N4895 X1.0804 Y0.1762
N4900 X0.6905
N4905 X0.4566
N4910 X0.4185 Y0.1848
N4915 X0.3853 Y0.2051
N4920 X0.3583 Y0.2333
N4925 X0.3373 Y0.2661
N4930 X0.3212 Y0.3017
N4935 X0.3137 Y0.3225
N4940 X0.3083 Y0.3336
N4945 X0.3007 Y0.3433
N4950 X0.2912 Y0.3512
N4955 X0.2803 Y0.3569
N4960 X0.2684 Y0.3602
N4965 X0.2452 Y0.3641
N4970 X0.2364 Y0.3662
N4975 X0.2328 Y0.3672
N4980 X0.2275 Y0.3689
N4985 X0.2186 Y0.3721
N4990 X0.2098 Y0.3761
N4995 X0.1921 Y0.3851
N5000 X0.1809 Y0.391
N5005 G3 X0.1715 Y0.3934 I-0.0109 J-0.0225 F4.
N5010 G1 X0.1676 Y0.3937 Z-0.2497
N5015 X0.1638 Y0.3939 Z-0.2488
N5020 X0.1601 Y0.3941 Z-0.2473
N5025 X0.1568 Y0.3943 Z-0.2452
N5030 X0.1538 Y0.3945 Z-0.2427
N5035 X0.1513 Y0.3946 Z-0.2397
N5040 X0.1492 Y0.3947 Z-0.2363
N5045 X0.1477 Y0.3948 Z-0.2327
N5050 X0.1468 Y0.3949 Z-0.2289
N5055 X0.1465 Z-0.225
N5060 G0 Z0.2
N5065 X1.8464 Y0.0696
N5070 Z-0.2
N5075 G1 Z-0.225 F4.
N5080 X1.8465 Y0.0698 Z-0.2289
N5085 X1.8469 Y0.0707 Z-0.2327
N5090 X1.8476 Y0.072 Z-0.2363
N5095 X1.8485 Y0.0738 Z-0.2397
N5100 X1.8497 Y0.0761 Z-0.2427
N5105 X1.851 Y0.0788 Z-0.2452
N5110 X1.8526 Y0.0817 Z-0.2473
N5115 X1.8542 Y0.085 Z-0.2488
N5120 X1.8559 Y0.0884 Z-0.2497
N5125 X1.8577 Y0.0919 Z-0.25
N5130 G3 X1.8557 Y0.1015 I-0.007 J0.0035
N5135 G1 X1.8491 Y0.1064 F5.5
N5140 X1.8442 Y0.1103
N5145 X1.8402 Y0.1136
N5150 X1.8336 Y0.1192
N5155 X1.8225 Y0.1306
N5160 X1.8169 Y0.1369
N5165 X1.7859 Y0.1723
N5170 X1.7817 Y0.1772
N5175 X1.7732 Y0.186
N5180 X1.7633 Y0.1948
N5185 X1.7516 Y0.2035
N5190 X1.7365 Y0.2131
N5195 X1.7179 Y0.2228
N5200 X1.694 Y0.2331
N5205 X1.6626 Y0.2435
N5210 X1.6248 Y0.2529
N5215 X1.5864 Y0.2596
N5220 X1.5477 Y0.2643
N5225 X1.5088 Y0.2677
N5230 X1.4699 Y0.2702
N5235 X1.431 Y0.2719
N5240 X1.392 Y0.2731
N5245 X1.353 Y0.274
N5250 X1.314 Y0.2747
N5255 X1.275 Y0.2751
N5260 X1.2361 Y0.2755
N5265 X1.1971 Y0.2757
N5270 X1.1581 Y0.2758
N5275 X1.0801 Y0.276
N5280 X0.9631 Y0.2762
N5285 X0.6902
N5290 X0.5732
N5295 X0.5345 Y0.2807
N5300 X0.4993 Y0.2974
N5305 X0.4686 Y0.3215
N5310 X0.4498 Y0.3392
N5315 X0.4411 Y0.3459
N5320 X0.4314 Y0.3509
N5325 X0.4208 Y0.354
N5330 X0.4099 Y0.355
N5335 X0.3338
N5340 X0.325 Y0.3551
N5345 X0.3073 Y0.3554
N5350 X0.2984 Y0.3558
N5355 X0.2718 Y0.3596
N5360 X0.2684 Y0.3602
N5365 G3 X0.2587 Y0.3596 I-0.0032 J-0.0248 F4.
N5370 G1 X0.2549 Y0.3585 Z-0.2497
N5375 X0.2512 Y0.3575 Z-0.2488
N5380 X0.2477 Y0.3566 Z-0.2473
N5385 X0.2445 Y0.3557 Z-0.2452
N5390 X0.2416 Y0.355 Z-0.2427
N5395 X0.2391 Y0.3543 Z-0.2397
N5400 X0.2372 Y0.3538 Z-0.2363
N5405 X0.2357 Y0.3534 Z-0.2327
N5410 X0.2348 Y0.3531 Z-0.2289
N5415 X0.2345 Y0.353 Z-0.225
N5420 G0 Z0.2
N5425 X1.766 Y0.1479
N5430 Z-0.2
N5435 G1 Z-0.225 F4.
N5440 X1.7662 Y0.1481 Z-0.2289
N5445 X1.7668 Y0.1488 Z-0.2327
N5450 X1.7677 Y0.15 Z-0.2363
N5455 X1.769 Y0.1516 Z-0.2397
N5460 X1.7706 Y0.1536 Z-0.2427
N5465 X1.7725 Y0.1559 Z-0.2452
N5470 X1.7746 Y0.1585 Z-0.2473
N5475 X1.7769 Y0.1613 Z-0.2488
N5480 X1.7792 Y0.1643 Z-0.2497
N5485 X1.7817 Y0.1674 Z-0.25
N5490 G3 Y0.1772 I-0.0061 J0.0049
N5495 G1 X1.7693 Y0.1914 F5.5
N5500 X1.7637 Y0.1989
N5505 X1.7527 Y0.2166
N5510 X1.7516 Y0.2184
N5515 X1.7339 Y0.2498
N5520 X1.73 Y0.256
N5525 X1.7236 Y0.2644
N5530 X1.7157 Y0.2734
N5535 X1.7062 Y0.2824
N5540 X1.6939 Y0.2925
N5545 X1.6794 Y0.3026
N5550 X1.6607 Y0.3134
N5555 X1.6381 Y0.3241
N5560 X1.6087 Y0.3353
N5565 X1.5713 Y0.3463
N5570 X1.5331 Y0.3543
N5575 X1.5298 Y0.3547
N5580 X1.5269 Y0.3549
N5585 X1.5239 Y0.355
N5590 G3 X1.5144 Y0.3528 I0.0009 J-0.025 F4.
N5595 X1.5138 Y0.3076 I0.0104 J-0.0227 F5.5
N5600 G1 X1.7007 Y0.2158
N5605 G3 X1.7366 Y0.2404 I0.011 J0.0224
N5610 X1.7339 Y0.2498 I-0.0249 J-0.0022 F4.
N5615 G1 X1.7226 Y0.2697 F5.5
N5620 X1.7176 Y0.2786
N5625 X1.7021 Y0.3052
N5630 X1.6984 Y0.3114
N5635 X1.6963 Y0.314
N5640 X1.688 Y0.3229
N5645 X1.6807 Y0.3301
N5650 X1.6785 Y0.3317
N5655 X1.6649 Y0.3406
N5660 X1.663 Y0.3418
N5665 X1.6608 Y0.3431
N5670 X1.6585 Y0.344
N5675 X1.6435 Y0.3494
N5680 X1.64 Y0.3507
N5685 X1.6364 Y0.3515
N5690 X1.6275 Y0.3525
N5695 X1.601 Y0.3547
N5700 X1.5921 Y0.355
N5705 X0.4099
N5710 G3 X0.4004 Y0.3528 I0.0009 J-0.025 F4.
N5715 G1 X0.3968 Y0.3511 Z-0.2497
N5720 X0.3934 Y0.3496 Z-0.2488
N5725 X0.3901 Y0.3481 Z-0.2473
N5730 X0.387 Y0.3467 Z-0.2452
N5735 X0.3843 Y0.3454 Z-0.2427
N5740 X0.382 Y0.3444 Z-0.2397
N5745 X0.3801 Y0.3435 Z-0.2363
N5750 X0.3787 Y0.3429 Z-0.2327
N5755 X0.3779 Y0.3425 Z-0.2289
N5760 X0.3776 Y0.3424 Z-0.225
N5765 G0 Z0.2
N5770 X2.4016 Y1.0079
N5775 Z-0.2
N5780 G1 Z-0.225 F4.
N5785 X2.4015 Y1.0076 Z-0.2289
N5790 X2.4012 Y1.0067 Z-0.2327
N5795 X2.4008 Y1.0053 Z-0.2363
N5800 X2.4003 Y1.0033 Z-0.2397
N5805 X2.3995 Y1.0009 Z-0.2427
N5810 X2.3987 Y0.998 Z-0.2452
N5815 X2.3978 Y0.9948 Z-0.2473
N5820 X2.3968 Y0.9913 Z-0.2488
N5825 X2.3957 Y0.9877 Z-0.2497
N5830 X2.3946 Y0.9839 Z-0.25
N5835 G3 X2.3984 Y0.9748 I0.0075 J-0.0022
N5840 G1 X2.4095 Y0.9694 F5.5
N5845 X2.4162 Y0.9657
N5850 X2.4605 Y0.9408
N5855 X2.4693 Y0.9358
N5860 X2.487 Y0.9246
N5865 X2.4959 Y0.9183
N5870 X2.5136 Y0.9029
N5875 X2.5492 Y0.872
N5880 X2.5579 Y0.8642
N5885 X2.5679 Y0.8542
N5890 X2.5757 Y0.8451
N5895 X2.5824 Y0.8365
N5900 X2.62 Y0.787
N5905 X2.6227 Y0.7834
N5910 X2.6288 Y0.7741
N5915 X2.634 Y0.7657
N5920 X2.6377 Y0.7594
N5925 X2.6432 Y0.748
N5930 X2.659 Y0.7148
N5935 G3 X2.6651 Y0.7072 I0.0222 J0.0115 F4.
N5940 G1 X2.6681 Y0.7047 Z-0.2497
N5945 X2.671 Y0.7023 Z-0.2488
N5950 X2.6738 Y0.6999 Z-0.2473
N5955 X2.6763 Y0.6978 Z-0.2452
N5960 X2.6786 Y0.6959 Z-0.2427
N5965 X2.6805 Y0.6942 Z-0.2397
N5970 X2.6821 Y0.6929 Z-0.2363
N5975 X2.6833 Y0.6919 Z-0.2327
N5980 X2.684 Y0.6913 Z-0.2289
N5985 X2.6842 Y0.6911 Z-0.225
N5990 G0 Z0.6
N6000 M9
N6005 G53 Z0.
N6010 M30
%
