%
(1001)
(14 ENDMILL)
(T8  D=0.25 CR=0. - ZMIN=-0.28 - FLAT END MILL)
N10 G90 G94 G17 G91.1
N15 G20
N20 G53 G0 Z0.
(2D CONTOUR4)
N25 M9
N30 T8 M6
N35 S1400 M3
N40 G54
N45 M8
N55 G0 X2.7625 Y0.525
N60 G43 Z0.6 H8
N65 G0 Z0.2
N70 G1 Z0.0394 F3.5
N75 Z-0.255 F1.
N80 G18 G3 X2.7375 Z-0.28 I-0.025 K0.
N85 G1 X2.7125 F3.5
N90 G17 G3 X2.6875 Y0.5 I0. J-0.025
N95 G2 X1.7292 Y0.3 I-0.5 J0.
N100 G3 X1.6147 Y0.375 I-0.1146 J-0.05
N105 G1 X0.3125
N110 G2 X0.0625 Y0.625 I0. J0.25
N115 G1 Y0.75
N120 G2 X0.3125 Y1. I0.25 J0.
N125 G1 X2.1875
N130 G2 X2.6875 Y0.5 I0. J-0.5
N135 G3 X2.7125 Y0.475 I0.025 J0.
N140 G1 X2.7375
N145 G18 G2 X2.7625 Z-0.255 I0. K0.025
N150 G0 Z0.6
N155 G17
N160 M9
N165 G53 G0 Z0.
N170 M30
%
