%
(LEVER)
(34 1500 RPM)
(T2  D=0.75 CR=0. - ZMIN=-0.21 - FLAT END MILL)
N10 G90 G94 G17 G91.1
N15 G20
N20 G53 G0 Z0.
(FACE5)
N25 M9
N30 T2 M6
N35 S1500 M3
N40 G54
N45 M8
N55 G0 X4.3729 Y-0.6164
N60 G43 Z0.6 H2
N65 G0 Z0.2
N70 G1 Z-0.135 F10.
N75 G18 G3 X4.2979 Z-0.21 I-0.075 K0.
N80 G1 X4.0224
N85 X-4.0625
N90 G17 G2 Y-0.1149 I0. J0.2508
N95 G1 X4.0625
N100 G3 Y0.3866 I0. J0.2508
N105 G1 X4.0622
N110 X-4.0625
N115 G18 G3 X-4.1375 Z-0.135 I0. K0.075
N120 G0 Z0.6
N125 G17
N130 M9
N135 G53 G0 Z0.
N140 M30
%
