%
(LEVER)
(38 20 MINUTES 1500 RPM)
(T1  D=0.375 CR=0. - ZMIN=-0.4 - FLAT END MILL)
N10 G90 G94 G17 G91.1
N15 G20
N20 G53 G0 Z0.
(2D ADAPTIVE1)
N25 M9
N30 T1 M6
N35 S1500 M3
N40 G54
N45 M8
N55 G0 X7.5074 Y1.2853
N60 G43 Z0.6 H1
N65 G0 Z0.2
N70 Z-0.0146
N75 G1 Z-0.0521 F10.
N80 X7.5076 Y1.2852 Z-0.0566
N85 X7.5084 Y1.2848 Z-0.0611
N90 X7.5095 Y1.2841 Z-0.0654
N95 X7.5111 Y1.2832 Z-0.0695
N100 X7.5132 Y1.282 Z-0.0734
N105 X7.5156 Y1.2807 Z-0.077
N110 X7.5184 Y1.2791 Z-0.0802
N115 X7.5215 Y1.2774 Z-0.083
N120 X7.5249 Y1.2755 Z-0.0853
N125 X7.5285 Y1.2734 Z-0.0872
N130 X7.5323 Y1.2713 Z-0.0885
N135 X7.5361 Y1.2691 Z-0.0893
N140 X7.5401 Y1.2669 Z-0.0896
N145 G3 X7.7297 Y1.1857 I0.4695 J0.8343
N150 G1 X7.7762 Y1.1732
N155 X7.7874 Y1.1701
N160 X7.8073 Y1.1637
N165 X7.8099 Y1.1626
N170 X7.8326 Y1.1524
N175 X7.8437 Y1.1474
N180 X7.8774 Y1.1317
N185 X7.9047 Y1.1187
N190 X7.9112 Y1.1154
N195 X7.9146 Y1.1134
N200 X7.9291 Y1.1056
N205 X7.9584 Y1.0929
N210 X7.9973 Y1.0796
N215 X8.0426 Y1.0682
N220 X8.0885 Y1.0597
N225 X8.1348 Y1.0535
N230 X8.1813 Y1.0489
N235 X8.2278 Y1.0455
N240 X8.2745 Y1.043
N245 X8.3211 Y1.0411
N250 X8.3327 Y1.0395
N255 X8.3552 Y1.0334
N260 X8.3961 Y1.0109
N265 X8.4288 Y0.9776
N270 X8.4544 Y0.9385
N275 X8.4742 Y0.8962
N280 X8.4893 Y0.852
N285 X8.5008 Y0.8068
N290 X8.5095 Y0.7609
N295 X8.516 Y0.7147
N300 X8.5209 Y0.6682
N305 X8.5246 Y0.6217
N310 X8.5274 Y0.5751
N315 X8.5295 Y0.5284
N320 X8.531 Y0.4818
N325 X8.5322 Y0.4351
N330 X8.5331 Y0.3884
N335 X8.5337 Y0.3417
N340 X8.5342 Y0.295
N345 X8.5346 Y0.2483
N350 X8.5348 Y0.2016
N355 X8.5349 Y0.1783
N360 X8.5333 Y0.1667
N365 X8.5269 Y0.1443
N370 X8.5042 Y0.1035
N375 X8.4708 Y0.0708
N380 X8.4317 Y0.0453
N385 X8.3894 Y0.0256
N390 X8.3452 Y0.0106
N395 X8.2999 Y-0.0009
N400 X8.254 Y-0.0095
N405 X8.2078 Y-0.0161
N410 X8.1614 Y-0.021
N415 X8.1148 Y-0.0247
N420 X8.0682 Y-0.0274
N425 X8.0634 Y-0.0277
N430 X8.0498 Y-0.0293
N435 X8.0365 Y-0.0329
N440 X8.024 Y-0.0385
N445 X8.0124 Y-0.0458
N450 X8.0051 Y-0.0512
N455 X7.9787 Y-0.07
N460 X7.9412 Y-0.0962
N465 X7.9337 Y-0.1015
N470 X7.9244 Y-0.1075
N475 X7.9112 Y-0.1154
N480 X7.9047 Y-0.1187
N485 X7.8774 Y-0.1317
N490 X7.8437 Y-0.1474
N495 X7.8324 Y-0.1525
N500 X7.8099 Y-0.1626
N505 X7.8073 Y-0.1637
N510 X7.7874 Y-0.1701
N515 X7.7762 Y-0.1732
N520 X7.7588 Y-0.1779
N525 G3 X7.7459 Y-0.1848 I0.011 J-0.0359
N530 G1 X7.7424 Y-0.1877 Z-0.0893
N535 X7.7389 Y-0.1905 Z-0.0885
N540 X7.7356 Y-0.1933 Z-0.0872
N545 X7.7324 Y-0.1959 Z-0.0853
N550 X7.7294 Y-0.1984 Z-0.083
N555 X7.7267 Y-0.2006 Z-0.0802
N560 X7.7242 Y-0.2027 Z-0.077
N565 X7.7221 Y-0.2045 Z-0.0734
N570 X7.7202 Y-0.2059 Z-0.0695
N575 X7.7188 Y-0.2071 Z-0.0654
N580 X7.7178 Y-0.208 Z-0.0611
N585 X7.7171 Y-0.2085 Z-0.0566
N590 X7.7169 Y-0.2087 Z-0.0521
N595 G0 Z0.2
N600 X7.8984 Y1.1622
N605 Z-0.0146
N610 G1 Z-0.0521 F10.
N615 X7.8985 Y1.1619 Z-0.0566
N620 X7.8987 Y1.1611 Z-0.0611
N625 X7.8989 Y1.1598 Z-0.0654
N630 X7.8993 Y1.158 Z-0.0695
N635 X7.8998 Y1.1557 Z-0.0734
N640 X7.9004 Y1.1529 Z-0.077
N645 X7.9011 Y1.1498 Z-0.0802
N650 X7.9018 Y1.1463 Z-0.083
N655 X7.9026 Y1.1425 Z-0.0853
N660 X7.9035 Y1.1385 Z-0.0872
N665 X7.9044 Y1.1343 Z-0.0885
N670 X7.9053 Y1.1299 Z-0.0893
N675 X7.9062 Y1.1255 Z-0.0896
N680 G3 X7.9146 Y1.1134 I0.0188 J0.004
N685 G1 X7.9244 Y1.1075
N690 X7.9337 Y1.1015
N695 X7.9733 Y1.0737
N700 X7.9787 Y1.07
N705 X8.0051 Y1.0512
N710 X8.0124 Y1.0458
N715 X8.0194 Y1.04
N720 X8.0236 Y1.0363
N725 X8.0429 Y1.0175
N730 X8.0594 Y1.0025
N735 X8.0754 Y0.9902
N740 X8.0953 Y0.9773
N745 X8.1208 Y0.9636
N750 X8.1635 Y0.9448
N755 X8.2037 Y0.921
N760 X8.2386 Y0.8901
N765 X8.2681 Y0.8538
N770 X8.2923 Y0.8139
N775 X8.312 Y0.7716
N780 X8.3278 Y0.7277
N785 X8.3404 Y0.6827
N790 X8.3504 Y0.6371
N795 X8.3582 Y0.5911
N800 X8.3644 Y0.5448
N805 X8.3692 Y0.4983
N810 X8.3729 Y0.4518
N815 X8.3758 Y0.4052
N820 X8.3781 Y0.3585
N825 X8.3658 Y0.3135
N830 X8.341 Y0.274
N835 X8.3081 Y0.2408
N840 X8.27 Y0.2138
N845 X8.2286 Y0.1921
N850 X8.2238 Y0.1902
N855 X8.2101 Y0.1834
N860 X8.1977 Y0.1745
N865 X8.1869 Y0.1637
N870 X8.1779 Y0.1513
N875 X8.1711 Y0.14
N880 X8.1699 Y0.138
N885 X8.1639 Y0.1288
N890 X8.1246 Y0.0725
N895 X8.1166 Y0.0613
N900 X8.1136 Y0.0571
N905 X8.1081 Y0.05
N910 X8.0911 Y0.0308
N915 X8.0429 Y-0.0175
N920 X8.0236 Y-0.0363
N925 X8.0194 Y-0.04
N930 X8.0124 Y-0.0458
N935 G3 X8.0036 Y-0.0575 I0.0249 J-0.028
N940 G1 X8.0016 Y-0.0615 Z-0.0893
N945 X7.9997 Y-0.0656 Z-0.0885
N950 X7.9978 Y-0.0695 Z-0.0872
N955 X7.996 Y-0.0732 Z-0.0853
N960 X7.9943 Y-0.0767 Z-0.083
N965 X7.9927 Y-0.0799 Z-0.0802
N970 X7.9913 Y-0.0827 Z-0.077
N975 X7.9901 Y-0.0853 Z-0.0734
N980 X7.9891 Y-0.0874 Z-0.0695
N985 X7.9883 Y-0.089 Z-0.0654
N990 X7.9877 Y-0.0903 Z-0.0611
N995 X7.9874 Y-0.091 Z-0.0566
N1000 X7.9872 Y-0.0912 Z-0.0521
N1005 G0 Z0.2
N1010 X8.0391 Y1.0687
N1015 Z-0.0146
N1020 G1 Z-0.0521 F10.
N1025 Y1.0685 Z-0.0566
N1030 Y1.0676 Z-0.0611
N1035 Y1.0663 Z-0.0654
N1040 X8.039 Y1.0644 Z-0.0695
N1045 X8.0389 Y1.0621 Z-0.0734
N1050 X8.0388 Y1.0593 Z-0.077
N1055 X8.0387 Y1.0561 Z-0.0802
N1060 X8.0385 Y1.0525 Z-0.083
N1065 X8.0384 Y1.0487 Z-0.0853
N1070 X8.0383 Y1.0445 Z-0.0872
N1075 X8.0381 Y1.0402 Z-0.0885
N1080 X8.0379 Y1.0358 Z-0.0893
N1085 X8.0378 Y1.0313 Z-0.0896
N1090 G3 X8.0429 Y1.0175 I0.0192 J-0.0007
N1095 G1 X8.0911 Y0.9692
N1100 X8.1081 Y0.95
N1105 X8.1136 Y0.9429
N1110 X8.1166 Y0.9387
N1115 X8.1561 Y0.8825
N1120 X8.1639 Y0.8712
N1125 X8.1699 Y0.862
N1130 X8.1711 Y0.86
N1135 X8.1779 Y0.8487
N1140 X8.1837 Y0.8375
N1145 X8.2152 Y0.77
N1150 X8.2199 Y0.7587
N1155 X8.2292 Y0.7362
N1160 X8.2325 Y0.725
N1165 X8.2387 Y0.7025
N1170 X8.2486 Y0.6657
N1175 X8.2567 Y0.635
N1180 X8.2585 Y0.6237
N1185 X8.262 Y0.6012
N1190 X8.2678 Y0.5337
N1195 X8.2692 Y0.5112
N1200 X8.2699 Y0.5
N1205 X8.2685 Y0.4775
N1210 X8.2678 Y0.4663
N1215 X8.262 Y0.3988
N1220 X8.2585 Y0.3763
N1225 X8.2567 Y0.365
N1230 X8.2478 Y0.3313
N1235 X8.2387 Y0.2975
N1240 X8.2325 Y0.275
N1245 X8.2292 Y0.2638
N1250 X8.2199 Y0.2413
N1255 X8.2152 Y0.23
N1260 X8.1837 Y0.1625
N1265 X8.1779 Y0.1513
N1270 G3 X8.1745 Y0.1371 I0.034 J-0.0158
N1275 G1 X8.1743 Y0.1325 Z-0.0893
N1280 X8.1741 Y0.1281 Z-0.0885
N1285 X8.1739 Y0.1238 Z-0.0872
N1290 X8.1737 Y0.1197 Z-0.0853
N1295 X8.1736 Y0.1158 Z-0.083
N1300 X8.1734 Y0.1122 Z-0.0802
N1305 X8.1733 Y0.109 Z-0.077
N1310 X8.1731 Y0.1062 Z-0.0734
N1315 X8.173 Y0.1039 Z-0.0695
N1320 Y0.102 Z-0.0654
N1325 X8.1729 Y0.1007 Z-0.0611
N1330 Y0.0999 Z-0.0566
N1335 Y0.0996 Z-0.0521
N1340 G0 Z0.2
N1345 X0.5517 Y-0.318
N1350 Z-0.0146
N1355 G1 Z-0.0521 F10.
N1360 X0.5515 Y-0.3179 Z-0.0566
N1365 X0.5508 Y-0.3174 Z-0.0611
N1370 X0.5498 Y-0.3165 Z-0.0654
N1375 X0.5483 Y-0.3154 Z-0.0695
N1380 X0.5465 Y-0.3139 Z-0.0734
N1385 X0.5443 Y-0.3122 Z-0.077
N1390 X0.5417 Y-0.3103 Z-0.0802
N1395 X0.5389 Y-0.3081 Z-0.083
N1400 X0.5359 Y-0.3057 Z-0.0853
N1405 X0.5326 Y-0.3031 Z-0.0872
N1410 X0.5292 Y-0.3005 Z-0.0885
N1415 X0.5257 Y-0.2977 Z-0.0893
N1420 X0.5221 Y-0.2949 Z-0.0896
N1425 G3 X0.3469 Y-0.1862 I-0.5895 J-0.7544
N1430 G1 X0.3414 Y-0.1838
N1435 X0.3301 Y-0.1774
N1440 X0.326 Y-0.1749
N1445 X0.3189 Y-0.17
N1450 X0.3105 Y-0.1637
N1455 X0.2964 Y-0.1513
N1460 X0.2904 Y-0.1458
N1465 X0.2783 Y-0.1355
N1470 X0.2634 Y-0.1248
N1475 X0.2442 Y-0.1133
N1480 X0.2195 Y-0.1011
N1485 X0.1872 Y-0.0882
N1490 X0.1426 Y-0.0744
N1495 X0.1021 Y-0.0512
N1500 X0.0698 Y-0.0175
N1505 X0.0445 Y0.0218
N1510 X0.025 Y0.0642
N1515 X0.0101 Y0.1084
N1520 X-0.0012 Y0.1537
N1525 X-0.0098 Y0.1996
N1530 X-0.0163 Y0.2459
N1535 X-0.0212 Y0.2923
N1540 X-0.0248 Y0.3388
N1545 X-0.0275 Y0.3855
N1550 X-0.0296 Y0.4321
N1555 X-0.0311 Y0.4788
N1560 X-0.0323 Y0.5255
N1565 X-0.0331 Y0.5721
N1570 X-0.0337 Y0.6188
N1575 X-0.0342 Y0.6655
N1580 X-0.0346 Y0.7122
N1585 X-0.0348 Y0.7589
N1590 X-0.0351 Y0.8289
N1595 X-0.0295 Y0.8516
N1600 X-0.0082 Y0.8932
N1605 X0.0245 Y0.9265
N1610 X0.0632 Y0.9526
N1615 X0.1053 Y0.9728
N1620 X0.1493 Y0.9882
N1625 X0.1761 Y0.9952
N1630 X0.1901 Y1.0001
N1635 X0.2032 Y1.0074
N1640 X0.2147 Y1.0168
N1645 X0.2246 Y1.0281
N1650 X0.2323 Y1.0408
N1655 X0.2378 Y1.0547
N1660 G3 X-0.1333 Y1.1522 I-0.1856 J0.0488
N1665 X-0.1391 Y1.0893 I0.1856 J-0.0488
N1670 G1 X-0.0367 Y-0.2954
N1675 G3 X0.346 Y-0.2672 I0.1913 J0.0141
N1680 X0.2904 Y-0.1458 I-0.1913 J-0.0141
N1685 G1 X0.2855 Y-0.1412
N1690 X0.2851 Y-0.1408
N1695 X0.2764 Y-0.13
N1700 X0.2677 Y-0.1187
N1705 X0.2626 Y-0.1112
N1710 X0.2538 Y-0.0962
N1715 X0.2514 Y-0.0916
N1720 X0.2484 Y-0.085
N1725 X0.2443 Y-0.0737
N1730 X0.2262 Y-0.0307
N1735 X0.2088 Y0.0127
N1740 X0.1928 Y0.0566
N1745 X0.1788 Y0.1011
N1750 X0.1668 Y0.1462
N1755 X0.1567 Y0.1918
N1760 X0.1483 Y0.2377
N1765 X0.1415 Y0.2839
N1770 X0.1359 Y0.3303
N1775 X0.1314 Y0.3767
N1780 X0.1278 Y0.4233
N1785 X0.1249 Y0.4699
N1790 X0.1226 Y0.5165
N1795 X0.1208 Y0.5632
N1800 X0.1194 Y0.6099
N1805 X0.1209 Y0.6565
N1810 X0.138 Y0.7
N1815 X0.1641 Y0.7387
N1820 X0.1943 Y0.7743
N1825 X0.2067 Y0.7876
N1830 X0.2148 Y0.7979
N1835 X0.2214 Y0.8092
N1840 X0.2261 Y0.8213
N1845 X0.229 Y0.8341
N1850 X0.23 Y0.8471
N1855 Y0.9837
N1860 X0.2301 Y0.995
N1865 X0.2307 Y1.0062
N1870 G3 X0.2281 Y1.0206 I-0.0375 J0.0007
N1875 G1 X0.2264 Y1.0248 Z-0.0893
N1880 X0.2248 Y1.029 Z-0.0885
N1885 X0.2232 Y1.033 Z-0.0872
N1890 X0.2217 Y1.0368 Z-0.0853
N1895 X0.2203 Y1.0404 Z-0.083
N1900 X0.219 Y1.0438 Z-0.0802
N1905 X0.2178 Y1.0467 Z-0.077
N1910 X0.2168 Y1.0493 Z-0.0734
N1915 X0.2159 Y1.0515 Z-0.0695
N1920 X0.2152 Y1.0532 Z-0.0654
N1925 X0.2147 Y1.0545 Z-0.0611
N1930 X0.2144 Y1.0553 Z-0.0566
N1935 X0.2143 Y1.0555 Z-0.0521
N1940 G0 Z0.2
N1945 X0.226 Y-0.1217
N1950 Z-0.0146
N1955 G1 Z-0.0521 F10.
N1960 X0.2261 Y-0.1215 Z-0.0566
N1965 X0.2265 Y-0.1208 Z-0.0611
N1970 X0.2271 Y-0.1196 Z-0.0654
N1975 X0.2279 Y-0.1179 Z-0.0695
N1980 X0.229 Y-0.1158 Z-0.0734
N1985 X0.2303 Y-0.1134 Z-0.077
N1990 X0.2317 Y-0.1105 Z-0.0802
N1995 X0.2334 Y-0.1073 Z-0.083
N2000 X0.2351 Y-0.1039 Z-0.0853
N2005 X0.237 Y-0.1002 Z-0.0872
N2010 X0.239 Y-0.0964 Z-0.0885
N2015 X0.241 Y-0.0924 Z-0.0893
N2020 X0.2431 Y-0.0884 Z-0.0896
N2025 G3 X0.2443 Y-0.0737 I-0.0171 J0.0088
N2030 G1 X0.2402 Y-0.0623
N2035 X0.2368 Y-0.0512
N2040 X0.2323 Y-0.0287
N2045 X0.2312 Y-0.0175
N2050 X0.2301 Y0.005
N2055 X0.23 Y0.0163
N2060 Y0.2413
N2065 X0.2301 Y0.2525
N2070 X0.232 Y0.275
N2075 X0.2336 Y0.2863
N2080 X0.2362 Y0.2975
N2085 X0.2445 Y0.3435
N2090 X0.2518 Y0.3896
N2095 X0.2567 Y0.436
N2100 X0.2602 Y0.4826
N2105 X0.2706 Y0.5281
N2110 X0.279 Y0.5517
N2115 X0.2825 Y0.5649
N2120 X0.2839 Y0.5785
N2125 X0.2833 Y0.5921
N2130 X0.2804 Y0.6055
N2135 X0.2756 Y0.6183
N2140 X0.2688 Y0.6301
N2145 X0.2655 Y0.635
N2150 X0.2586 Y0.6462
N2155 X0.2518 Y0.6575
N2160 X0.2402 Y0.6866
N2165 X0.2388 Y0.6912
N2170 X0.2336 Y0.7137
N2175 X0.232 Y0.725
N2180 X0.2301 Y0.7475
N2185 X0.23 Y0.7587
N2190 Y0.8471
N2195 G3 X0.155 Y0.8453 I-0.0375 J-0.0013
N2200 G1 X0.1625 Y0.3068
N2205 G3 X0.2362 Y0.2975 I0.0375 J0.0005
N2210 G1 X0.2388 Y0.3088
N2215 X0.2402 Y0.3134
N2220 X0.2518 Y0.3425
N2225 X0.2586 Y0.3538
N2230 X0.2655 Y0.365
N2235 X0.2732 Y0.3763
N2240 X0.2822 Y0.3875
N2245 X0.2851 Y0.3906
N2250 X0.2931 Y0.3988
N2255 X0.2964 Y0.402
N2260 X0.3016 Y0.4064
N2265 X0.3146 Y0.4184
N2270 X0.3274 Y0.4324
N2275 X0.3391 Y0.4474
N2280 X0.349 Y0.4625
N2285 X0.3575 Y0.4779
N2290 X0.3619 Y0.4907
N2295 X0.364 Y0.5042
N2300 X0.3637 Y0.5177
N2305 X0.361 Y0.531
N2310 X0.3561 Y0.5437
N2315 X0.3489 Y0.5552
N2320 X0.3399 Y0.5653
N2325 X0.3292 Y0.5737
N2330 X0.3249 Y0.5765
N2335 G3 X0.2692 Y0.5534 I-0.0193 J-0.0322
N2340 G1 X0.2422 Y0.4451
N2345 G3 X0.3016 Y0.4064 I0.0364 J-0.0091
N2350 G1 X0.3076 Y0.4115
N2355 X0.3189 Y0.4197
N2360 X0.3301 Y0.4269
N2365 X0.3388 Y0.4325
N2370 X0.3414 Y0.4339
N2375 X0.3649 Y0.4438
N2380 X0.368 Y0.4449
N2385 X0.3735 Y0.4473
N2390 X0.3787 Y0.4503
N2395 X0.3838 Y0.4538
N2400 X0.3885 Y0.4577
N2405 X0.3969 Y0.4677
N2410 X0.4028 Y0.4794
N2415 X0.406 Y0.4922
N2420 X0.4063 Y0.5053
N2425 X0.4036 Y0.5181
N2430 X0.3982 Y0.5301
N2435 X0.3903 Y0.5405
N2440 X0.3802 Y0.5489
N2445 X0.3685 Y0.5549
N2450 G3 X0.3497 Y0.558 I-0.0191 J-0.0566
N2455 X0.3491 Y0.4419 I-0.0003 J-0.0581
N2460 X0.368 Y0.4449 I0.0003 J0.0581
N2465 G1 X0.3751 Y0.4476
N2470 X0.3976 Y0.4532
N2475 X0.4036 Y0.4542
N2480 X0.4094 Y0.4555
N2485 X0.415 Y0.4578
N2490 X0.4202 Y0.4607
N2495 X0.4284 Y0.4683
N2500 X0.4346 Y0.4776
N2505 X0.4385 Y0.4881
N2510 X0.4398 Y0.4992
N2515 X0.4386 Y0.5103
N2520 X0.4347 Y0.5208
N2525 X0.4286 Y0.5301
N2530 X0.4204 Y0.5378
N2535 X0.4107 Y0.5433
N2540 X0.3999 Y0.5464
N2545 G3 X0.3878 Y0.5459 I-0.0046 J-0.0355
N2550 X0.4036 Y0.4542 I0.0097 J-0.0455
N2555 G1 X0.4084 Y0.455
N2560 X0.4314 Y0.4572
N2565 X0.4332 Y0.4573
N2570 X0.4392 Y0.4577
N2575 X0.445 Y0.4594
N2580 X0.4504 Y0.462
N2585 X0.4587 Y0.469
N2590 X0.4651 Y0.4778
N2595 X0.4691 Y0.4878
N2600 X0.4705 Y0.4986
N2605 X0.4693 Y0.5094
N2610 X0.4654 Y0.5195
N2615 X0.4592 Y0.5284
N2620 X0.451 Y0.5356
N2625 X0.4413 Y0.5405
N2630 X0.4307 Y0.5428
N2635 X0.4084 Y0.545
N2640 X0.3999 Y0.5464
N2645 G3 X0.3752 Y0.5285 I-0.0029 J-0.022
N2650 X0.4332 Y0.4573 I0.059 J-0.0112
N2655 G1 X0.4426 Y0.4574
N2660 X0.4628 Y0.4575
N2665 X0.4688 Y0.4578
N2670 X0.4746 Y0.4594
N2675 X0.4801 Y0.4618
N2680 X0.4888 Y0.4689
N2685 X0.4954 Y0.478
N2690 X0.4995 Y0.4885
N2695 X0.5007 Y0.4997
N2700 X0.4991 Y0.5108
N2705 X0.4947 Y0.5211
N2710 X0.4877 Y0.53
N2715 X0.4788 Y0.5368
N2720 X0.4684 Y0.541
N2725 X0.4572 Y0.5425
N2730 X0.4426 Y0.5426
N2735 X0.4314 Y0.5428
N2740 X0.4307
N2745 G3 X0.4088 Y0.526 I-0.0013 J-0.021
N2750 X0.4628 Y0.4575 I0.0559 J-0.0115
N2755 G1 X0.491
N2760 X0.497 Y0.4578
N2765 X0.5029 Y0.459
N2770 X0.5085 Y0.4611
N2775 X0.5137 Y0.464
N2780 X0.5216 Y0.4715
N2785 X0.5274 Y0.4807
N2790 X0.5307 Y0.4911
N2795 X0.5313 Y0.5019
N2800 X0.5292 Y0.5126
N2805 X0.5246 Y0.5224
N2810 X0.5176 Y0.5308
N2815 X0.5088 Y0.5372
N2820 X0.4987 Y0.5411
N2825 X0.4879 Y0.5425
N2830 X0.4572
N2835 G3 X0.4374 Y0.5258 I0.0007 J-0.021
N2840 X0.491 Y0.4575 I0.0556 J-0.0115
N2845 G1 X0.5213
N2850 X0.5273 Y0.4578
N2855 X0.5332 Y0.4589
N2860 X0.5388 Y0.4611
N2865 X0.5441 Y0.4639
N2870 X0.552 Y0.4714
N2875 X0.5578 Y0.4806
N2880 X0.5612 Y0.491
N2885 X0.5618 Y0.5018
N2890 X0.5598 Y0.5125
N2895 X0.5551 Y0.5224
N2900 X0.5482 Y0.5307
N2905 X0.5393 Y0.5371
N2910 X0.5292 Y0.5411
N2915 X0.5184 Y0.5425
N2920 X0.4879
N2925 G3 X0.4682 Y0.526 I0.0007 J-0.021
N2930 X0.5213 Y0.4575 I0.0552 J-0.0121
N2935 G1 X0.5528
N2940 X0.5588 Y0.4578
N2945 X0.5647 Y0.4591
N2950 X0.5702 Y0.4613
N2955 X0.5754 Y0.4643
N2960 X0.5832 Y0.4719
N2965 X0.5888 Y0.4811
N2970 X0.592 Y0.4915
N2975 X0.5925 Y0.5023
N2980 X0.5903 Y0.5129
N2985 X0.5856 Y0.5226
N2990 X0.5786 Y0.5309
N2995 X0.5698 Y0.5372
N3000 X0.5598 Y0.5412
N3005 X0.549 Y0.5425
N3010 X0.5184
N3015 G3 X0.4986 Y0.5255 I0.0007 J-0.0209
N3020 X0.5528 Y0.4575 I0.0563 J-0.0107
N3025 G1 X0.5838
N3030 X0.5898 Y0.4578
N3035 X0.5956 Y0.4591
N3040 X0.6012 Y0.4614
N3045 X0.6064 Y0.4644
N3050 X0.614 Y0.472
N3055 X0.6196 Y0.4813
N3060 X0.6227 Y0.4916
N3065 X0.6232 Y0.5024
N3070 X0.621 Y0.513
N3075 X0.6163 Y0.5227
N3080 X0.6093 Y0.5309
N3085 X0.6005 Y0.5372
N3090 X0.5905 Y0.5412
N3095 X0.5797 Y0.5425
N3100 X0.549
N3105 G3 X0.5292 Y0.5253 I0.0007 J-0.0209
N3110 X0.5838 Y0.4575 I0.0566 J-0.0103
N3115 G1 X0.6147
N3120 X0.6207 Y0.4578
N3125 X0.6266 Y0.4592
N3130 X0.6321 Y0.4615
N3135 X0.6373 Y0.4645
N3140 X0.6449 Y0.4721
N3145 X0.6504 Y0.4814
N3150 X0.6535 Y0.4917
N3155 X0.6539 Y0.5025
N3160 X0.6517 Y0.5131
N3165 X0.647 Y0.5228
N3170 X0.64 Y0.531
N3175 X0.6312 Y0.5372
N3180 X0.6212 Y0.5412
N3185 X0.6105 Y0.5425
N3190 X0.5797
N3195 G3 X0.5598 Y0.5251 I0.0007 J-0.0209
N3200 X0.6147 Y0.4575 I0.0569 J-0.0099
N3205 G1 X0.6451
N3210 X0.6511 Y0.4578
N3215 X0.6569 Y0.4591
N3220 X0.6625 Y0.4614
N3225 X0.6677 Y0.4643
N3230 X0.6754 Y0.4719
N3235 X0.681 Y0.4812
N3240 X0.6841 Y0.4915
N3245 X0.6846 Y0.5023
N3250 X0.6825 Y0.5129
N3255 X0.6777 Y0.5227
N3260 X0.6708 Y0.5309
N3265 X0.662 Y0.5372
N3270 X0.6519 Y0.5412
N3275 X0.6412 Y0.5425
N3280 X0.6105
N3285 G3 X0.5906 Y0.5254 I0.0007 J-0.0209
N3290 X0.6451 Y0.4575 I0.0565 J-0.0105
N3295 G1 X0.6765
N3300 X0.6825 Y0.4578
N3305 X0.6884 Y0.4593
N3310 X0.6939 Y0.4616
N3315 X0.699 Y0.4647
N3320 X0.7066 Y0.4723
N3325 X0.712 Y0.4816
N3330 X0.715 Y0.4919
N3335 X0.7154 Y0.5027
N3340 X0.7132 Y0.5132
N3345 X0.7084 Y0.5228
N3350 X0.7015 Y0.531
N3355 X0.6927 Y0.5373
N3360 X0.6827 Y0.5412
N3365 X0.672 Y0.5425
N3370 X0.6412
N3375 G3 X0.6212 Y0.5249 I0.0007 J-0.0209
N3380 X0.6765 Y0.4575 I0.0573 J-0.0094
N3385 G1 X0.7075
N3390 X0.7135 Y0.4578
N3395 X0.7193 Y0.4593
N3400 X0.7248 Y0.4616
N3405 X0.73 Y0.4647
N3410 X0.7375 Y0.4724
N3415 X0.7429 Y0.4817
N3420 X0.7459 Y0.492
N3425 X0.7463 Y0.5027
N3430 X0.744 Y0.5132
N3435 X0.7393 Y0.5229
N3440 X0.7323 Y0.5311
N3445 X0.7235 Y0.5373
N3450 X0.7135 Y0.5412
N3455 X0.7028 Y0.5425
N3460 X0.672
N3465 G3 X0.652 Y0.5249 I0.0007 J-0.0209
N3470 X0.7075 Y0.4575 I0.0575 J-0.0092
N3475 G1 X0.7385
N3480 X0.7445 Y0.4578
N3485 X0.7503 Y0.4593
N3490 X0.7558 Y0.4617
N3495 X0.7609 Y0.4648
N3500 X0.7684 Y0.4724
N3505 X0.7738 Y0.4817
N3510 X0.7768 Y0.4921
N3515 X0.7772 Y0.5028
N3520 X0.7749 Y0.5133
N3525 X0.7701 Y0.5229
N3530 X0.7631 Y0.5311
N3535 X0.7544 Y0.5373
N3540 X0.7444 Y0.5412
N3545 X0.7337 Y0.5425
N3550 X0.7028
N3555 G3 X0.6829 Y0.5248 I0.0007 J-0.0209
N3560 X0.7385 Y0.4575 I0.0576 J-0.009
N3565 G1 X0.7688
N3570 X0.7748 Y0.4578
N3575 X0.7806 Y0.4592
N3580 X0.7862 Y0.4615
N3585 X0.7913 Y0.4645
N3590 X0.7989 Y0.4722
N3595 X0.8044 Y0.4815
N3600 X0.8075 Y0.4918
N3605 X0.8079 Y0.5026
N3610 X0.8057 Y0.5131
N3615 X0.801 Y0.5228
N3620 X0.794 Y0.531
N3625 X0.7852 Y0.5373
N3630 X0.7752 Y0.5412
N3635 X0.7645 Y0.5425
N3640 X0.7337
N3645 G3 X0.7138 Y0.5251 I0.0007 J-0.0209
N3650 X0.7688 Y0.4575 I0.057 J-0.0097
N3655 G1 X0.799
N3660 X0.805 Y0.4578
N3665 X0.8109 Y0.4591
N3670 X0.8164 Y0.4614
N3675 X0.8216 Y0.4643
N3680 X0.8294 Y0.4719
N3685 X0.835 Y0.4812
N3690 X0.8381 Y0.4915
N3695 X0.8386 Y0.5023
N3700 X0.8365 Y0.5129
N3705 X0.8317 Y0.5226
N3710 X0.8248 Y0.5309
N3715 X0.816 Y0.5372
N3720 X0.8059 Y0.5412
N3725 X0.7952 Y0.5425
N3730 X0.7645
N3735 G3 X0.7446 Y0.5254 I0.0007 J-0.0209
N3740 X0.799 Y0.4575 I0.0564 J-0.0106
N3745 G1 X0.8297
N3750 X0.8357 Y0.4578
N3755 X0.8416 Y0.4591
N3760 X0.8472 Y0.4614
N3765 X0.8524 Y0.4643
N3770 X0.8601 Y0.4719
N3775 X0.8657 Y0.4812
N3780 X0.8688 Y0.4915
N3785 X0.8693 Y0.5023
N3790 X0.8671 Y0.5129
N3795 X0.8624 Y0.5226
N3800 X0.8555 Y0.5309
N3805 X0.8467 Y0.5372
N3810 X0.8366 Y0.5412
N3815 X0.8259 Y0.5425
N3820 X0.7952
N3825 G3 X0.7753 Y0.5254 I0.0007 J-0.0209
N3830 X0.8297 Y0.4575 I0.0564 J-0.0105
N3835 G1 X0.8607
N3840 X0.8666 Y0.4578
N3845 X0.8725 Y0.4592
N3850 X0.878 Y0.4614
N3855 X0.8832 Y0.4644
N3860 X0.8909 Y0.472
N3865 X0.8964 Y0.4813
N3870 X0.8996 Y0.4916
N3875 X0.9 Y0.5024
N3880 X0.8978 Y0.513
N3885 X0.8931 Y0.5227
N3890 X0.8861 Y0.531
N3895 X0.8774 Y0.5372
N3900 X0.8673 Y0.5412
N3905 X0.8566 Y0.5425
N3910 X0.8259
N3915 G3 X0.806 Y0.5253 I0.0007 J-0.0209
N3920 X0.8607 Y0.4575 I0.0567 J-0.0102
N3925 G1 X0.8902
N3930 X0.8962 Y0.4578
N3935 X0.9021 Y0.459
N3940 X0.9077 Y0.4611
N3945 X0.913 Y0.464
N3950 X0.9209 Y0.4715
N3955 X0.9267 Y0.4807
N3960 X0.93 Y0.491
N3965 X0.9306 Y0.5019
N3970 X0.9285 Y0.5126
N3975 X0.9239 Y0.5224
N3980 X0.9169 Y0.5308
N3985 X0.9081 Y0.5371
N3990 X0.898 Y0.5411
N3995 X0.8872 Y0.5425
N4000 G3 X0.8842 Y0.5422 I0.0007 J-0.0212
N4005 X0.8902 Y0.4575 I0.0076 J-0.042
N4010 G1 X0.9212
N4015 X0.9272 Y0.4578
N4020 X0.9331 Y0.459
N4025 X0.9387 Y0.4612
N4030 X0.9439 Y0.4641
N4035 X0.9517 Y0.4717
N4040 X0.9574 Y0.4809
N4045 X0.9606 Y0.4913
N4050 X0.9612 Y0.5021
N4055 X0.9591 Y0.5127
N4060 X0.9544 Y0.5225
N4065 X0.9474 Y0.5308
N4070 X0.9386 Y0.5372
N4075 X0.9285 Y0.5411
N4080 X0.9178 Y0.5425
N4085 G3 X0.9144 Y0.5421 I0.0007 J-0.0212
N4090 X0.9212 Y0.4575 I0.0083 J-0.0419
N4095 G1 X0.9431
N4100 X0.9488 Y0.4581
N4105 X0.9544 Y0.4596
N4110 X0.96 Y0.4621
N4115 X0.963 Y0.464
N4120 X0.9661 Y0.4663
N4125 X0.9689 Y0.4689
N4130 X0.9713 Y0.4715
N4135 X0.9753 Y0.4775
N4140 X0.9779 Y0.4831
N4145 X0.9794 Y0.4888
N4150 X0.98 Y0.4944
N4155 Y0.5
N4160 Y0.5056
N4165 X0.9794 Y0.5112
N4170 X0.9779 Y0.5169
N4175 X0.9753 Y0.5225
N4180 X0.9713 Y0.5285
N4185 X0.9689 Y0.5311
N4190 X0.9661 Y0.5337
N4195 X0.963 Y0.536
N4200 X0.96 Y0.5379
N4205 X0.9544 Y0.5404
N4210 X0.9488 Y0.5419
N4215 X0.9431 Y0.5425
N4220 X0.8566
N4225 X0.8536 Y0.542 Z-0.0893
N4230 X0.8508 Y0.5414 Z-0.0884
N4235 X0.8482 Y0.541 Z-0.0869
N4240 X0.846 Y0.5406 Z-0.0848
N4245 X0.8444 Y0.54 Z-0.0827
N4250 X0.8433 Y0.5395 Z-0.0802
N4255 X0.8426 Y0.5392 Z-0.0776
N4260 X0.8423 Y0.5391 Z-0.0749
N4265 G0 Z0.2
N4270 X7.5074 Y1.2853
N4275 Z-0.1042
N4280 G1 Z-0.1417 F10.
N4285 X7.5076 Y1.2852 Z-0.1462
N4290 X7.5084 Y1.2848 Z-0.1507
N4295 X7.5095 Y1.2841 Z-0.155
N4300 X7.5111 Y1.2832 Z-0.1591
N4305 X7.5132 Y1.282 Z-0.163
N4310 X7.5156 Y1.2807 Z-0.1666
N4315 X7.5184 Y1.2791 Z-0.1698
N4320 X7.5215 Y1.2774 Z-0.1726
N4325 X7.5249 Y1.2755 Z-0.1749
N4330 X7.5285 Y1.2734 Z-0.1768
N4335 X7.5323 Y1.2713 Z-0.1781
N4340 X7.5361 Y1.2691 Z-0.1789
N4345 X7.5401 Y1.2669 Z-0.1792
N4350 G3 X7.7297 Y1.1857 I0.4695 J0.8343
N4355 G1 X7.7762 Y1.1732
N4360 X7.7874 Y1.1701
N4365 X7.8073 Y1.1637
N4370 X7.8099 Y1.1626
N4375 X7.8326 Y1.1524
N4380 X7.8437 Y1.1474
N4385 X7.8774 Y1.1317
N4390 X7.9047 Y1.1187
N4395 X7.9112 Y1.1154
N4400 X7.9146 Y1.1134
N4405 X7.9291 Y1.1056
N4410 X7.9584 Y1.0929
N4415 X7.9973 Y1.0796
N4420 X8.0426 Y1.0682
N4425 X8.0885 Y1.0597
N4430 X8.1348 Y1.0535
N4435 X8.1813 Y1.0489
N4440 X8.2278 Y1.0455
N4445 X8.2745 Y1.043
N4450 X8.3211 Y1.0411
N4455 X8.3327 Y1.0395
N4460 X8.3552 Y1.0334
N4465 X8.3961 Y1.0109
N4470 X8.4288 Y0.9776
N4475 X8.4544 Y0.9385
N4480 X8.4742 Y0.8962
N4485 X8.4893 Y0.852
N4490 X8.5008 Y0.8068
N4495 X8.5095 Y0.7609
N4500 X8.516 Y0.7147
N4505 X8.5209 Y0.6682
N4510 X8.5246 Y0.6217
N4515 X8.5274 Y0.5751
N4520 X8.5295 Y0.5284
N4525 X8.531 Y0.4818
N4530 X8.5322 Y0.4351
N4535 X8.5331 Y0.3884
N4540 X8.5337 Y0.3417
N4545 X8.5342 Y0.295
N4550 X8.5346 Y0.2483
N4555 X8.5348 Y0.2016
N4560 X8.5349 Y0.1783
N4565 X8.5333 Y0.1667
N4570 X8.5269 Y0.1443
N4575 X8.5042 Y0.1035
N4580 X8.4708 Y0.0708
N4585 X8.4317 Y0.0453
N4590 X8.3894 Y0.0256
N4595 X8.3452 Y0.0106
N4600 X8.2999 Y-0.0009
N4605 X8.254 Y-0.0095
N4610 X8.2078 Y-0.0161
N4615 X8.1614 Y-0.021
N4620 X8.1148 Y-0.0247
N4625 X8.0682 Y-0.0274
N4630 X8.0634 Y-0.0277
N4635 X8.0498 Y-0.0293
N4640 X8.0365 Y-0.0329
N4645 X8.024 Y-0.0385
N4650 X8.0124 Y-0.0458
N4655 X8.0051 Y-0.0512
N4660 X7.9787 Y-0.07
N4665 X7.9412 Y-0.0962
N4670 X7.9337 Y-0.1015
N4675 X7.9244 Y-0.1075
N4680 X7.9112 Y-0.1154
N4685 X7.9047 Y-0.1187
N4690 X7.8774 Y-0.1317
N4695 X7.8437 Y-0.1474
N4700 X7.8324 Y-0.1525
N4705 X7.8099 Y-0.1626
N4710 X7.8073 Y-0.1637
N4715 X7.7874 Y-0.1701
N4720 X7.7762 Y-0.1732
N4725 X7.7588 Y-0.1779
N4730 G3 X7.7459 Y-0.1848 I0.011 J-0.0359
N4735 G1 X7.7424 Y-0.1877 Z-0.1789
N4740 X7.7389 Y-0.1905 Z-0.1781
N4745 X7.7356 Y-0.1933 Z-0.1768
N4750 X7.7324 Y-0.1959 Z-0.1749
N4755 X7.7294 Y-0.1984 Z-0.1726
N4760 X7.7267 Y-0.2006 Z-0.1698
N4765 X7.7242 Y-0.2027 Z-0.1666
N4770 X7.7221 Y-0.2045 Z-0.163
N4775 X7.7202 Y-0.2059 Z-0.1591
N4780 X7.7188 Y-0.2071 Z-0.155
N4785 X7.7178 Y-0.208 Z-0.1507
N4790 X7.7171 Y-0.2085 Z-0.1462
N4795 X7.7169 Y-0.2087 Z-0.1417
N4800 G0 Z0.2
N4805 X7.8984 Y1.1622
N4810 Z-0.1042
N4815 G1 Z-0.1417 F10.
N4820 X7.8985 Y1.1619 Z-0.1462
N4825 X7.8987 Y1.1611 Z-0.1507
N4830 X7.8989 Y1.1598 Z-0.155
N4835 X7.8993 Y1.158 Z-0.1591
N4840 X7.8998 Y1.1557 Z-0.163
N4845 X7.9004 Y1.1529 Z-0.1666
N4850 X7.9011 Y1.1498 Z-0.1698
N4855 X7.9018 Y1.1463 Z-0.1726
N4860 X7.9026 Y1.1425 Z-0.1749
N4865 X7.9035 Y1.1385 Z-0.1768
N4870 X7.9044 Y1.1343 Z-0.1781
N4875 X7.9053 Y1.1299 Z-0.1789
N4880 X7.9062 Y1.1255 Z-0.1792
N4885 G3 X7.9146 Y1.1134 I0.0188 J0.004
N4890 G1 X7.9244 Y1.1075
N4895 X7.9337 Y1.1015
N4900 X7.9733 Y1.0737
N4905 X7.9787 Y1.07
N4910 X8.0051 Y1.0512
N4915 X8.0124 Y1.0458
N4920 X8.0194 Y1.04
N4925 X8.0236 Y1.0363
N4930 X8.0429 Y1.0175
N4935 X8.0594 Y1.0025
N4940 X8.0754 Y0.9902
N4945 X8.0953 Y0.9773
N4950 X8.1208 Y0.9636
N4955 X8.1635 Y0.9448
N4960 X8.2037 Y0.921
N4965 X8.2386 Y0.8901
N4970 X8.2681 Y0.8538
N4975 X8.2923 Y0.8139
N4980 X8.312 Y0.7716
N4985 X8.3278 Y0.7277
N4990 X8.3404 Y0.6827
N4995 X8.3504 Y0.6371
N5000 X8.3582 Y0.5911
N5005 X8.3644 Y0.5448
N5010 X8.3692 Y0.4983
N5015 X8.3729 Y0.4518
N5020 X8.3758 Y0.4052
N5025 X8.3781 Y0.3585
N5030 X8.3658 Y0.3135
N5035 X8.341 Y0.274
N5040 X8.3081 Y0.2408
N5045 X8.27 Y0.2138
N5050 X8.2286 Y0.1921
N5055 X8.2238 Y0.1902
N5060 X8.2101 Y0.1834
N5065 X8.1977 Y0.1745
N5070 X8.1869 Y0.1637
N5075 X8.1779 Y0.1513
N5080 X8.1711 Y0.14
N5085 X8.1699 Y0.138
N5090 X8.1639 Y0.1288
N5095 X8.1246 Y0.0725
N5100 X8.1166 Y0.0613
N5105 X8.1136 Y0.0571
N5110 X8.1081 Y0.05
N5115 X8.0911 Y0.0308
N5120 X8.0429 Y-0.0175
N5125 X8.0236 Y-0.0363
N5130 X8.0194 Y-0.04
N5135 X8.0124 Y-0.0458
N5140 G3 X8.0036 Y-0.0575 I0.0249 J-0.028
N5145 G1 X8.0016 Y-0.0615 Z-0.1789
N5150 X7.9997 Y-0.0656 Z-0.1781
N5155 X7.9978 Y-0.0695 Z-0.1768
N5160 X7.996 Y-0.0732 Z-0.1749
N5165 X7.9943 Y-0.0767 Z-0.1726
N5170 X7.9927 Y-0.0799 Z-0.1698
N5175 X7.9913 Y-0.0827 Z-0.1666
N5180 X7.9901 Y-0.0853 Z-0.163
N5185 X7.9891 Y-0.0874 Z-0.1591
N5190 X7.9883 Y-0.089 Z-0.155
N5195 X7.9877 Y-0.0903 Z-0.1507
N5200 X7.9874 Y-0.091 Z-0.1462
N5205 X7.9872 Y-0.0912 Z-0.1417
N5210 G0 Z0.2
N5215 X8.0391 Y1.0687
N5220 Z-0.1042
N5225 G1 Z-0.1417 F10.
N5230 Y1.0685 Z-0.1462
N5235 Y1.0676 Z-0.1507
N5240 Y1.0663 Z-0.155
N5245 X8.039 Y1.0644 Z-0.1591
N5250 X8.0389 Y1.0621 Z-0.163
N5255 X8.0388 Y1.0593 Z-0.1666
N5260 X8.0387 Y1.0561 Z-0.1698
N5265 X8.0385 Y1.0525 Z-0.1726
N5270 X8.0384 Y1.0487 Z-0.1749
N5275 X8.0383 Y1.0445 Z-0.1768
N5280 X8.0381 Y1.0402 Z-0.1781
N5285 X8.0379 Y1.0358 Z-0.1789
N5290 X8.0378 Y1.0313 Z-0.1792
N5295 G3 X8.0429 Y1.0175 I0.0192 J-0.0007
N5300 G1 X8.0911 Y0.9692
N5305 X8.1081 Y0.95
N5310 X8.1136 Y0.9429
N5315 X8.1166 Y0.9387
N5320 X8.1561 Y0.8825
N5325 X8.1639 Y0.8712
N5330 X8.1699 Y0.862
N5335 X8.1711 Y0.86
N5340 X8.1779 Y0.8487
N5345 X8.1837 Y0.8375
N5350 X8.2152 Y0.77
N5355 X8.2199 Y0.7587
N5360 X8.2292 Y0.7362
N5365 X8.2325 Y0.725
N5370 X8.2387 Y0.7025
N5375 X8.2486 Y0.6657
N5380 X8.2567 Y0.635
N5385 X8.2585 Y0.6237
N5390 X8.262 Y0.6012
N5395 X8.2678 Y0.5337
N5400 X8.2692 Y0.5112
N5405 X8.2699 Y0.5
N5410 X8.2685 Y0.4775
N5415 X8.2678 Y0.4663
N5420 X8.262 Y0.3988
N5425 X8.2585 Y0.3763
N5430 X8.2567 Y0.365
N5435 X8.2478 Y0.3313
N5440 X8.2387 Y0.2975
N5445 X8.2325 Y0.275
N5450 X8.2292 Y0.2638
N5455 X8.2199 Y0.2413
N5460 X8.2152 Y0.23
N5465 X8.1837 Y0.1625
N5470 X8.1779 Y0.1513
N5475 G3 X8.1745 Y0.1371 I0.034 J-0.0158
N5480 G1 X8.1743 Y0.1325 Z-0.1789
N5485 X8.1741 Y0.1281 Z-0.1781
N5490 X8.1739 Y0.1238 Z-0.1768
N5495 X8.1737 Y0.1197 Z-0.1749
N5500 X8.1736 Y0.1158 Z-0.1726
N5505 X8.1734 Y0.1122 Z-0.1698
N5510 X8.1733 Y0.109 Z-0.1666
N5515 X8.1731 Y0.1062 Z-0.163
N5520 X8.173 Y0.1039 Z-0.1591
N5525 Y0.102 Z-0.155
N5530 X8.1729 Y0.1007 Z-0.1507
N5535 Y0.0999 Z-0.1462
N5540 Y0.0996 Z-0.1417
N5545 G0 Z0.2
N5550 X0.5517 Y-0.318
N5555 Z-0.1042
N5560 G1 Z-0.1417 F10.
N5565 X0.5515 Y-0.3179 Z-0.1462
N5570 X0.5508 Y-0.3174 Z-0.1507
N5575 X0.5498 Y-0.3165 Z-0.155
N5580 X0.5483 Y-0.3154 Z-0.1591
N5585 X0.5465 Y-0.3139 Z-0.163
N5590 X0.5443 Y-0.3122 Z-0.1666
N5595 X0.5417 Y-0.3103 Z-0.1698
N5600 X0.5389 Y-0.3081 Z-0.1726
N5605 X0.5359 Y-0.3057 Z-0.1749
N5610 X0.5326 Y-0.3031 Z-0.1768
N5615 X0.5292 Y-0.3005 Z-0.1781
N5620 X0.5257 Y-0.2977 Z-0.1789
N5625 X0.5221 Y-0.2949 Z-0.1792
N5630 G3 X0.3469 Y-0.1862 I-0.5895 J-0.7544
N5635 G1 X0.3414 Y-0.1838
N5640 X0.3301 Y-0.1774
N5645 X0.326 Y-0.1749
N5650 X0.3189 Y-0.17
N5655 X0.3105 Y-0.1637
N5660 X0.2964 Y-0.1513
N5665 X0.2904 Y-0.1458
N5670 X0.2783 Y-0.1355
N5675 X0.2634 Y-0.1248
N5680 X0.2442 Y-0.1133
N5685 X0.2195 Y-0.1011
N5690 X0.1872 Y-0.0882
N5695 X0.1426 Y-0.0744
N5700 X0.1021 Y-0.0512
N5705 X0.0698 Y-0.0175
N5710 X0.0445 Y0.0218
N5715 X0.025 Y0.0642
N5720 X0.0101 Y0.1084
N5725 X-0.0012 Y0.1537
N5730 X-0.0098 Y0.1996
N5735 X-0.0163 Y0.2459
N5740 X-0.0212 Y0.2923
N5745 X-0.0248 Y0.3388
N5750 X-0.0275 Y0.3855
N5755 X-0.0296 Y0.4321
N5760 X-0.0311 Y0.4788
N5765 X-0.0323 Y0.5255
N5770 X-0.0331 Y0.5721
N5775 X-0.0337 Y0.6188
N5780 X-0.0342 Y0.6655
N5785 X-0.0346 Y0.7122
N5790 X-0.0348 Y0.7589
N5795 X-0.0351 Y0.8289
N5800 X-0.0295 Y0.8516
N5805 X-0.0082 Y0.8932
N5810 X0.0245 Y0.9265
N5815 X0.0632 Y0.9526
N5820 X0.1053 Y0.9728
N5825 X0.1493 Y0.9882
N5830 X0.1761 Y0.9952
N5835 X0.1901 Y1.0001
N5840 X0.2032 Y1.0074
N5845 X0.2147 Y1.0168
N5850 X0.2246 Y1.0281
N5855 X0.2323 Y1.0408
N5860 X0.2378 Y1.0547
N5865 G3 X-0.1333 Y1.1522 I-0.1856 J0.0488
N5870 X-0.1391 Y1.0893 I0.1856 J-0.0488
N5875 G1 X-0.0367 Y-0.2954
N5880 G3 X0.346 Y-0.2672 I0.1913 J0.0141
N5885 X0.2904 Y-0.1458 I-0.1913 J-0.0141
N5890 G1 X0.2855 Y-0.1412
N5895 X0.2851 Y-0.1408
N5900 X0.2764 Y-0.13
N5905 X0.2677 Y-0.1187
N5910 X0.2626 Y-0.1112
N5915 X0.2538 Y-0.0962
N5920 X0.2514 Y-0.0916
N5925 X0.2484 Y-0.085
N5930 X0.2443 Y-0.0737
N5935 X0.2262 Y-0.0307
N5940 X0.2088 Y0.0127
N5945 X0.1928 Y0.0566
N5950 X0.1788 Y0.1011
N5955 X0.1668 Y0.1462
N5960 X0.1567 Y0.1918
N5965 X0.1483 Y0.2377
N5970 X0.1415 Y0.2839
N5975 X0.1359 Y0.3303
N5980 X0.1314 Y0.3767
N5985 X0.1278 Y0.4233
N5990 X0.1249 Y0.4699
N5995 X0.1226 Y0.5165
N6000 X0.1208 Y0.5632
N6005 X0.1194 Y0.6099
N6010 X0.1209 Y0.6565
N6015 X0.138 Y0.7
N6020 X0.1641 Y0.7387
N6025 X0.1943 Y0.7743
N6030 X0.2067 Y0.7876
N6035 X0.2148 Y0.7979
N6040 X0.2214 Y0.8092
N6045 X0.2261 Y0.8213
N6050 X0.229 Y0.8341
N6055 X0.23 Y0.8471
N6060 Y0.9837
N6065 X0.2301 Y0.995
N6070 X0.2307 Y1.0062
N6075 G3 X0.2281 Y1.0206 I-0.0375 J0.0007
N6080 G1 X0.2264 Y1.0248 Z-0.1789
N6085 X0.2248 Y1.029 Z-0.1781
N6090 X0.2232 Y1.033 Z-0.1768
N6095 X0.2217 Y1.0368 Z-0.1749
N6100 X0.2203 Y1.0404 Z-0.1726
N6105 X0.219 Y1.0438 Z-0.1698
N6110 X0.2178 Y1.0467 Z-0.1666
N6115 X0.2168 Y1.0493 Z-0.163
N6120 X0.2159 Y1.0515 Z-0.1591
N6125 X0.2152 Y1.0532 Z-0.155
N6130 X0.2147 Y1.0545 Z-0.1507
N6135 X0.2144 Y1.0553 Z-0.1462
N6140 X0.2143 Y1.0555 Z-0.1417
N6145 G0 Z0.2
N6150 X0.226 Y-0.1217
N6155 Z-0.1042
N6160 G1 Z-0.1417 F10.
N6165 X0.2261 Y-0.1215 Z-0.1462
N6170 X0.2265 Y-0.1208 Z-0.1507
N6175 X0.2271 Y-0.1196 Z-0.155
N6180 X0.2279 Y-0.1179 Z-0.1591
N6185 X0.229 Y-0.1158 Z-0.163
N6190 X0.2303 Y-0.1134 Z-0.1666
N6195 X0.2317 Y-0.1105 Z-0.1698
N6200 X0.2334 Y-0.1073 Z-0.1726
N6205 X0.2351 Y-0.1039 Z-0.1749
N6210 X0.237 Y-0.1002 Z-0.1768
N6215 X0.239 Y-0.0964 Z-0.1781
N6220 X0.241 Y-0.0924 Z-0.1789
N6225 X0.2431 Y-0.0884 Z-0.1792
N6230 G3 X0.2443 Y-0.0737 I-0.0171 J0.0088
N6235 G1 X0.2402 Y-0.0623
N6240 X0.2368 Y-0.0512
N6245 X0.2323 Y-0.0287
N6250 X0.2312 Y-0.0175
N6255 X0.2301 Y0.005
N6260 X0.23 Y0.0163
N6265 Y0.2413
N6270 X0.2301 Y0.2525
N6275 X0.232 Y0.275
N6280 X0.2336 Y0.2863
N6285 X0.2362 Y0.2975
N6290 X0.2445 Y0.3435
N6295 X0.2518 Y0.3896
N6300 X0.2567 Y0.436
N6305 X0.2602 Y0.4826
N6310 X0.2706 Y0.5281
N6315 X0.279 Y0.5517
N6320 X0.2825 Y0.5649
N6325 X0.2839 Y0.5785
N6330 X0.2833 Y0.5921
N6335 X0.2804 Y0.6055
N6340 X0.2756 Y0.6183
N6345 X0.2688 Y0.6301
N6350 X0.2655 Y0.635
N6355 X0.2586 Y0.6462
N6360 X0.2518 Y0.6575
N6365 X0.2402 Y0.6866
N6370 X0.2388 Y0.6912
N6375 X0.2336 Y0.7137
N6380 X0.232 Y0.725
N6385 X0.2301 Y0.7475
N6390 X0.23 Y0.7587
N6395 Y0.8471
N6400 G3 X0.155 Y0.8453 I-0.0375 J-0.0013
N6405 G1 X0.1625 Y0.3068
N6410 G3 X0.2362 Y0.2975 I0.0375 J0.0005
N6415 G1 X0.2388 Y0.3088
N6420 X0.2402 Y0.3134
N6425 X0.2518 Y0.3425
N6430 X0.2586 Y0.3538
N6435 X0.2655 Y0.365
N6440 X0.2732 Y0.3763
N6445 X0.2822 Y0.3875
N6450 X0.2851 Y0.3906
N6455 X0.2931 Y0.3988
N6460 X0.2964 Y0.402
N6465 X0.3016 Y0.4064
N6470 X0.3146 Y0.4184
N6475 X0.3274 Y0.4324
N6480 X0.3391 Y0.4474
N6485 X0.349 Y0.4625
N6490 X0.3575 Y0.4779
N6495 X0.3619 Y0.4907
N6500 X0.364 Y0.5042
N6505 X0.3637 Y0.5177
N6510 X0.361 Y0.531
N6515 X0.3561 Y0.5437
N6520 X0.3489 Y0.5552
N6525 X0.3399 Y0.5653
N6530 X0.3292 Y0.5737
N6535 X0.3249 Y0.5765
N6540 G3 X0.2692 Y0.5534 I-0.0193 J-0.0322
N6545 G1 X0.2422 Y0.4451
N6550 G3 X0.3016 Y0.4064 I0.0364 J-0.0091
N6555 G1 X0.3076 Y0.4115
N6560 X0.3189 Y0.4197
N6565 X0.3301 Y0.4269
N6570 X0.3388 Y0.4325
N6575 X0.3414 Y0.4339
N6580 X0.3649 Y0.4438
N6585 X0.368 Y0.4449
N6590 X0.3735 Y0.4473
N6595 X0.3787 Y0.4503
N6600 X0.3838 Y0.4538
N6605 X0.3885 Y0.4577
N6610 X0.3969 Y0.4677
N6615 X0.4028 Y0.4794
N6620 X0.406 Y0.4922
N6625 X0.4063 Y0.5053
N6630 X0.4036 Y0.5181
N6635 X0.3982 Y0.5301
N6640 X0.3903 Y0.5405
N6645 X0.3802 Y0.5489
N6650 X0.3685 Y0.5549
N6655 G3 X0.3497 Y0.558 I-0.0191 J-0.0566
N6660 X0.3491 Y0.4419 I-0.0003 J-0.0581
N6665 X0.368 Y0.4449 I0.0003 J0.0581
N6670 G1 X0.3751 Y0.4476
N6675 X0.3976 Y0.4532
N6680 X0.4036 Y0.4542
N6685 X0.4094 Y0.4555
N6690 X0.415 Y0.4578
N6695 X0.4202 Y0.4607
N6700 X0.4284 Y0.4683
N6705 X0.4346 Y0.4776
N6710 X0.4385 Y0.4881
N6715 X0.4398 Y0.4992
N6720 X0.4386 Y0.5103
N6725 X0.4347 Y0.5208
N6730 X0.4286 Y0.5301
N6735 X0.4204 Y0.5378
N6740 X0.4107 Y0.5433
N6745 X0.3999 Y0.5464
N6750 G3 X0.3878 Y0.5459 I-0.0046 J-0.0355
N6755 X0.4036 Y0.4542 I0.0097 J-0.0455
N6760 G1 X0.4084 Y0.455
N6765 X0.4314 Y0.4572
N6770 X0.4332 Y0.4573
N6775 X0.4392 Y0.4577
N6780 X0.445 Y0.4594
N6785 X0.4504 Y0.462
N6790 X0.4587 Y0.469
N6795 X0.4651 Y0.4778
N6800 X0.4691 Y0.4878
N6805 X0.4705 Y0.4986
N6810 X0.4693 Y0.5094
N6815 X0.4654 Y0.5195
N6820 X0.4592 Y0.5284
N6825 X0.451 Y0.5356
N6830 X0.4413 Y0.5405
N6835 X0.4307 Y0.5428
N6840 X0.4084 Y0.545
N6845 X0.3999 Y0.5464
N6850 G3 X0.3752 Y0.5285 I-0.0029 J-0.022
N6855 X0.4332 Y0.4573 I0.059 J-0.0112
N6860 G1 X0.4426 Y0.4574
N6865 X0.4628 Y0.4575
N6870 X0.4688 Y0.4578
N6875 X0.4746 Y0.4594
N6880 X0.4801 Y0.4618
N6885 X0.4888 Y0.4689
N6890 X0.4954 Y0.478
N6895 X0.4995 Y0.4885
N6900 X0.5007 Y0.4997
N6905 X0.4991 Y0.5108
N6910 X0.4947 Y0.5211
N6915 X0.4877 Y0.53
N6920 X0.4788 Y0.5368
N6925 X0.4684 Y0.541
N6930 X0.4572 Y0.5425
N6935 X0.4426 Y0.5426
N6940 X0.4314 Y0.5428
N6945 X0.4307
N6950 G3 X0.4088 Y0.526 I-0.0013 J-0.021
N6955 X0.4628 Y0.4575 I0.0559 J-0.0115
N6960 G1 X0.491
N6965 X0.497 Y0.4578
N6970 X0.5029 Y0.459
N6975 X0.5085 Y0.4611
N6980 X0.5137 Y0.464
N6985 X0.5216 Y0.4715
N6990 X0.5274 Y0.4807
N6995 X0.5307 Y0.4911
N7000 X0.5313 Y0.5019
N7005 X0.5292 Y0.5126
N7010 X0.5246 Y0.5224
N7015 X0.5176 Y0.5308
N7020 X0.5088 Y0.5372
N7025 X0.4987 Y0.5411
N7030 X0.4879 Y0.5425
N7035 X0.4572
N7040 G3 X0.4374 Y0.5258 I0.0007 J-0.021
N7045 X0.491 Y0.4575 I0.0556 J-0.0115
N7050 G1 X0.5213
N7055 X0.5273 Y0.4578
N7060 X0.5332 Y0.4589
N7065 X0.5388 Y0.4611
N7070 X0.5441 Y0.4639
N7075 X0.552 Y0.4714
N7080 X0.5578 Y0.4806
N7085 X0.5612 Y0.491
N7090 X0.5618 Y0.5018
N7095 X0.5598 Y0.5125
N7100 X0.5551 Y0.5224
N7105 X0.5482 Y0.5307
N7110 X0.5393 Y0.5371
N7115 X0.5292 Y0.5411
N7120 X0.5184 Y0.5425
N7125 X0.4879
N7130 G3 X0.4682 Y0.526 I0.0007 J-0.021
N7135 X0.5213 Y0.4575 I0.0552 J-0.0121
N7140 G1 X0.5528
N7145 X0.5588 Y0.4578
N7150 X0.5647 Y0.4591
N7155 X0.5702 Y0.4613
N7160 X0.5754 Y0.4643
N7165 X0.5832 Y0.4719
N7170 X0.5888 Y0.4811
N7175 X0.592 Y0.4915
N7180 X0.5925 Y0.5023
N7185 X0.5903 Y0.5129
N7190 X0.5856 Y0.5226
N7195 X0.5786 Y0.5309
N7200 X0.5698 Y0.5372
N7205 X0.5598 Y0.5412
N7210 X0.549 Y0.5425
N7215 X0.5184
N7220 G3 X0.4986 Y0.5255 I0.0007 J-0.0209
N7225 X0.5528 Y0.4575 I0.0563 J-0.0107
N7230 G1 X0.5838
N7235 X0.5898 Y0.4578
N7240 X0.5956 Y0.4591
N7245 X0.6012 Y0.4614
N7250 X0.6064 Y0.4644
N7255 X0.614 Y0.472
N7260 X0.6196 Y0.4813
N7265 X0.6227 Y0.4916
N7270 X0.6232 Y0.5024
N7275 X0.621 Y0.513
N7280 X0.6163 Y0.5227
N7285 X0.6093 Y0.5309
N7290 X0.6005 Y0.5372
N7295 X0.5905 Y0.5412
N7300 X0.5797 Y0.5425
N7305 X0.549
N7310 G3 X0.5292 Y0.5253 I0.0007 J-0.0209
N7315 X0.5838 Y0.4575 I0.0566 J-0.0103
N7320 G1 X0.6147
N7325 X0.6207 Y0.4578
N7330 X0.6266 Y0.4592
N7335 X0.6321 Y0.4615
N7340 X0.6373 Y0.4645
N7345 X0.6449 Y0.4721
N7350 X0.6504 Y0.4814
N7355 X0.6535 Y0.4917
N7360 X0.6539 Y0.5025
N7365 X0.6517 Y0.5131
N7370 X0.647 Y0.5228
N7375 X0.64 Y0.531
N7380 X0.6312 Y0.5372
N7385 X0.6212 Y0.5412
N7390 X0.6105 Y0.5425
N7395 X0.5797
N7400 G3 X0.5598 Y0.5251 I0.0007 J-0.0209
N7405 X0.6147 Y0.4575 I0.0569 J-0.0099
N7410 G1 X0.6451
N7415 X0.6511 Y0.4578
N7420 X0.6569 Y0.4591
N7425 X0.6625 Y0.4614
N7430 X0.6677 Y0.4643
N7435 X0.6754 Y0.4719
N7440 X0.681 Y0.4812
N7445 X0.6841 Y0.4915
N7450 X0.6846 Y0.5023
N7455 X0.6825 Y0.5129
N7460 X0.6777 Y0.5227
N7465 X0.6708 Y0.5309
N7470 X0.662 Y0.5372
N7475 X0.6519 Y0.5412
N7480 X0.6412 Y0.5425
N7485 X0.6105
N7490 G3 X0.5906 Y0.5254 I0.0007 J-0.0209
N7495 X0.6451 Y0.4575 I0.0565 J-0.0105
N7500 G1 X0.6765
N7505 X0.6825 Y0.4578
N7510 X0.6884 Y0.4593
N7515 X0.6939 Y0.4616
N7520 X0.699 Y0.4647
N7525 X0.7066 Y0.4723
N7530 X0.712 Y0.4816
N7535 X0.715 Y0.4919
N7540 X0.7154 Y0.5027
N7545 X0.7132 Y0.5132
N7550 X0.7084 Y0.5228
N7555 X0.7015 Y0.531
N7560 X0.6927 Y0.5373
N7565 X0.6827 Y0.5412
N7570 X0.672 Y0.5425
N7575 X0.6412
N7580 G3 X0.6212 Y0.5249 I0.0007 J-0.0209
N7585 X0.6765 Y0.4575 I0.0573 J-0.0094
N7590 G1 X0.7075
N7595 X0.7135 Y0.4578
N7600 X0.7193 Y0.4593
N7605 X0.7248 Y0.4616
N7610 X0.73 Y0.4647
N7615 X0.7375 Y0.4724
N7620 X0.7429 Y0.4817
N7625 X0.7459 Y0.492
N7630 X0.7463 Y0.5027
N7635 X0.744 Y0.5132
N7640 X0.7393 Y0.5229
N7645 X0.7323 Y0.5311
N7650 X0.7235 Y0.5373
N7655 X0.7135 Y0.5412
N7660 X0.7028 Y0.5425
N7665 X0.672
N7670 G3 X0.652 Y0.5249 I0.0007 J-0.0209
N7675 X0.7075 Y0.4575 I0.0575 J-0.0092
N7680 G1 X0.7385
N7685 X0.7445 Y0.4578
N7690 X0.7503 Y0.4593
N7695 X0.7558 Y0.4617
N7700 X0.7609 Y0.4648
N7705 X0.7684 Y0.4724
N7710 X0.7738 Y0.4817
N7715 X0.7768 Y0.4921
N7720 X0.7772 Y0.5028
N7725 X0.7749 Y0.5133
N7730 X0.7701 Y0.5229
N7735 X0.7631 Y0.5311
N7740 X0.7544 Y0.5373
N7745 X0.7444 Y0.5412
N7750 X0.7337 Y0.5425
N7755 X0.7028
N7760 G3 X0.6829 Y0.5248 I0.0007 J-0.0209
N7765 X0.7385 Y0.4575 I0.0576 J-0.009
N7770 G1 X0.7688
N7775 X0.7748 Y0.4578
N7780 X0.7806 Y0.4592
N7785 X0.7862 Y0.4615
N7790 X0.7913 Y0.4645
N7795 X0.7989 Y0.4722
N7800 X0.8044 Y0.4815
N7805 X0.8075 Y0.4918
N7810 X0.8079 Y0.5026
N7815 X0.8057 Y0.5131
N7820 X0.801 Y0.5228
N7825 X0.794 Y0.531
N7830 X0.7852 Y0.5373
N7835 X0.7752 Y0.5412
N7840 X0.7645 Y0.5425
N7845 X0.7337
N7850 G3 X0.7138 Y0.5251 I0.0007 J-0.0209
N7855 X0.7688 Y0.4575 I0.057 J-0.0097
N7860 G1 X0.799
N7865 X0.805 Y0.4578
N7870 X0.8109 Y0.4591
N7875 X0.8164 Y0.4614
N7880 X0.8216 Y0.4643
N7885 X0.8294 Y0.4719
N7890 X0.835 Y0.4812
N7895 X0.8381 Y0.4915
N7900 X0.8386 Y0.5023
N7905 X0.8365 Y0.5129
N7910 X0.8317 Y0.5226
N7915 X0.8248 Y0.5309
N7920 X0.816 Y0.5372
N7925 X0.8059 Y0.5412
N7930 X0.7952 Y0.5425
N7935 X0.7645
N7940 G3 X0.7446 Y0.5254 I0.0007 J-0.0209
N7945 X0.799 Y0.4575 I0.0564 J-0.0106
N7950 G1 X0.8297
N7955 X0.8357 Y0.4578
N7960 X0.8416 Y0.4591
N7965 X0.8472 Y0.4614
N7970 X0.8524 Y0.4643
N7975 X0.8601 Y0.4719
N7980 X0.8657 Y0.4812
N7985 X0.8688 Y0.4915
N7990 X0.8693 Y0.5023
N7995 X0.8671 Y0.5129
N8000 X0.8624 Y0.5226
N8005 X0.8555 Y0.5309
N8010 X0.8467 Y0.5372
N8015 X0.8366 Y0.5412
N8020 X0.8259 Y0.5425
N8025 X0.7952
N8030 G3 X0.7753 Y0.5254 I0.0007 J-0.0209
N8035 X0.8297 Y0.4575 I0.0564 J-0.0105
N8040 G1 X0.8607
N8045 X0.8666 Y0.4578
N8050 X0.8725 Y0.4592
N8055 X0.878 Y0.4614
N8060 X0.8832 Y0.4644
N8065 X0.8909 Y0.472
N8070 X0.8964 Y0.4813
N8075 X0.8996 Y0.4916
N8080 X0.9 Y0.5024
N8085 X0.8978 Y0.513
N8090 X0.8931 Y0.5227
N8095 X0.8861 Y0.531
N8100 X0.8774 Y0.5372
N8105 X0.8673 Y0.5412
N8110 X0.8566 Y0.5425
N8115 X0.8259
N8120 G3 X0.806 Y0.5253 I0.0007 J-0.0209
N8125 X0.8607 Y0.4575 I0.0567 J-0.0102
N8130 G1 X0.8902
N8135 X0.8962 Y0.4578
N8140 X0.9021 Y0.459
N8145 X0.9077 Y0.4611
N8150 X0.913 Y0.464
N8155 X0.9209 Y0.4715
N8160 X0.9267 Y0.4807
N8165 X0.93 Y0.491
N8170 X0.9306 Y0.5019
N8175 X0.9285 Y0.5126
N8180 X0.9239 Y0.5224
N8185 X0.9169 Y0.5308
N8190 X0.9081 Y0.5371
N8195 X0.898 Y0.5411
N8200 X0.8872 Y0.5425
N8205 G3 X0.8842 Y0.5422 I0.0007 J-0.0212
N8210 X0.8902 Y0.4575 I0.0076 J-0.042
N8215 G1 X0.9212
N8220 X0.9272 Y0.4578
N8225 X0.9331 Y0.459
N8230 X0.9387 Y0.4612
N8235 X0.9439 Y0.4641
N8240 X0.9517 Y0.4717
N8245 X0.9574 Y0.4809
N8250 X0.9606 Y0.4913
N8255 X0.9612 Y0.5021
N8260 X0.9591 Y0.5127
N8265 X0.9544 Y0.5225
N8270 X0.9474 Y0.5308
N8275 X0.9386 Y0.5372
N8280 X0.9285 Y0.5411
N8285 X0.9178 Y0.5425
N8290 G3 X0.9144 Y0.5421 I0.0007 J-0.0212
N8295 X0.9212 Y0.4575 I0.0083 J-0.0419
N8300 G1 X0.9431
N8305 X0.9488 Y0.4581
N8310 X0.9544 Y0.4596
N8315 X0.96 Y0.4621
N8320 X0.963 Y0.464
N8325 X0.9661 Y0.4663
N8330 X0.9689 Y0.4689
N8335 X0.9713 Y0.4715
N8340 X0.9753 Y0.4775
N8345 X0.9779 Y0.4831
N8350 X0.9794 Y0.4888
N8355 X0.98 Y0.4944
N8360 Y0.5
N8365 Y0.5056
N8370 X0.9794 Y0.5112
N8375 X0.9779 Y0.5169
N8380 X0.9753 Y0.5225
N8385 X0.9713 Y0.5285
N8390 X0.9689 Y0.5311
N8395 X0.9661 Y0.5337
N8400 X0.963 Y0.536
N8405 X0.96 Y0.5379
N8410 X0.9544 Y0.5404
N8415 X0.9488 Y0.5419
N8420 X0.9431 Y0.5425
N8425 X0.8566
N8430 X0.8536 Y0.542 Z-0.1789
N8435 X0.8508 Y0.5414 Z-0.178
N8440 X0.8482 Y0.541 Z-0.1765
N8445 X0.846 Y0.5406 Z-0.1745
N8450 X0.8444 Y0.54 Z-0.1723
N8455 X0.8433 Y0.5395 Z-0.1698
N8460 X0.8426 Y0.5392 Z-0.1672
N8465 X0.8423 Y0.5391 Z-0.1645
N8470 G0 Z0.2
N8475 X7.5074 Y1.2853
N8480 Z-0.1938
N8485 G1 Z-0.2313 F10.
N8490 X7.5076 Y1.2852 Z-0.2358
N8495 X7.5084 Y1.2848 Z-0.2403
N8500 X7.5095 Y1.2841 Z-0.2446
N8505 X7.5111 Y1.2832 Z-0.2487
N8510 X7.5132 Y1.282 Z-0.2526
N8515 X7.5156 Y1.2807 Z-0.2562
N8520 X7.5184 Y1.2791 Z-0.2594
N8525 X7.5215 Y1.2774 Z-0.2622
N8530 X7.5249 Y1.2755 Z-0.2645
N8535 X7.5285 Y1.2734 Z-0.2664
N8540 X7.5323 Y1.2713 Z-0.2677
N8545 X7.5361 Y1.2691 Z-0.2685
N8550 X7.5401 Y1.2669 Z-0.2688
N8555 G3 X7.7297 Y1.1857 I0.4695 J0.8343
N8560 G1 X7.7762 Y1.1732
N8565 X7.7874 Y1.1701
N8570 X7.8073 Y1.1637
N8575 X7.8099 Y1.1626
N8580 X7.8326 Y1.1524
N8585 X7.8437 Y1.1474
N8590 X7.8774 Y1.1317
N8595 X7.9047 Y1.1187
N8600 X7.9112 Y1.1154
N8605 X7.9146 Y1.1134
N8610 X7.9291 Y1.1056
N8615 X7.9584 Y1.0929
N8620 X7.9973 Y1.0796
N8625 X8.0426 Y1.0682
N8630 X8.0885 Y1.0597
N8635 X8.1348 Y1.0535
N8640 X8.1813 Y1.0489
N8645 X8.2278 Y1.0455
N8650 X8.2745 Y1.043
N8655 X8.3211 Y1.0411
N8660 X8.3327 Y1.0395
N8665 X8.3552 Y1.0334
N8670 X8.3961 Y1.0109
N8675 X8.4288 Y0.9776
N8680 X8.4544 Y0.9385
N8685 X8.4742 Y0.8962
N8690 X8.4893 Y0.852
N8695 X8.5008 Y0.8068
N8700 X8.5095 Y0.7609
N8705 X8.516 Y0.7147
N8710 X8.5209 Y0.6682
N8715 X8.5246 Y0.6217
N8720 X8.5274 Y0.5751
N8725 X8.5295 Y0.5284
N8730 X8.531 Y0.4818
N8735 X8.5322 Y0.4351
N8740 X8.5331 Y0.3884
N8745 X8.5337 Y0.3417
N8750 X8.5342 Y0.295
N8755 X8.5346 Y0.2483
N8760 X8.5348 Y0.2016
N8765 X8.5349 Y0.1783
N8770 X8.5333 Y0.1667
N8775 X8.5269 Y0.1443
N8780 X8.5042 Y0.1035
N8785 X8.4708 Y0.0708
N8790 X8.4317 Y0.0453
N8795 X8.3894 Y0.0256
N8800 X8.3452 Y0.0106
N8805 X8.2999 Y-0.0009
N8810 X8.254 Y-0.0095
N8815 X8.2078 Y-0.0161
N8820 X8.1614 Y-0.021
N8825 X8.1148 Y-0.0247
N8830 X8.0682 Y-0.0274
N8835 X8.0634 Y-0.0277
N8840 X8.0498 Y-0.0293
N8845 X8.0365 Y-0.0329
N8850 X8.024 Y-0.0385
N8855 X8.0124 Y-0.0458
N8860 X8.0051 Y-0.0512
N8865 X7.9787 Y-0.07
N8870 X7.9412 Y-0.0962
N8875 X7.9337 Y-0.1015
N8880 X7.9244 Y-0.1075
N8885 X7.9112 Y-0.1154
N8890 X7.9047 Y-0.1187
N8895 X7.8774 Y-0.1317
N8900 X7.8437 Y-0.1474
N8905 X7.8324 Y-0.1525
N8910 X7.8099 Y-0.1626
N8915 X7.8073 Y-0.1637
N8920 X7.7874 Y-0.1701
N8925 X7.7762 Y-0.1732
N8930 X7.7588 Y-0.1779
N8935 G3 X7.7459 Y-0.1848 I0.011 J-0.0359
N8940 G1 X7.7424 Y-0.1877 Z-0.2685
N8945 X7.7389 Y-0.1905 Z-0.2677
N8950 X7.7356 Y-0.1933 Z-0.2664
N8955 X7.7324 Y-0.1959 Z-0.2645
N8960 X7.7294 Y-0.1984 Z-0.2622
N8965 X7.7267 Y-0.2006 Z-0.2594
N8970 X7.7242 Y-0.2027 Z-0.2562
N8975 X7.7221 Y-0.2045 Z-0.2526
N8980 X7.7202 Y-0.2059 Z-0.2487
N8985 X7.7188 Y-0.2071 Z-0.2446
N8990 X7.7178 Y-0.208 Z-0.2403
N8995 X7.7171 Y-0.2085 Z-0.2358
N9000 X7.7169 Y-0.2087 Z-0.2313
N9005 G0 Z0.2
N9010 X7.8984 Y1.1622
N9015 Z-0.1938
N9020 G1 Z-0.2313 F10.
N9025 X7.8985 Y1.1619 Z-0.2358
N9030 X7.8987 Y1.1611 Z-0.2403
N9035 X7.8989 Y1.1598 Z-0.2446
N9040 X7.8993 Y1.158 Z-0.2487
N9045 X7.8998 Y1.1557 Z-0.2526
N9050 X7.9004 Y1.1529 Z-0.2562
N9055 X7.9011 Y1.1498 Z-0.2594
N9060 X7.9018 Y1.1463 Z-0.2622
N9065 X7.9026 Y1.1425 Z-0.2645
N9070 X7.9035 Y1.1385 Z-0.2664
N9075 X7.9044 Y1.1343 Z-0.2677
N9080 X7.9053 Y1.1299 Z-0.2685
N9085 X7.9062 Y1.1255 Z-0.2688
N9090 G3 X7.9146 Y1.1134 I0.0188 J0.004
N9095 G1 X7.9244 Y1.1075
N9100 X7.9337 Y1.1015
N9105 X7.9733 Y1.0737
N9110 X7.9787 Y1.07
N9115 X8.0051 Y1.0512
N9120 X8.0124 Y1.0458
N9125 X8.0194 Y1.04
N9130 X8.0236 Y1.0363
N9135 X8.0429 Y1.0175
N9140 X8.0594 Y1.0025
N9145 X8.0754 Y0.9902
N9150 X8.0953 Y0.9773
N9155 X8.1208 Y0.9636
N9160 X8.1635 Y0.9448
N9165 X8.2037 Y0.921
N9170 X8.2386 Y0.8901
N9175 X8.2681 Y0.8538
N9180 X8.2923 Y0.8139
N9185 X8.312 Y0.7716
N9190 X8.3278 Y0.7277
N9195 X8.3404 Y0.6827
N9200 X8.3504 Y0.6371
N9205 X8.3582 Y0.5911
N9210 X8.3644 Y0.5448
N9215 X8.3692 Y0.4983
N9220 X8.3729 Y0.4518
N9225 X8.3758 Y0.4052
N9230 X8.3781 Y0.3585
N9235 X8.3658 Y0.3135
N9240 X8.341 Y0.274
N9245 X8.3081 Y0.2408
N9250 X8.27 Y0.2138
N9255 X8.2286 Y0.1921
N9260 X8.2238 Y0.1902
N9265 X8.2101 Y0.1834
N9270 X8.1977 Y0.1745
N9275 X8.1869 Y0.1637
N9280 X8.1779 Y0.1513
N9285 X8.1711 Y0.14
N9290 X8.1699 Y0.138
N9295 X8.1639 Y0.1288
N9300 X8.1246 Y0.0725
N9305 X8.1166 Y0.0613
N9310 X8.1136 Y0.0571
N9315 X8.1081 Y0.05
N9320 X8.0911 Y0.0308
N9325 X8.0429 Y-0.0175
N9330 X8.0236 Y-0.0363
N9335 X8.0194 Y-0.04
N9340 X8.0124 Y-0.0458
N9345 G3 X8.0036 Y-0.0575 I0.0249 J-0.028
N9350 G1 X8.0016 Y-0.0615 Z-0.2685
N9355 X7.9997 Y-0.0656 Z-0.2677
N9360 X7.9978 Y-0.0695 Z-0.2664
N9365 X7.996 Y-0.0732 Z-0.2645
N9370 X7.9943 Y-0.0767 Z-0.2622
N9375 X7.9927 Y-0.0799 Z-0.2594
N9380 X7.9913 Y-0.0827 Z-0.2562
N9385 X7.9901 Y-0.0853 Z-0.2526
N9390 X7.9891 Y-0.0874 Z-0.2487
N9395 X7.9883 Y-0.089 Z-0.2446
N9400 X7.9877 Y-0.0903 Z-0.2403
N9405 X7.9874 Y-0.091 Z-0.2358
N9410 X7.9872 Y-0.0912 Z-0.2313
N9415 G0 Z0.2
N9420 X8.0391 Y1.0687
N9425 Z-0.1938
N9430 G1 Z-0.2313 F10.
N9435 Y1.0685 Z-0.2358
N9440 Y1.0676 Z-0.2403
N9445 Y1.0663 Z-0.2446
N9450 X8.039 Y1.0644 Z-0.2487
N9455 X8.0389 Y1.0621 Z-0.2526
N9460 X8.0388 Y1.0593 Z-0.2562
N9465 X8.0387 Y1.0561 Z-0.2594
N9470 X8.0385 Y1.0525 Z-0.2622
N9475 X8.0384 Y1.0487 Z-0.2645
N9480 X8.0383 Y1.0445 Z-0.2664
N9485 X8.0381 Y1.0402 Z-0.2677
N9490 X8.0379 Y1.0358 Z-0.2685
N9495 X8.0378 Y1.0313 Z-0.2688
N9500 G3 X8.0429 Y1.0175 I0.0192 J-0.0007
N9505 G1 X8.0911 Y0.9692
N9510 X8.1081 Y0.95
N9515 X8.1136 Y0.9429
N9520 X8.1166 Y0.9387
N9525 X8.1561 Y0.8825
N9530 X8.1639 Y0.8712
N9535 X8.1699 Y0.862
N9540 X8.1711 Y0.86
N9545 X8.1779 Y0.8487
N9550 X8.1837 Y0.8375
N9555 X8.2152 Y0.77
N9560 X8.2199 Y0.7587
N9565 X8.2292 Y0.7362
N9570 X8.2325 Y0.725
N9575 X8.2387 Y0.7025
N9580 X8.2486 Y0.6657
N9585 X8.2567 Y0.635
N9590 X8.2585 Y0.6237
N9595 X8.262 Y0.6012
N9600 X8.2678 Y0.5337
N9605 X8.2692 Y0.5112
N9610 X8.2699 Y0.5
N9615 X8.2685 Y0.4775
N9620 X8.2678 Y0.4663
N9625 X8.262 Y0.3988
N9630 X8.2585 Y0.3763
N9635 X8.2567 Y0.365
N9640 X8.2478 Y0.3313
N9645 X8.2387 Y0.2975
N9650 X8.2325 Y0.275
N9655 X8.2292 Y0.2638
N9660 X8.2199 Y0.2413
N9665 X8.2152 Y0.23
N9670 X8.1837 Y0.1625
N9675 X8.1779 Y0.1513
N9680 G3 X8.1745 Y0.1371 I0.034 J-0.0158
N9685 G1 X8.1743 Y0.1325 Z-0.2685
N9690 X8.1741 Y0.1281 Z-0.2677
N9695 X8.1739 Y0.1238 Z-0.2664
N9700 X8.1737 Y0.1197 Z-0.2645
N9705 X8.1736 Y0.1158 Z-0.2622
N9710 X8.1734 Y0.1122 Z-0.2594
N9715 X8.1733 Y0.109 Z-0.2562
N9720 X8.1731 Y0.1062 Z-0.2526
N9725 X8.173 Y0.1039 Z-0.2487
N9730 Y0.102 Z-0.2446
N9735 X8.1729 Y0.1007 Z-0.2403
N9740 Y0.0999 Z-0.2358
N9745 Y0.0996 Z-0.2313
N9750 G0 Z0.2
N9755 X0.5517 Y-0.318
N9760 Z-0.1938
N9765 G1 Z-0.2313 F10.
N9770 X0.5515 Y-0.3179 Z-0.2358
N9775 X0.5508 Y-0.3174 Z-0.2403
N9780 X0.5498 Y-0.3165 Z-0.2446
N9785 X0.5483 Y-0.3154 Z-0.2487
N9790 X0.5465 Y-0.3139 Z-0.2526
N9795 X0.5443 Y-0.3122 Z-0.2562
N9800 X0.5417 Y-0.3103 Z-0.2594
N9805 X0.5389 Y-0.3081 Z-0.2622
N9810 X0.5359 Y-0.3057 Z-0.2645
N9815 X0.5326 Y-0.3031 Z-0.2664
N9820 X0.5292 Y-0.3005 Z-0.2677
N9825 X0.5257 Y-0.2977 Z-0.2685
N9830 X0.5221 Y-0.2949 Z-0.2688
N9835 G3 X0.3469 Y-0.1862 I-0.5895 J-0.7544
N9840 G1 X0.3414 Y-0.1838
N9845 X0.3301 Y-0.1774
N9850 X0.326 Y-0.1749
N9855 X0.3189 Y-0.17
N9860 X0.3105 Y-0.1637
N9865 X0.2964 Y-0.1513
N9870 X0.2904 Y-0.1458
N9875 X0.2783 Y-0.1355
N9880 X0.2634 Y-0.1248
N9885 X0.2442 Y-0.1133
N9890 X0.2195 Y-0.1011
N9895 X0.1872 Y-0.0882
N9900 X0.1426 Y-0.0744
N9905 X0.1021 Y-0.0512
N9910 X0.0698 Y-0.0175
N9915 X0.0445 Y0.0218
N9920 X0.025 Y0.0642
N9925 X0.0101 Y0.1084
N9930 X-0.0012 Y0.1537
N9935 X-0.0098 Y0.1996
N9940 X-0.0163 Y0.2459
N9945 X-0.0212 Y0.2923
N9950 X-0.0248 Y0.3388
N9955 X-0.0275 Y0.3855
N9960 X-0.0296 Y0.4321
N9965 X-0.0311 Y0.4788
N9970 X-0.0323 Y0.5255
N9975 X-0.0331 Y0.5721
N9980 X-0.0337 Y0.6188
N9985 X-0.0342 Y0.6655
N9990 X-0.0346 Y0.7122
N9995 X-0.0348 Y0.7589
N10000 X-0.0351 Y0.8289
N10005 X-0.0295 Y0.8516
N10010 X-0.0082 Y0.8932
N10015 X0.0245 Y0.9265
N10020 X0.0632 Y0.9526
N10025 X0.1053 Y0.9728
N10030 X0.1493 Y0.9882
N10035 X0.1761 Y0.9952
N10040 X0.1901 Y1.0001
N10045 X0.2032 Y1.0074
N10050 X0.2147 Y1.0168
N10055 X0.2246 Y1.0281
N10060 X0.2323 Y1.0408
N10065 X0.2378 Y1.0547
N10070 G3 X-0.1333 Y1.1522 I-0.1856 J0.0488
N10075 X-0.1391 Y1.0893 I0.1856 J-0.0488
N10080 G1 X-0.0367 Y-0.2954
N10085 G3 X0.346 Y-0.2672 I0.1913 J0.0141
N10090 X0.2904 Y-0.1458 I-0.1913 J-0.0141
N10095 G1 X0.2855 Y-0.1412
N10100 X0.2851 Y-0.1408
N10105 X0.2764 Y-0.13
N10110 X0.2677 Y-0.1187
N10115 X0.2626 Y-0.1112
N10120 X0.2538 Y-0.0962
N10125 X0.2514 Y-0.0916
N10130 X0.2484 Y-0.085
N10135 X0.2443 Y-0.0737
N10140 X0.2262 Y-0.0307
N10145 X0.2088 Y0.0127
N10150 X0.1928 Y0.0566
N10155 X0.1788 Y0.1011
N10160 X0.1668 Y0.1462
N10165 X0.1567 Y0.1918
N10170 X0.1483 Y0.2377
N10175 X0.1415 Y0.2839
N10180 X0.1359 Y0.3303
N10185 X0.1314 Y0.3767
N10190 X0.1278 Y0.4233
N10195 X0.1249 Y0.4699
N10200 X0.1226 Y0.5165
N10205 X0.1208 Y0.5632
N10210 X0.1194 Y0.6099
N10215 X0.1209 Y0.6565
N10220 X0.138 Y0.7
N10225 X0.1641 Y0.7387
N10230 X0.1943 Y0.7743
N10235 X0.2067 Y0.7876
N10240 X0.2148 Y0.7979
N10245 X0.2214 Y0.8092
N10250 X0.2261 Y0.8213
N10255 X0.229 Y0.8341
N10260 X0.23 Y0.8471
N10265 Y0.9837
N10270 X0.2301 Y0.995
N10275 X0.2307 Y1.0062
N10280 G3 X0.2281 Y1.0206 I-0.0375 J0.0007
N10285 G1 X0.2264 Y1.0248 Z-0.2685
N10290 X0.2248 Y1.029 Z-0.2677
N10295 X0.2232 Y1.033 Z-0.2664
N10300 X0.2217 Y1.0368 Z-0.2645
N10305 X0.2203 Y1.0404 Z-0.2622
N10310 X0.219 Y1.0438 Z-0.2594
N10315 X0.2178 Y1.0467 Z-0.2562
N10320 X0.2168 Y1.0493 Z-0.2526
N10325 X0.2159 Y1.0515 Z-0.2487
N10330 X0.2152 Y1.0532 Z-0.2446
N10335 X0.2147 Y1.0545 Z-0.2403
N10340 X0.2144 Y1.0553 Z-0.2358
N10345 X0.2143 Y1.0555 Z-0.2313
N10350 G0 Z0.2
N10355 X0.226 Y-0.1217
N10360 Z-0.1938
N10365 G1 Z-0.2313 F10.
N10370 X0.2261 Y-0.1215 Z-0.2358
N10375 X0.2265 Y-0.1208 Z-0.2403
N10380 X0.2271 Y-0.1196 Z-0.2446
N10385 X0.2279 Y-0.1179 Z-0.2487
N10390 X0.229 Y-0.1158 Z-0.2526
N10395 X0.2303 Y-0.1134 Z-0.2562
N10400 X0.2317 Y-0.1105 Z-0.2594
N10405 X0.2334 Y-0.1073 Z-0.2622
N10410 X0.2351 Y-0.1039 Z-0.2645
N10415 X0.237 Y-0.1002 Z-0.2664
N10420 X0.239 Y-0.0964 Z-0.2677
N10425 X0.241 Y-0.0924 Z-0.2685
N10430 X0.2431 Y-0.0884 Z-0.2688
N10435 G3 X0.2443 Y-0.0737 I-0.0171 J0.0088
N10440 G1 X0.2402 Y-0.0623
N10445 X0.2368 Y-0.0512
N10450 X0.2323 Y-0.0287
N10455 X0.2312 Y-0.0175
N10460 X0.2301 Y0.005
N10465 X0.23 Y0.0163
N10470 Y0.2413
N10475 X0.2301 Y0.2525
N10480 X0.232 Y0.275
N10485 X0.2336 Y0.2863
N10490 X0.2362 Y0.2975
N10495 X0.2445 Y0.3435
N10500 X0.2518 Y0.3896
N10505 X0.2567 Y0.436
N10510 X0.2602 Y0.4826
N10515 X0.2706 Y0.5281
N10520 X0.279 Y0.5517
N10525 X0.2825 Y0.5649
N10530 X0.2839 Y0.5785
N10535 X0.2833 Y0.5921
N10540 X0.2804 Y0.6055
N10545 X0.2756 Y0.6183
N10550 X0.2688 Y0.6301
N10555 X0.2655 Y0.635
N10560 X0.2586 Y0.6462
N10565 X0.2518 Y0.6575
N10570 X0.2402 Y0.6866
N10575 X0.2388 Y0.6912
N10580 X0.2336 Y0.7137
N10585 X0.232 Y0.725
N10590 X0.2301 Y0.7475
N10595 X0.23 Y0.7587
N10600 Y0.8471
N10605 G3 X0.155 Y0.8453 I-0.0375 J-0.0013
N10610 G1 X0.1625 Y0.3068
N10615 G3 X0.2362 Y0.2975 I0.0375 J0.0005
N10620 G1 X0.2388 Y0.3088
N10625 X0.2402 Y0.3134
N10630 X0.2518 Y0.3425
N10635 X0.2586 Y0.3538
N10640 X0.2655 Y0.365
N10645 X0.2732 Y0.3763
N10650 X0.2822 Y0.3875
N10655 X0.2851 Y0.3906
N10660 X0.2931 Y0.3988
N10665 X0.2964 Y0.402
N10670 X0.3016 Y0.4064
N10675 X0.3146 Y0.4184
N10680 X0.3274 Y0.4324
N10685 X0.3391 Y0.4474
N10690 X0.349 Y0.4625
N10695 X0.3575 Y0.4779
N10700 X0.3619 Y0.4907
N10705 X0.364 Y0.5042
N10710 X0.3637 Y0.5177
N10715 X0.361 Y0.531
N10720 X0.3561 Y0.5437
N10725 X0.3489 Y0.5552
N10730 X0.3399 Y0.5653
N10735 X0.3292 Y0.5737
N10740 X0.3249 Y0.5765
N10745 G3 X0.2692 Y0.5534 I-0.0193 J-0.0322
N10750 G1 X0.2422 Y0.4451
N10755 G3 X0.3016 Y0.4064 I0.0364 J-0.0091
N10760 G1 X0.3076 Y0.4115
N10765 X0.3189 Y0.4197
N10770 X0.3301 Y0.4269
N10775 X0.3388 Y0.4325
N10780 X0.3414 Y0.4339
N10785 X0.3649 Y0.4438
N10790 X0.368 Y0.4449
N10795 X0.3735 Y0.4473
N10800 X0.3787 Y0.4503
N10805 X0.3838 Y0.4538
N10810 X0.3885 Y0.4577
N10815 X0.3969 Y0.4677
N10820 X0.4028 Y0.4794
N10825 X0.406 Y0.4922
N10830 X0.4063 Y0.5053
N10835 X0.4036 Y0.5181
N10840 X0.3982 Y0.5301
N10845 X0.3903 Y0.5405
N10850 X0.3802 Y0.5489
N10855 X0.3685 Y0.5549
N10860 G3 X0.3497 Y0.558 I-0.0191 J-0.0566
N10865 X0.3491 Y0.4419 I-0.0003 J-0.0581
N10870 X0.368 Y0.4449 I0.0003 J0.0581
N10875 G1 X0.3751 Y0.4476
N10880 X0.3976 Y0.4532
N10885 X0.4036 Y0.4542
N10890 X0.4094 Y0.4555
N10895 X0.415 Y0.4578
N10900 X0.4202 Y0.4607
N10905 X0.4284 Y0.4683
N10910 X0.4346 Y0.4776
N10915 X0.4385 Y0.4881
N10920 X0.4398 Y0.4992
N10925 X0.4386 Y0.5103
N10930 X0.4347 Y0.5208
N10935 X0.4286 Y0.5301
N10940 X0.4204 Y0.5378
N10945 X0.4107 Y0.5433
N10950 X0.3999 Y0.5464
N10955 G3 X0.3878 Y0.5459 I-0.0046 J-0.0355
N10960 X0.4036 Y0.4542 I0.0097 J-0.0455
N10965 G1 X0.4084 Y0.455
N10970 X0.4314 Y0.4572
N10975 X0.4332 Y0.4573
N10980 X0.4392 Y0.4577
N10985 X0.445 Y0.4594
N10990 X0.4504 Y0.462
N10995 X0.4587 Y0.469
N11000 X0.4651 Y0.4778
N11005 X0.4691 Y0.4878
N11010 X0.4705 Y0.4986
N11015 X0.4693 Y0.5094
N11020 X0.4654 Y0.5195
N11025 X0.4592 Y0.5284
N11030 X0.451 Y0.5356
N11035 X0.4413 Y0.5405
N11040 X0.4307 Y0.5428
N11045 X0.4084 Y0.545
N11050 X0.3999 Y0.5464
N11055 G3 X0.3752 Y0.5285 I-0.0029 J-0.022
N11060 X0.4332 Y0.4573 I0.059 J-0.0112
N11065 G1 X0.4426 Y0.4574
N11070 X0.4628 Y0.4575
N11075 X0.4688 Y0.4578
N11080 X0.4746 Y0.4594
N11085 X0.4801 Y0.4618
N11090 X0.4888 Y0.4689
N11095 X0.4954 Y0.478
N11100 X0.4995 Y0.4885
N11105 X0.5007 Y0.4997
N11110 X0.4991 Y0.5108
N11115 X0.4947 Y0.5211
N11120 X0.4877 Y0.53
N11125 X0.4788 Y0.5368
N11130 X0.4684 Y0.541
N11135 X0.4572 Y0.5425
N11140 X0.4426 Y0.5426
N11145 X0.4314 Y0.5428
N11150 X0.4307
N11155 G3 X0.4088 Y0.526 I-0.0013 J-0.021
N11160 X0.4628 Y0.4575 I0.0559 J-0.0115
N11165 G1 X0.491
N11170 X0.497 Y0.4578
N11175 X0.5029 Y0.459
N11180 X0.5085 Y0.4611
N11185 X0.5137 Y0.464
N11190 X0.5216 Y0.4715
N11195 X0.5274 Y0.4807
N11200 X0.5307 Y0.4911
N11205 X0.5313 Y0.5019
N11210 X0.5292 Y0.5126
N11215 X0.5246 Y0.5224
N11220 X0.5176 Y0.5308
N11225 X0.5088 Y0.5372
N11230 X0.4987 Y0.5411
N11235 X0.4879 Y0.5425
N11240 X0.4572
N11245 G3 X0.4374 Y0.5258 I0.0007 J-0.021
N11250 X0.491 Y0.4575 I0.0556 J-0.0115
N11255 G1 X0.5213
N11260 X0.5273 Y0.4578
N11265 X0.5332 Y0.4589
N11270 X0.5388 Y0.4611
N11275 X0.5441 Y0.4639
N11280 X0.552 Y0.4714
N11285 X0.5578 Y0.4806
N11290 X0.5612 Y0.491
N11295 X0.5618 Y0.5018
N11300 X0.5598 Y0.5125
N11305 X0.5551 Y0.5224
N11310 X0.5482 Y0.5307
N11315 X0.5393 Y0.5371
N11320 X0.5292 Y0.5411
N11325 X0.5184 Y0.5425
N11330 X0.4879
N11335 G3 X0.4682 Y0.526 I0.0007 J-0.021
N11340 X0.5213 Y0.4575 I0.0552 J-0.0121
N11345 G1 X0.5528
N11350 X0.5588 Y0.4578
N11355 X0.5647 Y0.4591
N11360 X0.5702 Y0.4613
N11365 X0.5754 Y0.4643
N11370 X0.5832 Y0.4719
N11375 X0.5888 Y0.4811
N11380 X0.592 Y0.4915
N11385 X0.5925 Y0.5023
N11390 X0.5903 Y0.5129
N11395 X0.5856 Y0.5226
N11400 X0.5786 Y0.5309
N11405 X0.5698 Y0.5372
N11410 X0.5598 Y0.5412
N11415 X0.549 Y0.5425
N11420 X0.5184
N11425 G3 X0.4986 Y0.5255 I0.0007 J-0.0209
N11430 X0.5528 Y0.4575 I0.0563 J-0.0107
N11435 G1 X0.5838
N11440 X0.5898 Y0.4578
N11445 X0.5956 Y0.4591
N11450 X0.6012 Y0.4614
N11455 X0.6064 Y0.4644
N11460 X0.614 Y0.472
N11465 X0.6196 Y0.4813
N11470 X0.6227 Y0.4916
N11475 X0.6232 Y0.5024
N11480 X0.621 Y0.513
N11485 X0.6163 Y0.5227
N11490 X0.6093 Y0.5309
N11495 X0.6005 Y0.5372
N11500 X0.5905 Y0.5412
N11505 X0.5797 Y0.5425
N11510 X0.549
N11515 G3 X0.5292 Y0.5253 I0.0007 J-0.0209
N11520 X0.5838 Y0.4575 I0.0566 J-0.0103
N11525 G1 X0.6147
N11530 X0.6207 Y0.4578
N11535 X0.6266 Y0.4592
N11540 X0.6321 Y0.4615
N11545 X0.6373 Y0.4645
N11550 X0.6449 Y0.4721
N11555 X0.6504 Y0.4814
N11560 X0.6535 Y0.4917
N11565 X0.6539 Y0.5025
N11570 X0.6517 Y0.5131
N11575 X0.647 Y0.5228
N11580 X0.64 Y0.531
N11585 X0.6312 Y0.5372
N11590 X0.6212 Y0.5412
N11595 X0.6105 Y0.5425
N11600 X0.5797
N11605 G3 X0.5598 Y0.5251 I0.0007 J-0.0209
N11610 X0.6147 Y0.4575 I0.0569 J-0.0099
N11615 G1 X0.6451
N11620 X0.6511 Y0.4578
N11625 X0.6569 Y0.4591
N11630 X0.6625 Y0.4614
N11635 X0.6677 Y0.4643
N11640 X0.6754 Y0.4719
N11645 X0.681 Y0.4812
N11650 X0.6841 Y0.4915
N11655 X0.6846 Y0.5023
N11660 X0.6825 Y0.5129
N11665 X0.6777 Y0.5227
N11670 X0.6708 Y0.5309
N11675 X0.662 Y0.5372
N11680 X0.6519 Y0.5412
N11685 X0.6412 Y0.5425
N11690 X0.6105
N11695 G3 X0.5906 Y0.5254 I0.0007 J-0.0209
N11700 X0.6451 Y0.4575 I0.0565 J-0.0105
N11705 G1 X0.6765
N11710 X0.6825 Y0.4578
N11715 X0.6884 Y0.4593
N11720 X0.6939 Y0.4616
N11725 X0.699 Y0.4647
N11730 X0.7066 Y0.4723
N11735 X0.712 Y0.4816
N11740 X0.715 Y0.4919
N11745 X0.7154 Y0.5027
N11750 X0.7132 Y0.5132
N11755 X0.7084 Y0.5228
N11760 X0.7015 Y0.531
N11765 X0.6927 Y0.5373
N11770 X0.6827 Y0.5412
N11775 X0.672 Y0.5425
N11780 X0.6412
N11785 G3 X0.6212 Y0.5249 I0.0007 J-0.0209
N11790 X0.6765 Y0.4575 I0.0573 J-0.0094
N11795 G1 X0.7075
N11800 X0.7135 Y0.4578
N11805 X0.7193 Y0.4593
N11810 X0.7248 Y0.4616
N11815 X0.73 Y0.4647
N11820 X0.7375 Y0.4724
N11825 X0.7429 Y0.4817
N11830 X0.7459 Y0.492
N11835 X0.7463 Y0.5027
N11840 X0.744 Y0.5132
N11845 X0.7393 Y0.5229
N11850 X0.7323 Y0.5311
N11855 X0.7235 Y0.5373
N11860 X0.7135 Y0.5412
N11865 X0.7028 Y0.5425
N11870 X0.672
N11875 G3 X0.652 Y0.5249 I0.0007 J-0.0209
N11880 X0.7075 Y0.4575 I0.0575 J-0.0092
N11885 G1 X0.7385
N11890 X0.7445 Y0.4578
N11895 X0.7503 Y0.4593
N11900 X0.7558 Y0.4617
N11905 X0.7609 Y0.4648
N11910 X0.7684 Y0.4724
N11915 X0.7738 Y0.4817
N11920 X0.7768 Y0.4921
N11925 X0.7772 Y0.5028
N11930 X0.7749 Y0.5133
N11935 X0.7701 Y0.5229
N11940 X0.7631 Y0.5311
N11945 X0.7544 Y0.5373
N11950 X0.7444 Y0.5412
N11955 X0.7337 Y0.5425
N11960 X0.7028
N11965 G3 X0.6829 Y0.5248 I0.0007 J-0.0209
N11970 X0.7385 Y0.4575 I0.0576 J-0.009
N11975 G1 X0.7688
N11980 X0.7748 Y0.4578
N11985 X0.7806 Y0.4592
N11990 X0.7862 Y0.4615
N11995 X0.7913 Y0.4645
N12000 X0.7989 Y0.4722
N12005 X0.8044 Y0.4815
N12010 X0.8075 Y0.4918
N12015 X0.8079 Y0.5026
N12020 X0.8057 Y0.5131
N12025 X0.801 Y0.5228
N12030 X0.794 Y0.531
N12035 X0.7852 Y0.5373
N12040 X0.7752 Y0.5412
N12045 X0.7645 Y0.5425
N12050 X0.7337
N12055 G3 X0.7138 Y0.5251 I0.0007 J-0.0209
N12060 X0.7688 Y0.4575 I0.057 J-0.0097
N12065 G1 X0.799
N12070 X0.805 Y0.4578
N12075 X0.8109 Y0.4591
N12080 X0.8164 Y0.4614
N12085 X0.8216 Y0.4643
N12090 X0.8294 Y0.4719
N12095 X0.835 Y0.4812
N12100 X0.8381 Y0.4915
N12105 X0.8386 Y0.5023
N12110 X0.8365 Y0.5129
N12115 X0.8317 Y0.5226
N12120 X0.8248 Y0.5309
N12125 X0.816 Y0.5372
N12130 X0.8059 Y0.5412
N12135 X0.7952 Y0.5425
N12140 X0.7645
N12145 G3 X0.7446 Y0.5254 I0.0007 J-0.0209
N12150 X0.799 Y0.4575 I0.0564 J-0.0106
N12155 G1 X0.8297
N12160 X0.8357 Y0.4578
N12165 X0.8416 Y0.4591
N12170 X0.8472 Y0.4614
N12175 X0.8524 Y0.4643
N12180 X0.8601 Y0.4719
N12185 X0.8657 Y0.4812
N12190 X0.8688 Y0.4915
N12195 X0.8693 Y0.5023
N12200 X0.8671 Y0.5129
N12205 X0.8624 Y0.5226
N12210 X0.8555 Y0.5309
N12215 X0.8467 Y0.5372
N12220 X0.8366 Y0.5412
N12225 X0.8259 Y0.5425
N12230 X0.7952
N12235 G3 X0.7753 Y0.5254 I0.0007 J-0.0209
N12240 X0.8297 Y0.4575 I0.0564 J-0.0105
N12245 G1 X0.8607
N12250 X0.8666 Y0.4578
N12255 X0.8725 Y0.4592
N12260 X0.878 Y0.4614
N12265 X0.8832 Y0.4644
N12270 X0.8909 Y0.472
N12275 X0.8964 Y0.4813
N12280 X0.8996 Y0.4916
N12285 X0.9 Y0.5024
N12290 X0.8978 Y0.513
N12295 X0.8931 Y0.5227
N12300 X0.8861 Y0.531
N12305 X0.8774 Y0.5372
N12310 X0.8673 Y0.5412
N12315 X0.8566 Y0.5425
N12320 X0.8259
N12325 G3 X0.806 Y0.5253 I0.0007 J-0.0209
N12330 X0.8607 Y0.4575 I0.0567 J-0.0102
N12335 G1 X0.8902
N12340 X0.8962 Y0.4578
N12345 X0.9021 Y0.459
N12350 X0.9077 Y0.4611
N12355 X0.913 Y0.464
N12360 X0.9209 Y0.4715
N12365 X0.9267 Y0.4807
N12370 X0.93 Y0.491
N12375 X0.9306 Y0.5019
N12380 X0.9285 Y0.5126
N12385 X0.9239 Y0.5224
N12390 X0.9169 Y0.5308
N12395 X0.9081 Y0.5371
N12400 X0.898 Y0.5411
N12405 X0.8872 Y0.5425
N12410 G3 X0.8842 Y0.5422 I0.0007 J-0.0212
N12415 X0.8902 Y0.4575 I0.0076 J-0.042
N12420 G1 X0.9212
N12425 X0.9272 Y0.4578
N12430 X0.9331 Y0.459
N12435 X0.9387 Y0.4612
N12440 X0.9439 Y0.4641
N12445 X0.9517 Y0.4717
N12450 X0.9574 Y0.4809
N12455 X0.9606 Y0.4913
N12460 X0.9612 Y0.5021
N12465 X0.9591 Y0.5127
N12470 X0.9544 Y0.5225
N12475 X0.9474 Y0.5308
N12480 X0.9386 Y0.5372
N12485 X0.9285 Y0.5411
N12490 X0.9178 Y0.5425
N12495 G3 X0.9144 Y0.5421 I0.0007 J-0.0212
N12500 X0.9212 Y0.4575 I0.0083 J-0.0419
N12505 G1 X0.9431
N12510 X0.9488 Y0.4581
N12515 X0.9544 Y0.4596
N12520 X0.96 Y0.4621
N12525 X0.963 Y0.464
N12530 X0.9661 Y0.4663
N12535 X0.9689 Y0.4689
N12540 X0.9713 Y0.4715
N12545 X0.9753 Y0.4775
N12550 X0.9779 Y0.4831
N12555 X0.9794 Y0.4888
N12560 X0.98 Y0.4944
N12565 Y0.5
N12570 Y0.5056
N12575 X0.9794 Y0.5112
N12580 X0.9779 Y0.5169
N12585 X0.9753 Y0.5225
N12590 X0.9713 Y0.5285
N12595 X0.9689 Y0.5311
N12600 X0.9661 Y0.5337
N12605 X0.963 Y0.536
N12610 X0.96 Y0.5379
N12615 X0.9544 Y0.5404
N12620 X0.9488 Y0.5419
N12625 X0.9431 Y0.5425
N12630 X0.8566
N12635 X0.8536 Y0.542 Z-0.2685
N12640 X0.8508 Y0.5414 Z-0.2676
N12645 X0.8482 Y0.541 Z-0.2661
N12650 X0.846 Y0.5406 Z-0.2641
N12655 X0.8444 Y0.54 Z-0.2619
N12660 X0.8433 Y0.5395 Z-0.2594
N12665 X0.8426 Y0.5392 Z-0.2568
N12670 X0.8423 Y0.5391 Z-0.2541
N12675 G0 Z0.2
N12680 X7.5074 Y1.2853
N12685 Z-0.2494
N12690 G1 Z-0.2869 F10.
N12695 X7.5076 Y1.2852 Z-0.2914
N12700 X7.5084 Y1.2848 Z-0.2959
N12705 X7.5095 Y1.2841 Z-0.3002
N12710 X7.5111 Y1.2832 Z-0.3043
N12715 X7.5132 Y1.282 Z-0.3082
N12720 X7.5156 Y1.2807 Z-0.3118
N12725 X7.5184 Y1.2791 Z-0.315
N12730 X7.5215 Y1.2774 Z-0.3178
N12735 X7.5249 Y1.2755 Z-0.3201
N12740 X7.5285 Y1.2734 Z-0.322
N12745 X7.5323 Y1.2713 Z-0.3233
N12750 X7.5361 Y1.2691 Z-0.3241
N12755 X7.5401 Y1.2669 Z-0.3244
N12760 G3 X7.7297 Y1.1857 I0.4695 J0.8343
N12765 G1 X7.7762 Y1.1732
N12770 X7.7874 Y1.1701
N12775 X7.8073 Y1.1637
N12780 X7.8099 Y1.1626
N12785 X7.8326 Y1.1524
N12790 X7.8437 Y1.1474
N12795 X7.8774 Y1.1317
N12800 X7.9047 Y1.1187
N12805 X7.9112 Y1.1154
N12810 X7.9146 Y1.1134
N12815 X7.9291 Y1.1056
N12820 X7.9584 Y1.0929
N12825 X7.9973 Y1.0796
N12830 X8.0426 Y1.0682
N12835 X8.0885 Y1.0597
N12840 X8.1348 Y1.0535
N12845 X8.1813 Y1.0489
N12850 X8.2278 Y1.0455
N12855 X8.2745 Y1.043
N12860 X8.3211 Y1.0411
N12865 X8.3327 Y1.0395
N12870 X8.3552 Y1.0334
N12875 X8.3961 Y1.0109
N12880 X8.4288 Y0.9776
N12885 X8.4544 Y0.9385
N12890 X8.4742 Y0.8962
N12895 X8.4893 Y0.852
N12900 X8.5008 Y0.8068
N12905 X8.5095 Y0.7609
N12910 X8.516 Y0.7147
N12915 X8.5209 Y0.6682
N12920 X8.5246 Y0.6217
N12925 X8.5274 Y0.5751
N12930 X8.5295 Y0.5284
N12935 X8.531 Y0.4818
N12940 X8.5322 Y0.4351
N12945 X8.5331 Y0.3884
N12950 X8.5337 Y0.3417
N12955 X8.5342 Y0.295
N12960 X8.5346 Y0.2483
N12965 X8.5348 Y0.2016
N12970 X8.5349 Y0.1783
N12975 X8.5333 Y0.1667
N12980 X8.5269 Y0.1443
N12985 X8.5042 Y0.1035
N12990 X8.4708 Y0.0708
N12995 X8.4317 Y0.0453
N13000 X8.3894 Y0.0256
N13005 X8.3452 Y0.0106
N13010 X8.2999 Y-0.0009
N13015 X8.254 Y-0.0095
N13020 X8.2078 Y-0.0161
N13025 X8.1614 Y-0.021
N13030 X8.1148 Y-0.0247
N13035 X8.0682 Y-0.0274
N13040 X8.0634 Y-0.0277
N13045 X8.0498 Y-0.0293
N13050 X8.0365 Y-0.0329
N13055 X8.024 Y-0.0385
N13060 X8.0124 Y-0.0458
N13065 X8.0051 Y-0.0512
N13070 X7.9787 Y-0.07
N13075 X7.9412 Y-0.0962
N13080 X7.9337 Y-0.1015
N13085 X7.9244 Y-0.1075
N13090 X7.9112 Y-0.1154
N13095 X7.9047 Y-0.1187
N13100 X7.8774 Y-0.1317
N13105 X7.8437 Y-0.1474
N13110 X7.8324 Y-0.1525
N13115 X7.8099 Y-0.1626
N13120 X7.8073 Y-0.1637
N13125 X7.7874 Y-0.1701
N13130 X7.7762 Y-0.1732
N13135 X7.7588 Y-0.1779
N13140 G3 X7.7459 Y-0.1848 I0.011 J-0.0359
N13145 G1 X7.7424 Y-0.1877 Z-0.3241
N13150 X7.7389 Y-0.1905 Z-0.3233
N13155 X7.7356 Y-0.1933 Z-0.322
N13160 X7.7324 Y-0.1959 Z-0.3201
N13165 X7.7294 Y-0.1984 Z-0.3178
N13170 X7.7267 Y-0.2006 Z-0.315
N13175 X7.7242 Y-0.2027 Z-0.3118
N13180 X7.7221 Y-0.2045 Z-0.3082
N13185 X7.7202 Y-0.2059 Z-0.3043
N13190 X7.7188 Y-0.2071 Z-0.3002
N13195 X7.7178 Y-0.208 Z-0.2959
N13200 X7.7171 Y-0.2085 Z-0.2914
N13205 X7.7169 Y-0.2087 Z-0.2869
N13210 G0 Z0.2
N13215 X7.8984 Y1.1622
N13220 Z-0.2494
N13225 G1 Z-0.2869 F10.
N13230 X7.8985 Y1.1619 Z-0.2914
N13235 X7.8987 Y1.1611 Z-0.2959
N13240 X7.8989 Y1.1598 Z-0.3002
N13245 X7.8993 Y1.158 Z-0.3043
N13250 X7.8998 Y1.1557 Z-0.3082
N13255 X7.9004 Y1.1529 Z-0.3118
N13260 X7.9011 Y1.1498 Z-0.315
N13265 X7.9018 Y1.1463 Z-0.3178
N13270 X7.9026 Y1.1425 Z-0.3201
N13275 X7.9035 Y1.1385 Z-0.322
N13280 X7.9044 Y1.1343 Z-0.3233
N13285 X7.9053 Y1.1299 Z-0.3241
N13290 X7.9062 Y1.1255 Z-0.3244
N13295 G3 X7.9146 Y1.1134 I0.0188 J0.004
N13300 G1 X7.9244 Y1.1075
N13305 X7.9337 Y1.1015
N13310 X7.9733 Y1.0737
N13315 X7.9787 Y1.07
N13320 X8.0051 Y1.0512
N13325 X8.0124 Y1.0458
N13330 X8.0194 Y1.04
N13335 X8.0236 Y1.0363
N13340 X8.0429 Y1.0175
N13345 X8.0594 Y1.0025
N13350 X8.0754 Y0.9902
N13355 X8.0953 Y0.9773
N13360 X8.1208 Y0.9636
N13365 X8.1635 Y0.9448
N13370 X8.2037 Y0.921
N13375 X8.2386 Y0.8901
N13380 X8.2681 Y0.8538
N13385 X8.2923 Y0.8139
N13390 X8.312 Y0.7716
N13395 X8.3278 Y0.7277
N13400 X8.3404 Y0.6827
N13405 X8.3504 Y0.6371
N13410 X8.3582 Y0.5911
N13415 X8.3644 Y0.5448
N13420 X8.3692 Y0.4983
N13425 X8.3729 Y0.4518
N13430 X8.3758 Y0.4052
N13435 X8.3781 Y0.3585
N13440 X8.3658 Y0.3135
N13445 X8.341 Y0.274
N13450 X8.3081 Y0.2408
N13455 X8.27 Y0.2138
N13460 X8.2286 Y0.1921
N13465 X8.2238 Y0.1902
N13470 X8.2101 Y0.1834
N13475 X8.1977 Y0.1745
N13480 X8.1869 Y0.1637
N13485 X8.1779 Y0.1513
N13490 X8.1711 Y0.14
N13495 X8.1699 Y0.138
N13500 X8.1639 Y0.1288
N13505 X8.1246 Y0.0725
N13510 X8.1166 Y0.0613
N13515 X8.1136 Y0.0571
N13520 X8.1081 Y0.05
N13525 X8.0911 Y0.0308
N13530 X8.0429 Y-0.0175
N13535 X8.0236 Y-0.0363
N13540 X8.0194 Y-0.04
N13545 X8.0124 Y-0.0458
N13550 G3 X8.0036 Y-0.0575 I0.0249 J-0.028
N13555 G1 X8.0016 Y-0.0615 Z-0.3241
N13560 X7.9997 Y-0.0656 Z-0.3233
N13565 X7.9978 Y-0.0695 Z-0.322
N13570 X7.996 Y-0.0732 Z-0.3201
N13575 X7.9943 Y-0.0767 Z-0.3178
N13580 X7.9927 Y-0.0799 Z-0.315
N13585 X7.9913 Y-0.0827 Z-0.3118
N13590 X7.9901 Y-0.0853 Z-0.3082
N13595 X7.9891 Y-0.0874 Z-0.3043
N13600 X7.9883 Y-0.089 Z-0.3002
N13605 X7.9877 Y-0.0903 Z-0.2959
N13610 X7.9874 Y-0.091 Z-0.2914
N13615 X7.9872 Y-0.0912 Z-0.2869
N13620 G0 Z0.2
N13625 X8.0391 Y1.0687
N13630 Z-0.2494
N13635 G1 Z-0.2869 F10.
N13640 Y1.0685 Z-0.2914
N13645 Y1.0676 Z-0.2959
N13650 Y1.0663 Z-0.3002
N13655 X8.039 Y1.0644 Z-0.3043
N13660 X8.0389 Y1.0621 Z-0.3082
N13665 X8.0388 Y1.0593 Z-0.3118
N13670 X8.0387 Y1.0561 Z-0.315
N13675 X8.0385 Y1.0525 Z-0.3178
N13680 X8.0384 Y1.0487 Z-0.3201
N13685 X8.0383 Y1.0445 Z-0.322
N13690 X8.0381 Y1.0402 Z-0.3233
N13695 X8.0379 Y1.0358 Z-0.3241
N13700 X8.0378 Y1.0313 Z-0.3244
N13705 G3 X8.0429 Y1.0175 I0.0192 J-0.0007
N13710 G1 X8.0911 Y0.9692
N13715 X8.1081 Y0.95
N13720 X8.1136 Y0.9429
N13725 X8.1166 Y0.9387
N13730 X8.1561 Y0.8825
N13735 X8.1639 Y0.8712
N13740 X8.1699 Y0.862
N13745 X8.1711 Y0.86
N13750 X8.1779 Y0.8487
N13755 X8.1837 Y0.8375
N13760 X8.2152 Y0.77
N13765 X8.2199 Y0.7587
N13770 X8.2292 Y0.7362
N13775 X8.2325 Y0.725
N13780 X8.2387 Y0.7025
N13785 X8.2486 Y0.6657
N13790 X8.2567 Y0.635
N13795 X8.2585 Y0.6237
N13800 X8.262 Y0.6012
N13805 X8.2678 Y0.5337
N13810 X8.2692 Y0.5112
N13815 X8.2699 Y0.5
N13820 X8.2685 Y0.4775
N13825 X8.2678 Y0.4663
N13830 X8.262 Y0.3988
N13835 X8.2585 Y0.3763
N13840 X8.2567 Y0.365
N13845 X8.2478 Y0.3313
N13850 X8.2387 Y0.2975
N13855 X8.2325 Y0.275
N13860 X8.2292 Y0.2638
N13865 X8.2199 Y0.2413
N13870 X8.2152 Y0.23
N13875 X8.1837 Y0.1625
N13880 X8.1779 Y0.1513
N13885 G3 X8.1745 Y0.1371 I0.034 J-0.0158
N13890 G1 X8.1743 Y0.1325 Z-0.3241
N13895 X8.1741 Y0.1281 Z-0.3233
N13900 X8.1739 Y0.1238 Z-0.322
N13905 X8.1737 Y0.1197 Z-0.3201
N13910 X8.1736 Y0.1158 Z-0.3178
N13915 X8.1734 Y0.1122 Z-0.315
N13920 X8.1733 Y0.109 Z-0.3118
N13925 X8.1731 Y0.1062 Z-0.3082
N13930 X8.173 Y0.1039 Z-0.3043
N13935 Y0.102 Z-0.3002
N13940 X8.1729 Y0.1007 Z-0.2959
N13945 Y0.0999 Z-0.2914
N13950 Y0.0996 Z-0.2869
N13955 G0 Z0.2
N13960 X0.5517 Y-0.318
N13965 Z-0.2494
N13970 G1 Z-0.2869 F10.
N13975 X0.5515 Y-0.3179 Z-0.2914
N13980 X0.5508 Y-0.3174 Z-0.2959
N13985 X0.5498 Y-0.3165 Z-0.3002
N13990 X0.5483 Y-0.3154 Z-0.3043
N13995 X0.5465 Y-0.3139 Z-0.3082
N14000 X0.5443 Y-0.3122 Z-0.3118
N14005 X0.5417 Y-0.3103 Z-0.315
N14010 X0.5389 Y-0.3081 Z-0.3178
N14015 X0.5359 Y-0.3057 Z-0.3201
N14020 X0.5326 Y-0.3031 Z-0.322
N14025 X0.5292 Y-0.3005 Z-0.3233
N14030 X0.5257 Y-0.2977 Z-0.3241
N14035 X0.5221 Y-0.2949 Z-0.3244
N14040 G3 X0.3469 Y-0.1862 I-0.5895 J-0.7544
N14045 G1 X0.3414 Y-0.1838
N14050 X0.3301 Y-0.1774
N14055 X0.326 Y-0.1749
N14060 X0.3189 Y-0.17
N14065 X0.3105 Y-0.1637
N14070 X0.2964 Y-0.1513
N14075 X0.2904 Y-0.1458
N14080 X0.2783 Y-0.1355
N14085 X0.2634 Y-0.1248
N14090 X0.2442 Y-0.1133
N14095 X0.2195 Y-0.1011
N14100 X0.1872 Y-0.0882
N14105 X0.1426 Y-0.0744
N14110 X0.1021 Y-0.0512
N14115 X0.0698 Y-0.0175
N14120 X0.0445 Y0.0218
N14125 X0.025 Y0.0642
N14130 X0.0101 Y0.1084
N14135 X-0.0012 Y0.1537
N14140 X-0.0098 Y0.1996
N14145 X-0.0163 Y0.2459
N14150 X-0.0212 Y0.2923
N14155 X-0.0248 Y0.3388
N14160 X-0.0275 Y0.3855
N14165 X-0.0296 Y0.4321
N14170 X-0.0311 Y0.4788
N14175 X-0.0323 Y0.5255
N14180 X-0.0331 Y0.5721
N14185 X-0.0337 Y0.6188
N14190 X-0.0342 Y0.6655
N14195 X-0.0346 Y0.7122
N14200 X-0.0348 Y0.7589
N14205 X-0.0351 Y0.8289
N14210 X-0.0295 Y0.8516
N14215 X-0.0082 Y0.8932
N14220 X0.0245 Y0.9265
N14225 X0.0632 Y0.9526
N14230 X0.1053 Y0.9728
N14235 X0.1493 Y0.9882
N14240 X0.1761 Y0.9952
N14245 X0.1901 Y1.0001
N14250 X0.2032 Y1.0074
N14255 X0.2147 Y1.0168
N14260 X0.2246 Y1.0281
N14265 X0.2323 Y1.0408
N14270 X0.2378 Y1.0547
N14275 G3 X-0.1333 Y1.1522 I-0.1856 J0.0488
N14280 X-0.1391 Y1.0893 I0.1856 J-0.0488
N14285 G1 X-0.0367 Y-0.2954
N14290 G3 X0.346 Y-0.2672 I0.1913 J0.0141
N14295 X0.2904 Y-0.1458 I-0.1913 J-0.0141
N14300 G1 X0.2855 Y-0.1412
N14305 X0.2851 Y-0.1408
N14310 X0.2764 Y-0.13
N14315 X0.2677 Y-0.1187
N14320 X0.2626 Y-0.1112
N14325 X0.2538 Y-0.0962
N14330 X0.2514 Y-0.0916
N14335 X0.2484 Y-0.085
N14340 X0.2443 Y-0.0737
N14345 X0.2262 Y-0.0307
N14350 X0.2088 Y0.0127
N14355 X0.1928 Y0.0566
N14360 X0.1788 Y0.1011
N14365 X0.1668 Y0.1462
N14370 X0.1567 Y0.1918
N14375 X0.1483 Y0.2377
N14380 X0.1415 Y0.2839
N14385 X0.1359 Y0.3303
N14390 X0.1314 Y0.3767
N14395 X0.1278 Y0.4233
N14400 X0.1249 Y0.4699
N14405 X0.1226 Y0.5165
N14410 X0.1208 Y0.5632
N14415 X0.1194 Y0.6099
N14420 X0.1209 Y0.6565
N14425 X0.138 Y0.7
N14430 X0.1641 Y0.7387
N14435 X0.1943 Y0.7743
N14440 X0.2067 Y0.7876
N14445 X0.2148 Y0.7979
N14450 X0.2214 Y0.8092
N14455 X0.2261 Y0.8213
N14460 X0.229 Y0.8341
N14465 X0.23 Y0.8471
N14470 Y0.9837
N14475 X0.2301 Y0.995
N14480 X0.2307 Y1.0062
N14485 G3 X0.2281 Y1.0206 I-0.0375 J0.0007
N14490 G1 X0.2264 Y1.0248 Z-0.3241
N14495 X0.2248 Y1.029 Z-0.3233
N14500 X0.2232 Y1.033 Z-0.322
N14505 X0.2217 Y1.0368 Z-0.3201
N14510 X0.2203 Y1.0404 Z-0.3178
N14515 X0.219 Y1.0438 Z-0.315
N14520 X0.2178 Y1.0467 Z-0.3118
N14525 X0.2168 Y1.0493 Z-0.3082
N14530 X0.2159 Y1.0515 Z-0.3043
N14535 X0.2152 Y1.0532 Z-0.3002
N14540 X0.2147 Y1.0545 Z-0.2959
N14545 X0.2144 Y1.0553 Z-0.2914
N14550 X0.2143 Y1.0555 Z-0.2869
N14555 G0 Z0.2
N14560 X0.226 Y-0.1217
N14565 Z-0.2494
N14570 G1 Z-0.2869 F10.
N14575 X0.2261 Y-0.1215 Z-0.2914
N14580 X0.2265 Y-0.1208 Z-0.2959
N14585 X0.2271 Y-0.1196 Z-0.3002
N14590 X0.2279 Y-0.1179 Z-0.3043
N14595 X0.229 Y-0.1158 Z-0.3082
N14600 X0.2303 Y-0.1134 Z-0.3118
N14605 X0.2317 Y-0.1105 Z-0.315
N14610 X0.2334 Y-0.1073 Z-0.3178
N14615 X0.2351 Y-0.1039 Z-0.3201
N14620 X0.237 Y-0.1002 Z-0.322
N14625 X0.239 Y-0.0964 Z-0.3233
N14630 X0.241 Y-0.0924 Z-0.3241
N14635 X0.2431 Y-0.0884 Z-0.3244
N14640 G3 X0.2443 Y-0.0737 I-0.0171 J0.0088
N14645 G1 X0.2402 Y-0.0623
N14650 X0.2368 Y-0.0512
N14655 X0.2323 Y-0.0287
N14660 X0.2312 Y-0.0175
N14665 X0.2301 Y0.005
N14670 X0.23 Y0.0163
N14675 Y0.2413
N14680 X0.2301 Y0.2525
N14685 X0.232 Y0.275
N14690 X0.2336 Y0.2863
N14695 X0.2362 Y0.2975
N14700 X0.2445 Y0.3435
N14705 X0.2518 Y0.3896
N14710 X0.2567 Y0.436
N14715 X0.2602 Y0.4826
N14720 X0.2706 Y0.5281
N14725 X0.279 Y0.5517
N14730 X0.2825 Y0.5649
N14735 X0.2839 Y0.5785
N14740 X0.2833 Y0.5921
N14745 X0.2804 Y0.6055
N14750 X0.2756 Y0.6183
N14755 X0.2688 Y0.6301
N14760 X0.2655 Y0.635
N14765 X0.2586 Y0.6462
N14770 X0.2518 Y0.6575
N14775 X0.2402 Y0.6866
N14780 X0.2388 Y0.6912
N14785 X0.2336 Y0.7137
N14790 X0.232 Y0.725
N14795 X0.2301 Y0.7475
N14800 X0.23 Y0.7587
N14805 Y0.8471
N14810 G3 X0.155 Y0.8453 I-0.0375 J-0.0013
N14815 G1 X0.1625 Y0.3068
N14820 G3 X0.2362 Y0.2975 I0.0375 J0.0005
N14825 G1 X0.2388 Y0.3088
N14830 X0.2402 Y0.3134
N14835 X0.2518 Y0.3425
N14840 X0.2586 Y0.3538
N14845 X0.2655 Y0.365
N14850 X0.2732 Y0.3763
N14855 X0.2822 Y0.3875
N14860 X0.2851 Y0.3906
N14865 X0.2931 Y0.3988
N14870 X0.2964 Y0.402
N14875 X0.3016 Y0.4064
N14880 X0.3146 Y0.4184
N14885 X0.3274 Y0.4324
N14890 X0.3391 Y0.4474
N14895 X0.349 Y0.4625
N14900 X0.3575 Y0.4779
N14905 X0.3619 Y0.4907
N14910 X0.364 Y0.5042
N14915 X0.3637 Y0.5177
N14920 X0.361 Y0.531
N14925 X0.3561 Y0.5437
N14930 X0.3489 Y0.5552
N14935 X0.3399 Y0.5653
N14940 X0.3292 Y0.5737
N14945 X0.3249 Y0.5765
N14950 G3 X0.2692 Y0.5534 I-0.0193 J-0.0322
N14955 G1 X0.2422 Y0.4451
N14960 G3 X0.3016 Y0.4064 I0.0364 J-0.0091
N14965 G1 X0.3076 Y0.4115
N14970 X0.3189 Y0.4197
N14975 X0.3301 Y0.4269
N14980 X0.3388 Y0.4325
N14985 X0.3414 Y0.4339
N14990 X0.3649 Y0.4438
N14995 X0.368 Y0.4449
N15000 X0.3735 Y0.4473
N15005 X0.3787 Y0.4503
N15010 X0.3838 Y0.4538
N15015 X0.3885 Y0.4577
N15020 X0.3969 Y0.4677
N15025 X0.4028 Y0.4794
N15030 X0.406 Y0.4922
N15035 X0.4063 Y0.5053
N15040 X0.4036 Y0.5181
N15045 X0.3982 Y0.5301
N15050 X0.3903 Y0.5405
N15055 X0.3802 Y0.5489
N15060 X0.3685 Y0.5549
N15065 G3 X0.3497 Y0.558 I-0.0191 J-0.0566
N15070 X0.3491 Y0.4419 I-0.0003 J-0.0581
N15075 X0.368 Y0.4449 I0.0003 J0.0581
N15080 G1 X0.3751 Y0.4476
N15085 X0.3976 Y0.4532
N15090 X0.4036 Y0.4542
N15095 X0.4094 Y0.4555
N15100 X0.415 Y0.4578
N15105 X0.4202 Y0.4607
N15110 X0.4284 Y0.4683
N15115 X0.4346 Y0.4776
N15120 X0.4385 Y0.4881
N15125 X0.4398 Y0.4992
N15130 X0.4386 Y0.5103
N15135 X0.4347 Y0.5208
N15140 X0.4286 Y0.5301
N15145 X0.4204 Y0.5378
N15150 X0.4107 Y0.5433
N15155 X0.3999 Y0.5464
N15160 G3 X0.3878 Y0.5459 I-0.0046 J-0.0355
N15165 X0.4036 Y0.4542 I0.0097 J-0.0455
N15170 G1 X0.4084 Y0.455
N15175 X0.4314 Y0.4572
N15180 X0.4332 Y0.4573
N15185 X0.4392 Y0.4577
N15190 X0.445 Y0.4594
N15195 X0.4504 Y0.462
N15200 X0.4587 Y0.469
N15205 X0.4651 Y0.4778
N15210 X0.4691 Y0.4878
N15215 X0.4705 Y0.4986
N15220 X0.4693 Y0.5094
N15225 X0.4654 Y0.5195
N15230 X0.4592 Y0.5284
N15235 X0.451 Y0.5356
N15240 X0.4413 Y0.5405
N15245 X0.4307 Y0.5428
N15250 X0.4084 Y0.545
N15255 X0.3999 Y0.5464
N15260 G3 X0.3752 Y0.5285 I-0.0029 J-0.022
N15265 X0.4332 Y0.4573 I0.059 J-0.0112
N15270 G1 X0.4426 Y0.4574
N15275 X0.4628 Y0.4575
N15280 X0.4688 Y0.4578
N15285 X0.4746 Y0.4594
N15290 X0.4801 Y0.4618
N15295 X0.4888 Y0.4689
N15300 X0.4954 Y0.478
N15305 X0.4995 Y0.4885
N15310 X0.5007 Y0.4997
N15315 X0.4991 Y0.5108
N15320 X0.4947 Y0.5211
N15325 X0.4877 Y0.53
N15330 X0.4788 Y0.5368
N15335 X0.4684 Y0.541
N15340 X0.4572 Y0.5425
N15345 X0.4426 Y0.5426
N15350 X0.4314 Y0.5428
N15355 X0.4307
N15360 G3 X0.4088 Y0.526 I-0.0013 J-0.021
N15365 X0.4628 Y0.4575 I0.0559 J-0.0115
N15370 G1 X0.491
N15375 X0.497 Y0.4578
N15380 X0.5029 Y0.459
N15385 X0.5085 Y0.4611
N15390 X0.5137 Y0.464
N15395 X0.5216 Y0.4715
N15400 X0.5274 Y0.4807
N15405 X0.5307 Y0.4911
N15410 X0.5313 Y0.5019
N15415 X0.5292 Y0.5126
N15420 X0.5246 Y0.5224
N15425 X0.5176 Y0.5308
N15430 X0.5088 Y0.5372
N15435 X0.4987 Y0.5411
N15440 X0.4879 Y0.5425
N15445 X0.4572
N15450 G3 X0.4374 Y0.5258 I0.0007 J-0.021
N15455 X0.491 Y0.4575 I0.0556 J-0.0115
N15460 G1 X0.5213
N15465 X0.5273 Y0.4578
N15470 X0.5332 Y0.4589
N15475 X0.5388 Y0.4611
N15480 X0.5441 Y0.4639
N15485 X0.552 Y0.4714
N15490 X0.5578 Y0.4806
N15495 X0.5612 Y0.491
N15500 X0.5618 Y0.5018
N15505 X0.5598 Y0.5125
N15510 X0.5551 Y0.5224
N15515 X0.5482 Y0.5307
N15520 X0.5393 Y0.5371
N15525 X0.5292 Y0.5411
N15530 X0.5184 Y0.5425
N15535 X0.4879
N15540 G3 X0.4682 Y0.526 I0.0007 J-0.021
N15545 X0.5213 Y0.4575 I0.0552 J-0.0121
N15550 G1 X0.5528
N15555 X0.5588 Y0.4578
N15560 X0.5647 Y0.4591
N15565 X0.5702 Y0.4613
N15570 X0.5754 Y0.4643
N15575 X0.5832 Y0.4719
N15580 X0.5888 Y0.4811
N15585 X0.592 Y0.4915
N15590 X0.5925 Y0.5023
N15595 X0.5903 Y0.5129
N15600 X0.5856 Y0.5226
N15605 X0.5786 Y0.5309
N15610 X0.5698 Y0.5372
N15615 X0.5598 Y0.5412
N15620 X0.549 Y0.5425
N15625 X0.5184
N15630 G3 X0.4986 Y0.5255 I0.0007 J-0.0209
N15635 X0.5528 Y0.4575 I0.0563 J-0.0107
N15640 G1 X0.5838
N15645 X0.5898 Y0.4578
N15650 X0.5956 Y0.4591
N15655 X0.6012 Y0.4614
N15660 X0.6064 Y0.4644
N15665 X0.614 Y0.472
N15670 X0.6196 Y0.4813
N15675 X0.6227 Y0.4916
N15680 X0.6232 Y0.5024
N15685 X0.621 Y0.513
N15690 X0.6163 Y0.5227
N15695 X0.6093 Y0.5309
N15700 X0.6005 Y0.5372
N15705 X0.5905 Y0.5412
N15710 X0.5797 Y0.5425
N15715 X0.549
N15720 G3 X0.5292 Y0.5253 I0.0007 J-0.0209
N15725 X0.5838 Y0.4575 I0.0566 J-0.0103
N15730 G1 X0.6147
N15735 X0.6207 Y0.4578
N15740 X0.6266 Y0.4592
N15745 X0.6321 Y0.4615
N15750 X0.6373 Y0.4645
N15755 X0.6449 Y0.4721
N15760 X0.6504 Y0.4814
N15765 X0.6535 Y0.4917
N15770 X0.6539 Y0.5025
N15775 X0.6517 Y0.5131
N15780 X0.647 Y0.5228
N15785 X0.64 Y0.531
N15790 X0.6312 Y0.5372
N15795 X0.6212 Y0.5412
N15800 X0.6105 Y0.5425
N15805 X0.5797
N15810 G3 X0.5598 Y0.5251 I0.0007 J-0.0209
N15815 X0.6147 Y0.4575 I0.0569 J-0.0099
N15820 G1 X0.6451
N15825 X0.6511 Y0.4578
N15830 X0.6569 Y0.4591
N15835 X0.6625 Y0.4614
N15840 X0.6677 Y0.4643
N15845 X0.6754 Y0.4719
N15850 X0.681 Y0.4812
N15855 X0.6841 Y0.4915
N15860 X0.6846 Y0.5023
N15865 X0.6825 Y0.5129
N15870 X0.6777 Y0.5227
N15875 X0.6708 Y0.5309
N15880 X0.662 Y0.5372
N15885 X0.6519 Y0.5412
N15890 X0.6412 Y0.5425
N15895 X0.6105
N15900 G3 X0.5906 Y0.5254 I0.0007 J-0.0209
N15905 X0.6451 Y0.4575 I0.0565 J-0.0105
N15910 G1 X0.6765
N15915 X0.6825 Y0.4578
N15920 X0.6884 Y0.4593
N15925 X0.6939 Y0.4616
N15930 X0.699 Y0.4647
N15935 X0.7066 Y0.4723
N15940 X0.712 Y0.4816
N15945 X0.715 Y0.4919
N15950 X0.7154 Y0.5027
N15955 X0.7132 Y0.5132
N15960 X0.7084 Y0.5228
N15965 X0.7015 Y0.531
N15970 X0.6927 Y0.5373
N15975 X0.6827 Y0.5412
N15980 X0.672 Y0.5425
N15985 X0.6412
N15990 G3 X0.6212 Y0.5249 I0.0007 J-0.0209
N15995 X0.6765 Y0.4575 I0.0573 J-0.0094
N16000 G1 X0.7075
N16005 X0.7135 Y0.4578
N16010 X0.7193 Y0.4593
N16015 X0.7248 Y0.4616
N16020 X0.73 Y0.4647
N16025 X0.7375 Y0.4724
N16030 X0.7429 Y0.4817
N16035 X0.7459 Y0.492
N16040 X0.7463 Y0.5027
N16045 X0.744 Y0.5132
N16050 X0.7393 Y0.5229
N16055 X0.7323 Y0.5311
N16060 X0.7235 Y0.5373
N16065 X0.7135 Y0.5412
N16070 X0.7028 Y0.5425
N16075 X0.672
N16080 G3 X0.652 Y0.5249 I0.0007 J-0.0209
N16085 X0.7075 Y0.4575 I0.0575 J-0.0092
N16090 G1 X0.7385
N16095 X0.7445 Y0.4578
N16100 X0.7503 Y0.4593
N16105 X0.7558 Y0.4617
N16110 X0.7609 Y0.4648
N16115 X0.7684 Y0.4724
N16120 X0.7738 Y0.4817
N16125 X0.7768 Y0.4921
N16130 X0.7772 Y0.5028
N16135 X0.7749 Y0.5133
N16140 X0.7701 Y0.5229
N16145 X0.7631 Y0.5311
N16150 X0.7544 Y0.5373
N16155 X0.7444 Y0.5412
N16160 X0.7337 Y0.5425
N16165 X0.7028
N16170 G3 X0.6829 Y0.5248 I0.0007 J-0.0209
N16175 X0.7385 Y0.4575 I0.0576 J-0.009
N16180 G1 X0.7688
N16185 X0.7748 Y0.4578
N16190 X0.7806 Y0.4592
N16195 X0.7862 Y0.4615
N16200 X0.7913 Y0.4645
N16205 X0.7989 Y0.4722
N16210 X0.8044 Y0.4815
N16215 X0.8075 Y0.4918
N16220 X0.8079 Y0.5026
N16225 X0.8057 Y0.5131
N16230 X0.801 Y0.5228
N16235 X0.794 Y0.531
N16240 X0.7852 Y0.5373
N16245 X0.7752 Y0.5412
N16250 X0.7645 Y0.5425
N16255 X0.7337
N16260 G3 X0.7138 Y0.5251 I0.0007 J-0.0209
N16265 X0.7688 Y0.4575 I0.057 J-0.0097
N16270 G1 X0.799
N16275 X0.805 Y0.4578
N16280 X0.8109 Y0.4591
N16285 X0.8164 Y0.4614
N16290 X0.8216 Y0.4643
N16295 X0.8294 Y0.4719
N16300 X0.835 Y0.4812
N16305 X0.8381 Y0.4915
N16310 X0.8386 Y0.5023
N16315 X0.8365 Y0.5129
N16320 X0.8317 Y0.5226
N16325 X0.8248 Y0.5309
N16330 X0.816 Y0.5372
N16335 X0.8059 Y0.5412
N16340 X0.7952 Y0.5425
N16345 X0.7645
N16350 G3 X0.7446 Y0.5254 I0.0007 J-0.0209
N16355 X0.799 Y0.4575 I0.0564 J-0.0106
N16360 G1 X0.8297
N16365 X0.8357 Y0.4578
N16370 X0.8416 Y0.4591
N16375 X0.8472 Y0.4614
N16380 X0.8524 Y0.4643
N16385 X0.8601 Y0.4719
N16390 X0.8657 Y0.4812
N16395 X0.8688 Y0.4915
N16400 X0.8693 Y0.5023
N16405 X0.8671 Y0.5129
N16410 X0.8624 Y0.5226
N16415 X0.8555 Y0.5309
N16420 X0.8467 Y0.5372
N16425 X0.8366 Y0.5412
N16430 X0.8259 Y0.5425
N16435 X0.7952
N16440 G3 X0.7753 Y0.5254 I0.0007 J-0.0209
N16445 X0.8297 Y0.4575 I0.0564 J-0.0105
N16450 G1 X0.8607
N16455 X0.8666 Y0.4578
N16460 X0.8725 Y0.4592
N16465 X0.878 Y0.4614
N16470 X0.8832 Y0.4644
N16475 X0.8909 Y0.472
N16480 X0.8964 Y0.4813
N16485 X0.8996 Y0.4916
N16490 X0.9 Y0.5024
N16495 X0.8978 Y0.513
N16500 X0.8931 Y0.5227
N16505 X0.8861 Y0.531
N16510 X0.8774 Y0.5372
N16515 X0.8673 Y0.5412
N16520 X0.8566 Y0.5425
N16525 X0.8259
N16530 G3 X0.806 Y0.5253 I0.0007 J-0.0209
N16535 X0.8607 Y0.4575 I0.0567 J-0.0102
N16540 G1 X0.8902
N16545 X0.8962 Y0.4578
N16550 X0.9021 Y0.459
N16555 X0.9077 Y0.4611
N16560 X0.913 Y0.464
N16565 X0.9209 Y0.4715
N16570 X0.9267 Y0.4807
N16575 X0.93 Y0.491
N16580 X0.9306 Y0.5019
N16585 X0.9285 Y0.5126
N16590 X0.9239 Y0.5224
N16595 X0.9169 Y0.5308
N16600 X0.9081 Y0.5371
N16605 X0.898 Y0.5411
N16610 X0.8872 Y0.5425
N16615 G3 X0.8842 Y0.5422 I0.0007 J-0.0212
N16620 X0.8902 Y0.4575 I0.0076 J-0.042
N16625 G1 X0.9212
N16630 X0.9272 Y0.4578
N16635 X0.9331 Y0.459
N16640 X0.9387 Y0.4612
N16645 X0.9439 Y0.4641
N16650 X0.9517 Y0.4717
N16655 X0.9574 Y0.4809
N16660 X0.9606 Y0.4913
N16665 X0.9612 Y0.5021
N16670 X0.9591 Y0.5127
N16675 X0.9544 Y0.5225
N16680 X0.9474 Y0.5308
N16685 X0.9386 Y0.5372
N16690 X0.9285 Y0.5411
N16695 X0.9178 Y0.5425
N16700 G3 X0.9144 Y0.5421 I0.0007 J-0.0212
N16705 X0.9212 Y0.4575 I0.0083 J-0.0419
N16710 G1 X0.9431
N16715 X0.9488 Y0.4581
N16720 X0.9544 Y0.4596
N16725 X0.96 Y0.4621
N16730 X0.963 Y0.464
N16735 X0.9661 Y0.4663
N16740 X0.9689 Y0.4689
N16745 X0.9713 Y0.4715
N16750 X0.9753 Y0.4775
N16755 X0.9779 Y0.4831
N16760 X0.9794 Y0.4888
N16765 X0.98 Y0.4944
N16770 Y0.5
N16775 Y0.5056
N16780 X0.9794 Y0.5112
N16785 X0.9779 Y0.5169
N16790 X0.9753 Y0.5225
N16795 X0.9713 Y0.5285
N16800 X0.9689 Y0.5311
N16805 X0.9661 Y0.5337
N16810 X0.963 Y0.536
N16815 X0.96 Y0.5379
N16820 X0.9544 Y0.5404
N16825 X0.9488 Y0.5419
N16830 X0.9431 Y0.5425
N16835 X0.8566
N16840 X0.8536 Y0.542 Z-0.3241
N16845 X0.8508 Y0.5414 Z-0.3232
N16850 X0.8482 Y0.541 Z-0.3217
N16855 X0.846 Y0.5406 Z-0.3197
N16860 X0.8444 Y0.54 Z-0.3175
N16865 X0.8433 Y0.5395 Z-0.315
N16870 X0.8426 Y0.5392 Z-0.3124
N16875 X0.8423 Y0.5391 Z-0.3097
N16880 G0 Z0.2
N16885 X7.5074 Y1.2853
N16890 Z-0.305
N16895 G1 Z-0.3425 F10.
N16900 X7.5076 Y1.2852 Z-0.347
N16905 X7.5084 Y1.2848 Z-0.3515
N16910 X7.5095 Y1.2841 Z-0.3558
N16915 X7.5111 Y1.2832 Z-0.3599
N16920 X7.5132 Y1.282 Z-0.3638
N16925 X7.5156 Y1.2807 Z-0.3674
N16930 X7.5184 Y1.2791 Z-0.3706
N16935 X7.5215 Y1.2774 Z-0.3734
N16940 X7.5249 Y1.2755 Z-0.3757
N16945 X7.5285 Y1.2734 Z-0.3776
N16950 X7.5323 Y1.2713 Z-0.3789
N16955 X7.5361 Y1.2691 Z-0.3797
N16960 X7.5401 Y1.2669 Z-0.38
N16965 G3 X7.7297 Y1.1857 I0.4695 J0.8343
N16970 G1 X7.7762 Y1.1732
N16975 X7.7874 Y1.1701
N16980 X7.8073 Y1.1637
N16985 X7.8099 Y1.1626
N16990 X7.8326 Y1.1524
N16995 X7.8437 Y1.1474
N17000 X7.8774 Y1.1317
N17005 X7.9047 Y1.1187
N17010 X7.9112 Y1.1154
N17015 X7.9146 Y1.1134
N17020 X7.9291 Y1.1056
N17025 X7.9584 Y1.0929
N17030 X7.9973 Y1.0796
N17035 X8.0426 Y1.0682
N17040 X8.0885 Y1.0597
N17045 X8.1348 Y1.0535
N17050 X8.1813 Y1.0489
N17055 X8.2278 Y1.0455
N17060 X8.2745 Y1.043
N17065 X8.3211 Y1.0411
N17070 X8.3327 Y1.0395
N17075 X8.3552 Y1.0334
N17080 X8.3961 Y1.0109
N17085 X8.4288 Y0.9776
N17090 X8.4544 Y0.9385
N17095 X8.4742 Y0.8962
N17100 X8.4893 Y0.852
N17105 X8.5008 Y0.8068
N17110 X8.5095 Y0.7609
N17115 X8.516 Y0.7147
N17120 X8.5209 Y0.6682
N17125 X8.5246 Y0.6217
N17130 X8.5274 Y0.5751
N17135 X8.5295 Y0.5284
N17140 X8.531 Y0.4818
N17145 X8.5322 Y0.4351
N17150 X8.5331 Y0.3884
N17155 X8.5337 Y0.3417
N17160 X8.5342 Y0.295
N17165 X8.5346 Y0.2483
N17170 X8.5348 Y0.2016
N17175 X8.5349 Y0.1783
N17180 X8.5333 Y0.1667
N17185 X8.5269 Y0.1443
N17190 X8.5042 Y0.1035
N17195 X8.4708 Y0.0708
N17200 X8.4317 Y0.0453
N17205 X8.3894 Y0.0256
N17210 X8.3452 Y0.0106
N17215 X8.2999 Y-0.0009
N17220 X8.254 Y-0.0095
N17225 X8.2078 Y-0.0161
N17230 X8.1614 Y-0.021
N17235 X8.1148 Y-0.0247
N17240 X8.0682 Y-0.0274
N17245 X8.0634 Y-0.0277
N17250 X8.0498 Y-0.0293
N17255 X8.0365 Y-0.0329
N17260 X8.024 Y-0.0385
N17265 X8.0124 Y-0.0458
N17270 X8.0051 Y-0.0512
N17275 X7.9787 Y-0.07
N17280 X7.9412 Y-0.0962
N17285 X7.9337 Y-0.1015
N17290 X7.9244 Y-0.1075
N17295 X7.9112 Y-0.1154
N17300 X7.9047 Y-0.1187
N17305 X7.8774 Y-0.1317
N17310 X7.8437 Y-0.1474
N17315 X7.8324 Y-0.1525
N17320 X7.8099 Y-0.1626
N17325 X7.8073 Y-0.1637
N17330 X7.7874 Y-0.1701
N17335 X7.7762 Y-0.1732
N17340 X7.7588 Y-0.1779
N17345 G3 X7.7459 Y-0.1848 I0.011 J-0.0359
N17350 G1 X7.7424 Y-0.1877 Z-0.3797
N17355 X7.7389 Y-0.1905 Z-0.3789
N17360 X7.7356 Y-0.1933 Z-0.3776
N17365 X7.7324 Y-0.1959 Z-0.3757
N17370 X7.7294 Y-0.1984 Z-0.3734
N17375 X7.7267 Y-0.2006 Z-0.3706
N17380 X7.7242 Y-0.2027 Z-0.3674
N17385 X7.7221 Y-0.2045 Z-0.3638
N17390 X7.7202 Y-0.2059 Z-0.3599
N17395 X7.7188 Y-0.2071 Z-0.3558
N17400 X7.7178 Y-0.208 Z-0.3515
N17405 X7.7171 Y-0.2085 Z-0.347
N17410 X7.7169 Y-0.2087 Z-0.3425
N17415 G0 Z0.2
N17420 X7.8984 Y1.1622
N17425 Z-0.305
N17430 G1 Z-0.3425 F10.
N17435 X7.8985 Y1.1619 Z-0.347
N17440 X7.8987 Y1.1611 Z-0.3515
N17445 X7.8989 Y1.1598 Z-0.3558
N17450 X7.8993 Y1.158 Z-0.3599
N17455 X7.8998 Y1.1557 Z-0.3638
N17460 X7.9004 Y1.1529 Z-0.3674
N17465 X7.9011 Y1.1498 Z-0.3706
N17470 X7.9018 Y1.1463 Z-0.3734
N17475 X7.9026 Y1.1425 Z-0.3757
N17480 X7.9035 Y1.1385 Z-0.3776
N17485 X7.9044 Y1.1343 Z-0.3789
N17490 X7.9053 Y1.1299 Z-0.3797
N17495 X7.9062 Y1.1255 Z-0.38
N17500 G3 X7.9146 Y1.1134 I0.0188 J0.004
N17505 G1 X7.9244 Y1.1075
N17510 X7.9337 Y1.1015
N17515 X7.9733 Y1.0737
N17520 X7.9787 Y1.07
N17525 X8.0051 Y1.0512
N17530 X8.0124 Y1.0458
N17535 X8.0194 Y1.04
N17540 X8.0236 Y1.0363
N17545 X8.0429 Y1.0175
N17550 X8.0594 Y1.0025
N17555 X8.0754 Y0.9902
N17560 X8.0953 Y0.9773
N17565 X8.1208 Y0.9636
N17570 X8.1635 Y0.9448
N17575 X8.2037 Y0.921
N17580 X8.2386 Y0.8901
N17585 X8.2681 Y0.8538
N17590 X8.2923 Y0.8139
N17595 X8.312 Y0.7716
N17600 X8.3278 Y0.7277
N17605 X8.3404 Y0.6827
N17610 X8.3504 Y0.6371
N17615 X8.3582 Y0.5911
N17620 X8.3644 Y0.5448
N17625 X8.3692 Y0.4983
N17630 X8.3729 Y0.4518
N17635 X8.3758 Y0.4052
N17640 X8.3781 Y0.3585
N17645 X8.3658 Y0.3135
N17650 X8.341 Y0.274
N17655 X8.3081 Y0.2408
N17660 X8.27 Y0.2138
N17665 X8.2286 Y0.1921
N17670 X8.2238 Y0.1902
N17675 X8.2101 Y0.1834
N17680 X8.1977 Y0.1745
N17685 X8.1869 Y0.1637
N17690 X8.1779 Y0.1513
N17695 X8.1711 Y0.14
N17700 X8.1699 Y0.138
N17705 X8.1639 Y0.1288
N17710 X8.1246 Y0.0725
N17715 X8.1166 Y0.0613
N17720 X8.1136 Y0.0571
N17725 X8.1081 Y0.05
N17730 X8.0911 Y0.0308
N17735 X8.0429 Y-0.0175
N17740 X8.0236 Y-0.0363
N17745 X8.0194 Y-0.04
N17750 X8.0124 Y-0.0458
N17755 G3 X8.0036 Y-0.0575 I0.0249 J-0.028
N17760 G1 X8.0016 Y-0.0615 Z-0.3797
N17765 X7.9997 Y-0.0656 Z-0.3789
N17770 X7.9978 Y-0.0695 Z-0.3776
N17775 X7.996 Y-0.0732 Z-0.3757
N17780 X7.9943 Y-0.0767 Z-0.3734
N17785 X7.9927 Y-0.0799 Z-0.3706
N17790 X7.9913 Y-0.0827 Z-0.3674
N17795 X7.9901 Y-0.0853 Z-0.3638
N17800 X7.9891 Y-0.0874 Z-0.3599
N17805 X7.9883 Y-0.089 Z-0.3558
N17810 X7.9877 Y-0.0903 Z-0.3515
N17815 X7.9874 Y-0.091 Z-0.347
N17820 X7.9872 Y-0.0912 Z-0.3425
N17825 G0 Z0.2
N17830 X8.0391 Y1.0687
N17835 Z-0.305
N17840 G1 Z-0.3425 F10.
N17845 Y1.0685 Z-0.347
N17850 Y1.0676 Z-0.3515
N17855 Y1.0663 Z-0.3558
N17860 X8.039 Y1.0644 Z-0.3599
N17865 X8.0389 Y1.0621 Z-0.3638
N17870 X8.0388 Y1.0593 Z-0.3674
N17875 X8.0387 Y1.0561 Z-0.3706
N17880 X8.0385 Y1.0525 Z-0.3734
N17885 X8.0384 Y1.0487 Z-0.3757
N17890 X8.0383 Y1.0445 Z-0.3776
N17895 X8.0381 Y1.0402 Z-0.3789
N17900 X8.0379 Y1.0358 Z-0.3797
N17905 X8.0378 Y1.0313 Z-0.38
N17910 G3 X8.0429 Y1.0175 I0.0192 J-0.0007
N17915 G1 X8.0911 Y0.9692
N17920 X8.1081 Y0.95
N17925 X8.1136 Y0.9429
N17930 X8.1166 Y0.9387
N17935 X8.1561 Y0.8825
N17940 X8.1639 Y0.8712
N17945 X8.1699 Y0.862
N17950 X8.1711 Y0.86
N17955 X8.1779 Y0.8487
N17960 X8.1837 Y0.8375
N17965 X8.2152 Y0.77
N17970 X8.2199 Y0.7587
N17975 X8.2292 Y0.7362
N17980 X8.2325 Y0.725
N17985 X8.2387 Y0.7025
N17990 X8.2486 Y0.6657
N17995 X8.2567 Y0.635
N18000 X8.2585 Y0.6237
N18005 X8.262 Y0.6012
N18010 X8.2678 Y0.5337
N18015 X8.2692 Y0.5112
N18020 X8.2699 Y0.5
N18025 X8.2685 Y0.4775
N18030 X8.2678 Y0.4663
N18035 X8.262 Y0.3988
N18040 X8.2585 Y0.3763
N18045 X8.2567 Y0.365
N18050 X8.2478 Y0.3313
N18055 X8.2387 Y0.2975
N18060 X8.2325 Y0.275
N18065 X8.2292 Y0.2638
N18070 X8.2199 Y0.2413
N18075 X8.2152 Y0.23
N18080 X8.1837 Y0.1625
N18085 X8.1779 Y0.1513
N18090 G3 X8.1745 Y0.1371 I0.034 J-0.0158
N18095 G1 X8.1743 Y0.1325 Z-0.3797
N18100 X8.1741 Y0.1281 Z-0.3789
N18105 X8.1739 Y0.1238 Z-0.3776
N18110 X8.1737 Y0.1197 Z-0.3757
N18115 X8.1736 Y0.1158 Z-0.3734
N18120 X8.1734 Y0.1122 Z-0.3706
N18125 X8.1733 Y0.109 Z-0.3674
N18130 X8.1731 Y0.1062 Z-0.3638
N18135 X8.173 Y0.1039 Z-0.3599
N18140 Y0.102 Z-0.3558
N18145 X8.1729 Y0.1007 Z-0.3515
N18150 Y0.0999 Z-0.347
N18155 Y0.0996 Z-0.3425
N18160 G0 Z0.2
N18165 X0.5517 Y-0.318
N18170 Z-0.305
N18175 G1 Z-0.3425 F10.
N18180 X0.5515 Y-0.3179 Z-0.347
N18185 X0.5508 Y-0.3174 Z-0.3515
N18190 X0.5498 Y-0.3165 Z-0.3558
N18195 X0.5483 Y-0.3154 Z-0.3599
N18200 X0.5465 Y-0.3139 Z-0.3638
N18205 X0.5443 Y-0.3122 Z-0.3674
N18210 X0.5417 Y-0.3103 Z-0.3706
N18215 X0.5389 Y-0.3081 Z-0.3734
N18220 X0.5359 Y-0.3057 Z-0.3757
N18225 X0.5326 Y-0.3031 Z-0.3776
N18230 X0.5292 Y-0.3005 Z-0.3789
N18235 X0.5257 Y-0.2977 Z-0.3797
N18240 X0.5221 Y-0.2949 Z-0.38
N18245 G3 X0.3469 Y-0.1862 I-0.5895 J-0.7544
N18250 G1 X0.3414 Y-0.1838
N18255 X0.3301 Y-0.1774
N18260 X0.326 Y-0.1749
N18265 X0.3189 Y-0.17
N18270 X0.3105 Y-0.1637
N18275 X0.2964 Y-0.1513
N18280 X0.2904 Y-0.1458
N18285 X0.2783 Y-0.1355
N18290 X0.2634 Y-0.1248
N18295 X0.2442 Y-0.1133
N18300 X0.2195 Y-0.1011
N18305 X0.1872 Y-0.0882
N18310 X0.1426 Y-0.0744
N18315 X0.1021 Y-0.0512
N18320 X0.0698 Y-0.0175
N18325 X0.0445 Y0.0218
N18330 X0.025 Y0.0642
N18335 X0.0101 Y0.1084
N18340 X-0.0012 Y0.1537
N18345 X-0.0098 Y0.1996
N18350 X-0.0163 Y0.2459
N18355 X-0.0212 Y0.2923
N18360 X-0.0248 Y0.3388
N18365 X-0.0275 Y0.3855
N18370 X-0.0296 Y0.4321
N18375 X-0.0311 Y0.4788
N18380 X-0.0323 Y0.5255
N18385 X-0.0331 Y0.5721
N18390 X-0.0337 Y0.6188
N18395 X-0.0342 Y0.6655
N18400 X-0.0346 Y0.7122
N18405 X-0.0348 Y0.7589
N18410 X-0.0351 Y0.8289
N18415 X-0.0295 Y0.8516
N18420 X-0.0082 Y0.8932
N18425 X0.0245 Y0.9265
N18430 X0.0632 Y0.9526
N18435 X0.1053 Y0.9728
N18440 X0.1493 Y0.9882
N18445 X0.1761 Y0.9952
N18450 X0.1901 Y1.0001
N18455 X0.2032 Y1.0074
N18460 X0.2147 Y1.0168
N18465 X0.2246 Y1.0281
N18470 X0.2323 Y1.0408
N18475 X0.2378 Y1.0547
N18480 G3 X-0.1333 Y1.1522 I-0.1856 J0.0488
N18485 X-0.1391 Y1.0893 I0.1856 J-0.0488
N18490 G1 X-0.0367 Y-0.2954
N18495 G3 X0.346 Y-0.2672 I0.1913 J0.0141
N18500 X0.2904 Y-0.1458 I-0.1913 J-0.0141
N18505 G1 X0.2855 Y-0.1412
N18510 X0.2851 Y-0.1408
N18515 X0.2764 Y-0.13
N18520 X0.2677 Y-0.1187
N18525 X0.2626 Y-0.1112
N18530 X0.2538 Y-0.0962
N18535 X0.2514 Y-0.0916
N18540 X0.2484 Y-0.085
N18545 X0.2443 Y-0.0737
N18550 X0.2262 Y-0.0307
N18555 X0.2088 Y0.0127
N18560 X0.1928 Y0.0566
N18565 X0.1788 Y0.1011
N18570 X0.1668 Y0.1462
N18575 X0.1567 Y0.1918
N18580 X0.1483 Y0.2377
N18585 X0.1415 Y0.2839
N18590 X0.1359 Y0.3303
N18595 X0.1314 Y0.3767
N18600 X0.1278 Y0.4233
N18605 X0.1249 Y0.4699
N18610 X0.1226 Y0.5165
N18615 X0.1208 Y0.5632
N18620 X0.1194 Y0.6099
N18625 X0.1209 Y0.6565
N18630 X0.138 Y0.7
N18635 X0.1641 Y0.7387
N18640 X0.1943 Y0.7743
N18645 X0.2067 Y0.7876
N18650 X0.2148 Y0.7979
N18655 X0.2214 Y0.8092
N18660 X0.2261 Y0.8213
N18665 X0.229 Y0.8341
N18670 X0.23 Y0.8471
N18675 Y0.9837
N18680 X0.2301 Y0.995
N18685 X0.2307 Y1.0062
N18690 G3 X0.2281 Y1.0206 I-0.0375 J0.0007
N18695 G1 X0.2264 Y1.0248 Z-0.3797
N18700 X0.2248 Y1.029 Z-0.3789
N18705 X0.2232 Y1.033 Z-0.3776
N18710 X0.2217 Y1.0368 Z-0.3757
N18715 X0.2203 Y1.0404 Z-0.3734
N18720 X0.219 Y1.0438 Z-0.3706
N18725 X0.2178 Y1.0467 Z-0.3674
N18730 X0.2168 Y1.0493 Z-0.3638
N18735 X0.2159 Y1.0515 Z-0.3599
N18740 X0.2152 Y1.0532 Z-0.3558
N18745 X0.2147 Y1.0545 Z-0.3515
N18750 X0.2144 Y1.0553 Z-0.347
N18755 X0.2143 Y1.0555 Z-0.3425
N18760 G0 Z0.2
N18765 X0.226 Y-0.1217
N18770 Z-0.305
N18775 G1 Z-0.3425 F10.
N18780 X0.2261 Y-0.1215 Z-0.347
N18785 X0.2265 Y-0.1208 Z-0.3515
N18790 X0.2271 Y-0.1196 Z-0.3558
N18795 X0.2279 Y-0.1179 Z-0.3599
N18800 X0.229 Y-0.1158 Z-0.3638
N18805 X0.2303 Y-0.1134 Z-0.3674
N18810 X0.2317 Y-0.1105 Z-0.3706
N18815 X0.2334 Y-0.1073 Z-0.3734
N18820 X0.2351 Y-0.1039 Z-0.3757
N18825 X0.237 Y-0.1002 Z-0.3776
N18830 X0.239 Y-0.0964 Z-0.3789
N18835 X0.241 Y-0.0924 Z-0.3797
N18840 X0.2431 Y-0.0884 Z-0.38
N18845 G3 X0.2443 Y-0.0737 I-0.0171 J0.0088
N18850 G1 X0.2402 Y-0.0623
N18855 X0.2368 Y-0.0512
N18860 X0.2323 Y-0.0287
N18865 X0.2312 Y-0.0175
N18870 X0.2301 Y0.005
N18875 X0.23 Y0.0163
N18880 Y0.2413
N18885 X0.2301 Y0.2525
N18890 X0.232 Y0.275
N18895 X0.2336 Y0.2863
N18900 X0.2362 Y0.2975
N18905 X0.2445 Y0.3435
N18910 X0.2518 Y0.3896
N18915 X0.2567 Y0.436
N18920 X0.2602 Y0.4826
N18925 X0.2706 Y0.5281
N18930 X0.279 Y0.5517
N18935 X0.2825 Y0.5649
N18940 X0.2839 Y0.5785
N18945 X0.2833 Y0.5921
N18950 X0.2804 Y0.6055
N18955 X0.2756 Y0.6183
N18960 X0.2688 Y0.6301
N18965 X0.2655 Y0.635
N18970 X0.2586 Y0.6462
N18975 X0.2518 Y0.6575
N18980 X0.2402 Y0.6866
N18985 X0.2388 Y0.6912
N18990 X0.2336 Y0.7137
N18995 X0.232 Y0.725
N19000 X0.2301 Y0.7475
N19005 X0.23 Y0.7587
N19010 Y0.8471
N19015 G3 X0.155 Y0.8453 I-0.0375 J-0.0013
N19020 G1 X0.1625 Y0.3068
N19025 G3 X0.2362 Y0.2975 I0.0375 J0.0005
N19030 G1 X0.2388 Y0.3088
N19035 X0.2402 Y0.3134
N19040 X0.2518 Y0.3425
N19045 X0.2586 Y0.3538
N19050 X0.2655 Y0.365
N19055 X0.2732 Y0.3763
N19060 X0.2822 Y0.3875
N19065 X0.2851 Y0.3906
N19070 X0.2931 Y0.3988
N19075 X0.2964 Y0.402
N19080 X0.3016 Y0.4064
N19085 X0.3146 Y0.4184
N19090 X0.3274 Y0.4324
N19095 X0.3391 Y0.4474
N19100 X0.349 Y0.4625
N19105 X0.3575 Y0.4779
N19110 X0.3619 Y0.4907
N19115 X0.364 Y0.5042
N19120 X0.3637 Y0.5177
N19125 X0.361 Y0.531
N19130 X0.3561 Y0.5437
N19135 X0.3489 Y0.5552
N19140 X0.3399 Y0.5653
N19145 X0.3292 Y0.5737
N19150 X0.3249 Y0.5765
N19155 G3 X0.2692 Y0.5534 I-0.0193 J-0.0322
N19160 G1 X0.2422 Y0.4451
N19165 G3 X0.3016 Y0.4064 I0.0364 J-0.0091
N19170 G1 X0.3076 Y0.4115
N19175 X0.3189 Y0.4197
N19180 X0.3301 Y0.4269
N19185 X0.3388 Y0.4325
N19190 X0.3414 Y0.4339
N19195 X0.3649 Y0.4438
N19200 X0.368 Y0.4449
N19205 X0.3735 Y0.4473
N19210 X0.3787 Y0.4503
N19215 X0.3838 Y0.4538
N19220 X0.3885 Y0.4577
N19225 X0.3969 Y0.4677
N19230 X0.4028 Y0.4794
N19235 X0.406 Y0.4922
N19240 X0.4063 Y0.5053
N19245 X0.4036 Y0.5181
N19250 X0.3982 Y0.5301
N19255 X0.3903 Y0.5405
N19260 X0.3802 Y0.5489
N19265 X0.3685 Y0.5549
N19270 G3 X0.3497 Y0.558 I-0.0191 J-0.0566
N19275 X0.3491 Y0.4419 I-0.0003 J-0.0581
N19280 X0.368 Y0.4449 I0.0003 J0.0581
N19285 G1 X0.3751 Y0.4476
N19290 X0.3976 Y0.4532
N19295 X0.4036 Y0.4542
N19300 X0.4094 Y0.4555
N19305 X0.415 Y0.4578
N19310 X0.4202 Y0.4607
N19315 X0.4284 Y0.4683
N19320 X0.4346 Y0.4776
N19325 X0.4385 Y0.4881
N19330 X0.4398 Y0.4992
N19335 X0.4386 Y0.5103
N19340 X0.4347 Y0.5208
N19345 X0.4286 Y0.5301
N19350 X0.4204 Y0.5378
N19355 X0.4107 Y0.5433
N19360 X0.3999 Y0.5464
N19365 G3 X0.3878 Y0.5459 I-0.0046 J-0.0355
N19370 X0.4036 Y0.4542 I0.0097 J-0.0455
N19375 G1 X0.4084 Y0.455
N19380 X0.4314 Y0.4572
N19385 X0.4332 Y0.4573
N19390 X0.4392 Y0.4577
N19395 X0.445 Y0.4594
N19400 X0.4504 Y0.462
N19405 X0.4587 Y0.469
N19410 X0.4651 Y0.4778
N19415 X0.4691 Y0.4878
N19420 X0.4705 Y0.4986
N19425 X0.4693 Y0.5094
N19430 X0.4654 Y0.5195
N19435 X0.4592 Y0.5284
N19440 X0.451 Y0.5356
N19445 X0.4413 Y0.5405
N19450 X0.4307 Y0.5428
N19455 X0.4084 Y0.545
N19460 X0.3999 Y0.5464
N19465 G3 X0.3752 Y0.5285 I-0.0029 J-0.022
N19470 X0.4332 Y0.4573 I0.059 J-0.0112
N19475 G1 X0.4426 Y0.4574
N19480 X0.4628 Y0.4575
N19485 X0.4688 Y0.4578
N19490 X0.4746 Y0.4594
N19495 X0.4801 Y0.4618
N19500 X0.4888 Y0.4689
N19505 X0.4954 Y0.478
N19510 X0.4995 Y0.4885
N19515 X0.5007 Y0.4997
N19520 X0.4991 Y0.5108
N19525 X0.4947 Y0.5211
N19530 X0.4877 Y0.53
N19535 X0.4788 Y0.5368
N19540 X0.4684 Y0.541
N19545 X0.4572 Y0.5425
N19550 X0.4426 Y0.5426
N19555 X0.4314 Y0.5428
N19560 X0.4307
N19565 G3 X0.4088 Y0.526 I-0.0013 J-0.021
N19570 X0.4628 Y0.4575 I0.0559 J-0.0115
N19575 G1 X0.491
N19580 X0.497 Y0.4578
N19585 X0.5029 Y0.459
N19590 X0.5085 Y0.4611
N19595 X0.5137 Y0.464
N19600 X0.5216 Y0.4715
N19605 X0.5274 Y0.4807
N19610 X0.5307 Y0.4911
N19615 X0.5313 Y0.5019
N19620 X0.5292 Y0.5126
N19625 X0.5246 Y0.5224
N19630 X0.5176 Y0.5308
N19635 X0.5088 Y0.5372
N19640 X0.4987 Y0.5411
N19645 X0.4879 Y0.5425
N19650 X0.4572
N19655 G3 X0.4374 Y0.5258 I0.0007 J-0.021
N19660 X0.491 Y0.4575 I0.0556 J-0.0115
N19665 G1 X0.5213
N19670 X0.5273 Y0.4578
N19675 X0.5332 Y0.4589
N19680 X0.5388 Y0.4611
N19685 X0.5441 Y0.4639
N19690 X0.552 Y0.4714
N19695 X0.5578 Y0.4806
N19700 X0.5612 Y0.491
N19705 X0.5618 Y0.5018
N19710 X0.5598 Y0.5125
N19715 X0.5551 Y0.5224
N19720 X0.5482 Y0.5307
N19725 X0.5393 Y0.5371
N19730 X0.5292 Y0.5411
N19735 X0.5184 Y0.5425
N19740 X0.4879
N19745 G3 X0.4682 Y0.526 I0.0007 J-0.021
N19750 X0.5213 Y0.4575 I0.0552 J-0.0121
N19755 G1 X0.5528
N19760 X0.5588 Y0.4578
N19765 X0.5647 Y0.4591
N19770 X0.5702 Y0.4613
N19775 X0.5754 Y0.4643
N19780 X0.5832 Y0.4719
N19785 X0.5888 Y0.4811
N19790 X0.592 Y0.4915
N19795 X0.5925 Y0.5023
N19800 X0.5903 Y0.5129
N19805 X0.5856 Y0.5226
N19810 X0.5786 Y0.5309
N19815 X0.5698 Y0.5372
N19820 X0.5598 Y0.5412
N19825 X0.549 Y0.5425
N19830 X0.5184
N19835 G3 X0.4986 Y0.5255 I0.0007 J-0.0209
N19840 X0.5528 Y0.4575 I0.0563 J-0.0107
N19845 G1 X0.5838
N19850 X0.5898 Y0.4578
N19855 X0.5956 Y0.4591
N19860 X0.6012 Y0.4614
N19865 X0.6064 Y0.4644
N19870 X0.614 Y0.472
N19875 X0.6196 Y0.4813
N19880 X0.6227 Y0.4916
N19885 X0.6232 Y0.5024
N19890 X0.621 Y0.513
N19895 X0.6163 Y0.5227
N19900 X0.6093 Y0.5309
N19905 X0.6005 Y0.5372
N19910 X0.5905 Y0.5412
N19915 X0.5797 Y0.5425
N19920 X0.549
N19925 G3 X0.5292 Y0.5253 I0.0007 J-0.0209
N19930 X0.5838 Y0.4575 I0.0566 J-0.0103
N19935 G1 X0.6147
N19940 X0.6207 Y0.4578
N19945 X0.6266 Y0.4592
N19950 X0.6321 Y0.4615
N19955 X0.6373 Y0.4645
N19960 X0.6449 Y0.4721
N19965 X0.6504 Y0.4814
N19970 X0.6535 Y0.4917
N19975 X0.6539 Y0.5025
N19980 X0.6517 Y0.5131
N19985 X0.647 Y0.5228
N19990 X0.64 Y0.531
N19995 X0.6312 Y0.5372
N20000 X0.6212 Y0.5412
N20005 X0.6105 Y0.5425
N20010 X0.5797
N20015 G3 X0.5598 Y0.5251 I0.0007 J-0.0209
N20020 X0.6147 Y0.4575 I0.0569 J-0.0099
N20025 G1 X0.6451
N20030 X0.6511 Y0.4578
N20035 X0.6569 Y0.4591
N20040 X0.6625 Y0.4614
N20045 X0.6677 Y0.4643
N20050 X0.6754 Y0.4719
N20055 X0.681 Y0.4812
N20060 X0.6841 Y0.4915
N20065 X0.6846 Y0.5023
N20070 X0.6825 Y0.5129
N20075 X0.6777 Y0.5227
N20080 X0.6708 Y0.5309
N20085 X0.662 Y0.5372
N20090 X0.6519 Y0.5412
N20095 X0.6412 Y0.5425
N20100 X0.6105
N20105 G3 X0.5906 Y0.5254 I0.0007 J-0.0209
N20110 X0.6451 Y0.4575 I0.0565 J-0.0105
N20115 G1 X0.6765
N20120 X0.6825 Y0.4578
N20125 X0.6884 Y0.4593
N20130 X0.6939 Y0.4616
N20135 X0.699 Y0.4647
N20140 X0.7066 Y0.4723
N20145 X0.712 Y0.4816
N20150 X0.715 Y0.4919
N20155 X0.7154 Y0.5027
N20160 X0.7132 Y0.5132
N20165 X0.7084 Y0.5228
N20170 X0.7015 Y0.531
N20175 X0.6927 Y0.5373
N20180 X0.6827 Y0.5412
N20185 X0.672 Y0.5425
N20190 X0.6412
N20195 G3 X0.6212 Y0.5249 I0.0007 J-0.0209
N20200 X0.6765 Y0.4575 I0.0573 J-0.0094
N20205 G1 X0.7075
N20210 X0.7135 Y0.4578
N20215 X0.7193 Y0.4593
N20220 X0.7248 Y0.4616
N20225 X0.73 Y0.4647
N20230 X0.7375 Y0.4724
N20235 X0.7429 Y0.4817
N20240 X0.7459 Y0.492
N20245 X0.7463 Y0.5027
N20250 X0.744 Y0.5132
N20255 X0.7393 Y0.5229
N20260 X0.7323 Y0.5311
N20265 X0.7235 Y0.5373
N20270 X0.7135 Y0.5412
N20275 X0.7028 Y0.5425
N20280 X0.672
N20285 G3 X0.652 Y0.5249 I0.0007 J-0.0209
N20290 X0.7075 Y0.4575 I0.0575 J-0.0092
N20295 G1 X0.7385
N20300 X0.7445 Y0.4578
N20305 X0.7503 Y0.4593
