%
(LEVER)
(34 1500 RPM)
(T2  D=0.75 CR=0. - ZMIN=-0.025 - FLAT END MILL)
N10 G90 G94 G17 G91.1
N15 G20
N20 G53 G0 Z0.
(FACE1)
N25 M9
N30 T2 M6
N35 S1500 M3
N40 G54
N45 M8
N55 G0 X8.4735 Y0.1344
N60 G43 Z0.6 H2
N65 G0 Z0.2
N70 G1 Z0.05 F10.
N75 G18 G3 X8.3985 Z-0.025 I-0.075 K0.
N80 G1 X8.0625
N85 X0.4375
N90 G17 G2 Y0.6366 I0. J0.2511
N95 G1 X8.0625
N100 G18 G2 X8.1375 Z0.05 I0. K0.075
N105 G0 Z0.6
N110 G17
N115 M9
N120 G53 G0 Z0.
N125 M30
%
