%
(LEVER)
(34 1500 RPM)
(T2  D=0.75 CR=0. - ZMIN=-0.21 - FLAT END MILL)
N10 G90 G94 G17 G91.1
N15 G20
N20 G53 G0 Z0.
(FACE5)
N25 M9
N30 T2 M6
N35 S1500 M3
N40 G54
N45 M8
N55 G0 X8.623 Y0.1336
N60 G43 Z0.6 H2
N65 G0 Z0.2
N70 G1 Z-0.135 F10.
N75 G18 G3 X8.548 Z-0.21 I-0.075 K0.
N80 G1 X8.2724
N85 X0.1875
N90 G17 G2 Y0.6351 I0. J0.2508
N95 G1 X8.3125
N100 G3 Y1.1366 I0. J0.2507
N105 G1 X8.3123
N110 X0.1875
N115 G18 G3 X0.1125 Z-0.135 I0. K0.075
N120 G0 Z0.6
N125 G17
N130 M9
N135 G53 G0 Z0.
N140 M30
%
