%
(LEVER)
(38 40 MIN 1500 RPM)
(T1  D=0.375 CR=0. - ZMIN=-0.4 - FLAT END MILL)
N10 G90 G94 G17 G91.1
N15 G20
N20 G53 G0 Z0.
(2D ADAPTIVE1)
N25 M9
N30 T1 M6
N35 S1500 M3
N40 G54
N45 M8
N55 G0 X0.544 Y-0.3283
N60 G43 Z0.6 H1
N65 G0 Z0.2
N70 Z-0.0146
N75 G1 Z-0.0521 F10.
N80 X0.5438 Y-0.3281 Z-0.0566
N85 X0.5432 Y-0.3275 Z-0.0611
N90 X0.5421 Y-0.3267 Z-0.0654
N95 X0.5407 Y-0.3254 Z-0.0695
N100 X0.539 Y-0.3239 Z-0.0734
N105 X0.5368 Y-0.3221 Z-0.077
N110 X0.5344 Y-0.32 Z-0.0802
N115 X0.5317 Y-0.3176 Z-0.083
N120 X0.5288 Y-0.3151 Z-0.0853
N125 X0.5257 Y-0.3124 Z-0.0872
N130 X0.5224 Y-0.3096 Z-0.0885
N135 X0.519 Y-0.3067 Z-0.0893
N140 X0.5156 Y-0.3037 Z-0.0896
N145 G3 X0.3461 Y-0.1862 I-0.6268 J-0.7236
N150 G1 X0.342 Y-0.1842
N155 X0.3195 Y-0.1698
N160 X0.3083 Y-0.1622
N165 X0.307 Y-0.1612
N170 X0.297 Y-0.1521
N175 X0.2949 Y-0.15
N180 X0.283 Y-0.1392
N185 X0.2693 Y-0.1289
N190 X0.2519 Y-0.1177
N195 X0.2294 Y-0.1057
N200 X0.2002 Y-0.093
N205 X0.156 Y-0.0779
N210 X0.1131 Y-0.0595
N215 X0.0784 Y-0.0283
N220 X0.0512 Y0.0097
N225 X0.0302 Y0.0514
N230 X0.014 Y0.0952
N235 X0.0018 Y0.1402
N240 X-0.0076 Y0.186
N245 X-0.0146 Y0.2321
N250 X-0.0199 Y0.2785
N255 X-0.0238 Y0.3251
N260 X-0.0268 Y0.3717
N265 X-0.029 Y0.4183
N270 X-0.0307 Y0.465
N275 X-0.032 Y0.5116
N280 X-0.0329 Y0.5583
N285 X-0.0336 Y0.605
N290 X-0.0341 Y0.6517
N295 X-0.0345 Y0.6984
N300 X-0.0348 Y0.7451
N305 X-0.035 Y0.7918
N310 X-0.0352 Y0.8385
N315 X-0.0354 Y0.9318
N320 X-0.0355 Y1.0719
N325 X-0.0356 Y1.3287
N330 X-0.03 Y1.3514
N335 X-0.0089 Y1.393
N340 X0.0238 Y1.4264
N345 X0.0625 Y1.4525
N350 X0.1046 Y1.4727
N355 X0.1487 Y1.4882
N360 X0.1938 Y1.4999
N365 X0.2397 Y1.5088
N370 X0.2859 Y1.5155
N375 X0.3323 Y1.5206
N380 X0.3788 Y1.5244
N385 X0.4254 Y1.5272
N390 X0.4721 Y1.5293
N395 X0.5187 Y1.5309
N400 X0.5654 Y1.5321
N405 X0.6121 Y1.533
N410 X0.6588 Y1.5337
N415 X0.7055 Y1.5342
N420 X0.7522 Y1.5345
N425 X0.7989 Y1.5348
N430 X0.8456 Y1.535
N435 X0.9389 Y1.5353
N440 X1.079 Y1.5355
N445 X1.3125 Y1.5356
N450 X2.2463
N455 X4.2541
N460 X6.2618
N465 X8.2696
N470 X8.3162
N475 X8.3279 Y1.5351
N480 X8.3394 Y1.533
N485 X8.3616 Y1.5259
N490 X8.4013 Y1.5013
N495 X8.4329 Y1.467
N500 X8.4576 Y1.4273
N505 X8.4766 Y1.3847
N510 X8.4911 Y1.3403
N515 X8.5022 Y1.2949
N520 X8.5105 Y1.249
N525 X8.5168 Y1.2027
N530 X8.5215 Y1.1563
N535 X8.5251 Y1.1097
N540 X8.5278 Y1.0631
N545 X8.5297 Y1.0165
N550 X8.5312 Y0.9698
N555 X8.5323 Y0.9231
N560 X8.5332 Y0.8764
N565 X8.5338 Y0.8297
N570 X8.5343 Y0.783
N575 X8.5346 Y0.7364
N580 X8.5349 Y0.6897
N585 X8.5351 Y0.643
N590 X8.5353 Y0.5496
N595 X8.5355 Y0.4095
N600 X8.5356 Y0.1761
N605 X8.5315 Y0.1531
N610 X8.5119 Y0.1107
N615 X8.4801 Y0.0765
N620 X8.4419 Y0.0497
N625 X8.4 Y0.029
N630 X8.3561 Y0.0132
N635 X8.311 Y0.0011
N640 X8.2652 Y-0.0081
N645 X8.219 Y-0.015
N650 X8.1726 Y-0.0202
N655 X8.1261 Y-0.0241
N660 X8.0795 Y-0.027
N665 X8.0619 Y-0.0278
N670 X8.0484 Y-0.0295
N675 X8.0354 Y-0.0332
N680 X8.0231 Y-0.0389
N685 X8.0118 Y-0.0464
N690 X8.0088 Y-0.0487
N695 X8.0005 Y-0.0546
N700 X7.9769 Y-0.0712
N705 X7.9443 Y-0.094
N710 X7.9274 Y-0.105
N715 X7.9099 Y-0.1162
N720 X7.8993 Y-0.1213
N725 X7.8768 Y-0.132
N730 X7.8383 Y-0.15
N735 X7.8318 Y-0.1529
N740 X7.8094 Y-0.1629
N745 X7.7788 Y-0.1725
N750 X7.7756 Y-0.1734
N755 X7.7582 Y-0.1781
N760 G3 X7.7453 Y-0.185 I0.011 J-0.0359
N765 G1 X7.7418 Y-0.1879 Z-0.0893
N770 X7.7384 Y-0.1907 Z-0.0885
N775 X7.735 Y-0.1934 Z-0.0872
N780 X7.7319 Y-0.1961 Z-0.0853
N785 X7.7289 Y-0.1985 Z-0.083
N790 X7.7261 Y-0.2008 Z-0.0802
N795 X7.7236 Y-0.2028 Z-0.077
N800 X7.7215 Y-0.2046 Z-0.0734
N805 X7.7197 Y-0.2061 Z-0.0695
N810 X7.7182 Y-0.2073 Z-0.0654
N815 X7.7172 Y-0.2081 Z-0.0611
N820 X7.7166 Y-0.2087 Z-0.0566
N825 X7.7164 Y-0.2088 Z-0.0521
N830 G0 Z0.2
N835 X0.2989 Y-0.2012
N840 Z-0.0146
N845 G1 Z-0.0521 F10.
N850 Y-0.2009 Z-0.0566
N855 X0.299 Y-0.2001 Z-0.0611
N860 Y-0.1988 Z-0.0654
N865 X0.2991 Y-0.1969 Z-0.0695
N870 Y-0.1946 Z-0.0734
N875 X0.2992 Y-0.1918 Z-0.077
N880 X0.2993 Y-0.1886 Z-0.0802
N885 X0.2994 Y-0.185 Z-0.083
N890 X0.2996 Y-0.1811 Z-0.0853
N895 X0.2997 Y-0.177 Z-0.0872
N900 X0.2998 Y-0.1727 Z-0.0885
N905 X0.3 Y-0.1682 Z-0.0893
N910 X0.3001 Y-0.1637 Z-0.0896
N915 G3 X0.2949 Y-0.15 I-0.0192 J0.0006
N920 G1 X0.2836 Y-0.1387
N925 X0.2745 Y-0.1284
N930 X0.2593 Y-0.105
N935 X0.2524 Y-0.0937
N940 X0.2521 Y-0.093
N945 X0.2476 Y-0.0825
N950 X0.2429 Y-0.0712
N955 X0.2408 Y-0.0652
N960 X0.2255 Y-0.0211
N965 X0.2076 Y0.022
N970 X0.1915 Y0.0659
N975 X0.1775 Y0.1104
N980 X0.1655 Y0.1555
N985 X0.1555 Y0.2011
N990 X0.1473 Y0.2471
N995 X0.1406 Y0.2933
N1000 X0.1352 Y0.3397
N1005 X0.1308 Y0.3862
N1010 X0.1273 Y0.4327
N1015 X0.1245 Y0.4793
N1020 X0.1223 Y0.526
N1025 X0.1206 Y0.5726
N1030 X0.1192 Y0.6193
N1035 X0.1181 Y0.666
N1040 X0.1173 Y0.7127
N1045 X0.1166 Y0.7594
N1050 X0.1161 Y0.8061
N1055 X0.1157 Y0.8527
N1060 X0.1154 Y0.8994
N1065 X0.1152 Y0.9461
N1070 X0.115 Y0.9928
N1075 X0.1147 Y1.0862
N1080 Y1.1329
N1085 X0.1247 Y1.1785
N1090 X0.1478 Y1.219
N1095 X0.1796 Y1.2533
N1100 X0.2169 Y1.2813
N1105 X0.2578 Y1.304
N1110 X0.3008 Y1.322
N1115 X0.3453 Y1.3362
N1120 X0.3906 Y1.3474
N1125 X0.4365 Y1.3561
N1130 X0.4827 Y1.3629
N1135 X0.5291 Y1.3681
N1140 X0.5756 Y1.3722
N1145 X0.6222 Y1.3753
N1150 X0.6688 Y1.3777
N1155 X0.7155 Y1.3796
N1160 X0.7622 Y1.381
N1165 X0.8088 Y1.3821
N1170 X0.8555 Y1.3829
N1175 X0.9022 Y1.3836
N1180 X0.9489 Y1.3841
N1185 X0.9956 Y1.3844
N1190 X1.0423 Y1.3847
N1195 X1.089 Y1.3849
N1200 X1.1824 Y1.3852
N1205 X1.2757 Y1.3854
N1210 X1.4158 Y1.3855
N1215 X1.7427 Y1.3856
N1220 X2.8166
N1225 X4.8243
N1230 X6.8321
N1235 X8.1394
N1240 X8.1845 Y1.3733
N1245 X8.2241 Y1.3487
N1250 X8.2574 Y1.3159
N1255 X8.2847 Y1.278
N1260 X8.3066 Y1.2368
N1265 X8.3241 Y1.1935
N1270 X8.3379 Y1.1489
N1275 X8.3487 Y1.1035
N1280 X8.3571 Y1.0575
N1285 X8.3636 Y1.0113
N1290 X8.3687 Y0.9649
N1295 X8.3726 Y0.9184
N1300 X8.3757 Y0.8718
N1305 X8.378 Y0.8252
N1310 X8.3798 Y0.7785
N1315 X8.3812 Y0.7318
N1320 X8.3822 Y0.6851
N1325 X8.383 Y0.6385
N1330 X8.3836 Y0.5918
N1335 X8.3841 Y0.5451
N1340 X8.3845 Y0.4984
N1345 X8.3847 Y0.4517
N1350 X8.385 Y0.405
N1355 X8.3851 Y0.3583
N1360 X8.3723 Y0.3134
N1365 X8.3473 Y0.274
N1370 X8.3143 Y0.241
N1375 X8.2761 Y0.214
N1380 X8.2348 Y0.1923
N1385 X8.2197 Y0.1863
N1390 X8.2071 Y0.1801
N1395 X8.1956 Y0.172
N1400 X8.1856 Y0.1621
N1405 X8.1774 Y0.1507
N1410 X8.1723 Y0.1425
N1415 X8.1577 Y0.12
N1420 X8.1499 Y0.1088
N1425 X8.1342 Y0.0863
N1430 X8.113 Y0.0563
N1435 X8.1103 Y0.0525
N1440 X8.1018 Y0.0425
N1445 X8.1007 Y0.0413
N1450 X8.0903 Y0.03
N1455 X8.0679 Y0.0075
N1460 X8.0454 Y-0.015
N1465 X8.0341 Y-0.0262
N1470 X8.023 Y-0.0367
N1475 X8.0118 Y-0.0464
N1480 G3 X8.0032 Y-0.0582 I0.0254 J-0.0276
N1485 G1 X8.0013 Y-0.0623 Z-0.0893
N1490 X7.9994 Y-0.0663 Z-0.0885
N1495 X7.9976 Y-0.0702 Z-0.0872
N1500 X7.9958 Y-0.074 Z-0.0853
N1505 X7.9942 Y-0.0775 Z-0.083
N1510 X7.9927 Y-0.0807 Z-0.0802
N1515 X7.9913 Y-0.0836 Z-0.077
N1520 X7.9902 Y-0.0862 Z-0.0734
N1525 X7.9892 Y-0.0883 Z-0.0695
N1530 X7.9884 Y-0.09 Z-0.0654
N1535 X7.9878 Y-0.0912 Z-0.0611
N1540 X7.9875 Y-0.092 Z-0.0566
N1545 X7.9874 Y-0.0922 Z-0.0521
N1550 G0 Z0.2
N1555 X0.2182 Y-0.1114
N1560 Z-0.0146
N1565 G1 Z-0.0521 F10.
N1570 X0.2184 Y-0.1112 Z-0.0566
N1575 X0.2188 Y-0.1105 Z-0.0611
N1580 X0.2196 Y-0.1093 Z-0.0654
N1585 X0.2205 Y-0.1078 Z-0.0695
N1590 X0.2218 Y-0.1058 Z-0.0734
N1595 X0.2233 Y-0.1034 Z-0.077
N1600 X0.225 Y-0.1007 Z-0.0802
N1605 X0.2269 Y-0.0977 Z-0.083
N1610 X0.229 Y-0.0944 Z-0.0853
N1615 X0.2312 Y-0.091 Z-0.0872
N1620 X0.2335 Y-0.0873 Z-0.0885
N1625 X0.2359 Y-0.0835 Z-0.0893
N1630 X0.2383 Y-0.0797 Z-0.0896
N1635 G3 X0.2408 Y-0.0652 I-0.0162 J0.0103
N1640 G1 X0.2365 Y-0.0487
N1645 X0.2335 Y-0.0375
N1650 X0.231 Y-0.015
N1655 X0.2301 Y-0.0037
N1660 X0.23 Y0.03
N1665 Y0.2325
N1670 X0.2302 Y0.2438
N1675 X0.2309 Y0.2663
N1680 X0.2324 Y0.2775
N1685 X0.2343 Y0.2888
N1690 X0.2363 Y0.3
N1695 X0.2369 Y0.3019
N1700 X0.2408 Y0.3161
N1705 X0.2494 Y0.3619
N1710 X0.2552 Y0.4083
N1715 X0.2591 Y0.4548
N1720 X0.2616 Y0.5014
N1725 X0.2632 Y0.5481
N1730 X0.2642 Y0.5948
N1735 X0.2644 Y0.6111
N1740 X0.2633 Y0.6257
N1745 X0.2598 Y0.64
N1750 X0.2539 Y0.6536
N1755 X0.2521 Y0.6571
N1760 X0.2506 Y0.66
N1765 X0.2457 Y0.6713
N1770 X0.2419 Y0.6825
N1775 X0.2351 Y0.705
N1780 X0.2317 Y0.7275
N1785 X0.2305 Y0.7388
N1790 X0.2301 Y0.7612
N1795 X0.23 Y0.7725
N1800 Y0.975
N1805 X0.2301 Y0.9862
N1810 X0.2304 Y1.0087
N1815 X0.2315 Y1.02
N1820 X0.2345 Y1.0425
N1825 X0.241 Y1.065
N1830 X0.2447 Y1.0762
N1835 X0.2496 Y1.0875
N1840 X0.2521 Y1.093
N1845 X0.2551 Y1.0987
N1850 X0.2618 Y1.11
N1855 X0.2633 Y1.1124
N1860 X0.2693 Y1.1212
N1865 X0.2778 Y1.1325
N1870 X0.2858 Y1.1412
N1875 X0.2882 Y1.1437
N1880 X0.297 Y1.1525
N1885 X0.3083 Y1.1623
N1890 X0.3139 Y1.1662
N1895 X0.342 Y1.1841
N1900 X0.3533 Y1.1894
N1905 X0.3645 Y1.1941
N1910 X0.3758 Y1.1977
N1915 X0.3982 Y1.2034
N1920 X0.4095 Y1.2051
N1925 X0.432 Y1.2074
N1930 X0.4339
N1935 X0.4805 Y1.2099
N1940 X0.527 Y1.2143
N1945 X0.5735 Y1.2181
N1950 X0.6201 Y1.2213
N1955 X0.6667 Y1.224
N1960 X0.7133 Y1.2262
N1965 X0.76 Y1.2281
N1970 X0.8067 Y1.2296
N1975 X0.8533 Y1.2308
N1980 X0.9 Y1.2318
N1985 X0.9467 Y1.2326
N1990 X0.9934 Y1.2332
N1995 X1.0401 Y1.2337
N2000 X1.0868 Y1.2341
N2005 X1.1335 Y1.2344
N2010 X1.1802 Y1.2347
N2015 X1.2268 Y1.2349
N2020 X1.3202 Y1.2352
N2025 X1.4603 Y1.2354
N2030 X1.6471 Y1.2355
N2035 X2.0673 Y1.2356
N2040 X2.4408
N2045 X4.4486
N2050 X6.4563
N2055 X7.9505
N2060 X7.9967 Y1.2294
N2065 X8.0395 Y1.2108
N2070 X8.0768 Y1.1827
N2075 X8.1083 Y1.1482
N2080 X8.1342 Y1.1093
N2085 X8.1553 Y1.0677
N2090 X8.1722 Y1.0242
N2095 X8.1858 Y0.9795
N2100 X8.1965 Y0.934
N2105 X8.205 Y0.8881
N2110 X8.2118 Y0.8419
N2115 X8.217 Y0.7955
N2120 X8.219 Y0.7731
N2125 X8.22 Y0.7653
N2130 X8.2217 Y0.7576
N2135 X8.2239 Y0.75
N2140 X8.2316 Y0.7275
N2145 X8.2351 Y0.7163
N2150 X8.2501 Y0.66
N2155 X8.253 Y0.6488
N2160 X8.2592 Y0.6221
N2165 X8.2602 Y0.615
N2170 X8.2626 Y0.5925
N2175 X8.2637 Y0.5813
N2180 X8.2686 Y0.525
N2185 X8.2692 Y0.5138
N2190 X8.2695 Y0.4913
N2195 X8.269 Y0.48
N2200 X8.2661 Y0.4463
N2205 X8.2641 Y0.4238
N2210 X8.2631 Y0.4125
N2215 X8.2609 Y0.39
N2220 X8.2591 Y0.3788
N2225 X8.2543 Y0.3563
N2230 X8.2515 Y0.345
N2235 X8.2364 Y0.2888
N2240 X8.2331 Y0.2775
N2245 X8.2255 Y0.2536
N2250 X8.2213 Y0.2438
N2255 X8.2142 Y0.2281
N2260 X8.2111 Y0.2213
N2265 X8.1953 Y0.1875
N2270 X8.19 Y0.1763
N2275 X8.1792 Y0.1538
N2280 X8.1774 Y0.1507
N2285 G3 X8.1728 Y0.1368 I0.0326 J-0.0185
N2290 G1 X8.1722 Y0.1324 Z-0.0893
N2295 X8.1717 Y0.1279 Z-0.0885
N2300 X8.1712 Y0.1236 Z-0.0872
N2305 X8.1707 Y0.1195 Z-0.0853
N2310 X8.1702 Y0.1157 Z-0.083
N2315 X8.1698 Y0.1122 Z-0.0802
N2320 X8.1694 Y0.109 Z-0.077
N2325 X8.169 Y0.1062 Z-0.0734
N2330 X8.1687 Y0.1039 Z-0.0695
N2335 X8.1685 Y0.102 Z-0.0654
N2340 X8.1683 Y0.1007 Z-0.0611
N2345 X8.1682 Y0.0999 Z-0.0566
N2350 Y0.0996 Z-0.0521
N2355 G0 Z0.2
N2360 X0.3948 Y1.2409
N2365 Z-0.0146
N2370 G1 Z-0.0521 F10.
N2375 X0.395 Y1.2407 Z-0.0566
N2380 X0.3956 Y1.2401 Z-0.0611
N2385 X0.3965 Y1.2391 Z-0.0654
N2390 X0.3978 Y1.2377 Z-0.0695
N2395 X0.3994 Y1.236 Z-0.0734
N2400 X0.4013 Y1.234 Z-0.077
N2405 X0.4035 Y1.2316 Z-0.0802
N2410 X0.4059 Y1.229 Z-0.083
N2415 X0.4085 Y1.2262 Z-0.0853
N2420 X0.4114 Y1.2232 Z-0.0872
N2425 X0.4143 Y1.22 Z-0.0885
N2430 X0.4174 Y1.2168 Z-0.0893
N2435 X0.4204 Y1.2135 Z-0.0896
N2440 G3 X0.4339 Y1.2074 I0.014 J0.0131
N2445 G1 X0.4657 Y1.2075
N2450 X7.5395
N2455 X7.5732 Y1.2072
N2460 X7.6069 Y1.2044
N2465 X7.6407 Y1.2015
N2470 X7.6744 Y1.1983
N2475 X7.6856 Y1.1961
N2480 X7.7081 Y1.1915
N2485 X7.7756 Y1.1734
N2490 X7.7869 Y1.1699
N2495 X7.8094 Y1.1629
N2500 X7.8206 Y1.1581
N2505 X7.8275 Y1.155
N2510 X7.8881 Y1.1267
N2515 X7.8997 Y1.1212
N2520 X7.9106 Y1.1158
N2525 X7.9371 Y1.0987
N2530 X7.9443 Y1.094
N2535 X8.0005 Y1.0546
N2540 X8.0118 Y1.0463
N2545 X8.0343 Y1.0258
N2550 X8.0404 Y1.02
N2555 X8.0793 Y0.9811
N2560 X8.1018 Y0.9576
N2565 X8.1063 Y0.9525
N2570 X8.113 Y0.9437
N2575 X8.1307 Y0.9187
N2580 X8.1467 Y0.8958
N2585 X8.1542 Y0.885
N2590 X8.1693 Y0.8625
N2595 X8.1766 Y0.8512
N2600 X8.1805 Y0.8437
N2605 X8.1917 Y0.8202
N2610 X8.2142 Y0.772
N2615 X8.2192 Y0.7612
N2620 X8.2239 Y0.75
N2625 G3 X8.2325 Y0.7382 I0.034 J0.0158
N2630 G1 X8.2358 Y0.7351 Z-0.0893
N2635 X8.2391 Y0.7321 Z-0.0885
N2640 X8.2423 Y0.7292 Z-0.0872
N2645 X8.2453 Y0.7264 Z-0.0853
N2650 X8.2482 Y0.7238 Z-0.083
N2655 X8.2508 Y0.7213 Z-0.0802
N2660 X8.2532 Y0.7192 Z-0.077
N2665 X8.2552 Y0.7173 Z-0.0734
N2670 X8.257 Y0.7157 Z-0.0695
N2675 X8.2583 Y0.7144 Z-0.0654
N2680 X8.2593 Y0.7135 Z-0.0611
N2685 X8.2599 Y0.713 Z-0.0566
N2690 X8.2601 Y0.7128 Z-0.0521
N2695 G0 Z0.2
N2700 X0.1928 Y0.2754
N2705 Z-0.0146
N2710 G1 Z-0.0521 F10.
N2715 X0.1931 Y0.2755 Z-0.0566
N2720 X0.1938 Y0.2758 Z-0.0611
N2725 X0.195 Y0.2764 Z-0.0654
N2730 X0.1967 Y0.2772 Z-0.0695
N2735 X0.1989 Y0.2782 Z-0.0734
N2740 X0.2014 Y0.2793 Z-0.077
N2745 X0.2043 Y0.2807 Z-0.0802
N2750 X0.2075 Y0.2822 Z-0.083
N2755 X0.2111 Y0.2838 Z-0.0853
N2760 X0.2148 Y0.2855 Z-0.0872
N2765 X0.2187 Y0.2873 Z-0.0885
N2770 X0.2228 Y0.2892 Z-0.0893
N2775 X0.2269 Y0.2911 Z-0.0896
N2780 G3 X0.2369 Y0.3019 I-0.008 J0.0174
N2785 G1 X0.2437 Y0.3225
N2790 X0.2478 Y0.3338
N2795 X0.2521 Y0.3428
N2800 X0.2595 Y0.3563
N2805 X0.2633 Y0.3621
N2810 X0.2757 Y0.3788
N2815 X0.2845 Y0.39
N2820 X0.2957 Y0.4013
N2825 X0.3091 Y0.4162
N2830 X0.32 Y0.4305
N2835 X0.3318 Y0.4487
N2840 X0.3435 Y0.4706
N2845 X0.349 Y0.4832
N2850 X0.3534 Y0.4963
N2855 X0.3554 Y0.5099
N2860 X0.355 Y0.5237
N2865 X0.3522 Y0.5372
N2870 X0.347 Y0.5499
N2875 X0.3397 Y0.5616
N2880 X0.3304 Y0.5718
N2885 X0.3195 Y0.5802
N2890 G3 X0.2641 Y0.5572 I-0.0191 J-0.0323
N2895 G1 X0.2337 Y0.4379
N2900 G3 X0.2957 Y0.4013 I0.0363 J-0.0093
N2905 G1 X0.297 Y0.4026
N2910 X0.3087 Y0.4125
N2915 X0.3195 Y0.4204
N2920 X0.3308 Y0.4273
N2925 X0.342 Y0.434
N2930 X0.3595 Y0.4415
N2935 X0.3657 Y0.4445
N2940 X0.3709 Y0.4476
N2945 X0.3766 Y0.4517
N2950 X0.3819 Y0.4561
N2955 X0.387 Y0.4611
N2960 X0.3921 Y0.467
N2965 X0.3931 Y0.4682
N2970 X0.3991 Y0.4785
N2975 X0.4028 Y0.4899
N2980 X0.4041 Y0.5017
N2985 X0.4029 Y0.5136
N2990 X0.3992 Y0.525
N2995 X0.3932 Y0.5353
N3000 X0.3852 Y0.5441
N3005 X0.3755 Y0.5511
N3010 X0.3645 Y0.5559
N3015 X0.3581 Y0.5588
N3020 G3 X0.3099 Y0.5575 I-0.0226 J-0.0558
N3025 X0.3595 Y0.4415 I0.0268 J-0.0571
N3030 G1 X0.3706 Y0.4463
N3035 X0.3758 Y0.448
N3040 X0.387 Y0.4509
N3045 X0.3982 Y0.4536
N3050 X0.4001 Y0.4538
N3055 X0.406 Y0.4549
N3060 X0.4116 Y0.4571
N3065 X0.4169 Y0.4599
N3070 X0.4218 Y0.4633
N3075 X0.4223 Y0.4636
N3080 X0.4303 Y0.4725
N3085 X0.4359 Y0.4832
N3090 X0.4387 Y0.4949
N3095 X0.4383 Y0.507
N3100 X0.435 Y0.5185
N3105 X0.4288 Y0.5289
N3110 X0.4203 Y0.5373
N3115 X0.4098 Y0.5433
N3120 X0.3982 Y0.5466
N3125 X0.3758 Y0.5523
N3130 X0.3645 Y0.5559
N3135 G3 X0.3312 Y0.5375 I-0.0073 J-0.0262
N3140 X0.4001 Y0.4538 I0.0626 J-0.0187
N3145 G1 X0.4095 Y0.4551
N3150 X0.432 Y0.4574
N3155 X0.438 Y0.458
N3160 X0.4437 Y0.4597
N3165 X0.4533 Y0.4658
N3170 X0.461 Y0.4741
N3175 X0.4662 Y0.4842
N3180 X0.4687 Y0.4953
N3185 X0.4683 Y0.5066
N3190 X0.465 Y0.5175
N3195 X0.459 Y0.5271
N3200 X0.4507 Y0.5349
N3205 X0.4407 Y0.5402
N3210 X0.4296 Y0.5429
N3215 X0.4095 Y0.5449
N3220 X0.3982 Y0.5466
N3225 G3 X0.3742 Y0.5284 I-0.0024 J-0.0219
N3230 X0.432 Y0.4574 I0.0597 J-0.0104
N3235 G1 X0.4607 Y0.4575
N3240 X0.4667 Y0.4578
N3245 X0.4725 Y0.4593
N3250 X0.478 Y0.4616
N3255 X0.4869 Y0.4686
N3260 X0.4936 Y0.4776
N3265 X0.4979 Y0.4881
N3270 X0.4993 Y0.4993
N3275 X0.4977 Y0.5105
N3280 X0.4934 Y0.5209
N3285 X0.4865 Y0.5298
N3290 X0.4775 Y0.5367
N3295 X0.4671 Y0.541
N3300 X0.4559 Y0.5425
N3305 X0.432 Y0.5426
N3310 X0.4296 Y0.5429
N3315 G3 X0.4077 Y0.5267 I-0.0014 J-0.021
N3320 X0.4607 Y0.4575 I0.0548 J-0.0129
N3325 G1 X0.4901
N3330 X0.4961 Y0.4578
N3335 X0.5019 Y0.4591
N3340 X0.5075 Y0.4613
N3345 X0.5127 Y0.4643
N3350 X0.5205 Y0.4718
N3355 X0.5262 Y0.4811
N3360 X0.5294 Y0.4914
N3365 X0.5299 Y0.5022
N3370 X0.5278 Y0.5128
N3375 X0.5231 Y0.5226
N3380 X0.5162 Y0.5309
N3385 X0.5074 Y0.5372
N3390 X0.4973 Y0.5412
N3395 X0.4866 Y0.5425
N3400 X0.4579
N3405 X0.4559
N3410 G3 X0.436 Y0.5256 I0.0007 J-0.021
N3415 X0.4901 Y0.4575 I0.0561 J-0.011
N3420 G1 X0.522
N3425 X0.5279 Y0.4578
N3430 X0.5338 Y0.4593
N3435 X0.5393 Y0.4616
N3440 X0.5444 Y0.4647
N3445 X0.552 Y0.4724
N3450 X0.5574 Y0.4817
N3455 X0.5604 Y0.492
N3460 X0.5608 Y0.5027
N3465 X0.5585 Y0.5132
N3470 X0.5538 Y0.5229
N3475 X0.5468 Y0.5311
N3480 X0.538 Y0.5373
N3485 X0.528 Y0.5412
N3490 X0.5173 Y0.5425
N3495 X0.4866
N3500 G3 X0.4666 Y0.5249 I0.0007 J-0.0209
N3505 X0.522 Y0.4575 I0.0573 J-0.0094
N3510 G1 X0.5522
N3515 X0.5582 Y0.4578
N3520 X0.564 Y0.4592
N3525 X0.5695 Y0.4614
N3530 X0.5747 Y0.4644
N3535 X0.5824 Y0.4721
N3540 X0.588 Y0.4813
N3545 X0.5911 Y0.4916
N3550 X0.5915 Y0.5024
N3555 X0.5893 Y0.513
N3560 X0.5846 Y0.5227
N3565 X0.5776 Y0.531
N3570 X0.5689 Y0.5372
N3575 X0.5588 Y0.5412
N3580 X0.5481 Y0.5425
N3585 X0.5173
N3590 G3 X0.4974 Y0.5252 I0.0007 J-0.0209
N3595 X0.5522 Y0.4575 I0.0567 J-0.0102
N3600 G1 X0.5816
N3605 X0.5876 Y0.4578
N3610 X0.5935 Y0.4589
N3615 X0.5991 Y0.461
N3620 X0.6044 Y0.4639
N3625 X0.6123 Y0.4714
N3630 X0.6181 Y0.4806
N3635 X0.6214 Y0.4909
N3640 X0.6221 Y0.5018
N3645 X0.62 Y0.5125
N3650 X0.6154 Y0.5224
N3655 X0.6084 Y0.5307
N3660 X0.5996 Y0.5371
N3665 X0.5895 Y0.5411
N3670 X0.5787 Y0.5425
N3675 X0.5481
N3680 G3 X0.5283 Y0.526 I0.0007 J-0.021
N3685 X0.5816 Y0.4575 I0.0552 J-0.012
N3690 G1 X0.6119
N3695 X0.6179 Y0.4578
N3700 X0.6238 Y0.4589
N3705 X0.6294 Y0.461
N3710 X0.6347 Y0.4638
N3715 X0.6427 Y0.4713
N3720 X0.6485 Y0.4805
N3725 X0.6519 Y0.4909
N3730 X0.6526 Y0.5017
N3735 X0.6505 Y0.5124
N3740 X0.6459 Y0.5223
N3745 X0.6389 Y0.5307
N3750 X0.6301 Y0.5371
N3755 X0.62 Y0.5411
N3760 X0.6092 Y0.5425
N3765 X0.5787
N3770 G3 X0.559 Y0.5262 I0.0007 J-0.021
N3775 X0.6119 Y0.4575 I0.0549 J-0.0124
N3780 G1 X0.6434
N3785 X0.6494 Y0.4578
N3790 X0.6552 Y0.4591
N3795 X0.6608 Y0.4613
N3800 X0.666 Y0.4642
N3805 X0.6738 Y0.4718
N3810 X0.6795 Y0.481
N3815 X0.6827 Y0.4914
N3820 X0.6832 Y0.5022
N3825 X0.6811 Y0.5128
N3830 X0.6764 Y0.5226
N3835 X0.6694 Y0.5309
N3840 X0.6606 Y0.5372
N3845 X0.6505 Y0.5412
N3850 X0.6398 Y0.5425
N3855 X0.6092
N3860 G3 X0.5893 Y0.5256 I0.0007 J-0.021
N3865 X0.6434 Y0.4575 I0.056 J-0.011
N3870 G1 X0.6743
N3875 X0.6803 Y0.4578
N3880 X0.6862 Y0.4591
N3885 X0.6917 Y0.4614
N3890 X0.697 Y0.4644
N3895 X0.7046 Y0.4719
N3900 X0.7102 Y0.4812
N3905 X0.7134 Y0.4915
N3910 X0.7139 Y0.5023
N3915 X0.7117 Y0.5129
N3920 X0.707 Y0.5227
N3925 X0.7 Y0.5309
N3930 X0.6912 Y0.5372
N3935 X0.6812 Y0.5412
N3940 X0.6704 Y0.5425
N3945 X0.6398
N3950 G3 X0.6199 Y0.5254 I0.0007 J-0.0209
N3955 X0.6743 Y0.4575 I0.0564 J-0.0105
N3960 G1 X0.7053
N3965 X0.7113 Y0.4578
N3970 X0.7171 Y0.4592
N3975 X0.7227 Y0.4615
N3980 X0.7279 Y0.4645
N3985 X0.7355 Y0.4721
N3990 X0.741 Y0.4813
N3995 X0.7441 Y0.4917
N4000 X0.7446 Y0.5025
N4005 X0.7424 Y0.513
N4010 X0.7377 Y0.5227
N4015 X0.7307 Y0.531
N4020 X0.7219 Y0.5372
N4025 X0.7119 Y0.5412
N4030 X0.7012 Y0.5425
N4035 X0.6704
N4040 G3 X0.6505 Y0.5252 I0.0007 J-0.0209
N4045 X0.7053 Y0.4575 I0.0568 J-0.0101
N4050 G1 X0.7356
N4055 X0.7416 Y0.4578
N4060 X0.7475 Y0.4591
N4065 X0.753 Y0.4613
N4070 X0.7583 Y0.4643
N4075 X0.766 Y0.4719
N4080 X0.7716 Y0.4811
N4085 X0.7748 Y0.4915
N4090 X0.7753 Y0.5023
N4095 X0.7731 Y0.5129
N4100 X0.7684 Y0.5226
N4105 X0.7614 Y0.5309
N4110 X0.7527 Y0.5372
N4115 X0.7426 Y0.5412
N4120 X0.7318 Y0.5425
N4125 X0.7012
N4130 G3 X0.6813 Y0.5254 I0.0007 J-0.0209
N4135 X0.7356 Y0.4575 I0.0563 J-0.0107
N4140 G1 X0.7671
N4145 X0.7731 Y0.4578
N4150 X0.7789 Y0.4592
N4155 X0.7844 Y0.4616
N4160 X0.7896 Y0.4646
N4165 X0.7972 Y0.4723
N4170 X0.8026 Y0.4816
N4175 X0.8057 Y0.4919
N4180 X0.8061 Y0.5026
N4185 X0.8038 Y0.5132
N4190 X0.7991 Y0.5228
N4195 X0.7921 Y0.531
N4200 X0.7833 Y0.5373
N4205 X0.7733 Y0.5412
N4210 X0.7626 Y0.5425
N4215 X0.7318
N4220 G3 X0.7119 Y0.525 I0.0007 J-0.0209
N4225 X0.7671 Y0.4575 I0.0572 J-0.0095
N4230 G1 X0.798
N4235 X0.804 Y0.4578
N4240 X0.8099 Y0.4593
N4245 X0.8154 Y0.4616
N4250 X0.8205 Y0.4647
N4255 X0.8281 Y0.4723
N4260 X0.8335 Y0.4816
N4265 X0.8365 Y0.492
N4270 X0.8369 Y0.5027
N4275 X0.8346 Y0.5132
N4280 X0.8299 Y0.5229
N4285 X0.8229 Y0.531
N4290 X0.8141 Y0.5373
N4295 X0.8041 Y0.5412
N4300 X0.7935 Y0.5425
N4305 X0.7626
N4310 G3 X0.7427 Y0.5249 I0.0007 J-0.0209
N4315 X0.798 Y0.4575 I0.0574 J-0.0093
N4320 G1 X0.829
N4325 X0.835 Y0.4578
N4330 X0.8408 Y0.4593
N4335 X0.8463 Y0.4617
N4340 X0.8515 Y0.4647
N4345 X0.859 Y0.4724
N4350 X0.8644 Y0.4817
N4355 X0.8674 Y0.492
N4360 X0.8678 Y0.5028
N4365 X0.8655 Y0.5133
N4370 X0.8607 Y0.5229
N4375 X0.8537 Y0.5311
N4380 X0.845 Y0.5373
N4385 X0.835 Y0.5412
N4390 X0.8243 Y0.5425
N4395 X0.7935
N4400 G3 X0.7735 Y0.5248 I0.0007 J-0.0209
N4405 X0.829 Y0.4575 I0.0575 J-0.0091
N4410 G1 X0.8593
N4415 X0.8653 Y0.4578
N4420 X0.8712 Y0.4592
N4425 X0.8767 Y0.4615
N4430 X0.8819 Y0.4645
N4435 X0.8895 Y0.4721
N4440 X0.895 Y0.4814
N4445 X0.8981 Y0.4918
N4450 X0.8985 Y0.5025
N4455 X0.8963 Y0.5131
N4460 X0.8916 Y0.5228
N4465 X0.8846 Y0.531
N4470 X0.8758 Y0.5372
N4475 X0.8658 Y0.5412
N4480 X0.8551 Y0.5425
N4485 G3 X0.8509 Y0.5419 I0.0007 J-0.0212
N4490 X0.8593 Y0.4575 I0.0099 J-0.0416
N4495 G1 X0.8895
N4500 X0.8955 Y0.4578
N4505 X0.9014 Y0.4591
N4510 X0.907 Y0.4613
N4515 X0.9122 Y0.4643
N4520 X0.9199 Y0.4719
N4525 X0.9255 Y0.4811
N4530 X0.9287 Y0.4915
N4535 X0.9292 Y0.5023
N4540 X0.927 Y0.5129
N4545 X0.9223 Y0.5226
N4550 X0.9154 Y0.5309
N4555 X0.9066 Y0.5372
N4560 X0.8965 Y0.5412
N4565 X0.8858 Y0.5425
N4570 G3 X0.8821 Y0.542 I0.0007 J-0.0212
N4575 X0.8895 Y0.4575 I0.009 J-0.0418
N4580 G1 X0.9213
N4585 X0.9273 Y0.4578
N4590 X0.9331 Y0.4593
N4595 X0.9387 Y0.4617
N4600 X0.9438 Y0.4648
N4605 X0.9513 Y0.4724
N4610 X0.9567 Y0.4817
N4615 X0.9597 Y0.492
N4620 X0.9601 Y0.5028
N4625 X0.9578 Y0.5133
N4630 X0.953 Y0.5229
N4635 X0.9461 Y0.5311
N4640 X0.9373 Y0.5373
N4645 X0.9273 Y0.5412
N4650 X0.9166 Y0.5425
N4655 G3 X0.912 Y0.5418 I0.0007 J-0.0212
N4660 X0.9213 Y0.4575 I0.0108 J-0.0415
N4665 G1 X0.943
N4670 X0.9493 Y0.4582
N4675 X0.9549 Y0.4598
N4680 X0.9605 Y0.4624
N4685 X0.9646 Y0.4651
N4690 X0.9688 Y0.4688
N4695 X0.9718 Y0.4722
N4700 X0.9745 Y0.4761
N4705 X0.9766 Y0.48
N4710 X0.9786 Y0.4856
N4715 X0.9797 Y0.4913
N4720 X0.98 Y0.5025
N4725 X0.9798 Y0.5081
N4730 X0.9788 Y0.5138
N4735 X0.9769 Y0.5194
N4740 X0.9738 Y0.525
N4745 X0.9718 Y0.5278
N4750 X0.9672 Y0.5327
N4755 X0.9627 Y0.5363
N4760 X0.9605 Y0.5376
N4765 X0.9549 Y0.5402
N4770 X0.9493 Y0.5418
N4775 X0.9437 Y0.5425
N4780 X0.9381
N4785 X0.8243
N4790 X0.8213 Y0.542 Z-0.0893
N4795 X0.8185 Y0.5414 Z-0.0884
N4800 X0.8159 Y0.541 Z-0.0869
N4805 X0.8137 Y0.5406 Z-0.0848
N4810 X0.8121 Y0.54 Z-0.0827
N4815 X0.811 Y0.5395 Z-0.0802
N4820 X0.8103 Y0.5392 Z-0.0776
N4825 X0.8101 Y0.5391 Z-0.0749
N4830 G0 Z0.2
N4835 X0.544 Y-0.3283
N4840 Z-0.1042
N4845 G1 Z-0.1417 F10.
N4850 X0.5438 Y-0.3281 Z-0.1462
N4855 X0.5432 Y-0.3275 Z-0.1507
N4860 X0.5421 Y-0.3267 Z-0.155
N4865 X0.5407 Y-0.3254 Z-0.1591
N4870 X0.539 Y-0.3239 Z-0.163
N4875 X0.5368 Y-0.3221 Z-0.1666
N4880 X0.5344 Y-0.32 Z-0.1698
N4885 X0.5317 Y-0.3176 Z-0.1726
N4890 X0.5288 Y-0.3151 Z-0.1749
N4895 X0.5257 Y-0.3124 Z-0.1768
N4900 X0.5224 Y-0.3096 Z-0.1781
N4905 X0.519 Y-0.3067 Z-0.1789
N4910 X0.5156 Y-0.3037 Z-0.1792
N4915 G3 X0.3461 Y-0.1862 I-0.6268 J-0.7236
N4920 G1 X0.342 Y-0.1842
N4925 X0.3195 Y-0.1698
N4930 X0.3083 Y-0.1622
N4935 X0.307 Y-0.1612
N4940 X0.297 Y-0.1521
N4945 X0.2949 Y-0.15
N4950 X0.283 Y-0.1392
N4955 X0.2693 Y-0.1289
N4960 X0.2519 Y-0.1177
N4965 X0.2294 Y-0.1057
N4970 X0.2002 Y-0.093
N4975 X0.156 Y-0.0779
N4980 X0.1131 Y-0.0595
N4985 X0.0784 Y-0.0283
N4990 X0.0512 Y0.0097
N4995 X0.0302 Y0.0514
N5000 X0.014 Y0.0952
N5005 X0.0018 Y0.1402
N5010 X-0.0076 Y0.186
N5015 X-0.0146 Y0.2321
N5020 X-0.0199 Y0.2785
N5025 X-0.0238 Y0.3251
N5030 X-0.0268 Y0.3717
N5035 X-0.029 Y0.4183
N5040 X-0.0307 Y0.465
N5045 X-0.032 Y0.5116
N5050 X-0.0329 Y0.5583
N5055 X-0.0336 Y0.605
N5060 X-0.0341 Y0.6517
N5065 X-0.0345 Y0.6984
N5070 X-0.0348 Y0.7451
N5075 X-0.035 Y0.7918
N5080 X-0.0352 Y0.8385
N5085 X-0.0354 Y0.9318
N5090 X-0.0355 Y1.0719
N5095 X-0.0356 Y1.3287
N5100 X-0.03 Y1.3514
N5105 X-0.0089 Y1.393
N5110 X0.0238 Y1.4264
N5115 X0.0625 Y1.4525
N5120 X0.1046 Y1.4727
N5125 X0.1487 Y1.4882
N5130 X0.1938 Y1.4999
N5135 X0.2397 Y1.5088
N5140 X0.2859 Y1.5155
N5145 X0.3323 Y1.5206
N5150 X0.3788 Y1.5244
N5155 X0.4254 Y1.5272
N5160 X0.4721 Y1.5293
N5165 X0.5187 Y1.5309
N5170 X0.5654 Y1.5321
N5175 X0.6121 Y1.533
N5180 X0.6588 Y1.5337
N5185 X0.7055 Y1.5342
N5190 X0.7522 Y1.5345
N5195 X0.7989 Y1.5348
N5200 X0.8456 Y1.535
N5205 X0.9389 Y1.5353
N5210 X1.079 Y1.5355
N5215 X1.3125 Y1.5356
N5220 X2.2463
N5225 X4.2541
N5230 X6.2618
N5235 X8.2696
N5240 X8.3162
N5245 X8.3279 Y1.5351
N5250 X8.3394 Y1.533
N5255 X8.3616 Y1.5259
N5260 X8.4013 Y1.5013
N5265 X8.4329 Y1.467
N5270 X8.4576 Y1.4273
N5275 X8.4766 Y1.3847
N5280 X8.4911 Y1.3403
N5285 X8.5022 Y1.2949
N5290 X8.5105 Y1.249
N5295 X8.5168 Y1.2027
N5300 X8.5215 Y1.1563
N5305 X8.5251 Y1.1097
N5310 X8.5278 Y1.0631
N5315 X8.5297 Y1.0165
N5320 X8.5312 Y0.9698
N5325 X8.5323 Y0.9231
N5330 X8.5332 Y0.8764
N5335 X8.5338 Y0.8297
N5340 X8.5343 Y0.783
N5345 X8.5346 Y0.7364
N5350 X8.5349 Y0.6897
N5355 X8.5351 Y0.643
N5360 X8.5353 Y0.5496
N5365 X8.5355 Y0.4095
N5370 X8.5356 Y0.1761
N5375 X8.5315 Y0.1531
N5380 X8.5119 Y0.1107
N5385 X8.4801 Y0.0765
N5390 X8.4419 Y0.0497
N5395 X8.4 Y0.029
N5400 X8.3561 Y0.0132
N5405 X8.311 Y0.0011
N5410 X8.2652 Y-0.0081
N5415 X8.219 Y-0.015
N5420 X8.1726 Y-0.0202
N5425 X8.1261 Y-0.0241
N5430 X8.0795 Y-0.027
N5435 X8.0619 Y-0.0278
N5440 X8.0484 Y-0.0295
N5445 X8.0354 Y-0.0332
N5450 X8.0231 Y-0.0389
N5455 X8.0118 Y-0.0464
N5460 X8.0088 Y-0.0487
N5465 X8.0005 Y-0.0546
N5470 X7.9769 Y-0.0712
N5475 X7.9443 Y-0.094
N5480 X7.9274 Y-0.105
N5485 X7.9099 Y-0.1162
N5490 X7.8993 Y-0.1213
N5495 X7.8768 Y-0.132
N5500 X7.8383 Y-0.15
N5505 X7.8318 Y-0.1529
N5510 X7.8094 Y-0.1629
N5515 X7.7788 Y-0.1725
N5520 X7.7756 Y-0.1734
N5525 X7.7582 Y-0.1781
N5530 G3 X7.7453 Y-0.185 I0.011 J-0.0359
N5535 G1 X7.7418 Y-0.1879 Z-0.1789
N5540 X7.7384 Y-0.1907 Z-0.1781
N5545 X7.735 Y-0.1934 Z-0.1768
N5550 X7.7319 Y-0.1961 Z-0.1749
N5555 X7.7289 Y-0.1985 Z-0.1726
N5560 X7.7261 Y-0.2008 Z-0.1698
N5565 X7.7236 Y-0.2028 Z-0.1666
N5570 X7.7215 Y-0.2046 Z-0.163
N5575 X7.7197 Y-0.2061 Z-0.1591
N5580 X7.7182 Y-0.2073 Z-0.155
N5585 X7.7172 Y-0.2081 Z-0.1507
N5590 X7.7166 Y-0.2087 Z-0.1462
N5595 X7.7164 Y-0.2088 Z-0.1417
N5600 G0 Z0.2
N5605 X0.2989 Y-0.2012
N5610 Z-0.1042
N5615 G1 Z-0.1417 F10.
N5620 Y-0.2009 Z-0.1462
N5625 X0.299 Y-0.2001 Z-0.1507
N5630 Y-0.1988 Z-0.155
N5635 X0.2991 Y-0.1969 Z-0.1591
N5640 Y-0.1946 Z-0.163
N5645 X0.2992 Y-0.1918 Z-0.1666
N5650 X0.2993 Y-0.1886 Z-0.1698
N5655 X0.2994 Y-0.185 Z-0.1726
N5660 X0.2996 Y-0.1811 Z-0.1749
N5665 X0.2997 Y-0.177 Z-0.1768
N5670 X0.2998 Y-0.1727 Z-0.1781
N5675 X0.3 Y-0.1682 Z-0.1789
N5680 X0.3001 Y-0.1637 Z-0.1792
N5685 G3 X0.2949 Y-0.15 I-0.0192 J0.0006
N5690 G1 X0.2836 Y-0.1387
N5695 X0.2745 Y-0.1284
N5700 X0.2593 Y-0.105
N5705 X0.2524 Y-0.0937
N5710 X0.2521 Y-0.093
N5715 X0.2476 Y-0.0825
N5720 X0.2429 Y-0.0712
N5725 X0.2408 Y-0.0652
N5730 X0.2255 Y-0.0211
N5735 X0.2076 Y0.022
N5740 X0.1915 Y0.0659
N5745 X0.1775 Y0.1104
N5750 X0.1655 Y0.1555
N5755 X0.1555 Y0.2011
N5760 X0.1473 Y0.2471
N5765 X0.1406 Y0.2933
N5770 X0.1352 Y0.3397
N5775 X0.1308 Y0.3862
N5780 X0.1273 Y0.4327
N5785 X0.1245 Y0.4793
N5790 X0.1223 Y0.526
N5795 X0.1206 Y0.5726
N5800 X0.1192 Y0.6193
N5805 X0.1181 Y0.666
N5810 X0.1173 Y0.7127
N5815 X0.1166 Y0.7594
N5820 X0.1161 Y0.8061
N5825 X0.1157 Y0.8527
N5830 X0.1154 Y0.8994
N5835 X0.1152 Y0.9461
N5840 X0.115 Y0.9928
N5845 X0.1147 Y1.0862
N5850 Y1.1329
N5855 X0.1247 Y1.1785
N5860 X0.1478 Y1.219
N5865 X0.1796 Y1.2533
N5870 X0.2169 Y1.2813
N5875 X0.2578 Y1.304
N5880 X0.3008 Y1.322
N5885 X0.3453 Y1.3362
N5890 X0.3906 Y1.3474
N5895 X0.4365 Y1.3561
N5900 X0.4827 Y1.3629
N5905 X0.5291 Y1.3681
N5910 X0.5756 Y1.3722
N5915 X0.6222 Y1.3753
N5920 X0.6688 Y1.3777
N5925 X0.7155 Y1.3796
N5930 X0.7622 Y1.381
N5935 X0.8088 Y1.3821
N5940 X0.8555 Y1.3829
N5945 X0.9022 Y1.3836
N5950 X0.9489 Y1.3841
N5955 X0.9956 Y1.3844
N5960 X1.0423 Y1.3847
N5965 X1.089 Y1.3849
N5970 X1.1824 Y1.3852
N5975 X1.2757 Y1.3854
N5980 X1.4158 Y1.3855
N5985 X1.7427 Y1.3856
N5990 X2.8166
N5995 X4.8243
N6000 X6.8321
N6005 X8.1394
N6010 X8.1845 Y1.3733
N6015 X8.2241 Y1.3487
N6020 X8.2574 Y1.3159
N6025 X8.2847 Y1.278
N6030 X8.3066 Y1.2368
N6035 X8.3241 Y1.1935
N6040 X8.3379 Y1.1489
N6045 X8.3487 Y1.1035
N6050 X8.3571 Y1.0575
N6055 X8.3636 Y1.0113
N6060 X8.3687 Y0.9649
N6065 X8.3726 Y0.9184
N6070 X8.3757 Y0.8718
N6075 X8.378 Y0.8252
N6080 X8.3798 Y0.7785
N6085 X8.3812 Y0.7318
N6090 X8.3822 Y0.6851
N6095 X8.383 Y0.6385
N6100 X8.3836 Y0.5918
N6105 X8.3841 Y0.5451
N6110 X8.3845 Y0.4984
N6115 X8.3847 Y0.4517
N6120 X8.385 Y0.405
N6125 X8.3851 Y0.3583
N6130 X8.3723 Y0.3134
N6135 X8.3473 Y0.274
N6140 X8.3143 Y0.241
N6145 X8.2761 Y0.214
N6150 X8.2348 Y0.1923
N6155 X8.2197 Y0.1863
N6160 X8.2071 Y0.1801
N6165 X8.1956 Y0.172
N6170 X8.1856 Y0.1621
N6175 X8.1774 Y0.1507
N6180 X8.1723 Y0.1425
N6185 X8.1577 Y0.12
N6190 X8.1499 Y0.1088
N6195 X8.1342 Y0.0863
N6200 X8.113 Y0.0563
N6205 X8.1103 Y0.0525
N6210 X8.1018 Y0.0425
N6215 X8.1007 Y0.0413
N6220 X8.0903 Y0.03
N6225 X8.0679 Y0.0075
N6230 X8.0454 Y-0.015
N6235 X8.0341 Y-0.0262
N6240 X8.023 Y-0.0367
N6245 X8.0118 Y-0.0464
N6250 G3 X8.0032 Y-0.0582 I0.0254 J-0.0276
N6255 G1 X8.0013 Y-0.0623 Z-0.1789
N6260 X7.9994 Y-0.0663 Z-0.1781
N6265 X7.9976 Y-0.0702 Z-0.1768
N6270 X7.9958 Y-0.074 Z-0.1749
N6275 X7.9942 Y-0.0775 Z-0.1726
N6280 X7.9927 Y-0.0807 Z-0.1698
N6285 X7.9913 Y-0.0836 Z-0.1666
N6290 X7.9902 Y-0.0862 Z-0.163
N6295 X7.9892 Y-0.0883 Z-0.1591
N6300 X7.9884 Y-0.09 Z-0.155
N6305 X7.9878 Y-0.0912 Z-0.1507
N6310 X7.9875 Y-0.092 Z-0.1462
N6315 X7.9874 Y-0.0922 Z-0.1417
N6320 G0 Z0.2
N6325 X0.2182 Y-0.1114
N6330 Z-0.1042
N6335 G1 Z-0.1417 F10.
N6340 X0.2184 Y-0.1112 Z-0.1462
N6345 X0.2188 Y-0.1105 Z-0.1507
N6350 X0.2196 Y-0.1093 Z-0.155
N6355 X0.2205 Y-0.1078 Z-0.1591
N6360 X0.2218 Y-0.1058 Z-0.163
N6365 X0.2233 Y-0.1034 Z-0.1666
N6370 X0.225 Y-0.1007 Z-0.1698
N6375 X0.2269 Y-0.0977 Z-0.1726
N6380 X0.229 Y-0.0944 Z-0.1749
N6385 X0.2312 Y-0.091 Z-0.1768
N6390 X0.2335 Y-0.0873 Z-0.1781
N6395 X0.2359 Y-0.0835 Z-0.1789
N6400 X0.2383 Y-0.0797 Z-0.1792
N6405 G3 X0.2408 Y-0.0652 I-0.0162 J0.0103
N6410 G1 X0.2365 Y-0.0487
N6415 X0.2335 Y-0.0375
N6420 X0.231 Y-0.015
N6425 X0.2301 Y-0.0037
N6430 X0.23 Y0.03
N6435 Y0.2325
N6440 X0.2302 Y0.2438
N6445 X0.2309 Y0.2663
N6450 X0.2324 Y0.2775
N6455 X0.2343 Y0.2888
N6460 X0.2363 Y0.3
N6465 X0.2369 Y0.3019
N6470 X0.2408 Y0.3161
N6475 X0.2494 Y0.3619
N6480 X0.2552 Y0.4083
N6485 X0.2591 Y0.4548
N6490 X0.2616 Y0.5014
N6495 X0.2632 Y0.5481
N6500 X0.2642 Y0.5948
N6505 X0.2644 Y0.6111
N6510 X0.2633 Y0.6257
N6515 X0.2598 Y0.64
N6520 X0.2539 Y0.6536
N6525 X0.2521 Y0.6571
N6530 X0.2506 Y0.66
N6535 X0.2457 Y0.6713
N6540 X0.2419 Y0.6825
N6545 X0.2351 Y0.705
N6550 X0.2317 Y0.7275
N6555 X0.2305 Y0.7388
N6560 X0.2301 Y0.7612
N6565 X0.23 Y0.7725
N6570 Y0.975
N6575 X0.2301 Y0.9862
N6580 X0.2304 Y1.0087
N6585 X0.2315 Y1.02
N6590 X0.2345 Y1.0425
N6595 X0.241 Y1.065
N6600 X0.2447 Y1.0762
N6605 X0.2496 Y1.0875
N6610 X0.2521 Y1.093
N6615 X0.2551 Y1.0987
N6620 X0.2618 Y1.11
N6625 X0.2633 Y1.1124
N6630 X0.2693 Y1.1212
N6635 X0.2778 Y1.1325
N6640 X0.2858 Y1.1412
N6645 X0.2882 Y1.1437
N6650 X0.297 Y1.1525
N6655 X0.3083 Y1.1623
N6660 X0.3139 Y1.1662
N6665 X0.342 Y1.1841
N6670 X0.3533 Y1.1894
N6675 X0.3645 Y1.1941
N6680 X0.3758 Y1.1977
N6685 X0.3982 Y1.2034
N6690 X0.4095 Y1.2051
N6695 X0.432 Y1.2074
N6700 X0.4339
N6705 X0.4805 Y1.2099
N6710 X0.527 Y1.2143
N6715 X0.5735 Y1.2181
N6720 X0.6201 Y1.2213
N6725 X0.6667 Y1.224
N6730 X0.7133 Y1.2262
N6735 X0.76 Y1.2281
N6740 X0.8067 Y1.2296
N6745 X0.8533 Y1.2308
N6750 X0.9 Y1.2318
N6755 X0.9467 Y1.2326
N6760 X0.9934 Y1.2332
N6765 X1.0401 Y1.2337
N6770 X1.0868 Y1.2341
N6775 X1.1335 Y1.2344
N6780 X1.1802 Y1.2347
N6785 X1.2268 Y1.2349
N6790 X1.3202 Y1.2352
N6795 X1.4603 Y1.2354
N6800 X1.6471 Y1.2355
N6805 X2.0673 Y1.2356
N6810 X2.4408
N6815 X4.4486
N6820 X6.4563
N6825 X7.9505
N6830 X7.9967 Y1.2294
N6835 X8.0395 Y1.2108
N6840 X8.0768 Y1.1827
N6845 X8.1083 Y1.1482
N6850 X8.1342 Y1.1093
N6855 X8.1553 Y1.0677
N6860 X8.1722 Y1.0242
N6865 X8.1858 Y0.9795
N6870 X8.1965 Y0.934
N6875 X8.205 Y0.8881
N6880 X8.2118 Y0.8419
N6885 X8.217 Y0.7955
N6890 X8.219 Y0.7731
N6895 X8.22 Y0.7653
N6900 X8.2217 Y0.7576
N6905 X8.2239 Y0.75
N6910 X8.2316 Y0.7275
N6915 X8.2351 Y0.7163
N6920 X8.2501 Y0.66
N6925 X8.253 Y0.6488
N6930 X8.2592 Y0.6221
N6935 X8.2602 Y0.615
N6940 X8.2626 Y0.5925
N6945 X8.2637 Y0.5813
N6950 X8.2686 Y0.525
N6955 X8.2692 Y0.5138
N6960 X8.2695 Y0.4913
N6965 X8.269 Y0.48
N6970 X8.2661 Y0.4463
N6975 X8.2641 Y0.4238
N6980 X8.2631 Y0.4125
N6985 X8.2609 Y0.39
N6990 X8.2591 Y0.3788
N6995 X8.2543 Y0.3563
N7000 X8.2515 Y0.345
N7005 X8.2364 Y0.2888
N7010 X8.2331 Y0.2775
N7015 X8.2255 Y0.2536
N7020 X8.2213 Y0.2438
N7025 X8.2142 Y0.2281
N7030 X8.2111 Y0.2213
N7035 X8.1953 Y0.1875
N7040 X8.19 Y0.1763
N7045 X8.1792 Y0.1538
N7050 X8.1774 Y0.1507
N7055 G3 X8.1728 Y0.1368 I0.0326 J-0.0185
N7060 G1 X8.1722 Y0.1324 Z-0.1789
N7065 X8.1717 Y0.1279 Z-0.1781
N7070 X8.1712 Y0.1236 Z-0.1768
N7075 X8.1707 Y0.1195 Z-0.1749
N7080 X8.1702 Y0.1157 Z-0.1726
N7085 X8.1698 Y0.1122 Z-0.1698
N7090 X8.1694 Y0.109 Z-0.1666
N7095 X8.169 Y0.1062 Z-0.163
N7100 X8.1687 Y0.1039 Z-0.1591
N7105 X8.1685 Y0.102 Z-0.155
N7110 X8.1683 Y0.1007 Z-0.1507
N7115 X8.1682 Y0.0999 Z-0.1462
N7120 Y0.0996 Z-0.1417
N7125 G0 Z0.2
N7130 X0.3948 Y1.2409
N7135 Z-0.1042
N7140 G1 Z-0.1417 F10.
N7145 X0.395 Y1.2407 Z-0.1462
N7150 X0.3956 Y1.2401 Z-0.1507
N7155 X0.3965 Y1.2391 Z-0.155
N7160 X0.3978 Y1.2377 Z-0.1591
N7165 X0.3994 Y1.236 Z-0.163
N7170 X0.4013 Y1.234 Z-0.1666
N7175 X0.4035 Y1.2316 Z-0.1698
N7180 X0.4059 Y1.229 Z-0.1726
N7185 X0.4085 Y1.2262 Z-0.1749
N7190 X0.4114 Y1.2232 Z-0.1768
N7195 X0.4143 Y1.22 Z-0.1781
N7200 X0.4174 Y1.2168 Z-0.1789
N7205 X0.4204 Y1.2135 Z-0.1792
N7210 G3 X0.4339 Y1.2074 I0.014 J0.0131
N7215 G1 X0.4657 Y1.2075
N7220 X7.5395
N7225 X7.5732 Y1.2072
N7230 X7.6069 Y1.2044
N7235 X7.6407 Y1.2015
N7240 X7.6744 Y1.1983
N7245 X7.6856 Y1.1961
N7250 X7.7081 Y1.1915
N7255 X7.7756 Y1.1734
N7260 X7.7869 Y1.1699
N7265 X7.8094 Y1.1629
N7270 X7.8206 Y1.1581
N7275 X7.8275 Y1.155
N7280 X7.8881 Y1.1267
N7285 X7.8997 Y1.1212
N7290 X7.9106 Y1.1158
N7295 X7.9371 Y1.0987
N7300 X7.9443 Y1.094
N7305 X8.0005 Y1.0546
N7310 X8.0118 Y1.0463
N7315 X8.0343 Y1.0258
N7320 X8.0404 Y1.02
N7325 X8.0793 Y0.9811
N7330 X8.1018 Y0.9576
N7335 X8.1063 Y0.9525
N7340 X8.113 Y0.9437
N7345 X8.1307 Y0.9187
N7350 X8.1467 Y0.8958
N7355 X8.1542 Y0.885
N7360 X8.1693 Y0.8625
N7365 X8.1766 Y0.8512
N7370 X8.1805 Y0.8437
N7375 X8.1917 Y0.8202
N7380 X8.2142 Y0.772
N7385 X8.2192 Y0.7612
N7390 X8.2239 Y0.75
N7395 G3 X8.2325 Y0.7382 I0.034 J0.0158
N7400 G1 X8.2358 Y0.7351 Z-0.1789
N7405 X8.2391 Y0.7321 Z-0.1781
N7410 X8.2423 Y0.7292 Z-0.1768
N7415 X8.2453 Y0.7264 Z-0.1749
N7420 X8.2482 Y0.7238 Z-0.1726
N7425 X8.2508 Y0.7213 Z-0.1698
N7430 X8.2532 Y0.7192 Z-0.1666
N7435 X8.2552 Y0.7173 Z-0.163
N7440 X8.257 Y0.7157 Z-0.1591
N7445 X8.2583 Y0.7144 Z-0.155
N7450 X8.2593 Y0.7135 Z-0.1507
N7455 X8.2599 Y0.713 Z-0.1462
N7460 X8.2601 Y0.7128 Z-0.1417
N7465 G0 Z0.2
N7470 X0.1928 Y0.2754
N7475 Z-0.1042
N7480 G1 Z-0.1417 F10.
N7485 X0.1931 Y0.2755 Z-0.1462
N7490 X0.1938 Y0.2758 Z-0.1507
N7495 X0.195 Y0.2764 Z-0.155
N7500 X0.1967 Y0.2772 Z-0.1591
N7505 X0.1989 Y0.2782 Z-0.163
N7510 X0.2014 Y0.2793 Z-0.1666
N7515 X0.2043 Y0.2807 Z-0.1698
N7520 X0.2075 Y0.2822 Z-0.1726
N7525 X0.2111 Y0.2838 Z-0.1749
N7530 X0.2148 Y0.2855 Z-0.1768
N7535 X0.2187 Y0.2873 Z-0.1781
N7540 X0.2228 Y0.2892 Z-0.1789
N7545 X0.2269 Y0.2911 Z-0.1792
N7550 G3 X0.2369 Y0.3019 I-0.008 J0.0174
N7555 G1 X0.2437 Y0.3225
N7560 X0.2478 Y0.3338
N7565 X0.2521 Y0.3428
N7570 X0.2595 Y0.3563
N7575 X0.2633 Y0.3621
N7580 X0.2757 Y0.3788
N7585 X0.2845 Y0.39
N7590 X0.2957 Y0.4013
N7595 X0.3091 Y0.4162
N7600 X0.32 Y0.4305
N7605 X0.3318 Y0.4487
N7610 X0.3435 Y0.4706
N7615 X0.349 Y0.4832
N7620 X0.3534 Y0.4963
N7625 X0.3554 Y0.5099
N7630 X0.355 Y0.5237
N7635 X0.3522 Y0.5372
N7640 X0.347 Y0.5499
N7645 X0.3397 Y0.5616
N7650 X0.3304 Y0.5718
N7655 X0.3195 Y0.5802
N7660 G3 X0.2641 Y0.5572 I-0.0191 J-0.0323
N7665 G1 X0.2337 Y0.4379
N7670 G3 X0.2957 Y0.4013 I0.0363 J-0.0093
N7675 G1 X0.297 Y0.4026
N7680 X0.3087 Y0.4125
N7685 X0.3195 Y0.4204
N7690 X0.3308 Y0.4273
N7695 X0.342 Y0.434
N7700 X0.3595 Y0.4415
N7705 X0.3657 Y0.4445
N7710 X0.3709 Y0.4476
N7715 X0.3766 Y0.4517
N7720 X0.3819 Y0.4561
N7725 X0.387 Y0.4611
N7730 X0.3921 Y0.467
N7735 X0.3931 Y0.4682
N7740 X0.3991 Y0.4785
N7745 X0.4028 Y0.4899
N7750 X0.4041 Y0.5017
N7755 X0.4029 Y0.5136
N7760 X0.3992 Y0.525
N7765 X0.3932 Y0.5353
N7770 X0.3852 Y0.5441
N7775 X0.3755 Y0.5511
N7780 X0.3645 Y0.5559
N7785 X0.3581 Y0.5588
N7790 G3 X0.3099 Y0.5575 I-0.0226 J-0.0558
N7795 X0.3595 Y0.4415 I0.0268 J-0.0571
N7800 G1 X0.3706 Y0.4463
N7805 X0.3758 Y0.448
N7810 X0.387 Y0.4509
N7815 X0.3982 Y0.4536
N7820 X0.4001 Y0.4538
N7825 X0.406 Y0.4549
N7830 X0.4116 Y0.4571
N7835 X0.4169 Y0.4599
N7840 X0.4218 Y0.4633
N7845 X0.4223 Y0.4636
N7850 X0.4303 Y0.4725
N7855 X0.4359 Y0.4832
N7860 X0.4387 Y0.4949
N7865 X0.4383 Y0.507
N7870 X0.435 Y0.5185
N7875 X0.4288 Y0.5289
N7880 X0.4203 Y0.5373
N7885 X0.4098 Y0.5433
N7890 X0.3982 Y0.5466
N7895 X0.3758 Y0.5523
N7900 X0.3645 Y0.5559
N7905 G3 X0.3312 Y0.5375 I-0.0073 J-0.0262
N7910 X0.4001 Y0.4538 I0.0626 J-0.0187
N7915 G1 X0.4095 Y0.4551
N7920 X0.432 Y0.4574
N7925 X0.438 Y0.458
N7930 X0.4437 Y0.4597
N7935 X0.4533 Y0.4658
N7940 X0.461 Y0.4741
N7945 X0.4662 Y0.4842
N7950 X0.4687 Y0.4953
N7955 X0.4683 Y0.5066
N7960 X0.465 Y0.5175
N7965 X0.459 Y0.5271
N7970 X0.4507 Y0.5349
N7975 X0.4407 Y0.5402
N7980 X0.4296 Y0.5429
N7985 X0.4095 Y0.5449
N7990 X0.3982 Y0.5466
N7995 G3 X0.3742 Y0.5284 I-0.0024 J-0.0219
N8000 X0.432 Y0.4574 I0.0597 J-0.0104
N8005 G1 X0.4607 Y0.4575
N8010 X0.4667 Y0.4578
N8015 X0.4725 Y0.4593
N8020 X0.478 Y0.4616
N8025 X0.4869 Y0.4686
N8030 X0.4936 Y0.4776
N8035 X0.4979 Y0.4881
N8040 X0.4993 Y0.4993
N8045 X0.4977 Y0.5105
N8050 X0.4934 Y0.5209
N8055 X0.4865 Y0.5298
N8060 X0.4775 Y0.5367
N8065 X0.4671 Y0.541
N8070 X0.4559 Y0.5425
N8075 X0.432 Y0.5426
N8080 X0.4296 Y0.5429
N8085 G3 X0.4077 Y0.5267 I-0.0014 J-0.021
N8090 X0.4607 Y0.4575 I0.0548 J-0.0129
N8095 G1 X0.4901
N8100 X0.4961 Y0.4578
N8105 X0.5019 Y0.4591
N8110 X0.5075 Y0.4613
N8115 X0.5127 Y0.4643
N8120 X0.5205 Y0.4718
N8125 X0.5262 Y0.4811
N8130 X0.5294 Y0.4914
N8135 X0.5299 Y0.5022
N8140 X0.5278 Y0.5128
N8145 X0.5231 Y0.5226
N8150 X0.5162 Y0.5309
N8155 X0.5074 Y0.5372
N8160 X0.4973 Y0.5412
N8165 X0.4866 Y0.5425
N8170 X0.4579
N8175 X0.4559
N8180 G3 X0.436 Y0.5256 I0.0007 J-0.021
N8185 X0.4901 Y0.4575 I0.0561 J-0.011
N8190 G1 X0.522
N8195 X0.5279 Y0.4578
N8200 X0.5338 Y0.4593
N8205 X0.5393 Y0.4616
N8210 X0.5444 Y0.4647
N8215 X0.552 Y0.4724
N8220 X0.5574 Y0.4817
N8225 X0.5604 Y0.492
N8230 X0.5608 Y0.5027
N8235 X0.5585 Y0.5132
N8240 X0.5538 Y0.5229
N8245 X0.5468 Y0.5311
N8250 X0.538 Y0.5373
N8255 X0.528 Y0.5412
N8260 X0.5173 Y0.5425
N8265 X0.4866
N8270 G3 X0.4666 Y0.5249 I0.0007 J-0.0209
N8275 X0.522 Y0.4575 I0.0573 J-0.0094
N8280 G1 X0.5522
N8285 X0.5582 Y0.4578
N8290 X0.564 Y0.4592
N8295 X0.5695 Y0.4614
N8300 X0.5747 Y0.4644
N8305 X0.5824 Y0.4721
N8310 X0.588 Y0.4813
N8315 X0.5911 Y0.4916
N8320 X0.5915 Y0.5024
N8325 X0.5893 Y0.513
N8330 X0.5846 Y0.5227
N8335 X0.5776 Y0.531
N8340 X0.5689 Y0.5372
N8345 X0.5588 Y0.5412
N8350 X0.5481 Y0.5425
N8355 X0.5173
N8360 G3 X0.4974 Y0.5252 I0.0007 J-0.0209
N8365 X0.5522 Y0.4575 I0.0567 J-0.0102
N8370 G1 X0.5816
N8375 X0.5876 Y0.4578
N8380 X0.5935 Y0.4589
N8385 X0.5991 Y0.461
N8390 X0.6044 Y0.4639
N8395 X0.6123 Y0.4714
N8400 X0.6181 Y0.4806
N8405 X0.6214 Y0.4909
N8410 X0.6221 Y0.5018
N8415 X0.62 Y0.5125
N8420 X0.6154 Y0.5224
N8425 X0.6084 Y0.5307
N8430 X0.5996 Y0.5371
N8435 X0.5895 Y0.5411
N8440 X0.5787 Y0.5425
N8445 X0.5481
N8450 G3 X0.5283 Y0.526 I0.0007 J-0.021
N8455 X0.5816 Y0.4575 I0.0552 J-0.012
N8460 G1 X0.6119
N8465 X0.6179 Y0.4578
N8470 X0.6238 Y0.4589
N8475 X0.6294 Y0.461
N8480 X0.6347 Y0.4638
N8485 X0.6427 Y0.4713
N8490 X0.6485 Y0.4805
N8495 X0.6519 Y0.4909
N8500 X0.6526 Y0.5017
N8505 X0.6505 Y0.5124
N8510 X0.6459 Y0.5223
N8515 X0.6389 Y0.5307
N8520 X0.6301 Y0.5371
N8525 X0.62 Y0.5411
N8530 X0.6092 Y0.5425
N8535 X0.5787
N8540 G3 X0.559 Y0.5262 I0.0007 J-0.021
N8545 X0.6119 Y0.4575 I0.0549 J-0.0124
N8550 G1 X0.6434
N8555 X0.6494 Y0.4578
N8560 X0.6552 Y0.4591
N8565 X0.6608 Y0.4613
N8570 X0.666 Y0.4642
N8575 X0.6738 Y0.4718
N8580 X0.6795 Y0.481
N8585 X0.6827 Y0.4914
N8590 X0.6832 Y0.5022
N8595 X0.6811 Y0.5128
N8600 X0.6764 Y0.5226
N8605 X0.6694 Y0.5309
N8610 X0.6606 Y0.5372
N8615 X0.6505 Y0.5412
N8620 X0.6398 Y0.5425
N8625 X0.6092
N8630 G3 X0.5893 Y0.5256 I0.0007 J-0.021
N8635 X0.6434 Y0.4575 I0.056 J-0.011
N8640 G1 X0.6743
N8645 X0.6803 Y0.4578
N8650 X0.6862 Y0.4591
N8655 X0.6917 Y0.4614
N8660 X0.697 Y0.4644
N8665 X0.7046 Y0.4719
N8670 X0.7102 Y0.4812
N8675 X0.7134 Y0.4915
N8680 X0.7139 Y0.5023
N8685 X0.7117 Y0.5129
N8690 X0.707 Y0.5227
N8695 X0.7 Y0.5309
N8700 X0.6912 Y0.5372
N8705 X0.6812 Y0.5412
N8710 X0.6704 Y0.5425
N8715 X0.6398
N8720 G3 X0.6199 Y0.5254 I0.0007 J-0.0209
N8725 X0.6743 Y0.4575 I0.0564 J-0.0105
N8730 G1 X0.7053
N8735 X0.7113 Y0.4578
N8740 X0.7171 Y0.4592
N8745 X0.7227 Y0.4615
N8750 X0.7279 Y0.4645
N8755 X0.7355 Y0.4721
N8760 X0.741 Y0.4813
N8765 X0.7441 Y0.4917
N8770 X0.7446 Y0.5025
N8775 X0.7424 Y0.513
N8780 X0.7377 Y0.5227
N8785 X0.7307 Y0.531
N8790 X0.7219 Y0.5372
N8795 X0.7119 Y0.5412
N8800 X0.7012 Y0.5425
N8805 X0.6704
N8810 G3 X0.6505 Y0.5252 I0.0007 J-0.0209
N8815 X0.7053 Y0.4575 I0.0568 J-0.0101
N8820 G1 X0.7356
N8825 X0.7416 Y0.4578
N8830 X0.7475 Y0.4591
N8835 X0.753 Y0.4613
N8840 X0.7583 Y0.4643
N8845 X0.766 Y0.4719
N8850 X0.7716 Y0.4811
N8855 X0.7748 Y0.4915
N8860 X0.7753 Y0.5023
N8865 X0.7731 Y0.5129
N8870 X0.7684 Y0.5226
N8875 X0.7614 Y0.5309
N8880 X0.7527 Y0.5372
N8885 X0.7426 Y0.5412
N8890 X0.7318 Y0.5425
N8895 X0.7012
N8900 G3 X0.6813 Y0.5254 I0.0007 J-0.0209
N8905 X0.7356 Y0.4575 I0.0563 J-0.0107
N8910 G1 X0.7671
N8915 X0.7731 Y0.4578
N8920 X0.7789 Y0.4592
N8925 X0.7844 Y0.4616
N8930 X0.7896 Y0.4646
N8935 X0.7972 Y0.4723
N8940 X0.8026 Y0.4816
N8945 X0.8057 Y0.4919
N8950 X0.8061 Y0.5026
N8955 X0.8038 Y0.5132
N8960 X0.7991 Y0.5228
N8965 X0.7921 Y0.531
N8970 X0.7833 Y0.5373
N8975 X0.7733 Y0.5412
N8980 X0.7626 Y0.5425
N8985 X0.7318
N8990 G3 X0.7119 Y0.525 I0.0007 J-0.0209
N8995 X0.7671 Y0.4575 I0.0572 J-0.0095
N9000 G1 X0.798
N9005 X0.804 Y0.4578
N9010 X0.8099 Y0.4593
N9015 X0.8154 Y0.4616
N9020 X0.8205 Y0.4647
N9025 X0.8281 Y0.4723
N9030 X0.8335 Y0.4816
N9035 X0.8365 Y0.492
N9040 X0.8369 Y0.5027
N9045 X0.8346 Y0.5132
N9050 X0.8299 Y0.5229
N9055 X0.8229 Y0.531
N9060 X0.8141 Y0.5373
N9065 X0.8041 Y0.5412
N9070 X0.7935 Y0.5425
N9075 X0.7626
N9080 G3 X0.7427 Y0.5249 I0.0007 J-0.0209
N9085 X0.798 Y0.4575 I0.0574 J-0.0093
N9090 G1 X0.829
N9095 X0.835 Y0.4578
N9100 X0.8408 Y0.4593
N9105 X0.8463 Y0.4617
N9110 X0.8515 Y0.4647
N9115 X0.859 Y0.4724
N9120 X0.8644 Y0.4817
N9125 X0.8674 Y0.492
N9130 X0.8678 Y0.5028
N9135 X0.8655 Y0.5133
N9140 X0.8607 Y0.5229
N9145 X0.8537 Y0.5311
N9150 X0.845 Y0.5373
N9155 X0.835 Y0.5412
N9160 X0.8243 Y0.5425
N9165 X0.7935
N9170 G3 X0.7735 Y0.5248 I0.0007 J-0.0209
N9175 X0.829 Y0.4575 I0.0575 J-0.0091
N9180 G1 X0.8593
N9185 X0.8653 Y0.4578
N9190 X0.8712 Y0.4592
N9195 X0.8767 Y0.4615
N9200 X0.8819 Y0.4645
N9205 X0.8895 Y0.4721
N9210 X0.895 Y0.4814
N9215 X0.8981 Y0.4918
N9220 X0.8985 Y0.5025
N9225 X0.8963 Y0.5131
N9230 X0.8916 Y0.5228
N9235 X0.8846 Y0.531
N9240 X0.8758 Y0.5372
N9245 X0.8658 Y0.5412
N9250 X0.8551 Y0.5425
N9255 G3 X0.8509 Y0.5419 I0.0007 J-0.0212
N9260 X0.8593 Y0.4575 I0.0099 J-0.0416
N9265 G1 X0.8895
N9270 X0.8955 Y0.4578
N9275 X0.9014 Y0.4591
N9280 X0.907 Y0.4613
N9285 X0.9122 Y0.4643
N9290 X0.9199 Y0.4719
N9295 X0.9255 Y0.4811
N9300 X0.9287 Y0.4915
N9305 X0.9292 Y0.5023
N9310 X0.927 Y0.5129
N9315 X0.9223 Y0.5226
N9320 X0.9154 Y0.5309
N9325 X0.9066 Y0.5372
N9330 X0.8965 Y0.5412
N9335 X0.8858 Y0.5425
N9340 G3 X0.8821 Y0.542 I0.0007 J-0.0212
N9345 X0.8895 Y0.4575 I0.009 J-0.0418
N9350 G1 X0.9213
N9355 X0.9273 Y0.4578
N9360 X0.9331 Y0.4593
N9365 X0.9387 Y0.4617
N9370 X0.9438 Y0.4648
N9375 X0.9513 Y0.4724
N9380 X0.9567 Y0.4817
N9385 X0.9597 Y0.492
N9390 X0.9601 Y0.5028
N9395 X0.9578 Y0.5133
N9400 X0.953 Y0.5229
N9405 X0.9461 Y0.5311
N9410 X0.9373 Y0.5373
N9415 X0.9273 Y0.5412
N9420 X0.9166 Y0.5425
N9425 G3 X0.912 Y0.5418 I0.0007 J-0.0212
N9430 X0.9213 Y0.4575 I0.0108 J-0.0415
N9435 G1 X0.943
N9440 X0.9493 Y0.4582
N9445 X0.9549 Y0.4598
N9450 X0.9605 Y0.4624
N9455 X0.9646 Y0.4651
N9460 X0.9688 Y0.4688
N9465 X0.9718 Y0.4722
N9470 X0.9745 Y0.4761
N9475 X0.9766 Y0.48
N9480 X0.9786 Y0.4856
N9485 X0.9797 Y0.4913
N9490 X0.98 Y0.5025
N9495 X0.9798 Y0.5081
N9500 X0.9788 Y0.5138
N9505 X0.9769 Y0.5194
N9510 X0.9738 Y0.525
N9515 X0.9718 Y0.5278
N9520 X0.9672 Y0.5327
N9525 X0.9627 Y0.5363
N9530 X0.9605 Y0.5376
N9535 X0.9549 Y0.5402
N9540 X0.9493 Y0.5418
N9545 X0.9437 Y0.5425
N9550 X0.9381
N9555 X0.8243
N9560 X0.8213 Y0.542 Z-0.1789
N9565 X0.8185 Y0.5414 Z-0.178
N9570 X0.8159 Y0.541 Z-0.1765
N9575 X0.8137 Y0.5406 Z-0.1745
N9580 X0.8121 Y0.54 Z-0.1723
N9585 X0.811 Y0.5395 Z-0.1698
N9590 X0.8103 Y0.5392 Z-0.1672
N9595 X0.8101 Y0.5391 Z-0.1645
N9600 G0 Z0.2
N9605 X0.544 Y-0.3283
N9610 Z-0.1938
N9615 G1 Z-0.2313 F10.
N9620 X0.5438 Y-0.3281 Z-0.2358
N9625 X0.5432 Y-0.3275 Z-0.2403
N9630 X0.5421 Y-0.3267 Z-0.2446
N9635 X0.5407 Y-0.3254 Z-0.2487
N9640 X0.539 Y-0.3239 Z-0.2526
N9645 X0.5368 Y-0.3221 Z-0.2562
N9650 X0.5344 Y-0.32 Z-0.2594
N9655 X0.5317 Y-0.3176 Z-0.2622
N9660 X0.5288 Y-0.3151 Z-0.2645
N9665 X0.5257 Y-0.3124 Z-0.2664
N9670 X0.5224 Y-0.3096 Z-0.2677
N9675 X0.519 Y-0.3067 Z-0.2685
N9680 X0.5156 Y-0.3037 Z-0.2688
N9685 G3 X0.3461 Y-0.1862 I-0.6268 J-0.7236
N9690 G1 X0.342 Y-0.1842
N9695 X0.3195 Y-0.1698
N9700 X0.3083 Y-0.1622
N9705 X0.307 Y-0.1612
N9710 X0.297 Y-0.1521
N9715 X0.2949 Y-0.15
N9720 X0.283 Y-0.1392
N9725 X0.2693 Y-0.1289
N9730 X0.2519 Y-0.1177
N9735 X0.2294 Y-0.1057
N9740 X0.2002 Y-0.093
N9745 X0.156 Y-0.0779
N9750 X0.1131 Y-0.0595
N9755 X0.0784 Y-0.0283
N9760 X0.0512 Y0.0097
N9765 X0.0302 Y0.0514
N9770 X0.014 Y0.0952
N9775 X0.0018 Y0.1402
N9780 X-0.0076 Y0.186
N9785 X-0.0146 Y0.2321
N9790 X-0.0199 Y0.2785
N9795 X-0.0238 Y0.3251
N9800 X-0.0268 Y0.3717
N9805 X-0.029 Y0.4183
N9810 X-0.0307 Y0.465
N9815 X-0.032 Y0.5116
N9820 X-0.0329 Y0.5583
N9825 X-0.0336 Y0.605
N9830 X-0.0341 Y0.6517
N9835 X-0.0345 Y0.6984
N9840 X-0.0348 Y0.7451
N9845 X-0.035 Y0.7918
N9850 X-0.0352 Y0.8385
N9855 X-0.0354 Y0.9318
N9860 X-0.0355 Y1.0719
N9865 X-0.0356 Y1.3287
N9870 X-0.03 Y1.3514
N9875 X-0.0089 Y1.393
N9880 X0.0238 Y1.4264
N9885 X0.0625 Y1.4525
N9890 X0.1046 Y1.4727
N9895 X0.1487 Y1.4882
N9900 X0.1938 Y1.4999
N9905 X0.2397 Y1.5088
N9910 X0.2859 Y1.5155
N9915 X0.3323 Y1.5206
N9920 X0.3788 Y1.5244
N9925 X0.4254 Y1.5272
N9930 X0.4721 Y1.5293
N9935 X0.5187 Y1.5309
N9940 X0.5654 Y1.5321
N9945 X0.6121 Y1.533
N9950 X0.6588 Y1.5337
N9955 X0.7055 Y1.5342
N9960 X0.7522 Y1.5345
N9965 X0.7989 Y1.5348
N9970 X0.8456 Y1.535
N9975 X0.9389 Y1.5353
N9980 X1.079 Y1.5355
N9985 X1.3125 Y1.5356
N9990 X2.2463
N9995 X4.2541
N10000 X6.2618
N10005 X8.2696
N10010 X8.3162
N10015 X8.3279 Y1.5351
N10020 X8.3394 Y1.533
N10025 X8.3616 Y1.5259
N10030 X8.4013 Y1.5013
N10035 X8.4329 Y1.467
N10040 X8.4576 Y1.4273
N10045 X8.4766 Y1.3847
N10050 X8.4911 Y1.3403
N10055 X8.5022 Y1.2949
N10060 X8.5105 Y1.249
N10065 X8.5168 Y1.2027
N10070 X8.5215 Y1.1563
N10075 X8.5251 Y1.1097
N10080 X8.5278 Y1.0631
N10085 X8.5297 Y1.0165
N10090 X8.5312 Y0.9698
N10095 X8.5323 Y0.9231
N10100 X8.5332 Y0.8764
N10105 X8.5338 Y0.8297
N10110 X8.5343 Y0.783
N10115 X8.5346 Y0.7364
N10120 X8.5349 Y0.6897
N10125 X8.5351 Y0.643
N10130 X8.5353 Y0.5496
N10135 X8.5355 Y0.4095
N10140 X8.5356 Y0.1761
N10145 X8.5315 Y0.1531
N10150 X8.5119 Y0.1107
N10155 X8.4801 Y0.0765
N10160 X8.4419 Y0.0497
N10165 X8.4 Y0.029
N10170 X8.3561 Y0.0132
N10175 X8.311 Y0.0011
N10180 X8.2652 Y-0.0081
N10185 X8.219 Y-0.015
N10190 X8.1726 Y-0.0202
N10195 X8.1261 Y-0.0241
N10200 X8.0795 Y-0.027
N10205 X8.0619 Y-0.0278
N10210 X8.0484 Y-0.0295
N10215 X8.0354 Y-0.0332
N10220 X8.0231 Y-0.0389
N10225 X8.0118 Y-0.0464
N10230 X8.0088 Y-0.0487
N10235 X8.0005 Y-0.0546
N10240 X7.9769 Y-0.0712
N10245 X7.9443 Y-0.094
N10250 X7.9274 Y-0.105
N10255 X7.9099 Y-0.1162
N10260 X7.8993 Y-0.1213
N10265 X7.8768 Y-0.132
N10270 X7.8383 Y-0.15
N10275 X7.8318 Y-0.1529
N10280 X7.8094 Y-0.1629
N10285 X7.7788 Y-0.1725
N10290 X7.7756 Y-0.1734
N10295 X7.7582 Y-0.1781
N10300 G3 X7.7453 Y-0.185 I0.011 J-0.0359
N10305 G1 X7.7418 Y-0.1879 Z-0.2685
N10310 X7.7384 Y-0.1907 Z-0.2677
N10315 X7.735 Y-0.1934 Z-0.2664
N10320 X7.7319 Y-0.1961 Z-0.2645
N10325 X7.7289 Y-0.1985 Z-0.2622
N10330 X7.7261 Y-0.2008 Z-0.2594
N10335 X7.7236 Y-0.2028 Z-0.2562
N10340 X7.7215 Y-0.2046 Z-0.2526
N10345 X7.7197 Y-0.2061 Z-0.2487
N10350 X7.7182 Y-0.2073 Z-0.2446
N10355 X7.7172 Y-0.2081 Z-0.2403
N10360 X7.7166 Y-0.2087 Z-0.2358
N10365 X7.7164 Y-0.2088 Z-0.2313
N10370 G0 Z0.2
N10375 X0.2989 Y-0.2012
N10380 Z-0.1938
N10385 G1 Z-0.2313 F10.
N10390 Y-0.2009 Z-0.2358
N10395 X0.299 Y-0.2001 Z-0.2403
N10400 Y-0.1988 Z-0.2446
N10405 X0.2991 Y-0.1969 Z-0.2487
N10410 Y-0.1946 Z-0.2526
N10415 X0.2992 Y-0.1918 Z-0.2562
N10420 X0.2993 Y-0.1886 Z-0.2594
N10425 X0.2994 Y-0.185 Z-0.2622
N10430 X0.2996 Y-0.1811 Z-0.2645
N10435 X0.2997 Y-0.177 Z-0.2664
N10440 X0.2998 Y-0.1727 Z-0.2677
N10445 X0.3 Y-0.1682 Z-0.2685
N10450 X0.3001 Y-0.1637 Z-0.2688
N10455 G3 X0.2949 Y-0.15 I-0.0192 J0.0006
N10460 G1 X0.2836 Y-0.1387
N10465 X0.2745 Y-0.1284
N10470 X0.2593 Y-0.105
N10475 X0.2524 Y-0.0937
N10480 X0.2521 Y-0.093
N10485 X0.2476 Y-0.0825
N10490 X0.2429 Y-0.0712
N10495 X0.2408 Y-0.0652
N10500 X0.2255 Y-0.0211
N10505 X0.2076 Y0.022
N10510 X0.1915 Y0.0659
N10515 X0.1775 Y0.1104
N10520 X0.1655 Y0.1555
N10525 X0.1555 Y0.2011
N10530 X0.1473 Y0.2471
N10535 X0.1406 Y0.2933
N10540 X0.1352 Y0.3397
N10545 X0.1308 Y0.3862
N10550 X0.1273 Y0.4327
N10555 X0.1245 Y0.4793
N10560 X0.1223 Y0.526
N10565 X0.1206 Y0.5726
N10570 X0.1192 Y0.6193
N10575 X0.1181 Y0.666
N10580 X0.1173 Y0.7127
N10585 X0.1166 Y0.7594
N10590 X0.1161 Y0.8061
N10595 X0.1157 Y0.8527
N10600 X0.1154 Y0.8994
N10605 X0.1152 Y0.9461
N10610 X0.115 Y0.9928
N10615 X0.1147 Y1.0862
N10620 Y1.1329
N10625 X0.1247 Y1.1785
N10630 X0.1478 Y1.219
N10635 X0.1796 Y1.2533
N10640 X0.2169 Y1.2813
N10645 X0.2578 Y1.304
N10650 X0.3008 Y1.322
N10655 X0.3453 Y1.3362
N10660 X0.3906 Y1.3474
N10665 X0.4365 Y1.3561
N10670 X0.4827 Y1.3629
N10675 X0.5291 Y1.3681
N10680 X0.5756 Y1.3722
N10685 X0.6222 Y1.3753
N10690 X0.6688 Y1.3777
N10695 X0.7155 Y1.3796
N10700 X0.7622 Y1.381
N10705 X0.8088 Y1.3821
N10710 X0.8555 Y1.3829
N10715 X0.9022 Y1.3836
N10720 X0.9489 Y1.3841
N10725 X0.9956 Y1.3844
N10730 X1.0423 Y1.3847
N10735 X1.089 Y1.3849
N10740 X1.1824 Y1.3852
N10745 X1.2757 Y1.3854
N10750 X1.4158 Y1.3855
N10755 X1.7427 Y1.3856
N10760 X2.8166
N10765 X4.8243
N10770 X6.8321
N10775 X8.1394
N10780 X8.1845 Y1.3733
N10785 X8.2241 Y1.3487
N10790 X8.2574 Y1.3159
N10795 X8.2847 Y1.278
N10800 X8.3066 Y1.2368
N10805 X8.3241 Y1.1935
N10810 X8.3379 Y1.1489
N10815 X8.3487 Y1.1035
N10820 X8.3571 Y1.0575
N10825 X8.3636 Y1.0113
N10830 X8.3687 Y0.9649
N10835 X8.3726 Y0.9184
N10840 X8.3757 Y0.8718
N10845 X8.378 Y0.8252
N10850 X8.3798 Y0.7785
N10855 X8.3812 Y0.7318
N10860 X8.3822 Y0.6851
N10865 X8.383 Y0.6385
N10870 X8.3836 Y0.5918
N10875 X8.3841 Y0.5451
N10880 X8.3845 Y0.4984
N10885 X8.3847 Y0.4517
N10890 X8.385 Y0.405
N10895 X8.3851 Y0.3583
N10900 X8.3723 Y0.3134
N10905 X8.3473 Y0.274
N10910 X8.3143 Y0.241
N10915 X8.2761 Y0.214
N10920 X8.2348 Y0.1923
N10925 X8.2197 Y0.1863
N10930 X8.2071 Y0.1801
N10935 X8.1956 Y0.172
N10940 X8.1856 Y0.1621
N10945 X8.1774 Y0.1507
N10950 X8.1723 Y0.1425
N10955 X8.1577 Y0.12
N10960 X8.1499 Y0.1088
N10965 X8.1342 Y0.0863
N10970 X8.113 Y0.0563
N10975 X8.1103 Y0.0525
N10980 X8.1018 Y0.0425
N10985 X8.1007 Y0.0413
N10990 X8.0903 Y0.03
N10995 X8.0679 Y0.0075
N11000 X8.0454 Y-0.015
N11005 X8.0341 Y-0.0262
N11010 X8.023 Y-0.0367
N11015 X8.0118 Y-0.0464
N11020 G3 X8.0032 Y-0.0582 I0.0254 J-0.0276
N11025 G1 X8.0013 Y-0.0623 Z-0.2685
N11030 X7.9994 Y-0.0663 Z-0.2677
N11035 X7.9976 Y-0.0702 Z-0.2664
N11040 X7.9958 Y-0.074 Z-0.2645
N11045 X7.9942 Y-0.0775 Z-0.2622
N11050 X7.9927 Y-0.0807 Z-0.2594
N11055 X7.9913 Y-0.0836 Z-0.2562
N11060 X7.9902 Y-0.0862 Z-0.2526
N11065 X7.9892 Y-0.0883 Z-0.2487
N11070 X7.9884 Y-0.09 Z-0.2446
N11075 X7.9878 Y-0.0912 Z-0.2403
N11080 X7.9875 Y-0.092 Z-0.2358
N11085 X7.9874 Y-0.0922 Z-0.2313
N11090 G0 Z0.2
N11095 X0.2182 Y-0.1114
N11100 Z-0.1938
N11105 G1 Z-0.2313 F10.
N11110 X0.2184 Y-0.1112 Z-0.2358
N11115 X0.2188 Y-0.1105 Z-0.2403
N11120 X0.2196 Y-0.1093 Z-0.2446
N11125 X0.2205 Y-0.1078 Z-0.2487
N11130 X0.2218 Y-0.1058 Z-0.2526
N11135 X0.2233 Y-0.1034 Z-0.2562
N11140 X0.225 Y-0.1007 Z-0.2594
N11145 X0.2269 Y-0.0977 Z-0.2622
N11150 X0.229 Y-0.0944 Z-0.2645
N11155 X0.2312 Y-0.091 Z-0.2664
N11160 X0.2335 Y-0.0873 Z-0.2677
N11165 X0.2359 Y-0.0835 Z-0.2685
N11170 X0.2383 Y-0.0797 Z-0.2688
N11175 G3 X0.2408 Y-0.0652 I-0.0162 J0.0103
N11180 G1 X0.2365 Y-0.0487
N11185 X0.2335 Y-0.0375
N11190 X0.231 Y-0.015
N11195 X0.2301 Y-0.0037
N11200 X0.23 Y0.03
N11205 Y0.2325
N11210 X0.2302 Y0.2438
N11215 X0.2309 Y0.2663
N11220 X0.2324 Y0.2775
N11225 X0.2343 Y0.2888
N11230 X0.2363 Y0.3
N11235 X0.2369 Y0.3019
N11240 X0.2408 Y0.3161
N11245 X0.2494 Y0.3619
N11250 X0.2552 Y0.4083
N11255 X0.2591 Y0.4548
N11260 X0.2616 Y0.5014
N11265 X0.2632 Y0.5481
N11270 X0.2642 Y0.5948
N11275 X0.2644 Y0.6111
N11280 X0.2633 Y0.6257
N11285 X0.2598 Y0.64
N11290 X0.2539 Y0.6536
N11295 X0.2521 Y0.6571
N11300 X0.2506 Y0.66
N11305 X0.2457 Y0.6713
N11310 X0.2419 Y0.6825
N11315 X0.2351 Y0.705
N11320 X0.2317 Y0.7275
N11325 X0.2305 Y0.7388
N11330 X0.2301 Y0.7612
N11335 X0.23 Y0.7725
N11340 Y0.975
N11345 X0.2301 Y0.9862
N11350 X0.2304 Y1.0087
N11355 X0.2315 Y1.02
N11360 X0.2345 Y1.0425
N11365 X0.241 Y1.065
N11370 X0.2447 Y1.0762
N11375 X0.2496 Y1.0875
N11380 X0.2521 Y1.093
N11385 X0.2551 Y1.0987
N11390 X0.2618 Y1.11
N11395 X0.2633 Y1.1124
N11400 X0.2693 Y1.1212
N11405 X0.2778 Y1.1325
N11410 X0.2858 Y1.1412
N11415 X0.2882 Y1.1437
N11420 X0.297 Y1.1525
N11425 X0.3083 Y1.1623
N11430 X0.3139 Y1.1662
N11435 X0.342 Y1.1841
N11440 X0.3533 Y1.1894
N11445 X0.3645 Y1.1941
N11450 X0.3758 Y1.1977
N11455 X0.3982 Y1.2034
N11460 X0.4095 Y1.2051
N11465 X0.432 Y1.2074
N11470 X0.4339
N11475 X0.4805 Y1.2099
N11480 X0.527 Y1.2143
N11485 X0.5735 Y1.2181
N11490 X0.6201 Y1.2213
N11495 X0.6667 Y1.224
N11500 X0.7133 Y1.2262
N11505 X0.76 Y1.2281
N11510 X0.8067 Y1.2296
N11515 X0.8533 Y1.2308
N11520 X0.9 Y1.2318
N11525 X0.9467 Y1.2326
N11530 X0.9934 Y1.2332
N11535 X1.0401 Y1.2337
N11540 X1.0868 Y1.2341
N11545 X1.1335 Y1.2344
N11550 X1.1802 Y1.2347
N11555 X1.2268 Y1.2349
N11560 X1.3202 Y1.2352
N11565 X1.4603 Y1.2354
N11570 X1.6471 Y1.2355
N11575 X2.0673 Y1.2356
N11580 X2.4408
N11585 X4.4486
N11590 X6.4563
N11595 X7.9505
N11600 X7.9967 Y1.2294
N11605 X8.0395 Y1.2108
N11610 X8.0768 Y1.1827
N11615 X8.1083 Y1.1482
N11620 X8.1342 Y1.1093
N11625 X8.1553 Y1.0677
N11630 X8.1722 Y1.0242
N11635 X8.1858 Y0.9795
N11640 X8.1965 Y0.934
N11645 X8.205 Y0.8881
N11650 X8.2118 Y0.8419
N11655 X8.217 Y0.7955
N11660 X8.219 Y0.7731
N11665 X8.22 Y0.7653
N11670 X8.2217 Y0.7576
N11675 X8.2239 Y0.75
N11680 X8.2316 Y0.7275
N11685 X8.2351 Y0.7163
N11690 X8.2501 Y0.66
N11695 X8.253 Y0.6488
N11700 X8.2592 Y0.6221
N11705 X8.2602 Y0.615
N11710 X8.2626 Y0.5925
N11715 X8.2637 Y0.5813
N11720 X8.2686 Y0.525
N11725 X8.2692 Y0.5138
N11730 X8.2695 Y0.4913
N11735 X8.269 Y0.48
N11740 X8.2661 Y0.4463
N11745 X8.2641 Y0.4238
N11750 X8.2631 Y0.4125
N11755 X8.2609 Y0.39
N11760 X8.2591 Y0.3788
N11765 X8.2543 Y0.3563
N11770 X8.2515 Y0.345
N11775 X8.2364 Y0.2888
N11780 X8.2331 Y0.2775
N11785 X8.2255 Y0.2536
N11790 X8.2213 Y0.2438
N11795 X8.2142 Y0.2281
N11800 X8.2111 Y0.2213
N11805 X8.1953 Y0.1875
N11810 X8.19 Y0.1763
N11815 X8.1792 Y0.1538
N11820 X8.1774 Y0.1507
N11825 G3 X8.1728 Y0.1368 I0.0326 J-0.0185
N11830 G1 X8.1722 Y0.1324 Z-0.2685
N11835 X8.1717 Y0.1279 Z-0.2677
N11840 X8.1712 Y0.1236 Z-0.2664
N11845 X8.1707 Y0.1195 Z-0.2645
N11850 X8.1702 Y0.1157 Z-0.2622
N11855 X8.1698 Y0.1122 Z-0.2594
N11860 X8.1694 Y0.109 Z-0.2562
N11865 X8.169 Y0.1062 Z-0.2526
N11870 X8.1687 Y0.1039 Z-0.2487
N11875 X8.1685 Y0.102 Z-0.2446
N11880 X8.1683 Y0.1007 Z-0.2403
N11885 X8.1682 Y0.0999 Z-0.2358
N11890 Y0.0996 Z-0.2313
N11895 G0 Z0.2
N11900 X0.3948 Y1.2409
N11905 Z-0.1938
N11910 G1 Z-0.2313 F10.
N11915 X0.395 Y1.2407 Z-0.2358
N11920 X0.3956 Y1.2401 Z-0.2403
N11925 X0.3965 Y1.2391 Z-0.2446
N11930 X0.3978 Y1.2377 Z-0.2487
N11935 X0.3994 Y1.236 Z-0.2526
N11940 X0.4013 Y1.234 Z-0.2562
N11945 X0.4035 Y1.2316 Z-0.2594
N11950 X0.4059 Y1.229 Z-0.2622
N11955 X0.4085 Y1.2262 Z-0.2645
N11960 X0.4114 Y1.2232 Z-0.2664
N11965 X0.4143 Y1.22 Z-0.2677
N11970 X0.4174 Y1.2168 Z-0.2685
N11975 X0.4204 Y1.2135 Z-0.2688
N11980 G3 X0.4339 Y1.2074 I0.014 J0.0131
N11985 G1 X0.4657 Y1.2075
N11990 X7.5395
N11995 X7.5732 Y1.2072
N12000 X7.6069 Y1.2044
N12005 X7.6407 Y1.2015
N12010 X7.6744 Y1.1983
N12015 X7.6856 Y1.1961
N12020 X7.7081 Y1.1915
N12025 X7.7756 Y1.1734
N12030 X7.7869 Y1.1699
N12035 X7.8094 Y1.1629
N12040 X7.8206 Y1.1581
N12045 X7.8275 Y1.155
N12050 X7.8881 Y1.1267
N12055 X7.8997 Y1.1212
N12060 X7.9106 Y1.1158
N12065 X7.9371 Y1.0987
N12070 X7.9443 Y1.094
N12075 X8.0005 Y1.0546
N12080 X8.0118 Y1.0463
N12085 X8.0343 Y1.0258
N12090 X8.0404 Y1.02
N12095 X8.0793 Y0.9811
N12100 X8.1018 Y0.9576
N12105 X8.1063 Y0.9525
N12110 X8.113 Y0.9437
N12115 X8.1307 Y0.9187
N12120 X8.1467 Y0.8958
N12125 X8.1542 Y0.885
N12130 X8.1693 Y0.8625
N12135 X8.1766 Y0.8512
N12140 X8.1805 Y0.8437
N12145 X8.1917 Y0.8202
N12150 X8.2142 Y0.772
N12155 X8.2192 Y0.7612
N12160 X8.2239 Y0.75
N12165 G3 X8.2325 Y0.7382 I0.034 J0.0158
N12170 G1 X8.2358 Y0.7351 Z-0.2685
N12175 X8.2391 Y0.7321 Z-0.2677
N12180 X8.2423 Y0.7292 Z-0.2664
N12185 X8.2453 Y0.7264 Z-0.2645
N12190 X8.2482 Y0.7238 Z-0.2622
N12195 X8.2508 Y0.7213 Z-0.2594
N12200 X8.2532 Y0.7192 Z-0.2562
N12205 X8.2552 Y0.7173 Z-0.2526
N12210 X8.257 Y0.7157 Z-0.2487
N12215 X8.2583 Y0.7144 Z-0.2446
N12220 X8.2593 Y0.7135 Z-0.2403
N12225 X8.2599 Y0.713 Z-0.2358
N12230 X8.2601 Y0.7128 Z-0.2313
N12235 G0 Z0.2
N12240 X0.1928 Y0.2754
N12245 Z-0.1938
N12250 G1 Z-0.2313 F10.
N12255 X0.1931 Y0.2755 Z-0.2358
N12260 X0.1938 Y0.2758 Z-0.2403
N12265 X0.195 Y0.2764 Z-0.2446
N12270 X0.1967 Y0.2772 Z-0.2487
N12275 X0.1989 Y0.2782 Z-0.2526
N12280 X0.2014 Y0.2793 Z-0.2562
N12285 X0.2043 Y0.2807 Z-0.2594
N12290 X0.2075 Y0.2822 Z-0.2622
N12295 X0.2111 Y0.2838 Z-0.2645
N12300 X0.2148 Y0.2855 Z-0.2664
N12305 X0.2187 Y0.2873 Z-0.2677
N12310 X0.2228 Y0.2892 Z-0.2685
N12315 X0.2269 Y0.2911 Z-0.2688
N12320 G3 X0.2369 Y0.3019 I-0.008 J0.0174
N12325 G1 X0.2437 Y0.3225
N12330 X0.2478 Y0.3338
N12335 X0.2521 Y0.3428
N12340 X0.2595 Y0.3563
N12345 X0.2633 Y0.3621
N12350 X0.2757 Y0.3788
N12355 X0.2845 Y0.39
N12360 X0.2957 Y0.4013
N12365 X0.3091 Y0.4162
N12370 X0.32 Y0.4305
N12375 X0.3318 Y0.4487
N12380 X0.3435 Y0.4706
N12385 X0.349 Y0.4832
N12390 X0.3534 Y0.4963
N12395 X0.3554 Y0.5099
N12400 X0.355 Y0.5237
N12405 X0.3522 Y0.5372
N12410 X0.347 Y0.5499
N12415 X0.3397 Y0.5616
N12420 X0.3304 Y0.5718
N12425 X0.3195 Y0.5802
N12430 G3 X0.2641 Y0.5572 I-0.0191 J-0.0323
N12435 G1 X0.2337 Y0.4379
N12440 G3 X0.2957 Y0.4013 I0.0363 J-0.0093
N12445 G1 X0.297 Y0.4026
N12450 X0.3087 Y0.4125
N12455 X0.3195 Y0.4204
N12460 X0.3308 Y0.4273
N12465 X0.342 Y0.434
N12470 X0.3595 Y0.4415
N12475 X0.3657 Y0.4445
N12480 X0.3709 Y0.4476
N12485 X0.3766 Y0.4517
N12490 X0.3819 Y0.4561
N12495 X0.387 Y0.4611
N12500 X0.3921 Y0.467
N12505 X0.3931 Y0.4682
N12510 X0.3991 Y0.4785
N12515 X0.4028 Y0.4899
N12520 X0.4041 Y0.5017
N12525 X0.4029 Y0.5136
N12530 X0.3992 Y0.525
N12535 X0.3932 Y0.5353
N12540 X0.3852 Y0.5441
N12545 X0.3755 Y0.5511
N12550 X0.3645 Y0.5559
N12555 X0.3581 Y0.5588
N12560 G3 X0.3099 Y0.5575 I-0.0226 J-0.0558
N12565 X0.3595 Y0.4415 I0.0268 J-0.0571
N12570 G1 X0.3706 Y0.4463
N12575 X0.3758 Y0.448
N12580 X0.387 Y0.4509
N12585 X0.3982 Y0.4536
N12590 X0.4001 Y0.4538
N12595 X0.406 Y0.4549
N12600 X0.4116 Y0.4571
N12605 X0.4169 Y0.4599
N12610 X0.4218 Y0.4633
N12615 X0.4223 Y0.4636
N12620 X0.4303 Y0.4725
N12625 X0.4359 Y0.4832
N12630 X0.4387 Y0.4949
N12635 X0.4383 Y0.507
N12640 X0.435 Y0.5185
N12645 X0.4288 Y0.5289
N12650 X0.4203 Y0.5373
N12655 X0.4098 Y0.5433
N12660 X0.3982 Y0.5466
N12665 X0.3758 Y0.5523
N12670 X0.3645 Y0.5559
N12675 G3 X0.3312 Y0.5375 I-0.0073 J-0.0262
N12680 X0.4001 Y0.4538 I0.0626 J-0.0187
N12685 G1 X0.4095 Y0.4551
N12690 X0.432 Y0.4574
N12695 X0.438 Y0.458
N12700 X0.4437 Y0.4597
N12705 X0.4533 Y0.4658
N12710 X0.461 Y0.4741
N12715 X0.4662 Y0.4842
N12720 X0.4687 Y0.4953
N12725 X0.4683 Y0.5066
N12730 X0.465 Y0.5175
N12735 X0.459 Y0.5271
N12740 X0.4507 Y0.5349
N12745 X0.4407 Y0.5402
N12750 X0.4296 Y0.5429
N12755 X0.4095 Y0.5449
N12760 X0.3982 Y0.5466
N12765 G3 X0.3742 Y0.5284 I-0.0024 J-0.0219
N12770 X0.432 Y0.4574 I0.0597 J-0.0104
N12775 G1 X0.4607 Y0.4575
N12780 X0.4667 Y0.4578
N12785 X0.4725 Y0.4593
N12790 X0.478 Y0.4616
N12795 X0.4869 Y0.4686
N12800 X0.4936 Y0.4776
N12805 X0.4979 Y0.4881
N12810 X0.4993 Y0.4993
N12815 X0.4977 Y0.5105
N12820 X0.4934 Y0.5209
N12825 X0.4865 Y0.5298
N12830 X0.4775 Y0.5367
N12835 X0.4671 Y0.541
N12840 X0.4559 Y0.5425
N12845 X0.432 Y0.5426
N12850 X0.4296 Y0.5429
N12855 G3 X0.4077 Y0.5267 I-0.0014 J-0.021
N12860 X0.4607 Y0.4575 I0.0548 J-0.0129
N12865 G1 X0.4901
N12870 X0.4961 Y0.4578
N12875 X0.5019 Y0.4591
N12880 X0.5075 Y0.4613
N12885 X0.5127 Y0.4643
N12890 X0.5205 Y0.4718
N12895 X0.5262 Y0.4811
N12900 X0.5294 Y0.4914
N12905 X0.5299 Y0.5022
N12910 X0.5278 Y0.5128
N12915 X0.5231 Y0.5226
N12920 X0.5162 Y0.5309
N12925 X0.5074 Y0.5372
N12930 X0.4973 Y0.5412
N12935 X0.4866 Y0.5425
N12940 X0.4579
N12945 X0.4559
N12950 G3 X0.436 Y0.5256 I0.0007 J-0.021
N12955 X0.4901 Y0.4575 I0.0561 J-0.011
N12960 G1 X0.522
N12965 X0.5279 Y0.4578
N12970 X0.5338 Y0.4593
N12975 X0.5393 Y0.4616
N12980 X0.5444 Y0.4647
N12985 X0.552 Y0.4724
N12990 X0.5574 Y0.4817
N12995 X0.5604 Y0.492
N13000 X0.5608 Y0.5027
N13005 X0.5585 Y0.5132
N13010 X0.5538 Y0.5229
N13015 X0.5468 Y0.5311
N13020 X0.538 Y0.5373
N13025 X0.528 Y0.5412
N13030 X0.5173 Y0.5425
N13035 X0.4866
N13040 G3 X0.4666 Y0.5249 I0.0007 J-0.0209
N13045 X0.522 Y0.4575 I0.0573 J-0.0094
N13050 G1 X0.5522
N13055 X0.5582 Y0.4578
N13060 X0.564 Y0.4592
N13065 X0.5695 Y0.4614
N13070 X0.5747 Y0.4644
N13075 X0.5824 Y0.4721
N13080 X0.588 Y0.4813
N13085 X0.5911 Y0.4916
N13090 X0.5915 Y0.5024
N13095 X0.5893 Y0.513
N13100 X0.5846 Y0.5227
N13105 X0.5776 Y0.531
N13110 X0.5689 Y0.5372
N13115 X0.5588 Y0.5412
N13120 X0.5481 Y0.5425
N13125 X0.5173
N13130 G3 X0.4974 Y0.5252 I0.0007 J-0.0209
N13135 X0.5522 Y0.4575 I0.0567 J-0.0102
N13140 G1 X0.5816
N13145 X0.5876 Y0.4578
N13150 X0.5935 Y0.4589
N13155 X0.5991 Y0.461
N13160 X0.6044 Y0.4639
N13165 X0.6123 Y0.4714
N13170 X0.6181 Y0.4806
N13175 X0.6214 Y0.4909
N13180 X0.6221 Y0.5018
N13185 X0.62 Y0.5125
N13190 X0.6154 Y0.5224
N13195 X0.6084 Y0.5307
N13200 X0.5996 Y0.5371
N13205 X0.5895 Y0.5411
N13210 X0.5787 Y0.5425
N13215 X0.5481
N13220 G3 X0.5283 Y0.526 I0.0007 J-0.021
N13225 X0.5816 Y0.4575 I0.0552 J-0.012
N13230 G1 X0.6119
N13235 X0.6179 Y0.4578
N13240 X0.6238 Y0.4589
N13245 X0.6294 Y0.461
N13250 X0.6347 Y0.4638
N13255 X0.6427 Y0.4713
N13260 X0.6485 Y0.4805
N13265 X0.6519 Y0.4909
N13270 X0.6526 Y0.5017
N13275 X0.6505 Y0.5124
N13280 X0.6459 Y0.5223
N13285 X0.6389 Y0.5307
N13290 X0.6301 Y0.5371
N13295 X0.62 Y0.5411
N13300 X0.6092 Y0.5425
N13305 X0.5787
N13310 G3 X0.559 Y0.5262 I0.0007 J-0.021
N13315 X0.6119 Y0.4575 I0.0549 J-0.0124
N13320 G1 X0.6434
N13325 X0.6494 Y0.4578
N13330 X0.6552 Y0.4591
N13335 X0.6608 Y0.4613
N13340 X0.666 Y0.4642
N13345 X0.6738 Y0.4718
N13350 X0.6795 Y0.481
N13355 X0.6827 Y0.4914
N13360 X0.6832 Y0.5022
N13365 X0.6811 Y0.5128
N13370 X0.6764 Y0.5226
N13375 X0.6694 Y0.5309
N13380 X0.6606 Y0.5372
N13385 X0.6505 Y0.5412
N13390 X0.6398 Y0.5425
N13395 X0.6092
N13400 G3 X0.5893 Y0.5256 I0.0007 J-0.021
N13405 X0.6434 Y0.4575 I0.056 J-0.011
N13410 G1 X0.6743
N13415 X0.6803 Y0.4578
N13420 X0.6862 Y0.4591
N13425 X0.6917 Y0.4614
N13430 X0.697 Y0.4644
N13435 X0.7046 Y0.4719
N13440 X0.7102 Y0.4812
N13445 X0.7134 Y0.4915
N13450 X0.7139 Y0.5023
N13455 X0.7117 Y0.5129
N13460 X0.707 Y0.5227
N13465 X0.7 Y0.5309
N13470 X0.6912 Y0.5372
N13475 X0.6812 Y0.5412
N13480 X0.6704 Y0.5425
N13485 X0.6398
N13490 G3 X0.6199 Y0.5254 I0.0007 J-0.0209
N13495 X0.6743 Y0.4575 I0.0564 J-0.0105
N13500 G1 X0.7053
N13505 X0.7113 Y0.4578
N13510 X0.7171 Y0.4592
N13515 X0.7227 Y0.4615
N13520 X0.7279 Y0.4645
N13525 X0.7355 Y0.4721
N13530 X0.741 Y0.4813
N13535 X0.7441 Y0.4917
N13540 X0.7446 Y0.5025
N13545 X0.7424 Y0.513
N13550 X0.7377 Y0.5227
N13555 X0.7307 Y0.531
N13560 X0.7219 Y0.5372
N13565 X0.7119 Y0.5412
N13570 X0.7012 Y0.5425
N13575 X0.6704
N13580 G3 X0.6505 Y0.5252 I0.0007 J-0.0209
N13585 X0.7053 Y0.4575 I0.0568 J-0.0101
N13590 G1 X0.7356
N13595 X0.7416 Y0.4578
N13600 X0.7475 Y0.4591
N13605 X0.753 Y0.4613
N13610 X0.7583 Y0.4643
N13615 X0.766 Y0.4719
N13620 X0.7716 Y0.4811
N13625 X0.7748 Y0.4915
N13630 X0.7753 Y0.5023
N13635 X0.7731 Y0.5129
N13640 X0.7684 Y0.5226
N13645 X0.7614 Y0.5309
N13650 X0.7527 Y0.5372
N13655 X0.7426 Y0.5412
N13660 X0.7318 Y0.5425
N13665 X0.7012
N13670 G3 X0.6813 Y0.5254 I0.0007 J-0.0209
N13675 X0.7356 Y0.4575 I0.0563 J-0.0107
N13680 G1 X0.7671
N13685 X0.7731 Y0.4578
N13690 X0.7789 Y0.4592
N13695 X0.7844 Y0.4616
N13700 X0.7896 Y0.4646
N13705 X0.7972 Y0.4723
N13710 X0.8026 Y0.4816
N13715 X0.8057 Y0.4919
N13720 X0.8061 Y0.5026
N13725 X0.8038 Y0.5132
N13730 X0.7991 Y0.5228
N13735 X0.7921 Y0.531
N13740 X0.7833 Y0.5373
N13745 X0.7733 Y0.5412
N13750 X0.7626 Y0.5425
N13755 X0.7318
N13760 G3 X0.7119 Y0.525 I0.0007 J-0.0209
N13765 X0.7671 Y0.4575 I0.0572 J-0.0095
N13770 G1 X0.798
N13775 X0.804 Y0.4578
N13780 X0.8099 Y0.4593
N13785 X0.8154 Y0.4616
N13790 X0.8205 Y0.4647
N13795 X0.8281 Y0.4723
N13800 X0.8335 Y0.4816
N13805 X0.8365 Y0.492
N13810 X0.8369 Y0.5027
N13815 X0.8346 Y0.5132
N13820 X0.8299 Y0.5229
N13825 X0.8229 Y0.531
N13830 X0.8141 Y0.5373
N13835 X0.8041 Y0.5412
N13840 X0.7935 Y0.5425
N13845 X0.7626
N13850 G3 X0.7427 Y0.5249 I0.0007 J-0.0209
N13855 X0.798 Y0.4575 I0.0574 J-0.0093
N13860 G1 X0.829
N13865 X0.835 Y0.4578
N13870 X0.8408 Y0.4593
N13875 X0.8463 Y0.4617
N13880 X0.8515 Y0.4647
N13885 X0.859 Y0.4724
N13890 X0.8644 Y0.4817
N13895 X0.8674 Y0.492
N13900 X0.8678 Y0.5028
N13905 X0.8655 Y0.5133
N13910 X0.8607 Y0.5229
N13915 X0.8537 Y0.5311
N13920 X0.845 Y0.5373
N13925 X0.835 Y0.5412
N13930 X0.8243 Y0.5425
N13935 X0.7935
N13940 G3 X0.7735 Y0.5248 I0.0007 J-0.0209
N13945 X0.829 Y0.4575 I0.0575 J-0.0091
N13950 G1 X0.8593
N13955 X0.8653 Y0.4578
N13960 X0.8712 Y0.4592
N13965 X0.8767 Y0.4615
N13970 X0.8819 Y0.4645
N13975 X0.8895 Y0.4721
N13980 X0.895 Y0.4814
N13985 X0.8981 Y0.4918
N13990 X0.8985 Y0.5025
N13995 X0.8963 Y0.5131
N14000 X0.8916 Y0.5228
N14005 X0.8846 Y0.531
N14010 X0.8758 Y0.5372
N14015 X0.8658 Y0.5412
N14020 X0.8551 Y0.5425
N14025 G3 X0.8509 Y0.5419 I0.0007 J-0.0212
N14030 X0.8593 Y0.4575 I0.0099 J-0.0416
N14035 G1 X0.8895
N14040 X0.8955 Y0.4578
N14045 X0.9014 Y0.4591
N14050 X0.907 Y0.4613
N14055 X0.9122 Y0.4643
N14060 X0.9199 Y0.4719
N14065 X0.9255 Y0.4811
N14070 X0.9287 Y0.4915
N14075 X0.9292 Y0.5023
N14080 X0.927 Y0.5129
N14085 X0.9223 Y0.5226
N14090 X0.9154 Y0.5309
N14095 X0.9066 Y0.5372
N14100 X0.8965 Y0.5412
N14105 X0.8858 Y0.5425
N14110 G3 X0.8821 Y0.542 I0.0007 J-0.0212
N14115 X0.8895 Y0.4575 I0.009 J-0.0418
N14120 G1 X0.9213
N14125 X0.9273 Y0.4578
N14130 X0.9331 Y0.4593
N14135 X0.9387 Y0.4617
N14140 X0.9438 Y0.4648
N14145 X0.9513 Y0.4724
N14150 X0.9567 Y0.4817
N14155 X0.9597 Y0.492
N14160 X0.9601 Y0.5028
N14165 X0.9578 Y0.5133
N14170 X0.953 Y0.5229
N14175 X0.9461 Y0.5311
N14180 X0.9373 Y0.5373
N14185 X0.9273 Y0.5412
N14190 X0.9166 Y0.5425
N14195 G3 X0.912 Y0.5418 I0.0007 J-0.0212
N14200 X0.9213 Y0.4575 I0.0108 J-0.0415
N14205 G1 X0.943
N14210 X0.9493 Y0.4582
N14215 X0.9549 Y0.4598
N14220 X0.9605 Y0.4624
N14225 X0.9646 Y0.4651
N14230 X0.9688 Y0.4688
N14235 X0.9718 Y0.4722
N14240 X0.9745 Y0.4761
N14245 X0.9766 Y0.48
N14250 X0.9786 Y0.4856
N14255 X0.9797 Y0.4913
N14260 X0.98 Y0.5025
N14265 X0.9798 Y0.5081
N14270 X0.9788 Y0.5138
N14275 X0.9769 Y0.5194
N14280 X0.9738 Y0.525
N14285 X0.9718 Y0.5278
N14290 X0.9672 Y0.5327
N14295 X0.9627 Y0.5363
N14300 X0.9605 Y0.5376
N14305 X0.9549 Y0.5402
N14310 X0.9493 Y0.5418
N14315 X0.9437 Y0.5425
N14320 X0.9381
N14325 X0.8243
N14330 X0.8213 Y0.542 Z-0.2685
N14335 X0.8185 Y0.5414 Z-0.2676
N14340 X0.8159 Y0.541 Z-0.2661
N14345 X0.8137 Y0.5406 Z-0.2641
N14350 X0.8121 Y0.54 Z-0.2619
N14355 X0.811 Y0.5395 Z-0.2594
N14360 X0.8103 Y0.5392 Z-0.2568
N14365 X0.8101 Y0.5391 Z-0.2541
N14370 G0 Z0.2
N14375 X0.544 Y-0.3283
N14380 Z-0.2494
N14385 G1 Z-0.2869 F10.
N14390 X0.5438 Y-0.3281 Z-0.2914
N14395 X0.5432 Y-0.3275 Z-0.2959
N14400 X0.5421 Y-0.3267 Z-0.3002
N14405 X0.5407 Y-0.3254 Z-0.3043
N14410 X0.539 Y-0.3239 Z-0.3082
N14415 X0.5368 Y-0.3221 Z-0.3118
N14420 X0.5344 Y-0.32 Z-0.315
N14425 X0.5317 Y-0.3176 Z-0.3178
N14430 X0.5288 Y-0.3151 Z-0.3201
N14435 X0.5257 Y-0.3124 Z-0.322
N14440 X0.5224 Y-0.3096 Z-0.3233
N14445 X0.519 Y-0.3067 Z-0.3241
N14450 X0.5156 Y-0.3037 Z-0.3244
N14455 G3 X0.3461 Y-0.1862 I-0.6268 J-0.7236
N14460 G1 X0.342 Y-0.1842
N14465 X0.3195 Y-0.1698
N14470 X0.3083 Y-0.1622
N14475 X0.307 Y-0.1612
N14480 X0.297 Y-0.1521
N14485 X0.2949 Y-0.15
N14490 X0.283 Y-0.1392
N14495 X0.2693 Y-0.1289
N14500 X0.2519 Y-0.1177
N14505 X0.2294 Y-0.1057
N14510 X0.2002 Y-0.093
N14515 X0.156 Y-0.0779
N14520 X0.1131 Y-0.0595
N14525 X0.0784 Y-0.0283
N14530 X0.0512 Y0.0097
N14535 X0.0302 Y0.0514
N14540 X0.014 Y0.0952
N14545 X0.0018 Y0.1402
N14550 X-0.0076 Y0.186
N14555 X-0.0146 Y0.2321
N14560 X-0.0199 Y0.2785
N14565 X-0.0238 Y0.3251
N14570 X-0.0268 Y0.3717
N14575 X-0.029 Y0.4183
N14580 X-0.0307 Y0.465
N14585 X-0.032 Y0.5116
N14590 X-0.0329 Y0.5583
N14595 X-0.0336 Y0.605
N14600 X-0.0341 Y0.6517
N14605 X-0.0345 Y0.6984
N14610 X-0.0348 Y0.7451
N14615 X-0.035 Y0.7918
N14620 X-0.0352 Y0.8385
N14625 X-0.0354 Y0.9318
N14630 X-0.0355 Y1.0719
N14635 X-0.0356 Y1.3287
N14640 X-0.03 Y1.3514
N14645 X-0.0089 Y1.393
N14650 X0.0238 Y1.4264
N14655 X0.0625 Y1.4525
N14660 X0.1046 Y1.4727
N14665 X0.1487 Y1.4882
N14670 X0.1938 Y1.4999
N14675 X0.2397 Y1.5088
N14680 X0.2859 Y1.5155
N14685 X0.3323 Y1.5206
N14690 X0.3788 Y1.5244
N14695 X0.4254 Y1.5272
N14700 X0.4721 Y1.5293
N14705 X0.5187 Y1.5309
N14710 X0.5654 Y1.5321
N14715 X0.6121 Y1.533
N14720 X0.6588 Y1.5337
N14725 X0.7055 Y1.5342
N14730 X0.7522 Y1.5345
N14735 X0.7989 Y1.5348
N14740 X0.8456 Y1.535
N14745 X0.9389 Y1.5353
N14750 X1.079 Y1.5355
N14755 X1.3125 Y1.5356
N14760 X2.2463
N14765 X4.2541
N14770 X6.2618
N14775 X8.2696
N14780 X8.3162
N14785 X8.3279 Y1.5351
N14790 X8.3394 Y1.533
N14795 X8.3616 Y1.5259
N14800 X8.4013 Y1.5013
N14805 X8.4329 Y1.467
N14810 X8.4576 Y1.4273
N14815 X8.4766 Y1.3847
N14820 X8.4911 Y1.3403
N14825 X8.5022 Y1.2949
N14830 X8.5105 Y1.249
N14835 X8.5168 Y1.2027
N14840 X8.5215 Y1.1563
N14845 X8.5251 Y1.1097
N14850 X8.5278 Y1.0631
N14855 X8.5297 Y1.0165
N14860 X8.5312 Y0.9698
N14865 X8.5323 Y0.9231
N14870 X8.5332 Y0.8764
N14875 X8.5338 Y0.8297
N14880 X8.5343 Y0.783
N14885 X8.5346 Y0.7364
N14890 X8.5349 Y0.6897
N14895 X8.5351 Y0.643
N14900 X8.5353 Y0.5496
N14905 X8.5355 Y0.4095
N14910 X8.5356 Y0.1761
N14915 X8.5315 Y0.1531
N14920 X8.5119 Y0.1107
N14925 X8.4801 Y0.0765
N14930 X8.4419 Y0.0497
N14935 X8.4 Y0.029
N14940 X8.3561 Y0.0132
N14945 X8.311 Y0.0011
N14950 X8.2652 Y-0.0081
N14955 X8.219 Y-0.015
N14960 X8.1726 Y-0.0202
N14965 X8.1261 Y-0.0241
N14970 X8.0795 Y-0.027
N14975 X8.0619 Y-0.0278
N14980 X8.0484 Y-0.0295
N14985 X8.0354 Y-0.0332
N14990 X8.0231 Y-0.0389
N14995 X8.0118 Y-0.0464
N15000 X8.0088 Y-0.0487
N15005 X8.0005 Y-0.0546
N15010 X7.9769 Y-0.0712
N15015 X7.9443 Y-0.094
N15020 X7.9274 Y-0.105
N15025 X7.9099 Y-0.1162
N15030 X7.8993 Y-0.1213
N15035 X7.8768 Y-0.132
N15040 X7.8383 Y-0.15
N15045 X7.8318 Y-0.1529
N15050 X7.8094 Y-0.1629
N15055 X7.7788 Y-0.1725
N15060 X7.7756 Y-0.1734
N15065 X7.7582 Y-0.1781
N15070 G3 X7.7453 Y-0.185 I0.011 J-0.0359
N15075 G1 X7.7418 Y-0.1879 Z-0.3241
N15080 X7.7384 Y-0.1907 Z-0.3233
N15085 X7.735 Y-0.1934 Z-0.322
N15090 X7.7319 Y-0.1961 Z-0.3201
N15095 X7.7289 Y-0.1985 Z-0.3178
N15100 X7.7261 Y-0.2008 Z-0.315
N15105 X7.7236 Y-0.2028 Z-0.3118
N15110 X7.7215 Y-0.2046 Z-0.3082
N15115 X7.7197 Y-0.2061 Z-0.3043
N15120 X7.7182 Y-0.2073 Z-0.3002
N15125 X7.7172 Y-0.2081 Z-0.2959
N15130 X7.7166 Y-0.2087 Z-0.2914
N15135 X7.7164 Y-0.2088 Z-0.2869
N15140 G0 Z0.2
N15145 X0.2989 Y-0.2012
N15150 Z-0.2494
N15155 G1 Z-0.2869 F10.
N15160 Y-0.2009 Z-0.2914
N15165 X0.299 Y-0.2001 Z-0.2959
N15170 Y-0.1988 Z-0.3002
N15175 X0.2991 Y-0.1969 Z-0.3043
N15180 Y-0.1946 Z-0.3082
N15185 X0.2992 Y-0.1918 Z-0.3118
N15190 X0.2993 Y-0.1886 Z-0.315
N15195 X0.2994 Y-0.185 Z-0.3178
N15200 X0.2996 Y-0.1811 Z-0.3201
N15205 X0.2997 Y-0.177 Z-0.322
N15210 X0.2998 Y-0.1727 Z-0.3233
N15215 X0.3 Y-0.1682 Z-0.3241
N15220 X0.3001 Y-0.1637 Z-0.3244
N15225 G3 X0.2949 Y-0.15 I-0.0192 J0.0006
N15230 G1 X0.2836 Y-0.1387
N15235 X0.2745 Y-0.1284
N15240 X0.2593 Y-0.105
N15245 X0.2524 Y-0.0937
N15250 X0.2521 Y-0.093
N15255 X0.2476 Y-0.0825
N15260 X0.2429 Y-0.0712
N15265 X0.2408 Y-0.0652
N15270 X0.2255 Y-0.0211
N15275 X0.2076 Y0.022
N15280 X0.1915 Y0.0659
N15285 X0.1775 Y0.1104
N15290 X0.1655 Y0.1555
N15295 X0.1555 Y0.2011
N15300 X0.1473 Y0.2471
N15305 X0.1406 Y0.2933
N15310 X0.1352 Y0.3397
N15315 X0.1308 Y0.3862
N15320 X0.1273 Y0.4327
N15325 X0.1245 Y0.4793
N15330 X0.1223 Y0.526
N15335 X0.1206 Y0.5726
N15340 X0.1192 Y0.6193
N15345 X0.1181 Y0.666
N15350 X0.1173 Y0.7127
N15355 X0.1166 Y0.7594
N15360 X0.1161 Y0.8061
N15365 X0.1157 Y0.8527
N15370 X0.1154 Y0.8994
N15375 X0.1152 Y0.9461
N15380 X0.115 Y0.9928
N15385 X0.1147 Y1.0862
N15390 Y1.1329
N15395 X0.1247 Y1.1785
N15400 X0.1478 Y1.219
N15405 X0.1796 Y1.2533
N15410 X0.2169 Y1.2813
N15415 X0.2578 Y1.304
N15420 X0.3008 Y1.322
N15425 X0.3453 Y1.3362
N15430 X0.3906 Y1.3474
N15435 X0.4365 Y1.3561
N15440 X0.4827 Y1.3629
N15445 X0.5291 Y1.3681
N15450 X0.5756 Y1.3722
N15455 X0.6222 Y1.3753
N15460 X0.6688 Y1.3777
N15465 X0.7155 Y1.3796
N15470 X0.7622 Y1.381
N15475 X0.8088 Y1.3821
N15480 X0.8555 Y1.3829
N15485 X0.9022 Y1.3836
N15490 X0.9489 Y1.3841
N15495 X0.9956 Y1.3844
N15500 X1.0423 Y1.3847
N15505 X1.089 Y1.3849
N15510 X1.1824 Y1.3852
N15515 X1.2757 Y1.3854
N15520 X1.4158 Y1.3855
N15525 X1.7427 Y1.3856
N15530 X2.8166
N15535 X4.8243
N15540 X6.8321
N15545 X8.1394
N15550 X8.1845 Y1.3733
N15555 X8.2241 Y1.3487
N15560 X8.2574 Y1.3159
N15565 X8.2847 Y1.278
N15570 X8.3066 Y1.2368
N15575 X8.3241 Y1.1935
N15580 X8.3379 Y1.1489
N15585 X8.3487 Y1.1035
N15590 X8.3571 Y1.0575
N15595 X8.3636 Y1.0113
N15600 X8.3687 Y0.9649
N15605 X8.3726 Y0.9184
N15610 X8.3757 Y0.8718
N15615 X8.378 Y0.8252
N15620 X8.3798 Y0.7785
N15625 X8.3812 Y0.7318
N15630 X8.3822 Y0.6851
N15635 X8.383 Y0.6385
N15640 X8.3836 Y0.5918
N15645 X8.3841 Y0.5451
N15650 X8.3845 Y0.4984
N15655 X8.3847 Y0.4517
N15660 X8.385 Y0.405
N15665 X8.3851 Y0.3583
N15670 X8.3723 Y0.3134
N15675 X8.3473 Y0.274
N15680 X8.3143 Y0.241
N15685 X8.2761 Y0.214
N15690 X8.2348 Y0.1923
N15695 X8.2197 Y0.1863
N15700 X8.2071 Y0.1801
N15705 X8.1956 Y0.172
N15710 X8.1856 Y0.1621
N15715 X8.1774 Y0.1507
N15720 X8.1723 Y0.1425
N15725 X8.1577 Y0.12
N15730 X8.1499 Y0.1088
N15735 X8.1342 Y0.0863
N15740 X8.113 Y0.0563
N15745 X8.1103 Y0.0525
N15750 X8.1018 Y0.0425
N15755 X8.1007 Y0.0413
N15760 X8.0903 Y0.03
N15765 X8.0679 Y0.0075
N15770 X8.0454 Y-0.015
N15775 X8.0341 Y-0.0262
N15780 X8.023 Y-0.0367
N15785 X8.0118 Y-0.0464
N15790 G3 X8.0032 Y-0.0582 I0.0254 J-0.0276
N15795 G1 X8.0013 Y-0.0623 Z-0.3241
N15800 X7.9994 Y-0.0663 Z-0.3233
N15805 X7.9976 Y-0.0702 Z-0.322
N15810 X7.9958 Y-0.074 Z-0.3201
N15815 X7.9942 Y-0.0775 Z-0.3178
N15820 X7.9927 Y-0.0807 Z-0.315
N15825 X7.9913 Y-0.0836 Z-0.3118
N15830 X7.9902 Y-0.0862 Z-0.3082
N15835 X7.9892 Y-0.0883 Z-0.3043
N15840 X7.9884 Y-0.09 Z-0.3002
N15845 X7.9878 Y-0.0912 Z-0.2959
N15850 X7.9875 Y-0.092 Z-0.2914
N15855 X7.9874 Y-0.0922 Z-0.2869
N15860 G0 Z0.2
N15865 X0.2182 Y-0.1114
N15870 Z-0.2494
N15875 G1 Z-0.2869 F10.
N15880 X0.2184 Y-0.1112 Z-0.2914
N15885 X0.2188 Y-0.1105 Z-0.2959
N15890 X0.2196 Y-0.1093 Z-0.3002
N15895 X0.2205 Y-0.1078 Z-0.3043
N15900 X0.2218 Y-0.1058 Z-0.3082
N15905 X0.2233 Y-0.1034 Z-0.3118
N15910 X0.225 Y-0.1007 Z-0.315
N15915 X0.2269 Y-0.0977 Z-0.3178
N15920 X0.229 Y-0.0944 Z-0.3201
N15925 X0.2312 Y-0.091 Z-0.322
N15930 X0.2335 Y-0.0873 Z-0.3233
N15935 X0.2359 Y-0.0835 Z-0.3241
N15940 X0.2383 Y-0.0797 Z-0.3244
N15945 G3 X0.2408 Y-0.0652 I-0.0162 J0.0103
N15950 G1 X0.2365 Y-0.0487
N15955 X0.2335 Y-0.0375
N15960 X0.231 Y-0.015
N15965 X0.2301 Y-0.0037
N15970 X0.23 Y0.03
N15975 Y0.2325
N15980 X0.2302 Y0.2438
N15985 X0.2309 Y0.2663
N15990 X0.2324 Y0.2775
N15995 X0.2343 Y0.2888
N16000 X0.2363 Y0.3
N16005 X0.2369 Y0.3019
N16010 X0.2408 Y0.3161
N16015 X0.2494 Y0.3619
N16020 X0.2552 Y0.4083
N16025 X0.2591 Y0.4548
N16030 X0.2616 Y0.5014
N16035 X0.2632 Y0.5481
N16040 X0.2642 Y0.5948
N16045 X0.2644 Y0.6111
N16050 X0.2633 Y0.6257
N16055 X0.2598 Y0.64
N16060 X0.2539 Y0.6536
N16065 X0.2521 Y0.6571
N16070 X0.2506 Y0.66
N16075 X0.2457 Y0.6713
N16080 X0.2419 Y0.6825
N16085 X0.2351 Y0.705
N16090 X0.2317 Y0.7275
N16095 X0.2305 Y0.7388
N16100 X0.2301 Y0.7612
N16105 X0.23 Y0.7725
N16110 Y0.975
N16115 X0.2301 Y0.9862
N16120 X0.2304 Y1.0087
N16125 X0.2315 Y1.02
N16130 X0.2345 Y1.0425
N16135 X0.241 Y1.065
N16140 X0.2447 Y1.0762
N16145 X0.2496 Y1.0875
N16150 X0.2521 Y1.093
N16155 X0.2551 Y1.0987
N16160 X0.2618 Y1.11
N16165 X0.2633 Y1.1124
N16170 X0.2693 Y1.1212
N16175 X0.2778 Y1.1325
N16180 X0.2858 Y1.1412
N16185 X0.2882 Y1.1437
N16190 X0.297 Y1.1525
N16195 X0.3083 Y1.1623
N16200 X0.3139 Y1.1662
N16205 X0.342 Y1.1841
N16210 X0.3533 Y1.1894
N16215 X0.3645 Y1.1941
N16220 X0.3758 Y1.1977
N16225 X0.3982 Y1.2034
N16230 X0.4095 Y1.2051
N16235 X0.432 Y1.2074
N16240 X0.4339
N16245 X0.4805 Y1.2099
N16250 X0.527 Y1.2143
N16255 X0.5735 Y1.2181
N16260 X0.6201 Y1.2213
N16265 X0.6667 Y1.224
N16270 X0.7133 Y1.2262
N16275 X0.76 Y1.2281
N16280 X0.8067 Y1.2296
N16285 X0.8533 Y1.2308
N16290 X0.9 Y1.2318
N16295 X0.9467 Y1.2326
N16300 X0.9934 Y1.2332
N16305 X1.0401 Y1.2337
N16310 X1.0868 Y1.2341
N16315 X1.1335 Y1.2344
N16320 X1.1802 Y1.2347
N16325 X1.2268 Y1.2349
N16330 X1.3202 Y1.2352
N16335 X1.4603 Y1.2354
N16340 X1.6471 Y1.2355
N16345 X2.0673 Y1.2356
N16350 X2.4408
N16355 X4.4486
N16360 X6.4563
N16365 X7.9505
N16370 X7.9967 Y1.2294
N16375 X8.0395 Y1.2108
N16380 X8.0768 Y1.1827
N16385 X8.1083 Y1.1482
N16390 X8.1342 Y1.1093
N16395 X8.1553 Y1.0677
N16400 X8.1722 Y1.0242
N16405 X8.1858 Y0.9795
N16410 X8.1965 Y0.934
N16415 X8.205 Y0.8881
N16420 X8.2118 Y0.8419
N16425 X8.217 Y0.7955
N16430 X8.219 Y0.7731
N16435 X8.22 Y0.7653
N16440 X8.2217 Y0.7576
N16445 X8.2239 Y0.75
N16450 X8.2316 Y0.7275
N16455 X8.2351 Y0.7163
N16460 X8.2501 Y0.66
N16465 X8.253 Y0.6488
N16470 X8.2592 Y0.6221
N16475 X8.2602 Y0.615
N16480 X8.2626 Y0.5925
N16485 X8.2637 Y0.5813
N16490 X8.2686 Y0.525
N16495 X8.2692 Y0.5138
N16500 X8.2695 Y0.4913
N16505 X8.269 Y0.48
N16510 X8.2661 Y0.4463
N16515 X8.2641 Y0.4238
N16520 X8.2631 Y0.4125
N16525 X8.2609 Y0.39
N16530 X8.2591 Y0.3788
N16535 X8.2543 Y0.3563
N16540 X8.2515 Y0.345
N16545 X8.2364 Y0.2888
N16550 X8.2331 Y0.2775
N16555 X8.2255 Y0.2536
N16560 X8.2213 Y0.2438
N16565 X8.2142 Y0.2281
N16570 X8.2111 Y0.2213
N16575 X8.1953 Y0.1875
N16580 X8.19 Y0.1763
N16585 X8.1792 Y0.1538
N16590 X8.1774 Y0.1507
N16595 G3 X8.1728 Y0.1368 I0.0326 J-0.0185
N16600 G1 X8.1722 Y0.1324 Z-0.3241
N16605 X8.1717 Y0.1279 Z-0.3233
N16610 X8.1712 Y0.1236 Z-0.322
N16615 X8.1707 Y0.1195 Z-0.3201
N16620 X8.1702 Y0.1157 Z-0.3178
N16625 X8.1698 Y0.1122 Z-0.315
N16630 X8.1694 Y0.109 Z-0.3118
N16635 X8.169 Y0.1062 Z-0.3082
N16640 X8.1687 Y0.1039 Z-0.3043
N16645 X8.1685 Y0.102 Z-0.3002
N16650 X8.1683 Y0.1007 Z-0.2959
N16655 X8.1682 Y0.0999 Z-0.2914
N16660 Y0.0996 Z-0.2869
N16665 G0 Z0.2
N16670 X0.3948 Y1.2409
N16675 Z-0.2494
N16680 G1 Z-0.2869 F10.
N16685 X0.395 Y1.2407 Z-0.2914
N16690 X0.3956 Y1.2401 Z-0.2959
N16695 X0.3965 Y1.2391 Z-0.3002
N16700 X0.3978 Y1.2377 Z-0.3043
N16705 X0.3994 Y1.236 Z-0.3082
N16710 X0.4013 Y1.234 Z-0.3118
N16715 X0.4035 Y1.2316 Z-0.315
N16720 X0.4059 Y1.229 Z-0.3178
N16725 X0.4085 Y1.2262 Z-0.3201
N16730 X0.4114 Y1.2232 Z-0.322
N16735 X0.4143 Y1.22 Z-0.3233
N16740 X0.4174 Y1.2168 Z-0.3241
N16745 X0.4204 Y1.2135 Z-0.3244
N16750 G3 X0.4339 Y1.2074 I0.014 J0.0131
N16755 G1 X0.4657 Y1.2075
N16760 X7.5395
N16765 X7.5732 Y1.2072
N16770 X7.6069 Y1.2044
N16775 X7.6407 Y1.2015
N16780 X7.6744 Y1.1983
N16785 X7.6856 Y1.1961
N16790 X7.7081 Y1.1915
N16795 X7.7756 Y1.1734
N16800 X7.7869 Y1.1699
N16805 X7.8094 Y1.1629
N16810 X7.8206 Y1.1581
N16815 X7.8275 Y1.155
N16820 X7.8881 Y1.1267
N16825 X7.8997 Y1.1212
N16830 X7.9106 Y1.1158
N16835 X7.9371 Y1.0987
N16840 X7.9443 Y1.094
N16845 X8.0005 Y1.0546
N16850 X8.0118 Y1.0463
N16855 X8.0343 Y1.0258
N16860 X8.0404 Y1.02
N16865 X8.0793 Y0.9811
N16870 X8.1018 Y0.9576
N16875 X8.1063 Y0.9525
N16880 X8.113 Y0.9437
N16885 X8.1307 Y0.9187
N16890 X8.1467 Y0.8958
N16895 X8.1542 Y0.885
N16900 X8.1693 Y0.8625
N16905 X8.1766 Y0.8512
N16910 X8.1805 Y0.8437
N16915 X8.1917 Y0.8202
N16920 X8.2142 Y0.772
N16925 X8.2192 Y0.7612
N16930 X8.2239 Y0.75
N16935 G3 X8.2325 Y0.7382 I0.034 J0.0158
N16940 G1 X8.2358 Y0.7351 Z-0.3241
N16945 X8.2391 Y0.7321 Z-0.3233
N16950 X8.2423 Y0.7292 Z-0.322
N16955 X8.2453 Y0.7264 Z-0.3201
N16960 X8.2482 Y0.7238 Z-0.3178
N16965 X8.2508 Y0.7213 Z-0.315
N16970 X8.2532 Y0.7192 Z-0.3118
N16975 X8.2552 Y0.7173 Z-0.3082
N16980 X8.257 Y0.7157 Z-0.3043
N16985 X8.2583 Y0.7144 Z-0.3002
N16990 X8.2593 Y0.7135 Z-0.2959
N16995 X8.2599 Y0.713 Z-0.2914
N17000 X8.2601 Y0.7128 Z-0.2869
N17005 G0 Z0.2
N17010 X0.1928 Y0.2754
N17015 Z-0.2494
N17020 G1 Z-0.2869 F10.
N17025 X0.1931 Y0.2755 Z-0.2914
N17030 X0.1938 Y0.2758 Z-0.2959
N17035 X0.195 Y0.2764 Z-0.3002
N17040 X0.1967 Y0.2772 Z-0.3043
N17045 X0.1989 Y0.2782 Z-0.3082
N17050 X0.2014 Y0.2793 Z-0.3118
N17055 X0.2043 Y0.2807 Z-0.315
N17060 X0.2075 Y0.2822 Z-0.3178
N17065 X0.2111 Y0.2838 Z-0.3201
N17070 X0.2148 Y0.2855 Z-0.322
N17075 X0.2187 Y0.2873 Z-0.3233
N17080 X0.2228 Y0.2892 Z-0.3241
N17085 X0.2269 Y0.2911 Z-0.3244
N17090 G3 X0.2369 Y0.3019 I-0.008 J0.0174
N17095 G1 X0.2437 Y0.3225
N17100 X0.2478 Y0.3338
N17105 X0.2521 Y0.3428
N17110 X0.2595 Y0.3563
N17115 X0.2633 Y0.3621
N17120 X0.2757 Y0.3788
N17125 X0.2845 Y0.39
N17130 X0.2957 Y0.4013
N17135 X0.3091 Y0.4162
N17140 X0.32 Y0.4305
N17145 X0.3318 Y0.4487
N17150 X0.3435 Y0.4706
N17155 X0.349 Y0.4832
N17160 X0.3534 Y0.4963
N17165 X0.3554 Y0.5099
N17170 X0.355 Y0.5237
N17175 X0.3522 Y0.5372
N17180 X0.347 Y0.5499
N17185 X0.3397 Y0.5616
N17190 X0.3304 Y0.5718
N17195 X0.3195 Y0.5802
N17200 G3 X0.2641 Y0.5572 I-0.0191 J-0.0323
N17205 G1 X0.2337 Y0.4379
N17210 G3 X0.2957 Y0.4013 I0.0363 J-0.0093
N17215 G1 X0.297 Y0.4026
N17220 X0.3087 Y0.4125
N17225 X0.3195 Y0.4204
N17230 X0.3308 Y0.4273
N17235 X0.342 Y0.434
N17240 X0.3595 Y0.4415
N17245 X0.3657 Y0.4445
N17250 X0.3709 Y0.4476
N17255 X0.3766 Y0.4517
N17260 X0.3819 Y0.4561
N17265 X0.387 Y0.4611
N17270 X0.3921 Y0.467
N17275 X0.3931 Y0.4682
N17280 X0.3991 Y0.4785
N17285 X0.4028 Y0.4899
N17290 X0.4041 Y0.5017
N17295 X0.4029 Y0.5136
N17300 X0.3992 Y0.525
N17305 X0.3932 Y0.5353
N17310 X0.3852 Y0.5441
N17315 X0.3755 Y0.5511
N17320 X0.3645 Y0.5559
N17325 X0.3581 Y0.5588
N17330 G3 X0.3099 Y0.5575 I-0.0226 J-0.0558
N17335 X0.3595 Y0.4415 I0.0268 J-0.0571
N17340 G1 X0.3706 Y0.4463
N17345 X0.3758 Y0.448
N17350 X0.387 Y0.4509
N17355 X0.3982 Y0.4536
N17360 X0.4001 Y0.4538
N17365 X0.406 Y0.4549
N17370 X0.4116 Y0.4571
N17375 X0.4169 Y0.4599
N17380 X0.4218 Y0.4633
N17385 X0.4223 Y0.4636
N17390 X0.4303 Y0.4725
N17395 X0.4359 Y0.4832
N17400 X0.4387 Y0.4949
N17405 X0.4383 Y0.507
N17410 X0.435 Y0.5185
N17415 X0.4288 Y0.5289
N17420 X0.4203 Y0.5373
N17425 X0.4098 Y0.5433
N17430 X0.3982 Y0.5466
N17435 X0.3758 Y0.5523
N17440 X0.3645 Y0.5559
N17445 G3 X0.3312 Y0.5375 I-0.0073 J-0.0262
N17450 X0.4001 Y0.4538 I0.0626 J-0.0187
N17455 G1 X0.4095 Y0.4551
N17460 X0.432 Y0.4574
N17465 X0.438 Y0.458
N17470 X0.4437 Y0.4597
N17475 X0.4533 Y0.4658
N17480 X0.461 Y0.4741
N17485 X0.4662 Y0.4842
N17490 X0.4687 Y0.4953
N17495 X0.4683 Y0.5066
N17500 X0.465 Y0.5175
N17505 X0.459 Y0.5271
N17510 X0.4507 Y0.5349
N17515 X0.4407 Y0.5402
N17520 X0.4296 Y0.5429
N17525 X0.4095 Y0.5449
N17530 X0.3982 Y0.5466
N17535 G3 X0.3742 Y0.5284 I-0.0024 J-0.0219
N17540 X0.432 Y0.4574 I0.0597 J-0.0104
N17545 G1 X0.4607 Y0.4575
N17550 X0.4667 Y0.4578
N17555 X0.4725 Y0.4593
N17560 X0.478 Y0.4616
N17565 X0.4869 Y0.4686
N17570 X0.4936 Y0.4776
N17575 X0.4979 Y0.4881
N17580 X0.4993 Y0.4993
N17585 X0.4977 Y0.5105
N17590 X0.4934 Y0.5209
N17595 X0.4865 Y0.5298
N17600 X0.4775 Y0.5367
N17605 X0.4671 Y0.541
N17610 X0.4559 Y0.5425
N17615 X0.432 Y0.5426
N17620 X0.4296 Y0.5429
N17625 G3 X0.4077 Y0.5267 I-0.0014 J-0.021
N17630 X0.4607 Y0.4575 I0.0548 J-0.0129
N17635 G1 X0.4901
N17640 X0.4961 Y0.4578
N17645 X0.5019 Y0.4591
N17650 X0.5075 Y0.4613
N17655 X0.5127 Y0.4643
N17660 X0.5205 Y0.4718
N17665 X0.5262 Y0.4811
N17670 X0.5294 Y0.4914
N17675 X0.5299 Y0.5022
N17680 X0.5278 Y0.5128
N17685 X0.5231 Y0.5226
N17690 X0.5162 Y0.5309
N17695 X0.5074 Y0.5372
N17700 X0.4973 Y0.5412
N17705 X0.4866 Y0.5425
N17710 X0.4579
N17715 X0.4559
N17720 G3 X0.436 Y0.5256 I0.0007 J-0.021
N17725 X0.4901 Y0.4575 I0.0561 J-0.011
N17730 G1 X0.522
N17735 X0.5279 Y0.4578
N17740 X0.5338 Y0.4593
N17745 X0.5393 Y0.4616
N17750 X0.5444 Y0.4647
N17755 X0.552 Y0.4724
N17760 X0.5574 Y0.4817
N17765 X0.5604 Y0.492
N17770 X0.5608 Y0.5027
N17775 X0.5585 Y0.5132
N17780 X0.5538 Y0.5229
N17785 X0.5468 Y0.5311
N17790 X0.538 Y0.5373
N17795 X0.528 Y0.5412
N17800 X0.5173 Y0.5425
N17805 X0.4866
N17810 G3 X0.4666 Y0.5249 I0.0007 J-0.0209
N17815 X0.522 Y0.4575 I0.0573 J-0.0094
N17820 G1 X0.5522
N17825 X0.5582 Y0.4578
N17830 X0.564 Y0.4592
N17835 X0.5695 Y0.4614
N17840 X0.5747 Y0.4644
N17845 X0.5824 Y0.4721
N17850 X0.588 Y0.4813
N17855 X0.5911 Y0.4916
N17860 X0.5915 Y0.5024
N17865 X0.5893 Y0.513
N17870 X0.5846 Y0.5227
N17875 X0.5776 Y0.531
N17880 X0.5689 Y0.5372
N17885 X0.5588 Y0.5412
N17890 X0.5481 Y0.5425
N17895 X0.5173
N17900 G3 X0.4974 Y0.5252 I0.0007 J-0.0209
N17905 X0.5522 Y0.4575 I0.0567 J-0.0102
N17910 G1 X0.5816
N17915 X0.5876 Y0.4578
N17920 X0.5935 Y0.4589
N17925 X0.5991 Y0.461
N17930 X0.6044 Y0.4639
N17935 X0.6123 Y0.4714
N17940 X0.6181 Y0.4806
N17945 X0.6214 Y0.4909
N17950 X0.6221 Y0.5018
N17955 X0.62 Y0.5125
N17960 X0.6154 Y0.5224
N17965 X0.6084 Y0.5307
N17970 X0.5996 Y0.5371
N17975 X0.5895 Y0.5411
N17980 X0.5787 Y0.5425
N17985 X0.5481
N17990 G3 X0.5283 Y0.526 I0.0007 J-0.021
N17995 X0.5816 Y0.4575 I0.0552 J-0.012
N18000 G1 X0.6119
N18005 X0.6179 Y0.4578
N18010 X0.6238 Y0.4589
N18015 X0.6294 Y0.461
N18020 X0.6347 Y0.4638
N18025 X0.6427 Y0.4713
N18030 X0.6485 Y0.4805
N18035 X0.6519 Y0.4909
N18040 X0.6526 Y0.5017
N18045 X0.6505 Y0.5124
N18050 X0.6459 Y0.5223
N18055 X0.6389 Y0.5307
N18060 X0.6301 Y0.5371
N18065 X0.62 Y0.5411
N18070 X0.6092 Y0.5425
N18075 X0.5787
N18080 G3 X0.559 Y0.5262 I0.0007 J-0.021
N18085 X0.6119 Y0.4575 I0.0549 J-0.0124
N18090 G1 X0.6434
N18095 X0.6494 Y0.4578
N18100 X0.6552 Y0.4591
N18105 X0.6608 Y0.4613
N18110 X0.666 Y0.4642
N18115 X0.6738 Y0.4718
N18120 X0.6795 Y0.481
N18125 X0.6827 Y0.4914
N18130 X0.6832 Y0.5022
N18135 X0.6811 Y0.5128
N18140 X0.6764 Y0.5226
N18145 X0.6694 Y0.5309
N18150 X0.6606 Y0.5372
N18155 X0.6505 Y0.5412
N18160 X0.6398 Y0.5425
N18165 X0.6092
N18170 G3 X0.5893 Y0.5256 I0.0007 J-0.021
N18175 X0.6434 Y0.4575 I0.056 J-0.011
N18180 G1 X0.6743
N18185 X0.6803 Y0.4578
N18190 X0.6862 Y0.4591
N18195 X0.6917 Y0.4614
N18200 X0.697 Y0.4644
N18205 X0.7046 Y0.4719
N18210 X0.7102 Y0.4812
N18215 X0.7134 Y0.4915
N18220 X0.7139 Y0.5023
N18225 X0.7117 Y0.5129
N18230 X0.707 Y0.5227
N18235 X0.7 Y0.5309
N18240 X0.6912 Y0.5372
N18245 X0.6812 Y0.5412
N18250 X0.6704 Y0.5425
N18255 X0.6398
N18260 G3 X0.6199 Y0.5254 I0.0007 J-0.0209
N18265 X0.6743 Y0.4575 I0.0564 J-0.0105
N18270 G1 X0.7053
N18275 X0.7113 Y0.4578
N18280 X0.7171 Y0.4592
N18285 X0.7227 Y0.4615
N18290 X0.7279 Y0.4645
N18295 X0.7355 Y0.4721
N18300 X0.741 Y0.4813
N18305 X0.7441 Y0.4917
N18310 X0.7446 Y0.5025
N18315 X0.7424 Y0.513
N18320 X0.7377 Y0.5227
N18325 X0.7307 Y0.531
N18330 X0.7219 Y0.5372
N18335 X0.7119 Y0.5412
N18340 X0.7012 Y0.5425
N18345 X0.6704
N18350 G3 X0.6505 Y0.5252 I0.0007 J-0.0209
N18355 X0.7053 Y0.4575 I0.0568 J-0.0101
N18360 G1 X0.7356
N18365 X0.7416 Y0.4578
N18370 X0.7475 Y0.4591
N18375 X0.753 Y0.4613
N18380 X0.7583 Y0.4643
N18385 X0.766 Y0.4719
N18390 X0.7716 Y0.4811
N18395 X0.7748 Y0.4915
N18400 X0.7753 Y0.5023
N18405 X0.7731 Y0.5129
N18410 X0.7684 Y0.5226
N18415 X0.7614 Y0.5309
N18420 X0.7527 Y0.5372
N18425 X0.7426 Y0.5412
N18430 X0.7318 Y0.5425
N18435 X0.7012
N18440 G3 X0.6813 Y0.5254 I0.0007 J-0.0209
N18445 X0.7356 Y0.4575 I0.0563 J-0.0107
N18450 G1 X0.7671
N18455 X0.7731 Y0.4578
N18460 X0.7789 Y0.4592
N18465 X0.7844 Y0.4616
N18470 X0.7896 Y0.4646
N18475 X0.7972 Y0.4723
N18480 X0.8026 Y0.4816
N18485 X0.8057 Y0.4919
N18490 X0.8061 Y0.5026
N18495 X0.8038 Y0.5132
N18500 X0.7991 Y0.5228
N18505 X0.7921 Y0.531
N18510 X0.7833 Y0.5373
N18515 X0.7733 Y0.5412
N18520 X0.7626 Y0.5425
N18525 X0.7318
N18530 G3 X0.7119 Y0.525 I0.0007 J-0.0209
N18535 X0.7671 Y0.4575 I0.0572 J-0.0095
N18540 G1 X0.798
N18545 X0.804 Y0.4578
N18550 X0.8099 Y0.4593
N18555 X0.8154 Y0.4616
N18560 X0.8205 Y0.4647
N18565 X0.8281 Y0.4723
N18570 X0.8335 Y0.4816
N18575 X0.8365 Y0.492
N18580 X0.8369 Y0.5027
N18585 X0.8346 Y0.5132
N18590 X0.8299 Y0.5229
N18595 X0.8229 Y0.531
N18600 X0.8141 Y0.5373
N18605 X0.8041 Y0.5412
N18610 X0.7935 Y0.5425
N18615 X0.7626
N18620 G3 X0.7427 Y0.5249 I0.0007 J-0.0209
N18625 X0.798 Y0.4575 I0.0574 J-0.0093
N18630 G1 X0.829
N18635 X0.835 Y0.4578
N18640 X0.8408 Y0.4593
N18645 X0.8463 Y0.4617
N18650 X0.8515 Y0.4647
N18655 X0.859 Y0.4724
N18660 X0.8644 Y0.4817
N18665 X0.8674 Y0.492
N18670 X0.8678 Y0.5028
N18675 X0.8655 Y0.5133
N18680 X0.8607 Y0.5229
N18685 X0.8537 Y0.5311
N18690 X0.845 Y0.5373
N18695 X0.835 Y0.5412
N18700 X0.8243 Y0.5425
N18705 X0.7935
N18710 G3 X0.7735 Y0.5248 I0.0007 J-0.0209
N18715 X0.829 Y0.4575 I0.0575 J-0.0091
N18720 G1 X0.8593
N18725 X0.8653 Y0.4578
N18730 X0.8712 Y0.4592
N18735 X0.8767 Y0.4615
N18740 X0.8819 Y0.4645
N18745 X0.8895 Y0.4721
N18750 X0.895 Y0.4814
N18755 X0.8981 Y0.4918
N18760 X0.8985 Y0.5025
N18765 X0.8963 Y0.5131
N18770 X0.8916 Y0.5228
N18775 X0.8846 Y0.531
N18780 X0.8758 Y0.5372
N18785 X0.8658 Y0.5412
N18790 X0.8551 Y0.5425
N18795 G3 X0.8509 Y0.5419 I0.0007 J-0.0212
N18800 X0.8593 Y0.4575 I0.0099 J-0.0416
N18805 G1 X0.8895
N18810 X0.8955 Y0.4578
N18815 X0.9014 Y0.4591
N18820 X0.907 Y0.4613
N18825 X0.9122 Y0.4643
N18830 X0.9199 Y0.4719
N18835 X0.9255 Y0.4811
N18840 X0.9287 Y0.4915
N18845 X0.9292 Y0.5023
N18850 X0.927 Y0.5129
N18855 X0.9223 Y0.5226
N18860 X0.9154 Y0.5309
N18865 X0.9066 Y0.5372
N18870 X0.8965 Y0.5412
N18875 X0.8858 Y0.5425
N18880 G3 X0.8821 Y0.542 I0.0007 J-0.0212
N18885 X0.8895 Y0.4575 I0.009 J-0.0418
N18890 G1 X0.9213
N18895 X0.9273 Y0.4578
N18900 X0.9331 Y0.4593
N18905 X0.9387 Y0.4617
N18910 X0.9438 Y0.4648
N18915 X0.9513 Y0.4724
N18920 X0.9567 Y0.4817
N18925 X0.9597 Y0.492
N18930 X0.9601 Y0.5028
N18935 X0.9578 Y0.5133
N18940 X0.953 Y0.5229
N18945 X0.9461 Y0.5311
N18950 X0.9373 Y0.5373
N18955 X0.9273 Y0.5412
N18960 X0.9166 Y0.5425
N18965 G3 X0.912 Y0.5418 I0.0007 J-0.0212
N18970 X0.9213 Y0.4575 I0.0108 J-0.0415
N18975 G1 X0.943
N18980 X0.9493 Y0.4582
N18985 X0.9549 Y0.4598
N18990 X0.9605 Y0.4624
N18995 X0.9646 Y0.4651
N19000 X0.9688 Y0.4688
N19005 X0.9718 Y0.4722
N19010 X0.9745 Y0.4761
N19015 X0.9766 Y0.48
N19020 X0.9786 Y0.4856
N19025 X0.9797 Y0.4913
N19030 X0.98 Y0.5025
N19035 X0.9798 Y0.5081
N19040 X0.9788 Y0.5138
N19045 X0.9769 Y0.5194
N19050 X0.9738 Y0.525
N19055 X0.9718 Y0.5278
N19060 X0.9672 Y0.5327
N19065 X0.9627 Y0.5363
N19070 X0.9605 Y0.5376
N19075 X0.9549 Y0.5402
N19080 X0.9493 Y0.5418
N19085 X0.9437 Y0.5425
N19090 X0.9381
N19095 X0.8243
N19100 X0.8213 Y0.542 Z-0.3241
N19105 X0.8185 Y0.5414 Z-0.3232
N19110 X0.8159 Y0.541 Z-0.3217
N19115 X0.8137 Y0.5406 Z-0.3197
N19120 X0.8121 Y0.54 Z-0.3175
N19125 X0.811 Y0.5395 Z-0.315
N19130 X0.8103 Y0.5392 Z-0.3124
N19135 X0.8101 Y0.5391 Z-0.3097
N19140 G0 Z0.2
N19145 X0.544 Y-0.3283
N19150 Z-0.305
N19155 G1 Z-0.3425 F10.
N19160 X0.5438 Y-0.3281 Z-0.347
N19165 X0.5432 Y-0.3275 Z-0.3515
N19170 X0.5421 Y-0.3267 Z-0.3558
N19175 X0.5407 Y-0.3254 Z-0.3599
N19180 X0.539 Y-0.3239 Z-0.3638
N19185 X0.5368 Y-0.3221 Z-0.3674
N19190 X0.5344 Y-0.32 Z-0.3706
N19195 X0.5317 Y-0.3176 Z-0.3734
N19200 X0.5288 Y-0.3151 Z-0.3757
N19205 X0.5257 Y-0.3124 Z-0.3776
N19210 X0.5224 Y-0.3096 Z-0.3789
N19215 X0.519 Y-0.3067 Z-0.3797
N19220 X0.5156 Y-0.3037 Z-0.38
N19225 G3 X0.3461 Y-0.1862 I-0.6268 J-0.7236
N19230 G1 X0.342 Y-0.1842
N19235 X0.3195 Y-0.1698
N19240 X0.3083 Y-0.1622
N19245 X0.307 Y-0.1612
N19250 X0.297 Y-0.1521
N19255 X0.2949 Y-0.15
N19260 X0.283 Y-0.1392
N19265 X0.2693 Y-0.1289
N19270 X0.2519 Y-0.1177
N19275 X0.2294 Y-0.1057
N19280 X0.2002 Y-0.093
N19285 X0.156 Y-0.0779
N19290 X0.1131 Y-0.0595
N19295 X0.0784 Y-0.0283
N19300 X0.0512 Y0.0097
N19305 X0.0302 Y0.0514
N19310 X0.014 Y0.0952
N19315 X0.0018 Y0.1402
N19320 X-0.0076 Y0.186
N19325 X-0.0146 Y0.2321
N19330 X-0.0199 Y0.2785
N19335 X-0.0238 Y0.3251
N19340 X-0.0268 Y0.3717
N19345 X-0.029 Y0.4183
N19350 X-0.0307 Y0.465
N19355 X-0.032 Y0.5116
N19360 X-0.0329 Y0.5583
N19365 X-0.0336 Y0.605
N19370 X-0.0341 Y0.6517
N19375 X-0.0345 Y0.6984
N19380 X-0.0348 Y0.7451
N19385 X-0.035 Y0.7918
N19390 X-0.0352 Y0.8385
N19395 X-0.0354 Y0.9318
N19400 X-0.0355 Y1.0719
N19405 X-0.0356 Y1.3287
N19410 X-0.03 Y1.3514
N19415 X-0.0089 Y1.393
N19420 X0.0238 Y1.4264
N19425 X0.0625 Y1.4525
N19430 X0.1046 Y1.4727
N19435 X0.1487 Y1.4882
N19440 X0.1938 Y1.4999
N19445 X0.2397 Y1.5088
N19450 X0.2859 Y1.5155
N19455 X0.3323 Y1.5206
N19460 X0.3788 Y1.5244
N19465 X0.4254 Y1.5272
N19470 X0.4721 Y1.5293
N19475 X0.5187 Y1.5309
N19480 X0.5654 Y1.5321
N19485 X0.6121 Y1.533
N19490 X0.6588 Y1.5337
N19495 X0.7055 Y1.5342
N19500 X0.7522 Y1.5345
N19505 X0.7989 Y1.5348
N19510 X0.8456 Y1.535
N19515 X0.9389 Y1.5353
N19520 X1.079 Y1.5355
N19525 X1.3125 Y1.5356
N19530 X2.2463
N19535 X4.2541
N19540 X6.2618
N19545 X8.2696
N19550 X8.3162
N19555 X8.3279 Y1.5351
N19560 X8.3394 Y1.533
N19565 X8.3616 Y1.5259
N19570 X8.4013 Y1.5013
N19575 X8.4329 Y1.467
N19580 X8.4576 Y1.4273
N19585 X8.4766 Y1.3847
N19590 X8.4911 Y1.3403
N19595 X8.5022 Y1.2949
N19600 X8.5105 Y1.249
N19605 X8.5168 Y1.2027
N19610 X8.5215 Y1.1563
N19615 X8.5251 Y1.1097
N19620 X8.5278 Y1.0631
N19625 X8.5297 Y1.0165
N19630 X8.5312 Y0.9698
N19635 X8.5323 Y0.9231
N19640 X8.5332 Y0.8764
N19645 X8.5338 Y0.8297
N19650 X8.5343 Y0.783
N19655 X8.5346 Y0.7364
N19660 X8.5349 Y0.6897
N19665 X8.5351 Y0.643
N19670 X8.5353 Y0.5496
N19675 X8.5355 Y0.4095
N19680 X8.5356 Y0.1761
N19685 X8.5315 Y0.1531
N19690 X8.5119 Y0.1107
N19695 X8.4801 Y0.0765
N19700 X8.4419 Y0.0497
N19705 X8.4 Y0.029
N19710 X8.3561 Y0.0132
N19715 X8.311 Y0.0011
N19720 X8.2652 Y-0.0081
N19725 X8.219 Y-0.015
N19730 X8.1726 Y-0.0202
N19735 X8.1261 Y-0.0241
N19740 X8.0795 Y-0.027
N19745 X8.0619 Y-0.0278
N19750 X8.0484 Y-0.0295
N19755 X8.0354 Y-0.0332
N19760 X8.0231 Y-0.0389
N19765 X8.0118 Y-0.0464
N19770 X8.0088 Y-0.0487
N19775 X8.0005 Y-0.0546
N19780 X7.9769 Y-0.0712
N19785 X7.9443 Y-0.094
N19790 X7.9274 Y-0.105
N19795 X7.9099 Y-0.1162
N19800 X7.8993 Y-0.1213
N19805 X7.8768 Y-0.132
N19810 X7.8383 Y-0.15
N19815 X7.8318 Y-0.1529
N19820 X7.8094 Y-0.1629
N19825 X7.7788 Y-0.1725
N19830 X7.7756 Y-0.1734
N19835 X7.7582 Y-0.1781
N19840 G3 X7.7453 Y-0.185 I0.011 J-0.0359
N19845 G1 X7.7418 Y-0.1879 Z-0.3797
N19850 X7.7384 Y-0.1907 Z-0.3789
N19855 X7.735 Y-0.1934 Z-0.3776
N19860 X7.7319 Y-0.1961 Z-0.3757
N19865 X7.7289 Y-0.1985 Z-0.3734
N19870 X7.7261 Y-0.2008 Z-0.3706
N19875 X7.7236 Y-0.2028 Z-0.3674
N19880 X7.7215 Y-0.2046 Z-0.3638
N19885 X7.7197 Y-0.2061 Z-0.3599
N19890 X7.7182 Y-0.2073 Z-0.3558
N19895 X7.7172 Y-0.2081 Z-0.3515
N19900 X7.7166 Y-0.2087 Z-0.347
N19905 X7.7164 Y-0.2088 Z-0.3425
N19910 G0 Z0.2
N19915 X0.2989 Y-0.2012
N19920 Z-0.305
N19925 G1 Z-0.3425 F10.
N19930 Y-0.2009 Z-0.347
N19935 X0.299 Y-0.2001 Z-0.3515
N19940 Y-0.1988 Z-0.3558
N19945 X0.2991 Y-0.1969 Z-0.3599
N19950 Y-0.1946 Z-0.3638
N19955 X0.2992 Y-0.1918 Z-0.3674
N19960 X0.2993 Y-0.1886 Z-0.3706
N19965 X0.2994 Y-0.185 Z-0.3734
N19970 X0.2996 Y-0.1811 Z-0.3757
N19975 X0.2997 Y-0.177 Z-0.3776
N19980 X0.2998 Y-0.1727 Z-0.3789
N19985 X0.3 Y-0.1682 Z-0.3797
N19990 X0.3001 Y-0.1637 Z-0.38
N19995 G3 X0.2949 Y-0.15 I-0.0192 J0.0006
N20000 G1 X0.2836 Y-0.1387
N20005 X0.2745 Y-0.1284
N20010 X0.2593 Y-0.105
N20015 X0.2524 Y-0.0937
N20020 X0.2521 Y-0.093
N20025 X0.2476 Y-0.0825
N20030 X0.2429 Y-0.0712
N20035 X0.2408 Y-0.0652
N20040 X0.2255 Y-0.0211
N20045 X0.2076 Y0.022
N20050 X0.1915 Y0.0659
N20055 X0.1775 Y0.1104
N20060 X0.1655 Y0.1555
N20065 X0.1555 Y0.2011
N20070 X0.1473 Y0.2471
N20075 X0.1406 Y0.2933
N20080 X0.1352 Y0.3397
N20085 X0.1308 Y0.3862
N20090 X0.1273 Y0.4327
N20095 X0.1245 Y0.4793
N20100 X0.1223 Y0.526
N20105 X0.1206 Y0.5726
N20110 X0.1192 Y0.6193
N20115 X0.1181 Y0.666
N20120 X0.1173 Y0.7127
N20125 X0.1166 Y0.7594
N20130 X0.1161 Y0.8061
N20135 X0.1157 Y0.8527
N20140 X0.1154 Y0.8994
N20145 X0.1152 Y0.9461
N20150 X0.115 Y0.9928
N20155 X0.1147 Y1.0862
N20160 Y1.1329
N20165 X0.1247 Y1.1785
N20170 X0.1478 Y1.219
N20175 X0.1796 Y1.2533
N20180 X0.2169 Y1.2813
N20185 X0.2578 Y1.304
N20190 X0.3008 Y1.322
N20195 X0.3453 Y1.3362
N20200 X0.3906 Y1.3474
N20205 X0.4365 Y1.3561
N20210 X0.4827 Y1.3629
N20215 X0.5291 Y1.3681
N20220 X0.5756 Y1.3722
N20225 X0.6222 Y1.3753
N20230 X0.6688 Y1.3777
N20235 X0.7155 Y1.3796
N20240 X0.7622 Y1.381
N20245 X0.8088 Y1.3821
N20250 X0.8555 Y1.3829
N20255 X0.9022 Y1.3836
N20260 X0.9489 Y1.3841
N20265 X0.9956 Y1.3844
N20270 X1.0423 Y1.3847
N20275 X1.089 Y1.3849
N20280 X1.1824 Y1.3852
N20285 X1.2757 Y1.3854
N20290 X1.4158 Y1.3855
N20295 X1.7427 Y1.3856
N20300 X2.8166
N20305 X4.8243
N20310 X6.8321
N20315 X8.1394
N20320 X8.1845 Y1.3733
N20325 X8.2241 Y1.3487
N20330 X8.2574 Y1.3159
N20335 X8.2847 Y1.278
N20340 X8.3066 Y1.2368
N20345 X8.3241 Y1.1935
N20350 X8.3379 Y1.1489
N20355 X8.3487 Y1.1035
N20360 X8.3571 Y1.0575
N20365 X8.3636 Y1.0113
N20370 X8.3687 Y0.9649
N20375 X8.3726 Y0.9184
N20380 X8.3757 Y0.8718
N20385 X8.378 Y0.8252
N20390 X8.3798 Y0.7785
N20395 X8.3812 Y0.7318
N20400 X8.3822 Y0.6851
N20405 X8.383 Y0.6385
N20410 X8.3836 Y0.5918
N20415 X8.3841 Y0.5451
N20420 X8.3845 Y0.4984
N20425 X8.3847 Y0.4517
N20430 X8.385 Y0.405
N20435 X8.3851 Y0.3583
N20440 X8.3723 Y0.3134
N20445 X8.3473 Y0.274
N20450 X8.3143 Y0.241
N20455 X8.2761 Y0.214
N20460 X8.2348 Y0.1923
N20465 X8.2197 Y0.1863
N20470 X8.2071 Y0.1801
N20475 X8.1956 Y0.172
N20480 X8.1856 Y0.1621
N20485 X8.1774 Y0.1507
N20490 X8.1723 Y0.1425
N20495 X8.1577 Y0.12
N20500 X8.1499 Y0.1088
N20505 X8.1342 Y0.0863
N20510 X8.113 Y0.0563
N20515 X8.1103 Y0.0525
N20520 X8.1018 Y0.0425
N20525 X8.1007 Y0.0413
N20530 X8.0903 Y0.03
N20535 X8.0679 Y0.0075
N20540 X8.0454 Y-0.015
N20545 X8.0341 Y-0.0262
N20550 X8.023 Y-0.0367
N20555 X8.0118 Y-0.0464
N20560 G3 X8.0032 Y-0.0582 I0.0254 J-0.0276
N20565 G1 X8.0013 Y-0.0623 Z-0.3797
N20570 X7.9994 Y-0.0663 Z-0.3789
N20575 X7.9976 Y-0.0702 Z-0.3776
N20580 X7.9958 Y-0.074 Z-0.3757
N20585 X7.9942 Y-0.0775 Z-0.3734
N20590 X7.9927 Y-0.0807 Z-0.3706
N20595 X7.9913 Y-0.0836 Z-0.3674
N20600 X7.9902 Y-0.0862 Z-0.3638
N20605 X7.9892 Y-0.0883 Z-0.3599
N20610 X7.9884 Y-0.09 Z-0.3558
N20615 X7.9878 Y-0.0912 Z-0.3515
N20620 X7.9875 Y-0.092 Z-0.347
N20625 X7.9874 Y-0.0922 Z-0.3425
N20630 G0 Z0.2
N20635 X0.2182 Y-0.1114
N20640 Z-0.305
N20645 G1 Z-0.3425 F10.
N20650 X0.2184 Y-0.1112 Z-0.347
N20655 X0.2188 Y-0.1105 Z-0.3515
N20660 X0.2196 Y-0.1093 Z-0.3558
N20665 X0.2205 Y-0.1078 Z-0.3599
N20670 X0.2218 Y-0.1058 Z-0.3638
N20675 X0.2233 Y-0.1034 Z-0.3674
N20680 X0.225 Y-0.1007 Z-0.3706
N20685 X0.2269 Y-0.0977 Z-0.3734
N20690 X0.229 Y-0.0944 Z-0.3757
N20695 X0.2312 Y-0.091 Z-0.3776
N20700 X0.2335 Y-0.0873 Z-0.3789
N20705 X0.2359 Y-0.0835 Z-0.3797
N20710 X0.2383 Y-0.0797 Z-0.38
N20715 G3 X0.2408 Y-0.0652 I-0.0162 J0.0103
N20720 G1 X0.2365 Y-0.0487
N20725 X0.2335 Y-0.0375
N20730 X0.231 Y-0.015
N20735 X0.2301 Y-0.0037
N20740 X0.23 Y0.03
N20745 Y0.2325
N20750 X0.2302 Y0.2438
N20755 X0.2309 Y0.2663
N20760 X0.2324 Y0.2775
N20765 X0.2343 Y0.2888
N20770 X0.2363 Y0.3
N20775 X0.2369 Y0.3019
N20780 X0.2408 Y0.3161
