%
(BRACKET)
(18 600 RPM)
(T1  D=0.375 CR=0. - ZMIN=-1.2296 - FLAT END MILL)
N10 G90 G94 G17 G91.1
N15 G20
N20 G53 G0 Z0.
(ADAPTIVE1)
N25 M9
N30 T1 M6
N35 S1500 M3
N40 G54
N45 M8
N55 G0 X-0.0384 Y-0.4305
N60 G43 Z0.6 H1
N65 G0 Z0.2
N70 Z-0.3187
N75 G1 Z-0.3562 F10.
N80 X-0.0383 Y-0.4303 Z-0.3607
N85 X-0.0381 Y-0.4295 Z-0.3652
N90 X-0.0378 Y-0.4282 Z-0.3695
N95 X-0.0373 Y-0.4264 Z-0.3736
N100 X-0.0367 Y-0.4241 Z-0.3775
N105 X-0.036 Y-0.4214 Z-0.3811
N110 X-0.0352 Y-0.4183 Z-0.3843
N115 X-0.0344 Y-0.4148 Z-0.3871
N120 X-0.0334 Y-0.4111 Z-0.3894
N125 X-0.0324 Y-0.4071 Z-0.3913
N130 X-0.0313 Y-0.4029 Z-0.3926
N135 X-0.0302 Y-0.3986 Z-0.3934
N140 X-0.0291 Y-0.3942 Z-0.3937
N145 G3 X0.0003 Y-0.1901 I-0.9274 J0.2376
N150 G1 Y-0.1841
N155 X-0.0087 Y-0.1382
N160 X-0.0155 Y-0.092
N165 X-0.0206 Y-0.0456
N170 X-0.0245 Y0.0009
N175 X-0.0274 Y0.0475
N180 X-0.0295 Y0.0941
N185 X-0.0312 Y0.1408
N190 X-0.0324 Y0.1875
N195 X-0.0334 Y0.2342
N200 X-0.0341 Y0.2809
N205 X-0.0347 Y0.3275
N210 X-0.0351 Y0.3742
N215 X-0.0354 Y0.4209
N220 X-0.0357 Y0.4676
N225 X-0.0361 Y0.561
N230 X-0.0364 Y0.7011
N235 X-0.0368 Y0.9345
N240 X-0.037 Y1.0746
N245 X-0.0328 Y1.0976
N250 X-0.0133 Y1.14
N255 X0.0186 Y1.1741
N260 X0.0568 Y1.2009
N265 X0.0987 Y1.2216
N270 X0.1426 Y1.2375
N275 X0.1877 Y1.2496
N280 X0.1997 Y1.2532
N285 X0.211 Y1.2584
N290 X0.2215 Y1.2652
N295 X0.2309 Y1.2735
N300 X0.2344 Y1.277
N305 X0.2452 Y1.2868
N310 X0.2457 Y1.2872
N315 X0.2569 Y1.2946
N320 X0.2681 Y1.302
N325 X0.2794 Y1.3091
N330 X0.2797 Y1.3093
N335 X0.2906 Y1.3141
N340 X0.3058 Y1.3205
N345 X0.3131 Y1.3225
N350 X0.3356 Y1.3285
N355 X0.3468 Y1.33
N360 X0.3619 Y1.3317
N365 X0.3693 Y1.3323
N370 X0.403 Y1.3325
N375 X0.6053
N380 X0.6165 Y1.3323
N385 X0.6406 Y1.3317
N390 X0.6502 Y1.3305
N395 X0.6727 Y1.3268
N400 X0.6746 Y1.3262
N405 X0.7038 Y1.3185
N410 X0.7498 Y1.3103
N415 X0.7961 Y1.3042
N420 X0.8426 Y1.2998
N425 X0.8891 Y1.2965
N430 X0.9358 Y1.294
N435 X0.9824 Y1.2922
N440 X1.0291 Y1.2909
N445 X1.0758 Y1.2899
N450 X1.1225 Y1.2891
N455 X1.1691 Y1.2886
N460 X1.2158 Y1.2882
N465 X1.2625 Y1.2879
N470 X1.3092 Y1.2877
N475 X1.3559 Y1.2876
N480 X1.4493 Y1.2874
N485 X1.566 Y1.2873
N490 X1.5777 Y1.2869
N495 X1.5892 Y1.2849
N500 X1.6115 Y1.278
N505 X1.6512 Y1.2535
N510 X1.6829 Y1.2192
N515 X1.7076 Y1.1796
N520 X1.7267 Y1.1369
N525 X1.7413 Y1.0926
N530 X1.7523 Y1.0472
N535 X1.7607 Y1.0013
N540 X1.7671 Y0.955
N545 X1.7718 Y0.9086
N550 X1.7754 Y0.862
N555 X1.7781 Y0.8154
N560 X1.7801 Y0.7688
N565 X1.7816 Y0.7221
N570 X1.7828 Y0.6754
N575 X1.7836 Y0.6287
N580 X1.7843 Y0.5821
N585 X1.7848 Y0.5354
N590 X1.7851 Y0.4887
N595 X1.7854 Y0.442
N600 X1.7856 Y0.3953
N605 X1.7859 Y0.3019
N610 X1.786 Y0.2552
N615 X1.7862 Y0.1618
N620 X1.7786 Y0.1397
N625 X1.755 Y0.0995
N630 X1.7212 Y0.0673
N635 X1.6818 Y0.0422
N640 X1.6393 Y0.0228
N645 X1.595 Y0.008
N650 X1.5497 Y-0.0032
N655 X1.5038 Y-0.0117
N660 X1.4576 Y-0.0181
N665 X1.4111 Y-0.023
N670 X1.3646 Y-0.0266
N675 X1.318 Y-0.0293
N680 X1.2713 Y-0.0313
N685 X1.2246 Y-0.0329
N690 X1.178 Y-0.034
N695 X1.1313 Y-0.0348
N700 X1.0846 Y-0.0355
N705 X1.0379 Y-0.0359
N710 X0.9912 Y-0.0363
N715 X0.9445 Y-0.0366
N720 X0.8978 Y-0.0368
N725 X0.8044 Y-0.037
N730 X0.7812 Y-0.0371
N735 X0.7683 Y-0.038
N740 X0.7557 Y-0.0409
N745 X0.7436 Y-0.0456
N750 X0.7323 Y-0.0521
N755 X0.7289 Y-0.0544
N760 X0.7177 Y-0.0606
N765 X0.7064 Y-0.0657
N770 X0.6952 Y-0.0697
N775 X0.6727 Y-0.0768
N780 X0.6502 Y-0.0805
N785 X0.6406 Y-0.0817
N790 X0.6165 Y-0.0823
N795 X0.6053 Y-0.0825
N800 X0.403
N805 X0.3693 Y-0.0823
N810 X0.3619 Y-0.0817
N815 X0.3468 Y-0.08
N820 X0.3356 Y-0.0785
N825 X0.3131 Y-0.0725
N830 X0.3058 Y-0.0705
N835 X0.2906 Y-0.0641
N840 X0.2797 Y-0.0593
N845 X0.2794 Y-0.0591
N850 X0.2681 Y-0.052
N855 X0.2569 Y-0.0446
N860 X0.2457 Y-0.0372
N865 X0.2452 Y-0.0368
N870 X0.2344 Y-0.027
N875 X0.2219 Y-0.0144
N880 X0.2119 Y-0.0032
N885 X0.2046 Y0.008
N890 X0.1974 Y0.0192
N895 X0.1903 Y0.0305
N900 X0.1895 Y0.0322
N905 X0.1853 Y0.0417
N910 X0.1807 Y0.0529
N915 X0.1782 Y0.0599
N920 X0.1771 Y0.0641
N925 X0.1631 Y0.1087
N930 X0.1514 Y0.1538
N935 X0.1424 Y0.1997
N940 X0.1355 Y0.2458
N945 X0.1302 Y0.2922
N950 X0.1262 Y0.3388
N955 X0.1231 Y0.3853
N960 X0.1208 Y0.432
N965 X0.119 Y0.4786
N970 X0.1177 Y0.5253
N975 X0.1166 Y0.572
N980 X0.1158 Y0.6187
N985 X0.1152 Y0.6654
N990 X0.1147 Y0.7121
N995 X0.1144 Y0.7587
N1000 X0.1141 Y0.8054
N1005 X0.1138 Y0.8521
N1010 X0.1136 Y0.8988
N1015 X0.1286 Y0.9431
N1020 X0.1531 Y0.9804
N1025 X0.1593 Y0.9915
N1030 X0.1638 Y1.0034
N1035 X0.1666 Y1.0158
N1040 X0.1675 Y1.0285
N1045 Y1.0961
N1050 X0.1676 Y1.1298
N1055 X0.1687 Y1.141
N1060 X0.1699 Y1.1522
N1065 G3 X0.1681 Y1.1668 I-0.0374 J0.0028
N1070 G1 X0.1667 Y1.171 Z-0.3934
N1075 X0.1653 Y1.1753 Z-0.3926
N1080 X0.1639 Y1.1794 Z-0.3913
N1085 X0.1626 Y1.1833 Z-0.3894
N1090 X0.1614 Y1.187 Z-0.3871
N1095 X0.1603 Y1.1904 Z-0.3843
N1100 X0.1593 Y1.1934 Z-0.3811
N1105 X0.1584 Y1.1961 Z-0.3775
N1110 X0.1577 Y1.1983 Z-0.3736
N1115 X0.1571 Y1.2 Z-0.3695
N1120 X0.1567 Y1.2013 Z-0.3652
N1125 X0.1564 Y1.2021 Z-0.3607
N1130 X0.1563 Y1.2024 Z-0.3562
N1135 G0 Z0.2
N1140 X0.6477 Y1.37
N1145 Z-0.3187
N1150 G1 Z-0.3562 F10.
N1155 X0.6478 Y1.3698 Z-0.3607
N1160 X0.6481 Y1.369 Z-0.3652
N1165 X0.6487 Y1.3678 Z-0.3695
N1170 X0.6495 Y1.3662 Z-0.3736
N1175 X0.6505 Y1.364 Z-0.3775
N1180 X0.6517 Y1.3615 Z-0.3811
N1185 X0.653 Y1.3586 Z-0.3843
N1190 X0.6546 Y1.3554 Z-0.3871
N1195 X0.6562 Y1.3519 Z-0.3894
N1200 X0.658 Y1.3481 Z-0.3913
N1205 X0.6598 Y1.3442 Z-0.3926
N1210 X0.6617 Y1.3402 Z-0.3934
N1215 X0.6637 Y1.3361 Z-0.3937
N1220 G3 X0.6746 Y1.3262 I0.0174 J0.0082
N1225 G1 X0.6952 Y1.3197
N1230 X0.7064 Y1.3157
N1235 X0.7177 Y1.3106
N1240 X0.7289 Y1.3044
N1245 X0.7383 Y1.2981
N1250 X0.7537 Y1.2868
N1255 X0.7626 Y1.2802
N1260 X0.7739 Y1.2692
N1265 X0.7785 Y1.2644
N1270 X0.7848 Y1.2579
N1275 X0.7971 Y1.2471
N1280 X0.8125 Y1.2355
N1285 X0.8323 Y1.2231
N1290 X0.8572 Y1.21
N1295 X0.8895 Y1.1964
N1300 X0.9323 Y1.1821
N1305 X0.9777 Y1.171
N1310 X1.0236 Y1.1627
N1315 X1.0699 Y1.1564
N1320 X1.1163 Y1.1517
N1325 X1.1629 Y1.1481
N1330 X1.2095 Y1.1454
N1335 X1.2562 Y1.1434
N1340 X1.3028 Y1.1419
N1345 X1.3495 Y1.1407
N1350 X1.3962 Y1.1399
N1355 X1.4405 Y1.1253
N1360 X1.4793 Y1.0992
N1365 X1.5117 Y1.0656
N1370 X1.5381 Y1.0271
N1375 X1.5594 Y0.9855
N1380 X1.5763 Y0.942
N1385 X1.5897 Y0.8973
N1390 X1.6002 Y0.8518
N1395 X1.6083 Y0.8058
N1400 X1.6147 Y0.7595
N1405 X1.6197 Y0.7131
N1410 X1.6235 Y0.6666
N1415 X1.6264 Y0.62
N1420 X1.6287 Y0.5733
N1425 X1.6305 Y0.5267
N1430 X1.6318 Y0.48
N1435 X1.6329 Y0.4333
N1440 X1.6337 Y0.3867
N1445 X1.6313 Y0.34
N1450 X1.6136 Y0.2968
N1455 X1.5853 Y0.2597
N1460 X1.5502 Y0.2289
N1465 X1.5108 Y0.2039
N1470 X1.4686 Y0.1839
N1475 X1.4247 Y0.1681
N1480 X1.3797 Y0.1556
N1485 X1.334 Y0.1459
N1490 X1.2879 Y0.1383
N1495 X1.2416 Y0.1324
N1500 X1.1952 Y0.1278
N1505 X1.1486 Y0.1243
N1510 X1.102 Y0.1216
N1515 X1.0553 Y0.1195
N1520 X1.0087 Y0.1179
N1525 X0.962 Y0.1167
N1530 X0.9153 Y0.1157
N1535 X0.8993 Y0.115
N1540 X0.8845 Y0.1132
N1545 X0.8702 Y0.1088
N1550 X0.8569 Y0.102
N1555 X0.8449 Y0.0932
N1560 X0.8347 Y0.0824
N1565 X0.8263 Y0.07
N1570 X0.8203 Y0.0563
N1575 G3 X0.8188 Y0.0418 I0.0358 J-0.0111
N1580 G1 X0.8192 Y0.0373 Z-0.3934
N1585 X0.8196 Y0.0329 Z-0.3926
N1590 X0.82 Y0.0285 Z-0.3913
N1595 X0.8204 Y0.0244 Z-0.3894
N1600 X0.8207 Y0.0206 Z-0.3871
N1605 X0.8211 Y0.017 Z-0.3843
N1610 X0.8214 Y0.0138 Z-0.3811
N1615 X0.8216 Y0.0111 Z-0.3775
N1620 X0.8218 Y0.0087 Z-0.3736
N1625 X0.822 Y0.0069 Z-0.3695
N1630 X0.8221 Y0.0055 Z-0.3652
N1635 X0.8222 Y0.0047 Z-0.3607
N1640 Y0.0044 Z-0.3562
N1645 G0 Z0.2
N1650 X0.1545 Y0.018
N1655 Z-0.3187
N1660 G1 Z-0.3562 F10.
N1665 X0.1546 Y0.0182 Z-0.3607
N1670 X0.155 Y0.0189 Z-0.3652
N1675 X0.1558 Y0.02 Z-0.3695
N1680 X0.1568 Y0.0216 Z-0.3736
N1685 X0.158 Y0.0236 Z-0.3775
N1690 X0.1595 Y0.0259 Z-0.3811
N1695 X0.1612 Y0.0286 Z-0.3843
N1700 X0.1632 Y0.0316 Z-0.3871
N1705 X0.1652 Y0.0349 Z-0.3894
N1710 X0.1675 Y0.0384 Z-0.3913
N1715 X0.1698 Y0.042 Z-0.3926
N1720 X0.1722 Y0.0458 Z-0.3934
N1725 X0.1746 Y0.0496 Z-0.3937
N1730 G3 X0.1771 Y0.0641 I-0.0162 J0.0103
N1735 G1 X0.1713 Y0.0866
N1740 X0.1699 Y0.0978
N1745 X0.1687 Y0.109
N1750 X0.1676 Y0.1202
N1755 X0.1675 Y0.1539
N1760 Y1.0285
N1765 G3 X0.1641 Y1.0427 I-0.0375 J-0.0013
N1770 G1 X0.1623 Y1.0468 Z-0.3934
N1775 X0.1604 Y1.0509 Z-0.3926
N1780 X0.1586 Y1.0548 Z-0.3913
N1785 X0.1569 Y1.0586 Z-0.3894
N1790 X0.1553 Y1.0621 Z-0.3871
N1795 X0.1538 Y1.0653 Z-0.3843
N1800 X0.1525 Y1.0682 Z-0.3811
N1805 X0.1513 Y1.0708 Z-0.3775
N1810 X0.1504 Y1.0729 Z-0.3736
N1815 X0.1496 Y1.0746 Z-0.3695
N1820 X0.149 Y1.0758 Z-0.3652
N1825 X0.1487 Y1.0766 Z-0.3607
N1830 X0.1486 Y1.0768 Z-0.3562
N1835 G0 Z0.2
N1840 X0.779 Y1.3158
N1845 Z-0.3187
N1850 G1 Z-0.3562 F10.
N1855 Y1.3155 Z-0.3607
N1860 X0.7789 Y1.3147 Z-0.3652
N1865 X0.7788 Y1.3134 Z-0.3695
N1870 X0.7785 Y1.3115 Z-0.3736
N1875 X0.7782 Y1.3092 Z-0.3775
N1880 X0.7779 Y1.3065 Z-0.3811
N1885 X0.7775 Y1.3033 Z-0.3843
N1890 X0.7771 Y1.2997 Z-0.3871
N1895 X0.7766 Y1.2959 Z-0.3894
N1900 X0.7761 Y1.2918 Z-0.3913
N1905 X0.7756 Y1.2875 Z-0.3926
N1910 X0.7751 Y1.2831 Z-0.3934
N1915 X0.7745 Y1.2786 Z-0.3937
N1920 G3 X0.7785 Y1.2644 I0.0191 J-0.0023
N1925 G1 X0.788 Y1.2532
N1930 X0.7958 Y1.242
N1935 X0.8076 Y1.2231
N1940 X0.8094 Y1.2195
N1945 X0.8191 Y1.1971
N1950 X0.8202 Y1.1937
N1955 X0.8236 Y1.1855
N1960 X0.8286 Y1.1755
N1965 X0.835 Y1.1649
N1970 X0.8438 Y1.1527
N1975 X0.8543 Y1.1404
N1980 X0.8678 Y1.1269
N1985 X0.8844 Y1.1128
N1990 X0.9051 Y1.0979
N1995 X0.9302 Y1.0827
N2000 X0.962 Y1.0669
N2005 X1.0024 Y1.0506
N2010 X1.0469 Y1.0367
N2015 X1.0924 Y1.0258
N2020 X1.1383 Y1.0173
N2025 X1.1845 Y1.0107
N2030 X1.2308 Y1.0048
N2035 X1.2745 Y0.9884
N2040 X1.3134 Y0.9625
N2045 X1.3466 Y0.9297
N2050 X1.3743 Y0.8921
N2055 X1.397 Y0.8513
N2060 X1.4155 Y0.8084
N2065 X1.4304 Y0.7642
N2070 X1.4422 Y0.719
N2075 X1.4517 Y0.6733
N2080 X1.4592 Y0.6272
N2085 X1.4651 Y0.5809
N2090 X1.4697 Y0.5344
N2095 X1.4618 Y0.4884
N2100 X1.4409 Y0.4466
N2105 X1.4111 Y0.4108
N2110 X1.3752 Y0.3809
N2115 X1.3354 Y0.3564
N2120 X1.2931 Y0.3366
N2125 X1.2492 Y0.3208
N2130 X1.2042 Y0.3083
N2135 X1.1586 Y0.2983
N2140 X1.1126 Y0.2905
N2145 X1.0663 Y0.2843
N2150 X1.0199 Y0.2792
N2155 X0.9736 Y0.2734
N2160 X0.934 Y0.2659
N2165 X0.9027 Y0.2574
N2170 X0.8903 Y0.253
N2175 X0.8764 Y0.2465
N2180 X0.8639 Y0.2378
N2185 X0.8531 Y0.227
N2190 X0.8443 Y0.2145
N2195 X0.8378 Y0.2006
N2200 X0.8338 Y0.1859
N2205 X0.8325 Y0.1706
N2210 Y0.1539
N2215 X0.8324 Y0.1202
N2220 X0.8313 Y0.109
N2225 G3 X0.8334 Y0.0945 I0.0374 J-0.0021
N2230 G1 X0.8349 Y0.0902 Z-0.3934
N2235 X0.8364 Y0.086 Z-0.3926
N2240 X0.8378 Y0.082 Z-0.3913
N2245 X0.8392 Y0.0781 Z-0.3894
N2250 X0.8405 Y0.0744 Z-0.3871
N2255 X0.8417 Y0.071 Z-0.3843
N2260 X0.8427 Y0.068 Z-0.3811
N2265 X0.8436 Y0.0654 Z-0.3775
N2270 X0.8444 Y0.0632 Z-0.3736
N2275 X0.845 Y0.0614 Z-0.3695
N2280 X0.8455 Y0.0602 Z-0.3652
N2285 X0.8458 Y0.0594 Z-0.3607
N2290 Y0.0591 Z-0.3562
N2295 G0 Z0.2
N2300 X0.8392 Y1.2415
N2305 Z-0.3187
N2310 G1 Z-0.3562 F10.
N2315 X0.8391 Y1.2413 Z-0.3607
N2320 X0.8387 Y1.2405 Z-0.3652
N2325 X0.8381 Y1.2393 Z-0.3695
N2330 X0.8372 Y1.2377 Z-0.3736
N2335 X0.8361 Y1.2356 Z-0.3775
N2340 X0.8348 Y1.2332 Z-0.3811
N2345 X0.8333 Y1.2303 Z-0.3843
N2350 X0.8316 Y1.2272 Z-0.3871
N2355 X0.8298 Y1.2238 Z-0.3894
N2360 X0.8279 Y1.2201 Z-0.3913
N2365 X0.8258 Y1.2163 Z-0.3926
N2370 X0.8237 Y1.2124 Z-0.3934
N2375 X0.8216 Y1.2084 Z-0.3937
N2380 G3 X0.8202 Y1.1937 I0.017 J-0.009
N2385 G1 X0.823 Y1.1859
N2390 X0.8287 Y1.1634
N2395 X0.8301 Y1.1522
N2400 X0.8313 Y1.141
N2405 X0.8324 Y1.1298
N2410 Y1.1236
N2415 X0.8327 Y1.1172
N2420 X0.834 Y1.1077
N2425 X0.8362 Y1.098
N2430 X0.8396 Y1.0868
N2435 X0.8444 Y1.0745
N2440 X0.8507 Y1.0618
N2445 X0.8594 Y1.0471
N2450 X0.8696 Y1.0327
N2455 X0.883 Y1.0168
N2460 X0.8991 Y1.0004
N2465 X0.919 Y0.9832
N2470 X0.9428 Y0.9658
N2475 X0.9724 Y0.9475
N2480 X1.0088 Y0.9289
N2485 X1.052 Y0.9111
N2490 X1.0949 Y0.8927
N2495 X1.1345 Y0.868
N2500 X1.1696 Y0.8372
N2505 X1.1999 Y0.8017
N2510 X1.2255 Y0.7626
N2515 X1.2468 Y0.721
N2520 X1.2539 Y0.6988
N2525 X1.2553 Y0.6755
N2530 X1.2484 Y0.6293
N2535 X1.2268 Y0.588
N2540 X1.1959 Y0.5529
N2545 X1.1592 Y0.524
N2550 X1.1189 Y0.5004
N2555 X1.0766 Y0.4808
N2560 X1.0331 Y0.4637
N2565 X0.9892 Y0.4479
N2570 X0.9454 Y0.4317
N2575 X0.9042 Y0.4144
N2580 X0.874 Y0.3987
N2585 X0.8736 Y0.3984
N2590 X0.8618 Y0.3896
N2595 X0.8516 Y0.3789
N2600 X0.8435 Y0.3667
N2605 X0.8374 Y0.3532
N2610 X0.8337 Y0.339
N2615 X0.8325 Y0.3243
N2620 Y0.1706
N2625 G3 X0.8359 Y0.1564 I0.0375 J0.0013
N2630 G1 X0.8377 Y0.1523 Z-0.3934
N2635 X0.8396 Y0.1482 Z-0.3926
N2640 X0.8414 Y0.1443 Z-0.3913
N2645 X0.8431 Y0.1405 Z-0.3894
N2650 X0.8447 Y0.137 Z-0.3871
N2655 X0.8462 Y0.1338 Z-0.3843
N2660 X0.8475 Y0.1309 Z-0.3811
N2665 X0.8487 Y0.1283 Z-0.3775
N2670 X0.8496 Y0.1262 Z-0.3736
N2675 X0.8504 Y0.1245 Z-0.3695
N2680 X0.851 Y0.1233 Z-0.3652
N2685 X0.8513 Y0.1225 Z-0.3607
N2690 X0.8514 Y0.1223 Z-0.3562
N2695 G0 Z0.2
N2700 X0.8658 Y1.1627
N2705 Z-0.3187
N2710 G1 Z-0.3562 F10.
N2715 X0.8656 Y1.1625 Z-0.3607
N2720 X0.865 Y1.162 Z-0.3652
N2725 X0.864 Y1.161 Z-0.3695
N2730 X0.8627 Y1.1598 Z-0.3736
N2735 X0.8609 Y1.1582 Z-0.3775
N2740 X0.8589 Y1.1563 Z-0.3811
N2745 X0.8566 Y1.1541 Z-0.3843
N2750 X0.854 Y1.1516 Z-0.3871
N2755 X0.8511 Y1.149 Z-0.3894
N2760 X0.8481 Y1.1461 Z-0.3913
N2765 X0.845 Y1.1432 Z-0.3926
N2770 X0.8417 Y1.1401 Z-0.3934
N2775 X0.8384 Y1.137 Z-0.3937
N2780 G3 X0.8324 Y1.1236 I0.0131 J-0.014
N2785 G1 X0.8325 Y1.0961
N2790 Y1.0176
N2795 X0.8328 Y1.0106
N2800 X0.8332 Y1.0046
N2805 X0.8338 Y0.9987
N2810 X0.8347 Y0.9927
N2815 X0.8358 Y0.9868
N2820 X0.8371 Y0.981
N2825 X0.8387 Y0.9752
N2830 X0.8404 Y0.9695
N2835 X0.8424 Y0.9638
N2840 X0.8445 Y0.9582
N2845 X0.8468 Y0.9526
N2850 X0.8492 Y0.9472
N2855 X0.8519 Y0.9418
N2860 X0.8546 Y0.9364
N2865 X0.8575 Y0.9312
N2870 X0.8606 Y0.926
N2875 X0.8637 Y0.9209
N2880 X0.867 Y0.9159
N2885 X0.8704 Y0.9109
N2890 X0.8739 Y0.9061
N2895 X0.8776 Y0.9013
N2900 X0.8813 Y0.8966
N2905 X0.8851 Y0.892
N2910 X0.889 Y0.8874
N2915 X0.8929 Y0.8829
N2920 X0.897 Y0.8785
N2925 X0.9011 Y0.8741
N2930 X0.9052 Y0.8697
N2935 X0.9099 Y0.865
N2940 X0.9263 Y0.8484
N2945 X0.9386 Y0.836
N2950 X0.9468 Y0.8276
N2955 X0.9537 Y0.8183
N2960 X0.9594 Y0.8081
N2965 X0.9637 Y0.7972
N2970 X0.9664 Y0.7858
N2975 X0.9677 Y0.7742
N2980 X0.9673 Y0.7626
N2985 X0.9655 Y0.7511
N2990 X0.9621 Y0.7399
N2995 X0.9427 Y0.6974
N3000 X0.9121 Y0.6622
N3005 X0.8787 Y0.6295
N3010 X0.8627 Y0.6145
N3015 X0.8596 Y0.6116
N3020 X0.8502 Y0.601
N3025 X0.8426 Y0.5891
N3030 X0.837 Y0.5761
N3035 X0.8336 Y0.5624
N3040 X0.8325 Y0.5483
N3045 Y0.3243
N3050 G3 X0.8359 Y0.31 I0.0375 J0.0013
N3055 G1 X0.8377 Y0.3059 Z-0.3934
N3060 X0.8396 Y0.3019 Z-0.3926
N3065 X0.8414 Y0.2979 Z-0.3913
N3070 X0.8431 Y0.2942 Z-0.3894
N3075 X0.8447 Y0.2906 Z-0.3871
N3080 X0.8462 Y0.2874 Z-0.3843
N3085 X0.8475 Y0.2845 Z-0.3811
N3090 X0.8487 Y0.2819 Z-0.3775
N3095 X0.8496 Y0.2798 Z-0.3736
N3100 X0.8504 Y0.2781 Z-0.3695
N3105 X0.851 Y0.2769 Z-0.3652
N3110 X0.8513 Y0.2762 Z-0.3607
N3115 X0.8514 Y0.2759 Z-0.3562
N3120 G0 Z0.2
N3125 X0.8661 Y1.0565
N3130 Z-0.3187
N3135 G1 Z-0.3562 F10.
N3140 X0.8659 Y1.0564 Z-0.3607
N3145 X0.8653 Y1.0558 Z-0.3652
N3150 X0.8643 Y1.0549 Z-0.3695
N3155 X0.8629 Y1.0536 Z-0.3736
N3160 X0.8612 Y1.052 Z-0.3775
N3165 X0.8592 Y1.0501 Z-0.3811
N3170 X0.8568 Y1.0479 Z-0.3843
N3175 X0.8542 Y1.0455 Z-0.3871
N3180 X0.8514 Y1.0429 Z-0.3894
N3185 X0.8484 Y1.0401 Z-0.3913
N3190 X0.8452 Y1.0371 Z-0.3926
N3195 X0.8419 Y1.0341 Z-0.3934
N3200 X0.8386 Y1.031 Z-0.3937
N3205 G3 X0.8325 Y1.0176 I0.0131 J-0.0141
N3210 G1 Y0.5483
N3215 X0.833 Y0.5453 Z-0.3934
N3220 X0.8336 Y0.5425 Z-0.3925
N3225 X0.834 Y0.5399 Z-0.391
N3230 X0.8344 Y0.5376 Z-0.3889
N3235 X0.835 Y0.5361 Z-0.3868
N3240 X0.8355 Y0.535 Z-0.3843
N3245 X0.8358 Y0.5343 Z-0.3817
N3250 X0.8359 Y0.534 Z-0.379
N3255 G0 Z0.2
N3260 X-0.0385 Y-0.0597
N3265 Z0.0356
N3270 G1 Z-0.0019 F10.
N3275 X-0.0383 Y-0.0596 Z-0.0064
N3280 X-0.0375 Y-0.0593 Z-0.0108
N3285 X-0.0363 Y-0.0588 Z-0.0152
N3290 X-0.0346 Y-0.0581 Z-0.0193
N3295 X-0.0324 Y-0.0573 Z-0.0232
N3300 X-0.0298 Y-0.0562 Z-0.0267
N3305 X-0.0268 Y-0.055 Z-0.0299
N3310 X-0.0235 Y-0.0537 Z-0.0327
N3315 X-0.0199 Y-0.0523 Z-0.0351
N3320 X-0.0161 Y-0.0507 Z-0.0369
N3325 X-0.0121 Y-0.0491 Z-0.0383
N3330 X-0.0079 Y-0.0475 Z-0.0391
N3335 X-0.0037 Y-0.0458 Z-0.0394
N3340 G3 X0.1785 Y0.0508 I-0.3546 J0.8893
N3345 G1 X0.181 Y0.0526
N3350 X0.1823 Y0.0553
N3355 X0.1821 Y0.0584
N3360 X0.1803 Y0.0641
N3365 X0.1744 Y0.0866
N3370 X0.173 Y0.0978
N3375 X0.1717 Y0.109
N3380 X0.1707 Y0.1202
N3385 X0.1706 Y0.1539
N3390 Y1.0961
N3395 X0.1707 Y1.1298
N3400 X0.1717 Y1.141
N3405 X0.173 Y1.1522
N3410 X0.1744 Y1.1634
N3415 X0.1803 Y1.1859
N3420 X0.1839 Y1.1971
N3425 X0.1884 Y1.2083
N3430 X0.1938 Y1.2195
N3435 X0.201 Y1.2308
N3440 X0.2119 Y1.2475
N3445 X0.2158 Y1.2532
N3450 X0.2232 Y1.2609
N3455 X0.2377 Y1.2756
N3460 X0.2457 Y1.2833
N3465 X0.2508 Y1.2868
N3470 X0.2677 Y1.2981
N3475 X0.2678
N3480 G2 X0.2739 Y1.3036 I0.0666 J-0.0675
N3485 X0.2791 Y1.3073 I0.0239 J-0.0289
N3490 X0.2838 Y1.3095 I0.0187 J-0.0325
N3495 G1 X0.316 Y1.3225
N3500 G2 X0.3209 Y1.3241 I0.014 J-0.0348
N3505 X0.3273 Y1.3252 I0.0091 J-0.0364
N3510 X0.3355 Y1.3254 I0.0071 J-0.0945
N3515 G1 X0.3356
N3520 X0.3468 Y1.3269
N3525 X0.358 Y1.3282
N3530 X0.3693 Y1.3293
N3535 X0.403 Y1.3294
N3540 X0.6053
N3545 X0.6165 Y1.3293
N3550 X0.639 Y1.3287
N3555 X0.6502 Y1.3274
N3560 X0.6727 Y1.3237
N3565 X0.6952 Y1.3164
N3570 X0.7064 Y1.3125
N3575 X0.7131 Y1.3093
N3580 X0.7289 Y1.3008
N3585 X0.7334 Y1.2981
N3590 X0.757 Y1.281
N3595 X0.7598 Y1.2787
N3600 X0.7628 Y1.2756
N3605 X0.7851 Y1.2518
N3610 X0.789 Y1.2469
N3615 X0.7925 Y1.242
N3620 X0.7994 Y1.2308
N3625 X0.806 Y1.2195
N3630 X0.8158 Y1.1971
N3635 X0.8188 Y1.1899
N3640 X0.8201 Y1.1859
N3645 X0.823 Y1.1747
N3650 X0.8257 Y1.1634
N3655 X0.827 Y1.1522
N3660 X0.8283 Y1.141
N3665 X0.8293 Y1.1298
N3670 X0.8294 Y1.0961
N3675 Y0.1539
N3680 X0.8293 Y0.1202
N3685 X0.8283 Y0.109
N3690 X0.827 Y0.0978
N3695 X0.8257 Y0.0866
N3700 X0.823 Y0.0753
N3705 X0.8201 Y0.0641
N3710 X0.8188 Y0.0601
N3715 X0.8158 Y0.0529
N3720 X0.806 Y0.0305
N3725 X0.7994 Y0.0192
N3730 X0.7925 Y0.008
N3735 X0.789 Y0.0031
N3740 X0.7851 Y-0.0018
N3745 X0.7626 Y-0.0259
N3750 X0.7598 Y-0.0287
N3755 X0.757 Y-0.031
N3760 X0.7401 Y-0.0432
N3765 G2 X0.7341 Y-0.0491 I-0.0702 J0.0656
N3770 X0.7245 Y-0.0554 I-0.0251 J0.0279
N3775 G1 X0.6922 Y-0.07
N3780 G2 X0.6811 Y-0.0731 I-0.0154 J0.0342
N3785 X0.6727 Y-0.0737 I-0.0112 J0.0954
N3790 G1 X0.6502 Y-0.0774
N3795 X0.639 Y-0.0787
N3800 X0.6165 Y-0.0793
N3805 X0.6053 Y-0.0794
N3810 X0.403
N3815 X0.3693 Y-0.0793
N3820 X0.358 Y-0.0782
N3825 X0.3468 Y-0.0769
N3830 X0.3356 Y-0.0754
N3835 X0.3174 Y-0.0705
N3840 G3 X0.306 Y-0.0696 I-0.0085 J-0.0365
N3845 G1 X0.3028 Y-0.0699
N3850 X0.2007 Y-0.0777
N3855 G2 X0.1938 Y-0.003 I-0.0029 J0.0374
N3860 G3 X0.2082 Y0.0002 I-0.0073 J0.068
N3865 G1 X0.2101 Y0.0009
N3870 X0.211 Y0.0026
N3875 X0.2106 Y0.0046
N3880 X0.2085 Y0.0067 Z-0.0391
N3885 X0.2065 Y0.0088 Z-0.0381
N3890 X0.2047 Y0.0107 Z-0.0366
N3895 X0.2031 Y0.0124 Z-0.0346
N3900 X0.2018 Y0.0134 Z-0.0324
N3905 X0.2008 Y0.0141 Z-0.03
N3910 X0.2002 Y0.0145 Z-0.0274
N3915 X0.2 Y0.0146 Z-0.0246
N3920 G0 Z0.2
N3925 X-0.0384 Y-0.4305
N3930 Z-0.7124
N3935 G1 Z-0.7499 F10.
N3940 X-0.0383 Y-0.4303 Z-0.7544
N3945 X-0.0381 Y-0.4295 Z-0.7589
N3950 X-0.0378 Y-0.4282 Z-0.7632
N3955 X-0.0373 Y-0.4264 Z-0.7673
N3960 X-0.0367 Y-0.4241 Z-0.7712
N3965 X-0.036 Y-0.4214 Z-0.7748
N3970 X-0.0352 Y-0.4183 Z-0.778
N3975 X-0.0344 Y-0.4148 Z-0.7808
N3980 X-0.0334 Y-0.4111 Z-0.7831
N3985 X-0.0324 Y-0.4071 Z-0.785
N3990 X-0.0313 Y-0.4029 Z-0.7863
N3995 X-0.0302 Y-0.3986 Z-0.7871
N4000 X-0.0291 Y-0.3942 Z-0.7874
N4005 G3 X0.0003 Y-0.1901 I-0.9274 J0.2376
N4010 G1 Y-0.1841
N4015 X-0.0087 Y-0.1382
N4020 X-0.0155 Y-0.092
N4025 X-0.0206 Y-0.0456
N4030 X-0.0245 Y0.0009
N4035 X-0.0274 Y0.0475
N4040 X-0.0295 Y0.0941
N4045 X-0.0312 Y0.1408
N4050 X-0.0324 Y0.1875
N4055 X-0.0334 Y0.2342
N4060 X-0.0341 Y0.2809
N4065 X-0.0347 Y0.3275
N4070 X-0.0351 Y0.3742
N4075 X-0.0354 Y0.4209
N4080 X-0.0357 Y0.4676
N4085 X-0.0361 Y0.561
N4090 X-0.0364 Y0.7011
N4095 X-0.0368 Y0.9345
N4100 X-0.037 Y1.0746
N4105 X-0.0328 Y1.0976
N4110 X-0.0133 Y1.14
N4115 X0.0186 Y1.1741
N4120 X0.0568 Y1.2009
N4125 X0.0987 Y1.2216
N4130 X0.1426 Y1.2375
N4135 X0.1877 Y1.2496
N4140 X0.1997 Y1.2532
N4145 X0.211 Y1.2584
N4150 X0.2215 Y1.2652
N4155 X0.2309 Y1.2735
N4160 X0.2344 Y1.277
N4165 X0.2452 Y1.2868
N4170 X0.2457 Y1.2872
N4175 X0.2569 Y1.2946
N4180 X0.2681 Y1.302
N4185 X0.2794 Y1.3091
N4190 X0.2797 Y1.3093
N4195 X0.2906 Y1.3141
N4200 X0.3058 Y1.3205
N4205 X0.3131 Y1.3225
N4210 X0.3356 Y1.3285
N4215 X0.3468 Y1.33
N4220 X0.3619 Y1.3317
N4225 X0.3693 Y1.3323
N4230 X0.403 Y1.3325
N4235 X0.6053
N4240 X0.6165 Y1.3323
N4245 X0.6406 Y1.3317
N4250 X0.6502 Y1.3305
N4255 X0.6727 Y1.3268
N4260 X0.6746 Y1.3262
N4265 X0.7038 Y1.3185
N4270 X0.7498 Y1.3103
N4275 X0.7961 Y1.3042
N4280 X0.8426 Y1.2998
N4285 X0.8891 Y1.2965
N4290 X0.9358 Y1.294
N4295 X0.9824 Y1.2922
N4300 X1.0291 Y1.2909
N4305 X1.0758 Y1.2899
N4310 X1.1225 Y1.2891
N4315 X1.1691 Y1.2886
N4320 X1.2158 Y1.2882
N4325 X1.2625 Y1.2879
N4330 X1.3092 Y1.2877
N4335 X1.3559 Y1.2876
N4340 X1.4493 Y1.2874
N4345 X1.566 Y1.2873
N4350 X1.5777 Y1.2869
N4355 X1.5892 Y1.2849
N4360 X1.6115 Y1.278
N4365 X1.6512 Y1.2535
N4370 X1.6829 Y1.2192
N4375 X1.7076 Y1.1796
N4380 X1.7267 Y1.1369
N4385 X1.7413 Y1.0926
N4390 X1.7488 Y1.0618
N4395 X1.7526 Y1.05
N4400 X1.758 Y1.0389
N4405 X1.7649 Y1.0286
N4410 X1.7731 Y1.0195
N4415 X1.7751 Y1.0176
N4420 X1.7855 Y1.0064
N4425 X1.7965 Y0.9901
N4430 X1.8007 Y0.984
N4435 X1.8078 Y0.9732
N4440 X1.808 Y0.9727
N4445 X1.8131 Y0.9615
N4450 X1.819 Y0.9479
N4455 X1.8218 Y0.9391
N4460 X1.8281 Y0.9167
N4465 X1.8297 Y0.9054
N4470 X1.8311 Y0.8942
N4475 X1.8322 Y0.883
N4480 X1.8324 Y0.8606
N4485 X1.8325 Y0.8494
N4490 Y0.4006
N4495 X1.8323 Y0.3782
N4500 X1.8322 Y0.367
N4505 X1.8311 Y0.3558
N4510 X1.8297 Y0.3446
N4515 X1.8281 Y0.3333
N4520 X1.825 Y0.3221
N4525 X1.8146 Y0.2766
N4530 X1.8073 Y0.2305
N4535 X1.8019 Y0.1841
N4540 X1.8 Y0.1608
N4545 X1.7922 Y0.1388
N4550 X1.7683 Y0.0987
N4555 X1.7343 Y0.0667
N4560 X1.6948 Y0.0418
N4565 X1.6523 Y0.0225
N4570 X1.608 Y0.0078
N4575 X1.5626 Y-0.0034
N4580 X1.5167 Y-0.0119
N4585 X1.4705 Y-0.0183
N4590 X1.424 Y-0.0231
N4595 X1.3775 Y-0.0267
N4600 X1.3308 Y-0.0294
N4605 X1.2842 Y-0.0314
N4610 X1.2375 Y-0.0329
N4615 X1.1908 Y-0.034
N4620 X1.1442 Y-0.0349
N4625 X1.0975 Y-0.0355
N4630 X1.0508 Y-0.036
N4635 X1.0041 Y-0.0363
N4640 X0.9574 Y-0.0366
N4645 X0.9107 Y-0.0368
N4650 X0.8173 Y-0.037
N4655 X0.7812 Y-0.0371
N4660 X0.7683 Y-0.0381
N4665 X0.7556 Y-0.0409
N4670 X0.7436 Y-0.0457
N4675 X0.7323 Y-0.0521
N4680 X0.7289 Y-0.0544
N4685 X0.7177 Y-0.0606
N4690 X0.7064 Y-0.0657
N4695 X0.6952 Y-0.0697
N4700 X0.6727 Y-0.0768
N4705 X0.6502 Y-0.0805
N4710 X0.6406 Y-0.0817
N4715 X0.6165 Y-0.0823
N4720 X0.6053 Y-0.0825
N4725 X0.403
N4730 X0.3693 Y-0.0823
N4735 X0.3619 Y-0.0817
N4740 X0.3468 Y-0.08
N4745 X0.3356 Y-0.0785
N4750 X0.3131 Y-0.0725
N4755 X0.3058 Y-0.0705
N4760 X0.2906 Y-0.0641
N4765 X0.2797 Y-0.0593
N4770 X0.2794 Y-0.0591
N4775 X0.2681 Y-0.052
N4780 X0.2569 Y-0.0446
N4785 X0.2457 Y-0.0372
N4790 X0.2452 Y-0.0368
N4795 X0.2344 Y-0.027
N4800 X0.2219 Y-0.0144
N4805 X0.2119 Y-0.0032
N4810 X0.2046 Y0.008
N4815 X0.1974 Y0.0192
N4820 X0.1903 Y0.0305
N4825 X0.1895 Y0.0322
N4830 X0.1853 Y0.0417
N4835 X0.1807 Y0.0529
N4840 X0.1782 Y0.0599
N4845 X0.1771 Y0.0641
N4850 X0.1631 Y0.1087
N4855 X0.1514 Y0.1538
N4860 X0.1424 Y0.1997
N4865 X0.1355 Y0.2458
N4870 X0.1302 Y0.2922
N4875 X0.1262 Y0.3388
N4880 X0.1231 Y0.3853
N4885 X0.1208 Y0.432
N4890 X0.119 Y0.4786
N4895 X0.1177 Y0.5253
N4900 X0.1166 Y0.572
N4905 X0.1158 Y0.6187
N4910 X0.1152 Y0.6654
N4915 X0.1147 Y0.7121
N4920 X0.1144 Y0.7587
N4925 X0.1141 Y0.8054
N4930 X0.1138 Y0.8521
N4935 X0.1136 Y0.8988
N4940 X0.1286 Y0.9431
N4945 X0.1531 Y0.9804
N4950 X0.1593 Y0.9915
N4955 X0.1638 Y1.0034
N4960 X0.1666 Y1.0158
N4965 X0.1675 Y1.0285
N4970 Y1.0961
N4975 X0.1676 Y1.1298
N4980 X0.1687 Y1.141
N4985 X0.1699 Y1.1522
N4990 G3 X0.1681 Y1.1668 I-0.0374 J0.0028
N4995 G1 X0.1667 Y1.171 Z-0.7871
N5000 X0.1653 Y1.1753 Z-0.7863
N5005 X0.1639 Y1.1794 Z-0.785
N5010 X0.1626 Y1.1833 Z-0.7831
N5015 X0.1614 Y1.187 Z-0.7808
N5020 X0.1603 Y1.1904 Z-0.778
N5025 X0.1593 Y1.1934 Z-0.7748
N5030 X0.1584 Y1.1961 Z-0.7712
N5035 X0.1577 Y1.1983 Z-0.7673
N5040 X0.1571 Y1.2 Z-0.7632
N5045 X0.1567 Y1.2013 Z-0.7589
N5050 X0.1564 Y1.2021 Z-0.7544
N5055 X0.1563 Y1.2024 Z-0.7499
N5060 G0 Z0.2
N5065 X0.6477 Y1.37
N5070 Z-0.7124
N5075 G1 Z-0.7499 F10.
N5080 X0.6478 Y1.3698 Z-0.7544
N5085 X0.6481 Y1.369 Z-0.7589
N5090 X0.6487 Y1.3678 Z-0.7632
N5095 X0.6495 Y1.3662 Z-0.7673
N5100 X0.6505 Y1.364 Z-0.7712
N5105 X0.6517 Y1.3615 Z-0.7748
N5110 X0.653 Y1.3586 Z-0.778
N5115 X0.6546 Y1.3554 Z-0.7808
N5120 X0.6562 Y1.3519 Z-0.7831
N5125 X0.658 Y1.3481 Z-0.785
N5130 X0.6598 Y1.3442 Z-0.7863
N5135 X0.6617 Y1.3402 Z-0.7871
N5140 X0.6637 Y1.3361 Z-0.7874
N5145 G3 X0.6746 Y1.3262 I0.0174 J0.0082
N5150 G1 X0.6952 Y1.3197
N5155 X0.7064 Y1.3157
N5160 X0.7177 Y1.3106
N5165 X0.7289 Y1.3044
N5170 X0.7383 Y1.2981
N5175 X0.7537 Y1.2868
N5180 X0.7626 Y1.2802
N5185 X0.7739 Y1.2692
N5190 X0.7785 Y1.2644
N5195 X0.7848 Y1.2579
N5200 X0.7971 Y1.2471
N5205 X0.8125 Y1.2355
N5210 X0.8323 Y1.2231
N5215 X0.8572 Y1.21
N5220 X0.8895 Y1.1964
N5225 X0.9323 Y1.1821
N5230 X0.9777 Y1.171
N5235 X1.0236 Y1.1627
N5240 X1.0699 Y1.1564
N5245 X1.1163 Y1.1517
N5250 X1.1629 Y1.1481
N5255 X1.2095 Y1.1454
N5260 X1.2562 Y1.1434
N5265 X1.3028 Y1.1419
N5270 X1.3495 Y1.1407
N5275 X1.3962 Y1.1399
N5280 X1.4405 Y1.1253
N5285 X1.4796 Y1.0997
N5290 X1.4915 Y1.0923
N5295 X1.5043 Y1.0869
N5300 X1.5179 Y1.0836
N5305 X1.5318 Y1.0825
N5310 X1.6055
N5315 X1.628 Y1.0824
N5320 X1.6392 Y1.0815
N5325 X1.6504 Y1.0804
N5330 X1.6617 Y1.079
N5335 X1.6729 Y1.0762
N5340 G3 X1.6876 Y1.076 I0.0078 J0.0367
N5345 G1 X1.692 Y1.0768 Z-0.7871
N5350 X1.6964 Y1.0776 Z-0.7863
N5355 X1.7006 Y1.0784 Z-0.785
N5360 X1.7047 Y1.0792 Z-0.7831
N5365 X1.7085 Y1.0799 Z-0.7808
N5370 X1.712 Y1.0805 Z-0.778
N5375 X1.7152 Y1.0811 Z-0.7748
N5380 X1.7179 Y1.0816 Z-0.7712
N5385 X1.7202 Y1.082 Z-0.7673
N5390 X1.722 Y1.0824 Z-0.7632
N5395 X1.7234 Y1.0826 Z-0.7589
N5400 X1.7242 Y1.0827 Z-0.7544
N5405 X1.7244 Y1.0828 Z-0.7499
N5410 G0 Z0.2
N5415 X1.8678 Y0.3505
N5420 Z-0.7124
N5425 G1 Z-0.7499 F10.
N5430 X1.8676 Y0.3504 Z-0.7544
N5435 X1.8669 Y0.35 Z-0.7589
N5440 X1.8657 Y0.3494 Z-0.7632
N5445 X1.864 Y0.3486 Z-0.7673
N5450 X1.8619 Y0.3475 Z-0.7712
N5455 X1.8594 Y0.3462 Z-0.7748
N5460 X1.8566 Y0.3448 Z-0.778
N5465 X1.8534 Y0.3431 Z-0.7808
N5470 X1.85 Y0.3413 Z-0.7831
N5475 X1.8463 Y0.3395 Z-0.785
N5480 X1.8425 Y0.3375 Z-0.7863
N5485 X1.8385 Y0.3354 Z-0.7871
N5490 X1.8345 Y0.3334 Z-0.7874
N5495 G3 X1.825 Y0.3221 I0.0088 J-0.0171
N5500 G1 X1.8218 Y0.3109
N5505 X1.819 Y0.3021
N5510 X1.8131 Y0.2885
N5515 X1.808 Y0.2773
N5520 X1.8078 Y0.2768
N5525 X1.8007 Y0.266
N5530 X1.7931 Y0.2548
N5535 X1.7855 Y0.2436
N5540 X1.7751 Y0.2324
N5545 X1.7628 Y0.2206
N5550 X1.7516 Y0.2107
N5555 X1.7507 Y0.2099
N5560 X1.7291 Y0.1964
N5565 X1.7179 Y0.1895
N5570 X1.7137 Y0.1875
N5575 X1.7066 Y0.1844
N5580 X1.6954 Y0.1801
N5585 X1.6842 Y0.1766
N5590 X1.6617 Y0.171
N5595 X1.6583 Y0.1706
N5600 X1.6122 Y0.1628
N5605 X1.5664 Y0.1541
N5610 X1.5203 Y0.1466
N5615 X1.474 Y0.1402
N5620 X1.4276 Y0.1349
N5625 X1.3812 Y0.1305
N5630 X1.3346 Y0.1268
N5635 X1.288 Y0.1239
N5640 X1.2414 Y0.1216
N5645 X1.1947 Y0.1197
N5650 X1.1481 Y0.1182
N5655 X1.1014 Y0.117
N5660 X1.0547 Y0.116
N5665 X1.008 Y0.1153
N5670 X0.9613 Y0.1147
N5675 X0.9146 Y0.1142
N5680 X0.8995 Y0.1137
N5685 X0.8846 Y0.1119
N5690 X0.8702 Y0.1076
N5695 X0.8568 Y0.1009
N5700 X0.8447 Y0.092
N5705 X0.8343 Y0.0812
N5710 X0.8259 Y0.0687
N5715 X0.8198 Y0.055
N5720 G3 X0.8598 Y0.0067 I0.0358 J-0.0111
N5725 G1 X1.6655 Y0.0959
N5730 G3 X1.6583 Y0.1706 I-0.0041 J0.0373
N5735 G1 X1.6504 Y0.1696
N5740 X1.6392 Y0.1685
N5745 X1.628 Y0.1676
N5750 X1.583 Y0.1675
N5755 X1.1447
N5760 X1.1335 Y0.1677
N5765 X1.111 Y0.1682
N5770 X1.0998 Y0.1695
N5775 X1.0773 Y0.1732
N5780 X1.0548 Y0.1803
N5785 X1.0436 Y0.1842
N5790 X1.0368 Y0.1875
N5795 X1.013 Y0.1985
N5800 X0.9943 Y0.2053
N5805 X0.975 Y0.2106
N5810 X0.9571 Y0.2141
N5815 X0.9385 Y0.2161
N5820 X0.9213 Y0.2166
N5825 X0.9036 Y0.2157
N5830 X0.8892 Y0.2125
N5835 X0.8757 Y0.2068
N5840 X0.8635 Y0.1988
N5845 X0.8528 Y0.1887
N5850 X0.8442 Y0.1769
N5855 X0.8378 Y0.1637
N5860 X0.8338 Y0.1496
N5865 X0.8324 Y0.135
N5870 Y0.1202
N5875 X0.8313 Y0.109
N5880 G3 X0.8802 Y0.0712 I0.0374 J-0.0021
N5885 G1 X1.0298 Y0.1192
N5890 G3 X1.0368 Y0.1875 I-0.0115 J0.0357
N5895 G1 X1.0211 Y0.1957
N5900 X1.016 Y0.1987
N5905 X0.993 Y0.215
N5910 X0.9902 Y0.2173
N5915 X0.9874 Y0.22
N5920 X0.9649 Y0.2435
N5925 X0.9591 Y0.2489
N5930 X0.9534 Y0.2535
N5935 X0.9474 Y0.2576
N5940 X0.9402 Y0.2617
N5945 X0.933 Y0.2651
N5950 X0.925 Y0.268
N5955 X0.9164 Y0.2704
N5960 X0.908 Y0.2721
N5965 X0.8938 Y0.2722
N5970 X0.8798 Y0.2694
N5975 X0.8667 Y0.2637
N5980 X0.8552 Y0.2554
N5985 X0.8456 Y0.2448
N5990 X0.8384 Y0.2325
N5995 X0.834 Y0.219
N6000 X0.8325 Y0.2048
N6005 Y0.1539
N6010 X0.8324 Y0.135
N6015 G3 X0.899 Y0.1124 I0.0375 J0.0011
N6020 G1 X0.966 Y0.1948
N6025 G3 X0.9649 Y0.2435 I-0.0291 J0.0237
N6030 G1 X0.96 Y0.2492
N6035 X0.9562 Y0.2548
N6040 X0.949 Y0.266
N6045 X0.9424 Y0.277
N6050 X0.9423 Y0.2773
N6055 X0.9394 Y0.2829
N6060 X0.9362 Y0.288
N6065 X0.9325 Y0.2927
N6070 X0.9283 Y0.297
N6075 X0.9237 Y0.3009
N6080 X0.9187 Y0.3044
N6085 X0.9078 Y0.3093
N6090 X0.896 Y0.3118
N6095 X0.884 Y0.3119
N6100 X0.8723 Y0.3094
N6105 X0.8613 Y0.3046
N6110 X0.8515 Y0.2975
N6115 X0.8435 Y0.2886
N6120 X0.8375 Y0.2782
N6125 X0.8338 Y0.2668
N6130 X0.8325 Y0.2549
N6135 Y0.2048
N6140 G3 X0.861 Y0.173 I0.0333 J0.0012
N6145 X0.9423 Y0.2773 I0.0111 J0.0752
N6150 G1 X0.9312 Y0.3018
N6155 X0.9278 Y0.3109
N6160 X0.9273 Y0.3128
N6165 X0.9255 Y0.3185
N6170 X0.9228 Y0.3238
N6175 X0.9193 Y0.3288
N6180 X0.9104 Y0.3367
N6185 X0.8997 Y0.3422
N6190 X0.8881 Y0.3451
N6195 X0.8762
N6200 X0.8645 Y0.3422
N6205 X0.8539 Y0.3366
N6210 X0.845 Y0.3287
N6215 X0.8382 Y0.3188
N6220 X0.8339 Y0.3076
N6225 X0.8325 Y0.2957
N6230 Y0.2549
N6235 G3 X0.858 Y0.2292 I0.0266 J0.0009
N6240 X0.9273 Y0.3128 I0.0027 J0.0683
N6245 G1 X0.9218 Y0.3333
N6250 X0.9206 Y0.3423
N6255 X0.9196 Y0.3482
N6260 X0.9173 Y0.3538
N6265 X0.9143 Y0.359
N6270 X0.9063 Y0.367
N6275 X0.8966 Y0.3728
N6280 X0.8858 Y0.376
N6285 X0.8745 Y0.3765
N6290 X0.8634 Y0.3742
N6295 X0.8532 Y0.3692
N6300 X0.8446 Y0.3619
N6305 X0.838 Y0.3527
N6310 X0.8339 Y0.3422
N6315 X0.8325 Y0.331
N6320 Y0.2957
N6325 G3 X0.8541 Y0.2735 I0.0231 J0.0008
N6330 X0.9206 Y0.3423 I0.0041 J0.0627
N6335 G1 X0.9189 Y0.3558
N6340 X0.9178 Y0.367
N6345 Y0.3689
N6350 X0.9174 Y0.3748
N6355 X0.916 Y0.3807
N6360 X0.9135 Y0.3862
N6365 X0.9104 Y0.3913
N6370 X0.9026 Y0.3987
N6375 X0.8933 Y0.4041
N6380 X0.8829 Y0.407
N6385 X0.8722 Y0.4072
N6390 X0.8617 Y0.4049
N6395 X0.8521 Y0.4001
N6400 X0.8439 Y0.3931
N6405 X0.8377 Y0.3843
N6410 X0.8338 Y0.3742
N6415 X0.8325 Y0.3636
N6420 Y0.331
N6425 G3 X0.8513 Y0.3107 I0.0211 J0.0007
N6430 X0.9178 Y0.3689 I0.0066 J0.0596
N6435 G1 X0.9175 Y0.3956
N6440 Y0.3984
N6445 X0.9172 Y0.4044
N6450 X0.9159 Y0.4102
N6455 X0.9136 Y0.4158
N6460 X0.9107 Y0.421
N6465 X0.9031 Y0.4287
N6470 X0.8938 Y0.4343
N6475 X0.8835 Y0.4374
N6480 X0.8727 Y0.4379
N6485 X0.8621 Y0.4358
N6490 X0.8524 Y0.4311
N6495 X0.8441 Y0.4241
N6500 X0.8378 Y0.4153
N6505 X0.8338 Y0.4052
N6510 X0.8325 Y0.3945
N6515 Y0.3636
N6520 G3 X0.8496 Y0.3436 I0.021 J0.0007
N6525 X0.9175 Y0.3984 I0.0106 J0.0563
N6530 G1 Y0.4293
N6535 X0.9172 Y0.4352
N6540 X0.9159 Y0.4411
N6545 X0.9136 Y0.4466
N6550 X0.9106 Y0.4518
N6555 X0.903 Y0.4595
N6560 X0.8937 Y0.4651
N6565 X0.8834 Y0.4682
N6570 X0.8726 Y0.4687
N6575 X0.862 Y0.4665
N6580 X0.8523 Y0.4617
N6585 X0.8441 Y0.4548
N6590 X0.8378 Y0.446
N6595 X0.8338 Y0.4359
N6600 X0.8325 Y0.4252
N6605 Y0.3945
N6610 G3 X0.8497 Y0.3746 I0.0209 J0.0007
N6615 X0.9175 Y0.4293 I0.0103 J0.0566
N6620 G1 Y0.4601
N6625 X0.9172 Y0.4661
N6630 X0.9158 Y0.472
N6635 X0.9135 Y0.4775
N6640 X0.9105 Y0.4827
N6645 X0.9029 Y0.4903
N6650 X0.8936 Y0.4959
N6655 X0.8833 Y0.4989
N6660 X0.8725 Y0.4994
N6665 X0.862 Y0.4972
N6670 X0.8523 Y0.4925
N6675 X0.844 Y0.4855
N6680 X0.8378 Y0.4767
N6685 X0.8338 Y0.4667
N6690 X0.8325 Y0.456
N6695 Y0.4252
N6700 G3 X0.8498 Y0.4053 I0.0209 J0.0007
N6705 X0.9175 Y0.4601 I0.01 J0.0568
N6710 G1 Y0.4904
N6715 X0.9172 Y0.4964
N6720 X0.9159 Y0.5022
N6725 X0.9137 Y0.5078
N6730 X0.9107 Y0.513
N6735 X0.9031 Y0.5208
N6740 X0.8939 Y0.5264
N6745 X0.8835 Y0.5295
N6750 X0.8727 Y0.5301
N6755 X0.8621 Y0.5279
N6760 X0.8524 Y0.5232
N6765 X0.8441 Y0.5162
N6770 X0.8378 Y0.5074
N6775 X0.8338 Y0.4974
N6780 X0.8325 Y0.4866
N6785 Y0.456
N6790 G3 X0.8495 Y0.4361 I0.0209 J0.0007
N6795 X0.9175 Y0.4904 I0.0107 J0.0563
N6800 G1 Y0.5218
N6805 X0.9172 Y0.5278
N6810 X0.9158 Y0.5336
N6815 X0.9135 Y0.5391
N6820 X0.9104 Y0.5443
N6825 X0.9028 Y0.5519
N6830 X0.8935 Y0.5574
N6835 X0.8832 Y0.5604
N6840 X0.8724 Y0.5608
N6845 X0.8619 Y0.5586
N6850 X0.8522 Y0.5539
N6855 X0.844 Y0.5469
N6860 X0.8377 Y0.5381
N6865 X0.8338 Y0.5281
N6870 X0.8325 Y0.5174
N6875 Y0.4866
N6880 G3 X0.8499 Y0.4667 I0.0209 J0.0007
N6885 X0.9175 Y0.5218 I0.0097 J0.0571
N6890 G1 Y0.5526
N6895 X0.9172 Y0.5586
N6900 X0.9158 Y0.5645
N6905 X0.9134 Y0.57
N6910 X0.9104 Y0.5752
N6915 X0.9027 Y0.5827
N6920 X0.8935 Y0.5882
N6925 X0.8831 Y0.5912
N6930 X0.8724 Y0.5916
N6935 X0.8618 Y0.5894
N6940 X0.8522 Y0.5847
N6945 X0.844 Y0.5777
N6950 X0.8377 Y0.5689
N6955 X0.8338 Y0.5589
N6960 X0.8325 Y0.5482
N6965 Y0.5174
N6970 G3 X0.85 Y0.4975 I0.0209 J0.0007
N6975 X0.9175 Y0.5526 I0.0095 J0.0572
N6980 G1 Y0.5835
N6985 X0.9172 Y0.5895
N6990 X0.9158 Y0.5953
N6995 X0.9134 Y0.6009
N7000 X0.9104 Y0.606
N7005 X0.9027 Y0.6136
N7010 X0.8934 Y0.619
N7015 X0.8831 Y0.6221
N7020 X0.8723 Y0.6225
N7025 X0.8618 Y0.6202
N7030 X0.8522 Y0.6155
N7035 X0.844 Y0.6085
N7040 X0.8377 Y0.5997
N7045 X0.8338 Y0.5897
N7050 X0.8325 Y0.579
N7055 Y0.5482
N7060 G3 X0.85 Y0.5282 I0.0209 J0.0007
N7065 X0.9175 Y0.5835 I0.0094 J0.0573
N7070 G1 Y0.6138
N7075 X0.9172 Y0.6198
N7080 X0.9159 Y0.6256
N7085 X0.9136 Y0.6312
N7090 X0.9106 Y0.6364
N7095 X0.903 Y0.644
N7100 X0.8937 Y0.6496
N7105 X0.8834 Y0.6527
N7110 X0.8726 Y0.6532
N7115 X0.862 Y0.651
N7120 X0.8523 Y0.6463
N7125 X0.8441 Y0.6393
N7130 X0.8378 Y0.6305
N7135 X0.8338 Y0.6205
N7140 X0.8325 Y0.6097
N7145 Y0.579
N7150 G3 X0.8497 Y0.5591 I0.0209 J0.0007
N7155 X0.9175 Y0.6138 I0.0102 J0.0567
N7160 G1 Y0.6452
N7165 X0.9172 Y0.6512
N7170 X0.9157 Y0.657
N7175 X0.9134 Y0.6625
N7180 X0.9103 Y0.6676
N7185 X0.9026 Y0.6752
N7190 X0.8934 Y0.6806
N7195 X0.883 Y0.6836
N7200 X0.8723 Y0.684
N7205 X0.8618 Y0.6818
N7210 X0.8521 Y0.677
N7215 X0.844 Y0.67
N7220 X0.8377 Y0.6613
N7225 X0.8338 Y0.6512
N7230 X0.8325 Y0.6406
N7235 Y0.6097
N7240 G3 X0.8501 Y0.5898 I0.0209 J0.0007
N7245 X0.9175 Y0.6452 I0.0093 J0.0574
N7250 G1 Y0.676
N7255 X0.9172 Y0.682
N7260 X0.9157 Y0.6879
N7265 X0.9134 Y0.6934
N7270 X0.9103 Y0.6985
N7275 X0.9026 Y0.7061
N7280 X0.8933 Y0.7115
N7285 X0.883 Y0.7145
N7290 X0.8723 Y0.7149
N7295 X0.8618 Y0.7126
N7300 X0.8521 Y0.7078
N7305 X0.8439 Y0.7009
N7310 X0.8377 Y0.6921
N7315 X0.8338 Y0.6821
N7320 X0.8325 Y0.6714
N7325 Y0.6406
N7330 G3 X0.8501 Y0.6206 I0.0209 J0.0007
N7335 X0.9175 Y0.676 I0.0092 J0.0575
N7340 G1 Y0.7069
N7345 X0.9172 Y0.7129
N7350 X0.9157 Y0.7187
N7355 X0.9134 Y0.7242
N7360 X0.9103 Y0.7294
N7365 X0.9026 Y0.7369
N7370 X0.8933 Y0.7423
N7375 X0.883 Y0.7453
N7380 X0.8723 Y0.7457
N7385 X0.8618 Y0.7434
N7390 X0.8521 Y0.7387
N7395 X0.8439 Y0.7317
N7400 X0.8377 Y0.7229
N7405 X0.8338 Y0.7129
N7410 X0.8325 Y0.7022
N7415 Y0.6714
N7420 G3 X0.8501 Y0.6514 I0.0209 J0.0007
N7425 X0.9175 Y0.7069 I0.0092 J0.0575
N7430 G1 Y0.7372
N7435 X0.9172 Y0.7432
N7440 X0.9158 Y0.749
N7445 X0.9135 Y0.7546
N7450 X0.9105 Y0.7597
N7455 X0.9029 Y0.7674
N7460 X0.8936 Y0.7729
N7465 X0.8833 Y0.776
N7470 X0.8725 Y0.7765
N7475 X0.862 Y0.7743
N7480 X0.8523 Y0.7695
N7485 X0.844 Y0.7626
N7490 X0.8378 Y0.7538
N7495 X0.8338 Y0.7437
N7500 X0.8325 Y0.733
N7505 Y0.7022
N7510 G3 X0.8498 Y0.6823 I0.0209 J0.0007
N7515 X0.9175 Y0.7372 I0.01 J0.0569
N7520 G1 Y0.7686
N7525 X0.9172 Y0.7746
N7530 X0.9157 Y0.7804
N7535 X0.9133 Y0.7859
N7540 X0.9103 Y0.791
N7545 X0.9026 Y0.7985
N7550 X0.8933 Y0.804
N7555 X0.883 Y0.8069
N7560 X0.8722 Y0.8073
N7565 X0.8617 Y0.805
N7570 X0.8521 Y0.8003
N7575 X0.8439 Y0.7933
N7580 X0.8377 Y0.7845
N7585 X0.8338 Y0.7745
N7590 X0.8325 Y0.7639
N7595 Y0.733
N7600 G3 X0.8502 Y0.7131 I0.0209 J0.0007
N7605 X0.9175 Y0.7686 I0.0091 J0.0575
N7610 G1 Y0.8494
N7615 X0.9177 Y0.8718
N7620 X0.9178 Y0.883
N7625 X0.9189 Y0.8942
N7630 X0.9203 Y0.9054
N7635 X0.9218 Y0.9167
N7640 X0.9278 Y0.9391
N7645 X0.9312 Y0.9482
N7650 X0.9424 Y0.973
N7655 X0.949 Y0.984
N7660 X0.9562 Y0.9952
N7665 X0.96 Y1.0008
N7670 X0.9649 Y1.0065
N7675 X0.9874 Y1.03
N7680 X0.9902 Y1.0327
N7685 X0.993 Y1.035
N7690 X1.016 Y1.0513
N7695 X1.0211 Y1.0543
N7700 X1.0368 Y1.0625
N7705 X1.0436 Y1.0658
N7710 X1.0548 Y1.0697
N7715 X1.0773 Y1.0768
N7720 X1.0998 Y1.0805
N7725 X1.111 Y1.0818
N7730 X1.1335 Y1.0823
N7735 X1.1447 Y1.0825
N7740 X1.5318
N7745 G3 X1.5389 Y1.1565 I-0.0013 J0.0375
N7750 G1 X0.8165 Y1.3241
N7755 G3 X0.7785 Y1.2644 I-0.0085 J-0.0365
N7760 G1 X0.788 Y1.2532
N7765 X0.7958 Y1.242
N7770 X0.8076 Y1.2231
N7775 X0.8094 Y1.2195
N7780 X0.8191 Y1.1971
N7785 X0.823 Y1.1859
N7790 X0.8287 Y1.1634
N7795 X0.8301 Y1.1522
N7800 X0.8313 Y1.141
N7805 X0.8324 Y1.1298
N7810 X0.8325 Y1.0961
N7815 Y0.7639
N7820 G3 X0.8359 Y0.7496 I0.0375 J0.0013
N7825 G1 X0.8377 Y0.7455 Z-0.7871
N7830 X0.8396 Y0.7414 Z-0.7863
N7835 X0.8414 Y0.7375 Z-0.785
N7840 X0.8431 Y0.7338 Z-0.7831
N7845 X0.8447 Y0.7302 Z-0.7808
N7850 X0.8462 Y0.727 Z-0.778
N7855 X0.8475 Y0.7241 Z-0.7748
N7860 X0.8487 Y0.7215 Z-0.7712
N7865 X0.8496 Y0.7194 Z-0.7673
N7870 X0.8504 Y0.7177 Z-0.7632
N7875 X0.851 Y0.7165 Z-0.7589
N7880 X0.8513 Y0.7157 Z-0.7544
N7885 X0.8514 Y0.7155 Z-0.7499
N7890 G0 Z0.2
N7895 X0.1545 Y0.018
N7900 Z-0.7124
N7905 G1 Z-0.7499 F10.
N7910 X0.1546 Y0.0182 Z-0.7544
N7915 X0.155 Y0.0189 Z-0.7589
N7920 X0.1558 Y0.02 Z-0.7632
N7925 X0.1568 Y0.0216 Z-0.7673
N7930 X0.158 Y0.0236 Z-0.7712
N7935 X0.1595 Y0.0259 Z-0.7748
N7940 X0.1612 Y0.0286 Z-0.778
N7945 X0.1632 Y0.0316 Z-0.7808
N7950 X0.1652 Y0.0349 Z-0.7831
N7955 X0.1675 Y0.0384 Z-0.785
N7960 X0.1698 Y0.042 Z-0.7863
N7965 X0.1722 Y0.0458 Z-0.7871
N7970 X0.1746 Y0.0496 Z-0.7874
N7975 G3 X0.1771 Y0.0641 I-0.0162 J0.0103
N7980 G1 X0.1713 Y0.0866
N7985 X0.1699 Y0.0978
N7990 X0.1687 Y0.109
N7995 X0.1676 Y0.1202
N8000 X0.1675 Y0.1539
N8005 Y1.0285
N8010 X0.167 Y1.0314 Z-0.7871
N8015 X0.1664 Y1.0343 Z-0.7862
N8020 X0.166 Y1.0369 Z-0.7847
N8025 X0.1656 Y1.0391 Z-0.7826
N8030 X0.165 Y1.0406 Z-0.7805
N8035 X0.1645 Y1.0418 Z-0.778
N8040 X0.1642 Y1.0425 Z-0.7754
N8045 X0.1641 Y1.0427 Z-0.7727
N8050 G0 Z0.2
N8055 X1.7876 Y1.2862
N8060 Z-0.5156
N8065 G1 Z-0.5531 F10.
N8070 X1.7875 Y1.2859 Z-0.5576
N8075 X1.7873 Y1.2851 Z-0.562
N8080 X1.787 Y1.2838 Z-0.5663
N8085 X1.7865 Y1.282 Z-0.5705
N8090 X1.7859 Y1.2797 Z-0.5744
N8095 X1.7852 Y1.277 Z-0.5779
N8100 X1.7844 Y1.2739 Z-0.5811
N8105 X1.7836 Y1.2705 Z-0.5839
N8110 X1.7826 Y1.2667 Z-0.5863
N8115 X1.7816 Y1.2627 Z-0.5881
N8120 X1.7805 Y1.2585 Z-0.5895
N8125 X1.7794 Y1.2542 Z-0.5903
N8130 X1.7783 Y1.2498 Z-0.5906
N8135 G3 X1.7489 Y1.0457 I0.9274 J-0.2376
N8140 G1 Y1.034
N8145 X1.7427 Y0.9877
N8150 X1.7403 Y0.9823
N8155 X1.7379 Y0.9767
N8160 X1.7356 Y0.9712
N8165 X1.7334 Y0.9656
N8170 X1.7313 Y0.96
N8175 X1.7292 Y0.9544
N8180 X1.7272 Y0.9487
N8185 X1.7253 Y0.943
N8190 X1.7235 Y0.9373
N8195 X1.7217 Y0.9316
N8200 X1.7199 Y0.9258
N8205 X1.7183 Y0.9201
N8210 X1.7166 Y0.9143
N8215 X1.7151 Y0.9085
N8220 X1.7136 Y0.9027
N8225 X1.7121 Y0.8969
N8230 X1.7107 Y0.8911
N8235 X1.7093 Y0.8852
N8240 X1.708 Y0.8794
N8245 X1.7067 Y0.8734
N8250 X1.7054 Y0.8672
N8255 X1.7041 Y0.8608
N8260 X1.7028 Y0.8541
N8265 X1.7015 Y0.8471
N8270 X1.7002 Y0.8397
N8275 X1.6989 Y0.8321
N8280 X1.6975 Y0.8241
N8285 X1.6962 Y0.8156
N8290 X1.6949 Y0.8068
N8295 X1.6936 Y0.7974
N8300 X1.6922 Y0.7875
N8305 X1.6909 Y0.777
N8310 X1.6896 Y0.7659
N8315 X1.6882 Y0.7539
N8320 X1.6869 Y0.7411
N8325 X1.6855 Y0.7273
N8330 X1.6842 Y0.7124
N8335 X1.6829 Y0.6961
N8340 X1.6815 Y0.6781
N8345 X1.6802 Y0.6582
N8350 X1.6788 Y0.6358
N8355 X1.6775 Y0.6102
N8360 X1.6761 Y0.5795
N8365 X1.6743 Y0.5328
N8370 X1.672 Y0.5214
N8375 X1.6645 Y0.4993
N8380 X1.6395 Y0.4598
N8385 X1.6044 Y0.429
N8390 X1.5643 Y0.4052
N8395 X1.5212 Y0.3871
N8400 X1.4766 Y0.3733
N8405 X1.4311 Y0.3628
N8410 X1.3851 Y0.3549
N8415 X1.3388 Y0.3489
N8420 X1.2923 Y0.3445
N8425 X1.2807
N8430 X1.2691 Y0.3461
N8435 X1.2578 Y0.3493
N8440 X1.2364 Y0.3584
N8445 X1.1997 Y0.3873
N8450 X1.1711 Y0.4243
N8455 X1.1492 Y0.4655
N8460 X1.1325 Y0.5091
N8465 X1.1198 Y0.554
N8470 X1.1102 Y0.5997
N8475 X1.1029 Y0.6458
N8480 X1.0975 Y0.6922
N8485 X1.0955 Y0.7155
N8490 X1.0974 Y0.727
N8495 X1.1043 Y0.7493
N8500 X1.1288 Y0.789
N8505 X1.1636 Y0.8201
N8510 X1.2037 Y0.8441
N8515 X1.2466 Y0.8624
N8520 X1.2912 Y0.8764
N8525 X1.3139 Y0.8816
N8530 X1.3254 Y0.8839
N8535 X1.3368 Y0.8861
N8540 X1.3485 Y0.8868
N8545 X1.3601 Y0.8858
N8550 X1.3715 Y0.8834
N8555 X1.3825 Y0.8794
N8560 X1.3929 Y0.874
N8565 X1.4024 Y0.8673
N8570 X1.411 Y0.8593
N8575 X1.4407 Y0.8233
N8580 X1.459 Y0.7804
N8585 X1.4657 Y0.758
N8590 X1.4677 Y0.7465
N8595 X1.4681 Y0.7348
N8600 X1.4659 Y0.7116
N8605 X1.4581 Y0.6896
N8610 X1.4532 Y0.679
N8615 X1.4503 Y0.6739
N8620 X1.4494 Y0.6711 Z-0.5902
N8625 X1.4484 Y0.6683 Z-0.5893
N8630 X1.4476 Y0.6658 Z-0.5878
N8635 X1.4468 Y0.6637 Z-0.5858
N8640 X1.4466 Y0.6621 Z-0.5836
N8645 X1.4464 Y0.6608 Z-0.5812
N8650 X1.4463 Y0.6601 Z-0.5785
N8655 Y0.6599 Z-0.5758
N8660 G0 Z0.2
N8665 X-0.3301 Y-0.2736
N8670 Z-1.1061
N8675 G1 Z-1.1436 F10.
N8680 X-0.3299 Y-0.2734 Z-1.1481
N8685 X-0.3292 Y-0.273 Z-1.1526
N8690 X-0.328 Y-0.2723 Z-1.1569
N8695 X-0.3265 Y-0.2714 Z-1.161
N8700 X-0.3244 Y-0.2702 Z-1.1649
N8705 X-0.322 Y-0.2687 Z-1.1685
N8710 X-0.3193 Y-0.2671 Z-1.1717
N8715 X-0.3162 Y-0.2652 Z-1.1745
N8720 X-0.3129 Y-0.2632 Z-1.1768
N8725 X-0.3094 Y-0.2611 Z-1.1787
N8730 X-0.3057 Y-0.2589 Z-1.18
N8735 X-0.3019 Y-0.2566 Z-1.1808
N8740 X-0.298 Y-0.2543 Z-1.1811
N8745 G3 X-0.1336 Y-0.1297 I-0.4928 J0.8208
N8750 G1 X-0.1303 Y-0.1263
N8755 X-0.1193 Y-0.1094
N8760 X-0.1074 Y-0.0878
N8765 X-0.0949 Y-0.0596
N8770 X-0.0817 Y-0.0224
N8775 X-0.0713 Y0.0167
N8780 X-0.0691 Y0.0285
N8785 X-0.0686 Y0.0405
N8790 X-0.0699 Y0.0525
N8795 X-0.0729 Y0.0641
N8800 X-0.0787 Y0.0866
N8805 X-0.0803 Y0.0991
N8810 X-0.0813 Y0.109
N8815 X-0.0824 Y0.1202
N8820 X-0.0825 Y0.1539
N8825 Y1.0961
N8830 X-0.0824 Y1.1298
N8835 X-0.0813 Y1.141
N8840 X-0.0801 Y1.1522
N8845 X-0.0787 Y1.1634
N8850 X-0.0729 Y1.1859
N8855 X-0.069 Y1.1973
N8860 X-0.0596 Y1.2195
N8865 X-0.0578 Y1.2227
N8870 X-0.0454 Y1.242
N8875 X-0.038 Y1.2532
N8880 X-0.0353 Y1.2565
N8885 X-0.0285 Y1.2644
N8890 X-0.0128 Y1.2799
N8895 X-0.0046 Y1.2868
N8900 X-0.0016 Y1.2893
N8905 X0.0096 Y1.2965
N8910 X0.0299 Y1.3093
N8915 X0.0321 Y1.3105
N8920 X0.0564 Y1.3205
N8925 X0.0658 Y1.3234
N8930 X0.0883 Y1.329
N8935 X0.0996 Y1.3304
N8940 X0.1132 Y1.3317
N8945 X0.122 Y1.3324
N8950 X0.167 Y1.3325
N8955 X1.5943
N8960 X1.628 Y1.3324
N8965 X1.6368 Y1.3317
N8970 X1.6504 Y1.3304
N8975 X1.6617 Y1.329
N8980 X1.6842 Y1.3234
N8985 X1.6936 Y1.3205
N8990 X1.7179 Y1.3105
N8995 X1.7201 Y1.3093
N9000 X1.7404 Y1.2965
N9005 X1.7516 Y1.2893
N9010 X1.7546 Y1.2868
N9015 X1.7628 Y1.2799
N9020 X1.7785 Y1.2644
N9025 X1.7853 Y1.2565
N9030 X1.788 Y1.2532
N9035 X1.7965 Y1.2402
N9040 X1.8078 Y1.2227
N9045 X1.8096 Y1.2195
N9050 X1.8191 Y1.1971
N9055 X1.8229 Y1.1859
N9060 X1.8287 Y1.1634
N9065 X1.8303 Y1.1509
N9070 X1.8313 Y1.141
N9075 X1.8324 Y1.1298
N9080 X1.8325 Y1.0961
N9085 Y0.1539
N9090 X1.8324 Y0.1202
N9095 X1.8313 Y0.109
N9100 X1.8301 Y0.0978
N9105 X1.8287 Y0.0866
N9110 X1.8229 Y0.0641
N9115 X1.819 Y0.0527
N9120 X1.8096 Y0.0305
N9125 X1.8078 Y0.0273
N9130 X1.7954 Y0.008
N9135 X1.788 Y-0.0032
N9140 X1.7853 Y-0.0065
N9145 X1.7785 Y-0.0144
N9150 X1.7628 Y-0.0299
N9155 X1.7546 Y-0.0368
N9160 X1.7516 Y-0.0393
N9165 X1.7404 Y-0.0465
N9170 X1.7201 Y-0.0593
N9175 X1.7179 Y-0.0605
N9180 X1.6936 Y-0.0705
N9185 X1.6842 Y-0.0734
N9190 X1.6617 Y-0.079
N9195 X1.6504 Y-0.0804
N9200 X1.6368 Y-0.0817
N9205 X1.628 Y-0.0824
N9210 X1.583 Y-0.0825
N9215 X0.1557
N9220 X0.122 Y-0.0824
N9225 X0.1132 Y-0.0817
N9230 X0.0996 Y-0.0804
N9235 X0.0883 Y-0.079
N9240 X0.0658 Y-0.0734
N9245 X0.0564 Y-0.0705
N9250 X0.0321 Y-0.0605
N9255 X0.0299 Y-0.0593
N9260 X0.0121 Y-0.0481
N9265 X0.0093 Y-0.0469 Z-1.1808
N9270 X0.0066 Y-0.0459 Z-1.1799
N9275 X0.0041 Y-0.0449 Z-1.1784
N9280 X0.002 Y-0.044 Z-1.1763
N9285 X0.0004 Y-0.0437 Z-1.1742
N9290 X-0.0008 Y-0.0435 Z-1.1717
N9295 X-0.0015 Y-0.0434 Z-1.1691
N9300 X-0.0018 Y-0.0433 Z-1.1664
N9305 G0 Z0.2
N9310 X0.6207 Y-0.1225
N9315 Z-1.0274
N9320 G1 Z-1.0649 F10.
N9325 X0.6205 Y-0.1224 Z-1.0694
N9330 X0.6197 Y-0.1222 Z-1.0738
N9335 X0.6184 Y-0.1219 Z-1.0782
N9340 X0.6166 Y-0.1214 Z-1.0823
N9345 X0.6143 Y-0.1208 Z-1.0862
N9350 X0.6116 Y-0.1201 Z-1.0897
N9355 X0.6085 Y-0.1193 Z-1.0929
N9360 X0.6051 Y-0.1184 Z-1.0957
N9365 X0.6013 Y-0.1174 Z-1.0981
N9370 X0.5973 Y-0.1164 Z-1.0999
N9375 X0.5932 Y-0.1153 Z-1.1013
N9380 X0.5889 Y-0.1141 Z-1.1021
N9385 X0.5845 Y-0.113 Z-1.1024
N9390 G3 X0.3805 Y-0.0824 I-0.2432 J-0.926
N9395 G1 X0.3693 Y-0.0823
N9400 X0.3619 Y-0.0817
N9405 X0.3468 Y-0.08
N9410 X0.3356 Y-0.0785
N9415 X0.3131 Y-0.0725
N9420 X0.3058 Y-0.0705
N9425 X0.2906 Y-0.0641
N9430 X0.2797 Y-0.0593
N9435 X0.2794 Y-0.0591
N9440 X0.2681 Y-0.052
N9445 X0.2569 Y-0.0446
N9450 X0.2457 Y-0.0372
N9455 X0.2452 Y-0.0368
N9460 X0.2091 Y-0.0072
N9465 X0.176 Y0.0256
N9470 X0.15 Y0.0644
N9475 X0.13 Y0.1066
N9480 X0.1146 Y0.1507
N9485 X0.1029 Y0.1959
N9490 X0.0941 Y0.2418
N9495 X0.0874 Y0.288
N9500 X0.0824 Y0.3344
N9505 X0.0787 Y0.3809
N9510 X0.0758 Y0.4276
N9515 X0.0737 Y0.4742
N9520 X0.0722 Y0.5209
N9525 X0.071 Y0.5675
N9530 X0.0701 Y0.6142
N9535 X0.0694 Y0.6609
N9540 X0.0689 Y0.7076
N9545 X0.0686 Y0.7543
N9550 X0.0683 Y0.801
N9555 X0.0681 Y0.8477
N9560 X0.0678 Y0.9411
N9565 X0.0679 Y0.9644
N9570 X0.0689 Y0.976
N9575 X0.074 Y0.9988
N9580 X0.0954 Y1.0403
N9585 X0.1281 Y1.0736
N9590 X0.1302 Y1.075
N9595 X0.1423 Y1.0848
N9600 X0.1524 Y1.0965
N9605 X0.1604 Y1.1099
N9610 X0.1658 Y1.1245
N9615 X0.1685 Y1.1398
N9620 X0.1687 Y1.141
N9625 X0.1699 Y1.1522
N9630 X0.1713 Y1.1634
N9635 X0.1782 Y1.1901
N9640 X0.1807 Y1.1971
N9645 X0.1853 Y1.2083
N9650 X0.1895 Y1.2178
N9655 X0.1903 Y1.2195
N9660 X0.1974 Y1.2308
N9665 X0.2046 Y1.242
N9670 X0.2119 Y1.2532
N9675 X0.2219 Y1.2644
N9680 X0.2344 Y1.277
N9685 X0.2452 Y1.2868
N9690 X0.2457 Y1.2872
N9695 X0.2569 Y1.2946
N9700 X0.2622 Y1.2981
N9705 X0.2623 Y1.2982
N9710 G2 X0.344 Y1.3996 I0.1801 J-0.0615
N9715 X0.3597 Y1.4049 I0.0194 J-0.0321
N9720 G1 X0.4903 Y1.4179
N9725 G2 X0.5067 Y1.4159 I0.0037 J-0.0373
N9730 X0.5991 Y1.3448 I-0.0643 J-0.1792
N9735 X0.6068 Y1.3327 I-0.1567 J-0.1081
N9740 G1 X0.6071 Y1.3325
N9745 X0.6165 Y1.3323
N9750 X0.6406 Y1.3317
N9755 X0.6502 Y1.3305
N9760 X0.6727 Y1.3268
N9765 X0.6952 Y1.3197
N9770 X0.7064 Y1.3157
N9775 X0.7177 Y1.3106
N9780 X0.7289 Y1.3044
N9785 X0.7383 Y1.2981
N9790 X0.7537 Y1.2868
N9795 X0.7626 Y1.2802
N9800 X0.7709 Y1.274
N9805 X0.7891 Y1.2627
N9810 X0.8125 Y1.2506
N9815 X0.843 Y1.2378
N9820 X0.8838 Y1.2244
N9825 X0.9292 Y1.2135
N9830 X0.9752 Y1.2055
N9835 X1.0215 Y1.1996
N9840 X1.068 Y1.1952
N9845 X1.1146 Y1.1919
N9850 X1.1612 Y1.1895
N9855 X1.2079 Y1.1877
N9860 X1.2546 Y1.1864
N9865 X1.3012 Y1.1854
N9870 X1.3479 Y1.1847
N9875 X1.3946 Y1.1841
N9880 X1.4647 Y1.1835
N9885 X1.4763 Y1.1824
N9890 X1.499 Y1.1771
N9895 X1.5405 Y1.1557
N9900 X1.5737 Y1.1229
N9905 X1.5759 Y1.1197
N9910 X1.5855 Y1.1077
N9915 X1.5972 Y1.0976
N9920 X1.6104 Y1.0897
N9925 X1.6247 Y1.0843
N9930 X1.6399 Y1.0814
N9935 X1.6504 Y1.0804
N9940 X1.6617 Y1.079
N9945 X1.6842 Y1.0734
N9950 X1.6954 Y1.0699
N9955 X1.7066 Y1.0656
N9960 X1.7137 Y1.0625
N9965 X1.7179 Y1.0605
N9970 X1.7291 Y1.0536
N9975 X1.7507 Y1.0401
N9980 X1.7516 Y1.0393
N9985 X1.7628 Y1.0294
N9990 X1.7751 Y1.0176
N9995 X1.7855 Y1.0064
N10000 X1.7965 Y0.9901
N10005 X1.7966 Y0.99
N10010 G2 X1.8083 Y0.9812 I-0.2297 J-0.315
N10015 X1.9082 Y0.8635 I-0.2413 J-0.3062
N10020 X1.9128 Y0.8476 I-0.0328 J-0.0181
N10025 G1 X1.9309 Y0.545
N10030 G2 X1.9283 Y0.5287 I-0.0374 J-0.0022
N10035 X1.8429 Y0.3997 I-0.3613 J0.1464
N10040 X1.8325 Y0.3897 I-0.276 J0.2753
N10045 G1 X1.8324 Y0.3894
N10050 X1.8322 Y0.367
N10055 X1.8311 Y0.3558
N10060 X1.8297 Y0.3446
N10065 X1.8281 Y0.3333
N10070 X1.8218 Y0.3109
N10075 X1.819 Y0.3021
N10080 X1.8131 Y0.2885
N10085 X1.808 Y0.2773
N10090 X1.8078 Y0.2768
N10095 X1.8007 Y0.266
N10100 X1.7931 Y0.2548
N10105 X1.7855 Y0.2436
N10110 X1.7853 Y0.2433
N10115 X1.7552 Y0.2077
N10120 X1.722 Y0.1748
N10125 X1.683 Y0.1491
N10130 X1.6407 Y0.1293
N10135 X1.5966 Y0.1141
N10140 X1.5513 Y0.1025
N10145 X1.5055 Y0.0938
N10150 X1.4593 Y0.0872
N10155 X1.4128 Y0.0823
N10160 X1.3663 Y0.0785
N10165 X1.3197 Y0.0758
N10170 X1.273 Y0.0737
N10175 X1.2264 Y0.0721
N10180 X1.1797 Y0.0709
N10185 X1.133 Y0.0701
N10190 X1.0863 Y0.0694
N10195 X1.0396 Y0.0689
N10200 X0.9929 Y0.0686
N10205 X0.9462 Y0.0683
N10210 X0.8817 Y0.068
N10215 X0.8671 Y0.0668
N10220 X0.8528 Y0.063
N10225 X0.8394 Y0.057
N10230 X0.8271 Y0.0488
N10235 X0.8164 Y0.0386
N10240 X0.8076 Y0.0269
N10245 X0.7958 Y0.008
N10250 X0.788 Y-0.0032
N10255 X0.7785 Y-0.0144
N10260 X0.7739 Y-0.0192
N10265 X0.7626 Y-0.0302
N10270 X0.7514 Y-0.0385
N10275 X0.7452 Y-0.043
N10280 Y-0.0431
N10285 G2 X0.5974 Y-0.1359 I-0.2471 J0.2292
N10290 X0.5859 Y-0.1376 I-0.0111 J0.0358
N10295 G1 X0.4021 Y-0.1353
N10300 G2 X0.3906 Y-0.1334 I0.0005 J0.0375
N10305 X0.2453 Y-0.0369 I0.1074 J0.3195
N10310 G1 X0.2452 Y-0.0368
N10315 X0.2344 Y-0.027
N10320 X0.2219 Y-0.0144
N10325 X0.2119 Y-0.0032
N10330 X0.2046 Y0.008
N10335 X0.1974 Y0.0192
N10340 X0.1903 Y0.0305
N10345 X0.1895 Y0.0322
N10350 X0.1853 Y0.0417
N10355 X0.1807 Y0.0529
N10360 X0.1782 Y0.0599
N10365 X0.1713 Y0.0866
N10370 X0.1699 Y0.0978
N10375 X0.1687 Y0.109
N10380 X0.1676 Y0.1202
N10385 X0.1675 Y0.1539
N10390 Y1.0961
N10395 X0.1676 Y1.1298
N10400 X0.1685 Y1.1398
N10405 G3 X0.1665 Y1.1543 I-0.0374 J0.0021
N10410 G1 X0.165 Y1.1585 Z-1.1021
N10415 X0.1635 Y1.1627 Z-1.1013
N10420 X0.1621 Y1.1668 Z-1.0999
N10425 X0.1607 Y1.1707 Z-1.0981
N10430 X0.1594 Y1.1744 Z-1.0957
N10435 X0.1582 Y1.1777 Z-1.0929
N10440 X0.1572 Y1.1807 Z-1.0897
N10445 X0.1562 Y1.1834 Z-1.0862
N10450 X0.1555 Y1.1856 Z-1.0823
N10455 X0.1549 Y1.1873 Z-1.0782
N10460 X0.1544 Y1.1886 Z-1.0738
N10465 X0.1541 Y1.1894 Z-1.0694
N10470 X0.154 Y1.1896 Z-1.0649
N10475 G0 Z0.2
N10480 X0.7582 Y1.3314
N10485 Z-1.0274
N10490 G1 Z-1.0649 F10.
N10495 Y1.3311 Z-1.0694
N10500 Y1.3303 Z-1.0738
N10505 X0.7581 Y1.329 Z-1.0782
N10510 Y1.3271 Z-1.0823
N10515 X0.758 Y1.3248 Z-1.0862
N10520 Y1.322 Z-1.0897
N10525 X0.7579 Y1.3188 Z-1.0929
N10530 X0.7578 Y1.3152 Z-1.0957
N10535 X0.7577 Y1.3114 Z-1.0981
N10540 X0.7576 Y1.3072 Z-1.0999
N10545 X0.7575 Y1.3029 Z-1.1013
N10550 X0.7574 Y1.2984 Z-1.1021
N10555 X0.7573 Y1.2939 Z-1.1024
N10560 G3 X0.7626 Y1.2802 I0.0192 J-0.0005
N10565 G1 X0.7739 Y1.2692
N10570 X0.7785 Y1.2644
N10575 X0.788 Y1.2532
N10580 X0.7958 Y1.242
N10585 X0.8076 Y1.2231
N10590 X0.8094 Y1.2195
N10595 X0.8109 Y1.2161
N10600 X0.8136 Y1.2106
N10605 X0.8196 Y1.2005
N10610 X0.8269 Y1.1902
N10615 X0.8367 Y1.1786
N10620 X0.8488 Y1.1664
N10625 X0.8639 Y1.1533
N10630 X0.8827 Y1.1396
N10635 X0.9063 Y1.125
N10640 X0.9355 Y1.1102
N10645 X0.9729 Y1.0948
N10650 X1.0173 Y1.0806
N10655 X1.0384 Y1.0755
N10660 X1.0514 Y1.0736
N10665 X1.0645 Y1.074
N10670 X1.0773 Y1.0768
N10675 X1.0998 Y1.0805
N10680 X1.111 Y1.0818
N10685 X1.1335 Y1.0823
N10690 X1.1447 Y1.0825
N10695 X1.5943
N10700 X1.628 Y1.0824
N10705 X1.6399 Y1.0814
N10710 G3 X1.6474 Y1.156 I0.0024 J0.0374
N10715 G1 X0.851 Y1.2669
N10720 G3 X0.8109 Y1.2161 I-0.0052 J-0.0371
N10725 G1 X0.8191 Y1.1971
N10730 X0.823 Y1.1859
N10735 X0.8287 Y1.1634
N10740 X0.8301 Y1.1522
N10745 X0.8308 Y1.1461
N10750 X0.8324 Y1.136
N10755 X0.8348 Y1.1261
N10760 X0.8381 Y1.1161
N10765 X0.843 Y1.1045
N10770 X0.8497 Y1.0918
N10775 X0.8577 Y1.0789
N10780 X0.8687 Y1.0642
N10785 X0.8816 Y1.0496
N10790 X0.8964 Y1.0352
N10795 X0.9087 Y1.0269
N10800 X0.9224 Y1.0212
N10805 X0.9369 Y1.0182
N10810 X0.9517 Y1.0181
N10815 X0.9663 Y1.0209
N10820 X0.98 Y1.0264
N10825 X0.9925 Y1.0345
N10830 G3 Y1.0914 I-0.0244 J0.0284
N10835 G1 X0.8926 Y1.1773
N10840 G3 X0.8308 Y1.1461 I-0.0245 J-0.0284
N10845 G1 X0.8313 Y1.141
N10850 X0.8324 Y1.1298
N10855 X0.8325 Y1.0961
N10860 Y1.0563
N10865 X0.8329 Y1.049
N10870 X0.8338 Y1.0418
N10875 X0.8355 Y1.0341
N10880 X0.8379 Y1.0261
N10885 X0.8407 Y1.0187
N10890 X0.8446 Y1.0107
N10895 X0.8491 Y1.0031
N10900 X0.8541 Y0.996
N10905 X0.8602 Y0.9886
N10910 X0.871 Y0.9798
N10915 X0.8834 Y0.9735
N10920 X0.8969 Y0.9701
N10925 X0.9107 Y0.9698
N10930 X0.9244 Y0.9725
N10935 X0.9371 Y0.9781
N10940 X0.9483 Y0.9864
N10945 X0.9573 Y0.9969
N10950 G3 X0.9468 Y1.048 I-0.0316 J0.0202
N10955 G1 X0.8911 Y1.086
N10960 G3 X0.8325 Y1.0563 I-0.0211 J-0.031
N10965 G1 Y0.989
N10970 X0.8328 Y0.983
N10975 X0.8337 Y0.9771
N10980 X0.8353 Y0.9713
N10985 X0.8373 Y0.9657
N10990 X0.8398 Y0.9602
N10995 X0.843 Y0.9547
N11000 X0.8515 Y0.9451
N11005 X0.862 Y0.9377
N11010 X0.8739 Y0.933
N11015 X0.8866 Y0.9311
N11020 X0.8994 Y0.9323
N11025 X0.9115 Y0.9364
N11030 X0.9224 Y0.9432
N11035 X0.9314 Y0.9523
N11040 X0.938 Y0.9633
N11045 G3 X0.9415 Y0.974 I-0.0683 J0.0282
N11050 X0.8953 Y1.0419 I-0.0537 J0.0131
N11055 X0.8325 Y0.989 I-0.0076 J-0.0548
N11060 G1 Y0.9441
N11065 X0.8328 Y0.9381
N11070 X0.8339 Y0.9323
N11075 X0.8387 Y0.9221
N11080 X0.8457 Y0.9132
N11085 X0.8545 Y0.9063
N11090 X0.8647 Y0.9015
N11095 X0.8757 Y0.8992
N11100 X0.887 Y0.8996
N11105 X0.8979 Y0.9025
N11110 X0.9078 Y0.9079
N11115 X0.9162 Y0.9154
N11120 X0.9226 Y0.9246
N11125 X0.9267 Y0.9351
N11130 G3 X0.9276 Y0.9441 I-0.0342 J0.0079
N11135 X0.8325 I-0.0476 J-0.0016
N11140 G1 Y0.9105
N11145 X0.8328 Y0.9045
N11150 X0.8339 Y0.8986
N11155 X0.8359 Y0.8929
N11160 X0.8422 Y0.8835
N11165 X0.8508 Y0.8759
N11170 X0.861 Y0.8708
N11175 X0.8721 Y0.8683
N11180 X0.8835 Y0.8688
N11185 X0.8944 Y0.8721
N11190 X0.9041 Y0.878
N11195 X0.912 Y0.8862
N11200 X0.9176 Y0.8961
N11205 X0.9206 Y0.9072
N11210 G3 X0.9207 Y0.9099 I-0.023 J0.0023
N11215 X0.8325 Y0.9105 I-0.0441 J-0.001
N11220 G1 Y0.8768
N11225 X0.8328 Y0.8708
N11230 X0.8342 Y0.865
N11235 X0.8365 Y0.8595
N11240 X0.8434 Y0.8505
N11245 X0.8524 Y0.8436
N11250 X0.8629 Y0.8393
N11255 X0.8741 Y0.8377
N11260 X0.8853 Y0.8392
N11265 X0.8958 Y0.8435
N11270 X0.9048 Y0.8503
N11275 X0.9118 Y0.8592
N11280 X0.9162 Y0.8697
N11285 X0.9178 Y0.8809
N11290 G3 X0.9172 Y0.8853 I-0.0213 J-0.0005
N11295 X0.8325 Y0.8768 I-0.0418 J-0.0099
N11300 G1 Y0.846
N11305 X0.8328 Y0.84
N11310 X0.8343 Y0.8342
N11315 X0.8366 Y0.8286
N11320 X0.8437 Y0.8198
N11325 X0.8527 Y0.8131
N11330 X0.8632 Y0.8089
N11335 X0.8743 Y0.8076
N11340 X0.8855 Y0.8091
N11345 X0.8959 Y0.8135
N11350 X0.9048 Y0.8204
N11355 X0.9116 Y0.8293
N11360 X0.916 Y0.8397
N11365 X0.9175 Y0.8508
N11370 X0.9177 Y0.8745
N11375 X0.9178 Y0.8809
N11380 G3 X0.9004 Y0.9011 I-0.021 J-0.0005
N11385 X0.8325 Y0.846 I-0.0099 J-0.0571
N11390 G1 Y0.8157
N11395 X0.8328 Y0.8097
N11400 X0.8343 Y0.8039
N11405 X0.8367 Y0.7984
N11410 X0.8437 Y0.7896
N11415 X0.8528 Y0.7829
N11420 X0.8633 Y0.7787
N11425 X0.8745 Y0.7774
N11430 X0.8856 Y0.779
N11435 X0.896 Y0.7834
N11440 X0.9049 Y0.7903
N11445 X0.9118 Y0.7993
N11450 X0.916 Y0.8098
N11455 X0.9175 Y0.8209
N11460 Y0.8508
N11465 G3 X0.9 Y0.8709 I-0.0209 J-0.0006
N11470 X0.8325 Y0.8157 I-0.0095 J-0.0573
N11475 G1 Y0.7871
N11480 X0.8328 Y0.7811
N11485 X0.834 Y0.7752
N11490 X0.8361 Y0.7696
N11495 X0.8391 Y0.7644
N11500 X0.8465 Y0.7565
N11505 X0.8558 Y0.7507
N11510 X0.8661 Y0.7474
N11515 X0.877 Y0.7468
N11520 X0.8876 Y0.7489
N11525 X0.8974 Y0.7535
N11530 X0.9058 Y0.7605
N11535 X0.9122 Y0.7693
N11540 X0.9161 Y0.7794
N11545 X0.9175 Y0.7902
N11550 Y0.8209
N11555 G3 X0.9008 Y0.8407 I-0.021 J-0.0007
N11560 X0.8325 Y0.7871 I-0.0115 J-0.0556
N11565 G1 Y0.7562
N11570 X0.8328 Y0.7502
N11575 X0.834 Y0.7444
N11580 X0.8362 Y0.7388
N11585 X0.8391 Y0.7335
N11590 X0.8467 Y0.7257
N11595 X0.8559 Y0.72
N11600 X0.8663 Y0.7168
N11605 X0.8771 Y0.7162
N11610 X0.8877 Y0.7183
N11615 X0.8975 Y0.723
N11620 X0.9058 Y0.73
N11625 X0.9122 Y0.7388
N11630 X0.9161 Y0.7489
N11635 X0.9175 Y0.7596
N11640 Y0.7902
N11645 G3 X0.9007 Y0.81 I-0.021 J-0.0007
N11650 X0.8325 Y0.7562 I-0.0114 J-0.0558
N11655 G1 Y0.726
N11660 X0.8328 Y0.72
N11665 X0.834 Y0.7141
N11670 X0.8361 Y0.7085
N11675 X0.839 Y0.7032
N11680 X0.8465 Y0.6953
N11685 X0.8557 Y0.6896
N11690 X0.8661 Y0.6863
N11695 X0.8769 Y0.6857
N11700 X0.8876 Y0.6878
N11705 X0.8974 Y0.6924
N11710 X0.9058 Y0.6994
N11715 X0.9122 Y0.7082
N11720 X0.9161 Y0.7183
N11725 X0.9175 Y0.7291
N11730 Y0.7596
N11735 G3 X0.9009 Y0.7794 I-0.021 J-0.0007
N11740 X0.8325 Y0.726 I-0.0118 J-0.0554
N11745 G1 Y0.6946
N11750 X0.8328 Y0.6886
N11755 X0.8341 Y0.6827
N11760 X0.8364 Y0.6772
N11765 X0.8393 Y0.672
N11770 X0.8469 Y0.6643
N11775 X0.8562 Y0.6587
N11780 X0.8665 Y0.6555
N11785 X0.8773 Y0.655
N11790 X0.8879 Y0.6572
N11795 X0.8976 Y0.6619
N11800 X0.9059 Y0.6688
N11805 X0.9122 Y0.6776
N11810 X0.9162 Y0.6877
N11815 X0.9175 Y0.6984
N11820 Y0.7291
N11825 G3 X0.9004 Y0.749 I-0.0209 J-0.0007
N11830 X0.8325 Y0.6946 I-0.0106 J-0.0564
N11835 G1 Y0.6637
N11840 X0.8328 Y0.6577
N11845 X0.8341 Y0.6519
N11850 X0.8364 Y0.6463
N11855 X0.8394 Y0.6411
N11860 X0.847 Y0.6334
N11865 X0.8563 Y0.6279
N11870 X0.8666 Y0.6248
N11875 X0.8774 Y0.6243
N11880 X0.888 Y0.6265
N11885 X0.8977 Y0.6312
N11890 X0.9059 Y0.6382
N11895 X0.9122 Y0.647
N11900 X0.9162 Y0.657
N11905 X0.9175 Y0.6677
N11910 Y0.6984
N11915 G3 X0.9003 Y0.7183 I-0.0209 J-0.0007
N11920 X0.8325 Y0.6637 I-0.0103 J-0.0566
N11925 G1 Y0.6328
N11930 X0.8328 Y0.6268
N11935 X0.8342 Y0.621
N11940 X0.8365 Y0.6154
N11945 X0.8395 Y0.6103
N11950 X0.8471 Y0.6026
N11955 X0.8564 Y0.5971
N11960 X0.8667 Y0.594
N11965 X0.8775 Y0.5936
N11970 X0.888 Y0.5958
N11975 X0.8977 Y0.6005
N11980 X0.906 Y0.6075
N11985 X0.9122 Y0.6162
N11990 X0.9162 Y0.6263
N11995 X0.9175 Y0.637
N12000 Y0.6677
N12005 G3 X0.9002 Y0.6876 I-0.0209 J-0.0007
N12010 X0.8325 Y0.6328 I-0.01 J-0.0568
N12015 G1 Y0.6026
N12020 X0.8328 Y0.5966
N12025 X0.8341 Y0.5907
N12030 X0.8363 Y0.5851
N12035 X0.8393 Y0.5799
N12040 X0.8469 Y0.5722
N12045 X0.8561 Y0.5666
N12050 X0.8665 Y0.5634
N12055 X0.8773 Y0.5629
N12060 X0.8879 Y0.565
N12065 X0.8976 Y0.5697
N12070 X0.9059 Y0.5767
N12075 X0.9122 Y0.5855
N12080 X0.9162 Y0.5956
N12085 X0.9175 Y0.6063
N12090 Y0.637
N12095 G3 X0.9005 Y0.6569 I-0.0209 J-0.0007
N12100 X0.8325 Y0.6026 I-0.0107 J-0.0563
N12105 G1 Y0.5712
N12110 X0.8328 Y0.5652
N12115 X0.8342 Y0.5594
N12120 X0.8365 Y0.5538
N12125 X0.8396 Y0.5487
N12130 X0.8472 Y0.5411
N12135 X0.8565 Y0.5356
N12140 X0.8668 Y0.5325
N12145 X0.8776 Y0.5321
N12150 X0.8881 Y0.5343
N12155 X0.8978 Y0.5391
N12160 X0.906 Y0.5461
N12165 X0.9123 Y0.5548
N12170 X0.9162 Y0.5649
N12175 X0.9175 Y0.5755
N12180 Y0.6063
N12185 G3 X0.9001 Y0.6262 I-0.0209 J-0.0007
N12190 X0.8325 Y0.5712 I-0.0097 J-0.0571
N12195 G1 Y0.5403
N12200 X0.8328 Y0.5343
N12205 X0.8342 Y0.5285
N12210 X0.8366 Y0.523
N12215 X0.8396 Y0.5178
N12220 X0.8473 Y0.5102
N12225 X0.8565 Y0.5047
N12230 X0.8669 Y0.5017
N12235 X0.8776 Y0.5013
N12240 X0.8882 Y0.5035
N12245 X0.8978 Y0.5083
N12250 X0.906 Y0.5153
N12255 X0.9123 Y0.524
N12260 X0.9162 Y0.5341
N12265 X0.9175 Y0.5448
N12270 Y0.5755
N12275 G3 X0.9 Y0.5955 I-0.0209 J-0.0007
N12280 X0.8325 Y0.5403 I-0.0095 J-0.0572
N12285 G1 Y0.5094
N12290 X0.8328 Y0.5034
N12295 X0.8342 Y0.4976
N12300 X0.8366 Y0.4921
N12305 X0.8396 Y0.4869
N12310 X0.8473 Y0.4794
N12315 X0.8566 Y0.4739
N12320 X0.8669 Y0.4709
N12325 X0.8777 Y0.4705
N12330 X0.8882 Y0.4727
N12335 X0.8978 Y0.4775
N12340 X0.906 Y0.4845
N12345 X0.9123 Y0.4932
N12350 X0.9162 Y0.5033
N12355 X0.9175 Y0.5139
N12360 Y0.5448
N12365 G3 X0.9 Y0.5647 I-0.0209 J-0.0007
N12370 X0.8325 Y0.5094 I-0.0094 J-0.0573
N12375 G1 Y0.4792
N12380 X0.8328 Y0.4732
N12385 X0.8337 Y0.4672
N12390 X0.8356 Y0.4616
N12395 X0.8382 Y0.4562
N12400 X0.8455 Y0.4478
N12405 X0.8545 Y0.4416
N12410 X0.8649 Y0.4379
N12415 X0.8759 Y0.4369
N12420 X0.8868 Y0.4387
N12425 X0.8968 Y0.4432
N12430 X0.9054 Y0.4502
N12435 X0.912 Y0.459
N12440 X0.9161 Y0.4692
N12445 X0.9175 Y0.4802
N12450 Y0.5139
N12455 G3 X0.9003 Y0.5338 I-0.0209 J-0.0007
N12460 X0.8325 Y0.4792 I-0.0102 J-0.0567
N12465 G1 Y0.4455
N12470 X0.8328 Y0.4395
N12475 X0.8347 Y0.428
N12480 X0.8348 Y0.4222
N12485 X0.8346 Y0.4163
N12490 X0.8429 Y0.4084
N12495 X0.8528 Y0.4028
N12500 X0.8639 Y0.3997
N12505 X0.8753 Y0.3994
N12510 X0.8865 Y0.4019
N12515 X0.8967 Y0.4071
N12520 X0.9054 Y0.4145
N12525 X0.912 Y0.4239
N12530 X0.9161 Y0.4346
N12535 X0.9175 Y0.4459
N12540 Y0.4802
N12545 G3 X0.9003 Y0.5 I-0.0209 J-0.0007
N12550 X0.8325 Y0.4455 I-0.0104 J-0.0565
N12555 G1 Y0.1539
N12560 X0.8324 Y0.1202
N12565 G3 X0.8356 Y0.1059 I0.0375 J0.0011
N12570 G1 X0.8375 Y0.1018 Z-1.1021
N12575 X0.8393 Y0.0978 Z-1.1013
N12580 X0.8411 Y0.0938 Z-1.0999
N12585 X0.8428 Y0.0901 Z-1.0981
N12590 X0.8444 Y0.0865 Z-1.0957
N12595 X0.8458 Y0.0833 Z-1.0929
N12600 X0.8472 Y0.0804 Z-1.0897
N12605 X0.8483 Y0.0778 Z-1.0862
N12610 X0.8493 Y0.0757 Z-1.0823
N12615 X0.85 Y0.074 Z-1.0782
N12620 X0.8506 Y0.0727 Z-1.0738
N12625 X0.8509 Y0.072 Z-1.0694
N12630 X0.851 Y0.0718 Z-1.0649
N12635 G0 Z0.2
N12640 X1.834 Y0.2613
N12645 Z-1.0274
N12650 G1 Z-1.0649 F10.
N12655 X1.8337 Y0.2612 Z-1.0694
N12660 X1.833 Y0.261 Z-1.0738
N12665 X1.8317 Y0.2606 Z-1.0782
N12670 X1.8299 Y0.2601 Z-1.0823
N12675 X1.8276 Y0.2594 Z-1.0862
N12680 X1.8249 Y0.2586 Z-1.0897
N12685 X1.8219 Y0.2578 Z-1.0929
N12690 X1.8184 Y0.2568 Z-1.0957
N12695 X1.8147 Y0.2557 Z-1.0981
N12700 X1.8108 Y0.2545 Z-1.0999
N12705 X1.8066 Y0.2533 Z-1.1013
N12710 X1.8023 Y0.2521 Z-1.1021
N12715 X1.798 Y0.2508 Z-1.1024
N12720 G3 X1.7853 Y0.2433 I0.0083 J-0.0285
N12725 G1 X1.7751 Y0.2324
N12730 X1.7628 Y0.2206
N12735 X1.7516 Y0.2107
N12740 X1.7507 Y0.2099
N12745 X1.7291 Y0.1964
N12750 X1.7179 Y0.1895
N12755 X1.7137 Y0.1875
N12760 X1.7066 Y0.1844
N12765 X1.6954 Y0.1801
N12770 X1.6842 Y0.1766
N12775 X1.6617 Y0.171
N12780 X1.6504 Y0.1696
N12785 X1.6392 Y0.1685
N12790 X1.628 Y0.1676
N12795 X1.583 Y0.1675
N12800 X1.1447
N12805 X1.1335 Y0.1677
N12810 X1.111 Y0.1682
N12815 X1.0998 Y0.1695
N12820 X1.0773 Y0.1732
N12825 X1.0548 Y0.1803
N12830 X1.0436 Y0.1842
N12835 X1.0368 Y0.1875
N12840 X1.0211 Y0.1957
N12845 X1.016 Y0.1987
N12850 X0.993 Y0.215
N12855 X0.9902 Y0.2173
N12860 X0.9874 Y0.22
N12865 X0.9648 Y0.2436
N12870 X0.96 Y0.2492
N12875 X0.9562 Y0.2548
N12880 X0.949 Y0.266
N12885 X0.9424 Y0.277
N12890 X0.9312 Y0.3018
N12895 X0.9278 Y0.3109
N12900 X0.9218 Y0.3333
N12905 X0.92 Y0.3476
N12910 X0.9189 Y0.3558
N12915 X0.9178 Y0.367
N12920 X0.9176 Y0.3894
N12925 X0.9175 Y0.4006
N12930 Y0.4459
N12935 X0.917 Y0.4489 Z-1.102
N12940 X0.9164 Y0.4517 Z-1.1011
N12945 X0.916 Y0.4543 Z-1.0996
N12950 X0.9156 Y0.4566 Z-1.0976
N12955 X0.915 Y0.4581 Z-1.0954
N12960 X0.9145 Y0.4592 Z-1.093
N12965 X0.9142 Y0.4599 Z-1.0904
N12970 X0.9141 Y0.4602 Z-1.0876
N12975 G0 Z0.2
N12980 X-0.3301 Y-0.2736
N12985 Z-1.1546
N12990 G1 Z-1.1921 F10.
N12995 X-0.3299 Y-0.2734 Z-1.1966
N13000 X-0.3292 Y-0.273 Z-1.2011
N13005 X-0.328 Y-0.2723 Z-1.2054
N13010 X-0.3265 Y-0.2714 Z-1.2095
N13015 X-0.3244 Y-0.2702 Z-1.2134
N13020 X-0.322 Y-0.2687 Z-1.217
N13025 X-0.3193 Y-0.2671 Z-1.2202
N13030 X-0.3162 Y-0.2652 Z-1.223
N13035 X-0.3129 Y-0.2632 Z-1.2253
N13040 X-0.3094 Y-0.2611 Z-1.2272
N13045 X-0.3057 Y-0.2589 Z-1.2285
N13050 X-0.3019 Y-0.2566 Z-1.2293
N13055 X-0.298 Y-0.2543 Z-1.2296
N13060 G3 X-0.1336 Y-0.1297 I-0.4928 J0.8208
N13065 G1 X-0.1303 Y-0.1263
N13070 X-0.1193 Y-0.1094
N13075 X-0.1074 Y-0.0878
N13080 X-0.0949 Y-0.0596
N13085 X-0.0817 Y-0.0224
N13090 X-0.0713 Y0.0167
N13095 X-0.0691 Y0.0285
N13100 X-0.0686 Y0.0405
N13105 X-0.0699 Y0.0525
N13110 X-0.0729 Y0.0641
N13115 X-0.0787 Y0.0866
N13120 X-0.0803 Y0.0991
N13125 X-0.0813 Y0.109
N13130 X-0.0824 Y0.1202
N13135 X-0.0825 Y0.1539
N13140 Y1.0961
N13145 X-0.0824 Y1.1298
N13150 X-0.0813 Y1.141
N13155 X-0.0801 Y1.1522
N13160 X-0.0787 Y1.1634
N13165 X-0.0729 Y1.1859
N13170 X-0.069 Y1.1973
N13175 X-0.0596 Y1.2195
N13180 X-0.0578 Y1.2227
N13185 X-0.0454 Y1.242
N13190 X-0.038 Y1.2532
N13195 X-0.0353 Y1.2565
N13200 X-0.0285 Y1.2644
N13205 X-0.0128 Y1.2799
N13210 X-0.0046 Y1.2868
N13215 X-0.0016 Y1.2893
N13220 X0.0096 Y1.2965
N13225 X0.0299 Y1.3093
N13230 X0.0321 Y1.3105
N13235 X0.0564 Y1.3205
N13240 X0.0658 Y1.3234
N13245 X0.0883 Y1.329
N13250 X0.0996 Y1.3304
N13255 X0.1132 Y1.3317
N13260 X0.122 Y1.3324
N13265 X0.167 Y1.3325
N13270 X1.5943
N13275 X1.628 Y1.3324
N13280 X1.6368 Y1.3317
N13285 X1.6504 Y1.3304
N13290 X1.6617 Y1.329
N13295 X1.6842 Y1.3234
N13300 X1.6936 Y1.3205
N13305 X1.7179 Y1.3105
N13310 X1.7201 Y1.3093
N13315 X1.7404 Y1.2965
N13320 X1.7516 Y1.2893
N13325 X1.7546 Y1.2868
N13330 X1.7628 Y1.2799
N13335 X1.7785 Y1.2644
N13340 X1.7853 Y1.2565
N13345 X1.788 Y1.2532
N13350 X1.7965 Y1.2402
N13355 X1.8078 Y1.2227
N13360 X1.8096 Y1.2195
N13365 X1.8191 Y1.1971
N13370 X1.8229 Y1.1859
N13375 X1.8287 Y1.1634
N13380 X1.8303 Y1.1509
N13385 X1.8313 Y1.141
N13390 X1.8324 Y1.1298
N13395 X1.8325 Y1.0961
N13400 Y0.1539
N13405 X1.8324 Y0.1202
N13410 X1.8313 Y0.109
N13415 X1.8301 Y0.0978
N13420 X1.8287 Y0.0866
N13425 X1.8229 Y0.0641
N13430 X1.819 Y0.0527
N13435 X1.8096 Y0.0305
N13440 X1.8078 Y0.0273
N13445 X1.7954 Y0.008
N13450 X1.788 Y-0.0032
N13455 X1.7853 Y-0.0065
N13460 X1.7785 Y-0.0144
N13465 X1.7628 Y-0.0299
N13470 X1.7546 Y-0.0368
N13475 X1.7516 Y-0.0393
N13480 X1.7404 Y-0.0465
N13485 X1.7201 Y-0.0593
N13490 X1.7179 Y-0.0605
N13495 X1.6936 Y-0.0705
N13500 X1.6842 Y-0.0734
N13505 X1.6617 Y-0.079
N13510 X1.6504 Y-0.0804
N13515 X1.6368 Y-0.0817
N13520 X1.628 Y-0.0824
N13525 X1.583 Y-0.0825
N13530 X0.1557
N13535 X0.122 Y-0.0824
N13540 X0.1132 Y-0.0817
N13545 X0.0996 Y-0.0804
N13550 X0.0883 Y-0.079
N13555 X0.0658 Y-0.0734
N13560 X0.0564 Y-0.0705
N13565 X0.0321 Y-0.0605
N13570 X0.0299 Y-0.0593
N13575 X0.0121 Y-0.0481
N13580 G3 X-0.0018 Y-0.0433 I-0.0188 J-0.0324
N13585 G1 X-0.0063 Y-0.0427 Z-1.2293
N13590 X-0.0107 Y-0.0421 Z-1.2285
N13595 X-0.015 Y-0.0416 Z-1.2272
N13600 X-0.0191 Y-0.041 Z-1.2253
N13605 X-0.0229 Y-0.0405 Z-1.223
N13610 X-0.0264 Y-0.04 Z-1.2202
N13615 X-0.0296 Y-0.0396 Z-1.217
N13620 X-0.0324 Y-0.0392 Z-1.2134
N13625 X-0.0347 Y-0.0389 Z-1.2095
N13630 X-0.0365 Y-0.0387 Z-1.2054
N13635 X-0.0379 Y-0.0385 Z-1.2011
N13640 X-0.0387 Y-0.0384 Z-1.1966
N13645 X-0.039 Z-1.1921
N13650 G0 Z0.6
(2D CONTOUR2)
N13660 M8
N13665 G0 X0.925 Y1.1625
N13670 Z0.6
N13675 Z0.2
N13680 G1 Z0.0394 F10.
N13685 Z-1.0875 F1.
N13690 G18 G3 X0.8875 Z-1.125 I-0.0375 K0.
N13695 G1 X0.85 F10.
N13700 G17 G3 X0.8125 Y1.125 I0. J-0.0375
N13705 G1 Y0.125
N13710 G3 X0.85 Y0.0875 I0.0375 J0.
N13715 G1 X0.8875
N13720 G18 G2 X0.925 Z-1.0875 I0. K0.0375
N13725 G0 Z0.2
N13730 X1.6625 Y0.075
N13735 G1 Z0.0394 F10.
N13740 Z-1.0875 F1.
N13745 G19 G3 Y0.1125 Z-1.125 J0.0375 K0.
N13750 G1 Y0.15 F10.
N13755 G17 G3 X1.625 Y0.1875 I-0.0375 J0.
N13760 G1 X1.125
N13765 G2 X0.9375 Y0.375 I0. J0.1875
N13770 G1 Y0.875
N13775 G2 X1.125 Y1.0625 I0.1875 J0.
N13780 G1 X1.625
N13785 G3 X1.6625 Y1.1 I0. J0.0375
N13790 G1 Y1.1375
N13795 G19 G3 Y1.175 Z-1.0875 J0. K0.0375
N13800 G0 Z0.2
N13805 X0.075 Y0.0875
N13810 G1 Z0.0394 F10.
N13815 Z-1.0875 F1.
N13820 G18 G2 X0.1125 Z-1.125 I0.0375 K0.
N13825 G1 X0.15 F10.
N13830 G17 G3 X0.1875 Y0.125 I0. J0.0375
N13835 G1 Y1.125
N13840 G3 X0.15 Y1.1625 I-0.0375 J0.
N13845 G1 X0.1125
N13850 G18 G3 X0.075 Z-1.0875 I0. K0.0375
N13855 G0 Z0.6
N13860 G17
(HORIZONTAL1)
N13865 M8
N13870 G0 X-0.0187 Y0.2638
N13875 Z0.6
N13880 Z-0.0106
N13885 G1 Z-0.0125 F10.
N13890 G18 G2 X0.0188 Z-0.05 I0.0375 K0.
N13895 G17 G3 X0.0227 Y0.264 I0. J0.0375
N13900 G1 X0.3695 Y0.3011
N13905 G2 X0.411 Y0.2638 I0.004 J-0.0373
N13910 G3 X0.589 I0.089 J0.
N13915 G1 Y1.0051
N13920 G3 X0.5052 Y1.089 I-0.0838 J0.
N13925 G1 X0.4948
N13930 G3 X0.411 Y1.0051 I0. J-0.0838
N13935 G1 Y0.2638
N13940 G2 X0.3251 Y0.1365 I-0.1372 J0.
N13945 G3 X0.3271 Y-0.0171 I0.0308 J-0.0764
N13950 G1 X0.3279 Y-0.0174
N13955 X0.3328 Y-0.0189
N13960 X0.3377 Y-0.0203
N13965 X0.3475 Y-0.0224
N13970 X0.3572 Y-0.0239
N13975 X0.367 Y-0.0247
N13980 X0.3768 Y-0.025
N13985 X0.621
N13990 X0.6308 Y-0.0249
N13995 X0.6405 Y-0.0241
N14000 X0.6431 Y-0.0239
N14005 X0.6503 Y-0.0228
N14010 X0.6601 Y-0.0208
N14015 X0.665 Y-0.0195
N14020 X0.6699 Y-0.0181
N14025 X0.6796 Y-0.0146
N14030 X0.681 Y-0.0141
N14035 X0.6894 Y-0.0104
N14040 X0.6992 Y-0.0053
N14045 X0.7009 Y-0.0043
N14050 X0.7089 Y0.0007
N14055 X0.7155 Y0.0054
N14060 X0.7187 Y0.008
N14065 X0.7271 Y0.0152
N14070 X0.7285 Y0.0165
N14075 X0.7367 Y0.0249
N14080 X0.7382 Y0.0267
N14085 X0.7447 Y0.0347
N14090 X0.748 Y0.0393
N14095 X0.7515 Y0.0444
N14100 X0.7545 Y0.0493
N14105 X0.7572 Y0.0542
N14110 X0.762 Y0.064
N14115 X0.7659 Y0.0737
N14120 X0.7675 Y0.0785
N14125 X0.7691 Y0.0835
N14130 X0.7704 Y0.0884
N14135 X0.7716 Y0.0932
N14140 X0.7733 Y0.103
N14145 X0.7744 Y0.1127
N14150 X0.775 Y0.1225
N14155 Y0.1323
N14160 Y1.1177
N14165 Y1.1275
N14170 X0.7744 Y1.1373
N14175 X0.7733 Y1.147
N14180 X0.7716 Y1.1568
N14185 X0.7704 Y1.1616
N14190 X0.7691 Y1.1665
N14195 X0.7675 Y1.1715
N14200 X0.7659 Y1.1763
N14205 X0.762 Y1.186
N14210 X0.7572 Y1.1958
N14215 X0.7545 Y1.2007
N14220 X0.7515 Y1.2056
N14225 X0.748 Y1.2107
N14230 X0.7447 Y1.2153
N14235 X0.7382 Y1.2233
N14240 X0.7367 Y1.2251
N14245 X0.7285 Y1.2335
N14250 X0.7271 Y1.2348
N14255 X0.7187 Y1.242
N14260 X0.7155 Y1.2446
N14265 X0.7089 Y1.2493
N14270 X0.7009 Y1.2543
N14275 X0.6992 Y1.2553
N14280 X0.6894 Y1.2604
N14285 X0.681 Y1.2641
N14290 X0.6796 Y1.2646
N14295 X0.6699 Y1.2681
N14300 X0.665 Y1.2695
N14305 X0.6601 Y1.2708
N14310 X0.6503 Y1.2728
N14315 X0.6431 Y1.2739
N14320 X0.6405 Y1.2741
N14325 X0.6308 Y1.2749
N14330 X0.621 Y1.275
N14335 X0.3768
N14340 X0.367 Y1.2747
N14345 X0.357 Y1.2739
N14350 X0.3475 Y1.2724
N14355 X0.3377 Y1.2703
N14360 X0.3328 Y1.2689
N14365 X0.3279 Y1.2674
N14370 X0.319 Y1.2641
N14375 X0.3182 Y1.2637
N14380 X0.3084 Y1.2594
N14385 X0.2986 Y1.2541
N14390 X0.2937 Y1.2511
N14395 X0.2889 Y1.2477
N14400 X0.2845 Y1.2446
N14405 X0.2791 Y1.2402
N14410 X0.2729 Y1.2348
N14415 X0.2693 Y1.2313
N14420 X0.2634 Y1.2251
N14425 X0.2596 Y1.2207
N14430 X0.2553 Y1.2153
N14435 X0.2498 Y1.2075
N14440 X0.2485 Y1.2056
N14445 X0.2456 Y1.2007
N14450 X0.2428 Y1.1958
N14455 X0.24 Y1.1903
N14460 X0.2381 Y1.186
N14465 X0.2341 Y1.1763
N14470 X0.2309 Y1.1665
N14475 X0.2302 Y1.1641
N14480 X0.2284 Y1.1568
N14485 X0.2267 Y1.147
N14490 X0.2256 Y1.1373
N14495 X0.225 Y1.1275
N14500 Y1.1177
N14505 Y0.1323
N14510 Y0.1225
N14515 X0.2256 Y0.1127
N14520 X0.2267 Y0.103
N14525 X0.2284 Y0.0932
N14530 X0.2302 Y0.0859
N14535 X0.2309 Y0.0835
N14540 X0.2341 Y0.0737
N14545 X0.2381 Y0.064
N14550 X0.24 Y0.0597
N14555 X0.2428 Y0.0542
N14560 X0.2456 Y0.0493
N14565 X0.2485 Y0.0444
N14570 X0.2498 Y0.0425
N14575 X0.2553 Y0.0347
N14580 X0.2596 Y0.0293
N14585 X0.2634 Y0.0249
N14590 X0.2693 Y0.0187
N14595 X0.2729 Y0.0152
N14600 X0.2791 Y0.0098
N14605 X0.2845 Y0.0054
N14610 X0.2889 Y0.0023
N14615 X0.2937 Y-0.0011
N14620 X0.2986 Y-0.0041
N14625 X0.3084 Y-0.0094
N14630 X0.3182 Y-0.0137
N14635 X0.319 Y-0.0141
N14640 X0.3271 Y-0.0171
N14645 X0.3279 Y-0.0174
N14650 X0.3304 Y-0.0181 Z-0.0498
N14655 X0.3328 Y-0.0189 Z-0.0495
N14660 X0.3353 Y-0.0196 Z-0.049
N14665 X0.3377 Y-0.0203 Z-0.0483
N14670 X0.3411 Y-0.021 Z-0.0471
N14675 X0.3444 Y-0.0217 Z-0.0455
N14680 X0.3475 Y-0.0224 Z-0.0435
N14685 X0.3511 Y-0.023 Z-0.0407
N14690 X0.3544 Y-0.0234 Z-0.0374
N14695 X0.3572 Y-0.0239 Z-0.0337
N14700 X0.3595 Y-0.0241 Z-0.0298
N14705 X0.3614 Y-0.0242 Z-0.0257
N14710 X0.3627 Y-0.0244 Z-0.0214
N14715 X0.3635 Z-0.017
N14720 X0.3638 Y-0.0245 Z-0.0125
N14725 G0 Z0.2
N14730 X1.3656 Y1.2687
N14735 Z-0.5856
N14740 G1 Z-0.5875 F10.
N14745 G19 G2 Y1.2312 Z-0.625 J-0.0375 K0.
N14750 G17 G3 X1.3657 Y1.2281 I0.0375 J0.
N14755 G1 X1.403 Y0.7874
N14760 G2 X1.3656 Y0.7468 I-0.0374 J-0.0032
N14765 G3 X1.2532 Y0.6344 I0. J-0.1123
N14770 G1 Y0.617
N14775 G3 X1.367 Y0.5032 I0.1138 J0.
N14780 G1 X1.383
N14785 G3 X1.4968 Y0.617 I0. J0.1138
N14790 G1 Y0.633
N14795 G3 X1.383 Y0.7468 I-0.1138 J0.
N14800 G1 X1.3656
N14805 G2 X1.1802 Y0.8516 I0. J0.2163
N14810 G3 X0.975 Y0.7946 I-0.0947 J-0.057
N14815 G1 Y0.3762
N14820 X0.9753 Y0.3664
N14825 X0.9762 Y0.3567
N14830 X0.9777 Y0.3469
N14835 X0.9787 Y0.342
N14840 X0.9799 Y0.3372
N14845 X0.9825 Y0.3284
N14850 X0.9864 Y0.3176
N14855 X0.9909 Y0.3079
N14860 X0.9922 Y0.3053
N14865 X0.9962 Y0.2981
N14870 X1.002 Y0.2892
N14875 X1.0026 Y0.2884
N14880 X1.0101 Y0.2786
N14885 X1.0118 Y0.2766
N14890 X1.019 Y0.2689
N14895 X1.0215 Y0.2664
N14900 X1.0298 Y0.2591
N14905 X1.0313 Y0.2579
N14910 X1.0411 Y0.2507
N14915 X1.0432 Y0.2493
N14920 X1.0508 Y0.2446
N14925 X1.0606 Y0.2396
N14930 X1.0704 Y0.2353
N14935 X1.0801 Y0.2319
N14940 X1.0874 Y0.2298
N14945 X1.0899 Y0.2292
N14950 X1.0997 Y0.2272
N14955 X1.1095 Y0.2259
N14960 X1.1192 Y0.2251
N14965 X1.129 Y0.225
N14970 X1.6174
N14975 X1.6272
N14980 X1.637 Y0.2255
N14985 X1.6467 Y0.2266
N14990 X1.6565 Y0.2284
N14995 X1.6625 Y0.2298
N15000 X1.6663 Y0.2308
N15005 X1.6761 Y0.234
N15010 X1.6858 Y0.238
N15015 X1.6895 Y0.2396
N15020 X1.6956 Y0.2427
N15025 X1.7005 Y0.2455
N15030 X1.7054 Y0.2484
N15035 X1.7069 Y0.2493
N15040 X1.7151 Y0.2552
N15045 X1.7202 Y0.2591
N15050 X1.7249 Y0.2633
N15055 X1.7309 Y0.2689
N15060 X1.7347 Y0.2728
N15065 X1.7398 Y0.2786
N15070 X1.7444 Y0.2843
N15075 X1.7474 Y0.2884
N15080 X1.7507 Y0.2933
N15085 X1.7538 Y0.2981
N15090 X1.7591 Y0.3079
N15095 X1.7635 Y0.3176
N15100 X1.764 Y0.3187
N15105 X1.7672 Y0.3274
N15110 X1.7687 Y0.3323
N15115 X1.7701 Y0.3372
N15120 X1.7723 Y0.3469
N15125 X1.7738 Y0.3567
N15130 X1.7747 Y0.3664
N15135 X1.775 Y0.3762
N15140 Y0.8738
N15145 X1.7747 Y0.8836
N15150 X1.7737 Y0.8939
N15155 X1.7723 Y0.9031
N15160 X1.7701 Y0.9128
N15165 X1.7687 Y0.9177
N15170 X1.7672 Y0.9226
N15175 X1.764 Y0.9313
N15180 X1.7635 Y0.9324
N15185 X1.7591 Y0.9421
N15190 X1.7538 Y0.9519
N15195 X1.7507 Y0.9567
N15200 X1.7474 Y0.9616
N15205 X1.7444 Y0.9657
N15210 X1.7398 Y0.9714
N15215 X1.7347 Y0.9772
N15220 X1.7309 Y0.9811
N15225 X1.7249 Y0.9867
N15230 X1.7202 Y0.9909
N15235 X1.7151 Y0.9948
N15240 X1.7069 Y1.0007
N15245 X1.7054 Y1.0016
N15250 X1.7005 Y1.0045
N15255 X1.6956 Y1.0073
N15260 X1.6895 Y1.0104
N15265 X1.6858 Y1.012
N15270 X1.6761 Y1.016
N15275 X1.6663 Y1.0192
N15280 X1.6625 Y1.0202
N15285 X1.6565 Y1.0216
N15290 X1.6467 Y1.0233
N15295 X1.637 Y1.0245
N15300 X1.6272 Y1.025
N15305 X1.6077
N15310 X1.129
N15315 X1.1192 Y1.0249
N15320 X1.1095 Y1.0241
N15325 X1.0997 Y1.0228
N15330 X1.0899 Y1.0208
N15335 X1.0874 Y1.0202
N15340 X1.0801 Y1.0181
N15345 X1.0704 Y1.0147
N15350 X1.0606 Y1.0104
N15355 X1.0508 Y1.0054
N15360 X1.0432 Y1.0007
N15365 X1.0411 Y0.9993
N15370 X1.0313 Y0.9921
N15375 X1.0298 Y0.9909
N15380 X1.0215 Y0.9836
N15385 X1.019 Y0.9811
N15390 X1.0118 Y0.9734
N15395 X1.0101 Y0.9714
N15400 X1.0026 Y0.9616
N15405 X1.002 Y0.9608
N15410 X0.9962 Y0.9519
N15415 X0.9922 Y0.9447
N15420 X0.9909 Y0.9421
N15425 X0.9864 Y0.9324
N15430 X0.9825 Y0.9216
N15435 X0.9799 Y0.9128
N15440 X0.9787 Y0.908
N15445 X0.9777 Y0.9031
N15450 X0.9762 Y0.8933
N15455 X0.9753 Y0.8836
N15460 X0.975 Y0.8738
N15465 Y0.7946
N15470 G3 X1.0125 Y0.7571 I0.0375 J0.
N15475 G18 G2 X1.05 Z-0.5875 I0. K0.0375
N15480 G0 Z0.2
N15485 X1.6663 Y1.0579
N15490 Z-0.5856
N15495 G1 Z-1.0462 F10.
N15500 X1.6666 Y1.0578 Z-1.0509
N15505 X1.6675 Y1.0576 Z-1.0555
N15510 X1.6688 Y1.0572 Z-1.0599
N15515 X1.6708 Y1.0568 Z-1.0641
N15520 X1.6732 Y1.0561 Z-1.0681
N15525 X1.6761 Y1.0554 Z-1.0717
N15530 X1.679 Y1.0545 Z-1.0747
N15535 X1.6823 Y1.0535 Z-1.0773
N15540 X1.6858 Y1.0524 Z-1.0795
N15545 X1.6897 Y1.0509 Z-1.0813
N15550 X1.6938 Y1.0494 Z-1.0826
N15555 X1.6956 Y1.0487 Z-1.0831
N15560 X1.6981 Y1.0476 Z-1.0835
N15565 X1.7006 Y1.0465 Z-1.0837
N15570 X1.7054 Y1.0444 Z-1.0838
N15575 X1.7151 Y1.0394 Z-1.0842
N15580 X1.7249 Y1.0337 Z-1.0846
N15585 X1.7306 Y1.0299 Z-1.0849
N15590 X1.7347 Y1.0271 Z-1.085
N15595 X1.7437 Y1.0202 Z-1.0854
N15600 X1.7444 Y1.0195 Z-1.0855
N15605 X1.7542 Y1.0109 Z-1.0859
N15610 X1.7547 Y1.0104
N15615 X1.7642 Y1.0007 Z-1.0864
N15620 X1.7724 Y0.9909 Z-1.0869
N15625 X1.7749 Y0.9876 Z-1.087
N15630 X1.775 Y0.9877
N15635 Y1.1177 Z-1.0916
N15640 Y1.1275 Z-1.0919
N15645 X1.7744 Y1.1373 Z-1.0922
N15650 X1.7737 Y1.144 Z-1.0925
N15655 X1.7733 Y1.147 Z-1.0926
N15660 X1.7716 Y1.1568 Z-1.0929
N15665 X1.7704 Y1.1616 Z-1.0931
N15670 X1.7691 Y1.1665 Z-1.0933
N15675 X1.7659 Y1.1763 Z-1.0936
N15680 X1.764 Y1.1814 Z-1.0938
N15685 X1.7619 Y1.186 Z-1.094
N15690 X1.7572 Y1.1958 Z-1.0944
N15695 X1.7542 Y1.201 Z-1.0946
N15700 X1.7515 Y1.2056 Z-1.0948
N15705 X1.7444 Y1.2157 Z-1.0952
N15710 X1.7367 Y1.2251 Z-1.0956
N15715 X1.7347 Y1.2273 Z-1.0957
N15720 X1.7271 Y1.2348 Z-1.0961
N15725 X1.7249 Y1.2369 Z-1.0962
N15730 X1.7155 Y1.2446 Z-1.0966
N15735 X1.7054 Y1.2516 Z-1.0971
N15740 X1.7008 Y1.2543 Z-1.0973
N15745 X1.6956 Y1.2573 Z-1.0975
N15750 X1.6858 Y1.262 Z-1.0978
N15755 X1.6811 Y1.2641 Z-1.098
N15760 X1.6761 Y1.266 Z-1.0982
N15765 X1.6663 Y1.2692 Z-1.0986
N15770 X1.6614 Y1.2704 Z-1.0987
N15775 X1.6565 Y1.2716 Z-1.0989
N15780 X1.6467 Y1.2734 Z-1.0993
N15785 X1.6433 Y1.2739 Z-1.0994
N15790 X1.637 Y1.2745 Z-1.0996
N15795 X1.6272 Y1.275 Z-1.1
N15800 X1.6077 Z-1.1006
N15805 X0.91 Z-1.125
N15810 X0.7377
N15815 X0.7376 Y1.2749
N15820 X0.739 Y1.2739
N15825 X0.748 Y1.2665
N15830 X0.7507 Y1.2641
N15835 X0.7578 Y1.2574
N15840 X0.7608 Y1.2543
N15845 X0.7675 Y1.2468
N15850 X0.7694 Y1.2446
N15855 X0.7773 Y1.2344
N15860 X0.7836 Y1.2251
N15865 X0.7871 Y1.2193
N15870 X0.7893 Y1.2153
N15875 X0.7943 Y1.2056
N15880 X0.7968 Y1.2
N15885 X0.7986 Y1.1958
N15890 X0.8023 Y1.186
N15895 X0.8054 Y1.1763
N15900 X0.8066 Y1.1716
N15905 X0.8078 Y1.1665
N15910 X0.8098 Y1.1568
N15915 X0.8112 Y1.147
N15920 X0.8121 Y1.1373
N15925 X0.8125 Y1.1275
N15930 Y0.1225
N15935 X0.8121 Y0.1127
N15940 X0.8112 Y0.103
N15945 X0.8098 Y0.0932
N15950 X0.8078 Y0.0835
N15955 X0.8066 Y0.0784
N15960 X0.8054 Y0.0737
N15965 X0.8023 Y0.064
N15970 X0.7986 Y0.0542
N15975 X0.7968 Y0.05
N15980 X0.7943 Y0.0444
N15985 X0.7893 Y0.0347
N15990 X0.7871 Y0.0307
N15995 X0.7836 Y0.0249
N16000 X0.777 Y0.0152
N16005 X0.7694 Y0.0054
N16010 X0.7675 Y0.0032
N16015 X0.7608 Y-0.0043
N16020 X0.7578 Y-0.0074
N16025 X0.7507 Y-0.0141
N16030 X0.748 Y-0.0165
N16035 X0.739 Y-0.0239
N16040 X0.7376 Y-0.0249
N16045 X0.7377 Y-0.025
N16050 X0.7381
N16055 X1.6174
N16060 X1.6272
N16065 X1.637 Y-0.0245
N16070 X1.6433 Y-0.0239
N16075 X1.6467 Y-0.0234
N16080 X1.6565 Y-0.0216
N16085 X1.6614 Y-0.0204
N16090 X1.6663 Y-0.0192
N16095 X1.6761 Y-0.016
N16100 X1.6811 Y-0.0141
N16105 X1.6858 Y-0.012
N16110 X1.6956 Y-0.0073
N16115 X1.7008 Y-0.0043
N16120 X1.7054 Y-0.0016
N16125 X1.7155 Y0.0054
N16130 X1.7249 Y0.0131
N16135 X1.7271 Y0.0152
N16140 X1.7347 Y0.0227
N16145 X1.7367 Y0.0249
N16150 X1.7444 Y0.0343
N16155 X1.7515 Y0.0444
N16160 X1.7542 Y0.049
N16165 X1.7572 Y0.0542
N16170 X1.7619 Y0.064
N16175 X1.764 Y0.0686
N16180 X1.7659 Y0.0737
N16185 X1.7691 Y0.0835
N16190 X1.7704 Y0.0884
N16195 X1.7716 Y0.0932
N16200 X1.7733 Y0.103
N16205 X1.7737 Y0.106
N16210 X1.7744 Y0.1127
N16215 X1.775 Y0.1225
N16220 Y0.1323
N16225 Y0.2623
N16230 X1.7749 Y0.2624
N16235 X1.7724 Y0.2591
N16240 X1.764 Y0.2491
N16245 X1.7547 Y0.2396
N16250 X1.7542 Y0.2391
N16255 X1.7444 Y0.2305
N16260 X1.7437 Y0.2298
N16265 X1.7347 Y0.2229
N16270 X1.7306 Y0.2201
N16275 X1.7249 Y0.2163
N16280 X1.7146 Y0.2103
N16285 X1.7054 Y0.2056
N16290 X1.6956 Y0.2013
N16295 X1.6938 Y0.2006
N16300 X1.6858 Y0.1976
N16305 X1.6761 Y0.1946
N16310 X1.6663 Y0.1921
N16315 X1.6601 Y0.1908
N16320 X1.6565 Y0.1902
N16325 X1.6467 Y0.1888
N16330 X1.637 Y0.1879
N16335 X1.6272 Y0.1875
N16340 X1.129
N16345 X1.1192 Y0.1876
N16350 X1.1095 Y0.1881
N16355 X1.0997 Y0.1892
N16360 X1.0899 Y0.1908
N16365 X1.0801 Y0.1929
N16370 X1.0704 Y0.1956
N16375 X1.0606 Y0.1989
N16380 X1.0562 Y0.2006
N16385 X1.0508 Y0.2028
N16390 X1.0411 Y0.2073
N16395 X1.0354 Y0.2103
N16400 X1.0313 Y0.2126
N16405 X1.0215 Y0.2186
N16410 X1.0194 Y0.2201
N16415 X1.0118 Y0.2256
N16420 X1.0063 Y0.2298
N16425 X1.002 Y0.2335
N16430 X0.9953 Y0.2396
N16435 X0.9922 Y0.2426
N16440 X0.9858 Y0.2493
N16445 X0.9825 Y0.2532
N16450 X0.9776 Y0.2591
N16455 X0.9727 Y0.2656
N16460 X0.9704 Y0.2689
N16465 X0.9642 Y0.2786
N16470 X0.9629 Y0.2807
N16475 X0.9587 Y0.2884
N16480 X0.954 Y0.2981
N16485 X0.9532 Y0.3
N16490 X0.9499 Y0.3079
N16495 X0.9465 Y0.3176
N16500 X0.9436 Y0.3274
N16505 X0.9434 Y0.3284
N16510 X0.9414 Y0.3372
N16515 X0.9396 Y0.3469
N16520 X0.9384 Y0.3567
N16525 X0.9377 Y0.3664
N16530 X0.9375 Y0.3762
N16535 Y0.8738
N16540 X0.9377 Y0.8836
N16545 X0.9384 Y0.8933
N16550 X0.9396 Y0.9031
N16555 X0.9414 Y0.9128
N16560 X0.9434 Y0.9216
N16565 X0.9436 Y0.9226
N16570 X0.9465 Y0.9324
N16575 X0.9499 Y0.9421
N16580 X0.9532 Y0.95
N16585 X0.954 Y0.9519
N16590 X0.9587 Y0.9616
N16595 X0.9629 Y0.9693
N16600 X0.9642 Y0.9714
N16605 X0.9704 Y0.9811
N16610 X0.9727 Y0.9844
N16615 X0.9776 Y0.9909
N16620 X0.9825 Y0.9968
N16625 X0.9858 Y1.0007
N16630 X0.9922 Y1.0074
N16635 X0.9953 Y1.0104
N16640 X1.002 Y1.0165
N16645 X1.0063 Y1.0202
N16650 X1.0118 Y1.0244
N16655 X1.0194 Y1.0299
N16660 X1.0215 Y1.0314
N16665 X1.0313 Y1.0374
N16670 X1.0354 Y1.0397
N16675 X1.0411 Y1.0427
N16680 X1.0508 Y1.0472
N16685 X1.0562 Y1.0494
N16690 X1.0606 Y1.0511
N16695 X1.0704 Y1.0544
N16700 X1.0801 Y1.0571
N16705 X1.0899 Y1.0592
N16710 X1.0997 Y1.0608
N16715 X1.1095 Y1.0619
N16720 X1.1192 Y1.0624
N16725 X1.129 Y1.0625
N16730 X1.6272
N16735 X1.637 Y1.0621
N16740 X1.6467 Y1.0612
N16745 X1.6565 Y1.0598
N16750 X1.6601 Y1.0592
N16755 X1.6663 Y1.0579
N16760 X1.6761 Y1.0554
N16765 X1.6858 Y1.0524
N16770 X1.6938 Y1.0494
N16775 X1.6956 Y1.0487
N16780 X1.7054 Y1.0444
N16785 X1.7151 Y1.0394
N16790 X1.7249 Y1.0337
N16795 X1.7306 Y1.0299
N16800 X1.7347 Y1.0271
N16805 X1.7437 Y1.0202
N16810 X1.7444 Y1.0195
N16815 X1.7542 Y1.0109
N16820 X1.7547 Y1.0104
N16825 X1.7642 Y1.0007
N16830 X1.7724 Y0.9909
N16835 X1.7749 Y0.9876
N16840 X1.775 Y0.9877
N16845 Y1.1177
N16850 Y1.1275
N16855 X1.7744 Y1.1373
N16860 X1.7737 Y1.144
N16865 X1.7733 Y1.147
N16870 X1.7716 Y1.1568
N16875 X1.7704 Y1.1616
N16880 X1.7691 Y1.1665
N16885 X1.7659 Y1.1763
N16890 X1.764 Y1.1814
N16895 X1.7619 Y1.186
N16900 X1.7572 Y1.1958
N16905 X1.7542 Y1.201
N16910 X1.7515 Y1.2056
N16915 X1.7444 Y1.2157
N16920 X1.7367 Y1.2251
N16925 X1.7347 Y1.2273
N16930 X1.7271 Y1.2348
N16935 X1.7249 Y1.2369
N16940 X1.7155 Y1.2446
N16945 X1.7054 Y1.2516
N16950 X1.7008 Y1.2543
N16955 X1.6956 Y1.2573
N16960 X1.6858 Y1.262
N16965 X1.6811 Y1.2641
N16970 X1.6761 Y1.266
N16975 X1.6663 Y1.2692
N16980 X1.6614 Y1.2704
N16985 X1.6565 Y1.2716
N16990 X1.6467 Y1.2734
N16995 X1.6433 Y1.2739
N17000 X1.637 Y1.2745
N17005 X1.6272 Y1.275
N17010 X1.6077
N17015 X0.91
N17020 G17 G3 X0.8725 Y1.2375 I0. J-0.0375
N17025 G19 G2 Y1.2 Z-1.0875 J0. K0.0375
N17030 G0 Z0.2
N17035 X0.1875 Y0.4948
N17040 Z-0.0106
N17045 G1 Z-1.0462 F10.
N17050 G3 Y0.531 Z-1.0837 J0.0375 K0.
N17055 G1 Y1.1275 Z-1.1045
N17060 X0.1879 Y1.1373 Z-1.1048
N17065 X0.1888 Y1.147 Z-1.1052
N17070 X0.1902 Y1.1568 Z-1.1055
N17075 X0.1912 Y1.1619 Z-1.1057
N17080 X0.1922 Y1.1665 Z-1.1059
N17085 X0.1946 Y1.1763 Z-1.1062
N17090 X0.1977 Y1.186 Z-1.1066
N17095 X0.2009 Y1.1947 Z-1.1069
N17100 X0.2014 Y1.1958
N17105 X0.2057 Y1.2056 Z-1.1073
N17110 X0.2107 Y1.2154 Z-1.1077
N17115 X0.2164 Y1.2251 Z-1.1081
N17120 X0.2205 Y1.2312 Z-1.1083
N17125 X0.223 Y1.2348 Z-1.1085
N17130 X0.2306 Y1.2446 Z-1.1089
N17135 X0.2392 Y1.2543 Z-1.1094
N17140 X0.24 Y1.2551
N17145 X0.2493 Y1.2641 Z-1.1099
N17150 X0.2498 Y1.2646
N17155 X0.2596 Y1.2727 Z-1.1103
N17160 X0.2624 Y1.2749 Z-1.1105
N17165 X0.2623 Y1.275
N17170 X0.1326 Z-1.115
N17175 X0.1228 Z-1.1153
N17180 X0.113 Y1.2745 Z-1.1157
N17185 X0.1067 Y1.2739 Z-1.1159
N17190 X0.1033 Y1.2734 Z-1.116
N17195 X0.0935 Y1.2716 Z-1.1164
N17200 X0.0886 Y1.2704 Z-1.1166
N17205 X0.0837 Y1.2692 Z-1.1167
N17210 X0.0739 Y1.266 Z-1.1171
N17215 X0.0689 Y1.2641 Z-1.1173
N17220 X0.0642 Y1.262 Z-1.1175
N17225 X0.0544 Y1.2573 Z-1.1178
N17230 X0.0492 Y1.2543 Z-1.118
N17235 X0.0446 Y1.2516 Z-1.1182
N17240 X0.0345 Y1.2446 Z-1.1187
N17245 X0.0251 Y1.2369 Z-1.1191
N17250 X0.0229 Y1.2348 Z-1.1192
N17255 X0.0153 Y1.2273 Z-1.1196
N17260 X0.0133 Y1.2251 Z-1.1197
N17265 X0.0056 Y1.2157 Z-1.1201
N17270 X-0.0015 Y1.2056 Z-1.1205
N17275 X-0.0042 Y1.201 Z-1.1207
N17280 X-0.0072 Y1.1958 Z-1.1209
N17285 X-0.0119 Y1.186 Z-1.1213
N17290 X-0.014 Y1.1814 Z-1.1215
N17295 X-0.0159 Y1.1763 Z-1.1217
N17300 X-0.0191 Y1.1665 Z-1.122
N17305 X-0.0204 Y1.1616 Z-1.1222
N17310 X-0.0216 Y1.1568 Z-1.1224
N17315 X-0.0233 Y1.147 Z-1.1227
N17320 X-0.0237 Y1.144 Z-1.1228
N17325 X-0.0244 Y1.1373 Z-1.1231
N17330 X-0.025 Y1.1275 Z-1.1234
N17335 Y1.1177 Z-1.1237
N17340 Y1.0819 Z-1.125
N17345 Y0.1323
N17350 Y0.1225
N17355 X-0.0244 Y0.1127
N17360 X-0.0237 Y0.106
N17365 X-0.0233 Y0.103
N17370 X-0.0216 Y0.0932
N17375 X-0.0204 Y0.0884
N17380 X-0.0191 Y0.0835
N17385 X-0.0159 Y0.0737
N17390 X-0.014 Y0.0686
N17395 X-0.0119 Y0.064
N17400 X-0.0072 Y0.0542
N17405 X-0.0042 Y0.049
N17410 X-0.0015 Y0.0444
N17415 X0.0056 Y0.0343
N17420 X0.0133 Y0.0249
N17425 X0.0153 Y0.0227
N17430 X0.0229 Y0.0152
N17435 X0.0251 Y0.0131
N17440 X0.0345 Y0.0054
N17445 X0.0446 Y-0.0016
N17450 X0.0492 Y-0.0043
N17455 X0.0544 Y-0.0073
N17460 X0.0642 Y-0.012
N17465 X0.0689 Y-0.0141
N17470 X0.0739 Y-0.016
N17475 X0.0837 Y-0.0192
N17480 X0.0886 Y-0.0204
N17485 X0.0935 Y-0.0216
N17490 X0.1033 Y-0.0234
N17495 X0.1067 Y-0.0239
N17500 X0.113 Y-0.0245
N17505 X0.1228 Y-0.025
N17510 X0.1423
N17515 X0.2623
N17520 X0.2624 Y-0.0249
N17525 X0.2596 Y-0.0227
N17530 X0.2498 Y-0.0146
N17535 X0.2493 Y-0.0141
N17540 X0.24 Y-0.0051
N17545 X0.2392 Y-0.0043
N17550 X0.2302 Y0.0058
N17555 X0.223 Y0.0152
N17560 X0.2205 Y0.0188
N17565 X0.2164 Y0.0249
N17570 X0.2107 Y0.0347
N17575 X0.2057 Y0.0444
N17580 X0.2014 Y0.0542
N17585 X0.2009 Y0.0553
N17590 X0.1977 Y0.064
N17595 X0.1946 Y0.0737
N17600 X0.1922 Y0.0835
N17605 X0.1912 Y0.0881
N17610 X0.1902 Y0.0932
N17615 X0.1888 Y0.103
N17620 X0.1879 Y0.1127
N17625 X0.1875 Y0.1225
N17630 Y1.1275
N17635 X0.1879 Y1.1373
N17640 X0.1888 Y1.147
N17645 X0.1902 Y1.1568
N17650 X0.1912 Y1.1619
N17655 X0.1922 Y1.1665
N17660 X0.1946 Y1.1763
N17665 X0.1977 Y1.186
N17670 X0.2009 Y1.1947
N17675 X0.2014 Y1.1958
N17680 X0.2057 Y1.2056
N17685 X0.2107 Y1.2154
N17690 X0.2164 Y1.2251
N17695 X0.2205 Y1.2312
N17700 X0.223 Y1.2348
N17705 X0.2306 Y1.2446
N17710 X0.2392 Y1.2543
N17715 X0.24 Y1.2551
N17720 X0.2493 Y1.2641
N17725 X0.2498 Y1.2646
N17730 X0.2596 Y1.2727
N17735 X0.2624 Y1.2749
N17740 X0.2623 Y1.275
N17745 X0.1326
N17750 X0.1228
N17755 X0.113 Y1.2745
N17760 X0.1067 Y1.2739
N17765 X0.1033 Y1.2734
N17770 X0.0935 Y1.2716
N17775 X0.0886 Y1.2704
N17780 X0.0837 Y1.2692
N17785 X0.0739 Y1.266
N17790 X0.0689 Y1.2641
N17795 X0.0642 Y1.262
N17800 X0.0544 Y1.2573
N17805 X0.0492 Y1.2543
N17810 X0.0446 Y1.2516
N17815 X0.0345 Y1.2446
N17820 X0.0251 Y1.2369
N17825 X0.0229 Y1.2348
N17830 X0.0153 Y1.2273
N17835 X0.0133 Y1.2251
N17840 X0.0056 Y1.2157
N17845 X-0.0015 Y1.2056
N17850 X-0.0042 Y1.201
N17855 X-0.0072 Y1.1958
N17860 X-0.0119 Y1.186
N17865 X-0.014 Y1.1814
N17870 X-0.0159 Y1.1763
N17875 X-0.0191 Y1.1665
N17880 X-0.0204 Y1.1616
N17885 X-0.0216 Y1.1568
N17890 X-0.0233 Y1.147
N17895 X-0.0237 Y1.144
N17900 X-0.0244 Y1.1373
N17905 X-0.025 Y1.1275
N17910 Y1.1177
N17915 Y1.0819
N17920 G17 G3 X0.0125 Y1.0444 I0.0375 J0.
N17925 G18 G2 X0.05 Z-1.0875 I0. K0.0375
N17930 G0 Z0.6
N17935 G17
N17940 M9
N17945 G53 G0 Z0.
N17950 M30
%
