%
(BRACKET)
(18 DRILL)
(T3  D=0.125 CR=0. TAPER=118DEG - ZMIN=-1.2 - DRILL)
N10 G90 G94 G17 G91.1
N15 G20
N20 G53 G0 Z0.
(DRILL1)
N25 M9
N30 T3 M6
N35 S600 M3
N40 G54
N45 M8
N55 G0 X0.25 Y1.
N60 G43 Z0.6 H3
N70 G0 Z0.2
N75 G98 G81 X0.25 Y1. Z-1.2 R-0.925 F5.
N80 Y0.25
N85 X1.5
N90 Y1.
N95 G80
N100 G0 Z0.6
N110 M9
N115 G53 Z0.
N120 M30
%
