%
(LEFT PULL BRACKET)
(38 30 MINUTES 1500 RPM)
(T1  D=0.375 CR=0. - ZMIN=-1.125 - FLAT END MILL)
N10 G90 G94 G17 G91.1
N15 G20
N20 G53 G0 Z0.
(2D ADAPTIVE2)
N25 M9
N30 T1 M6
N35 S1500 M3
N40 G54
N45 M8
N55 G0 X2.0515 Y0.1288
N60 G43 Z0.6 H1
N65 G0 Z0.2
N70 Z-0.0146
N75 G1 Z-0.0521 F15.
N80 X2.0512 Y0.1289 Z-0.0566
N85 X2.0504 Y0.1291 Z-0.0611
N90 X2.0491 Y0.1294 Z-0.0654
N95 X2.0473 Y0.1299 Z-0.0695
N100 X2.045 Y0.1305 Z-0.0734
N105 X2.0423 Y0.1312 Z-0.077
N110 X2.0392 Y0.132 Z-0.0802
N115 X2.0358 Y0.1329 Z-0.083
N120 X2.032 Y0.1338 Z-0.0853
N125 X2.028 Y0.1348 Z-0.0872
N130 X2.0238 Y0.1359 Z-0.0885
N135 X2.0195 Y0.137 Z-0.0893
N140 X2.0151 Y0.1381 Z-0.0896
N145 G3 X1.811 Y0.1675 I-0.2376 J-0.9274
N150 G1 X1.7679
N155 X1.7619 Y0.1672
N160 X1.7179 Y0.1514
N165 X1.6728 Y0.1394
N170 X1.627 Y0.1304
N175 X1.5808 Y0.1235
N180 X1.5344 Y0.1184
N185 X1.4879 Y0.1145
N190 X1.4413 Y0.1116
N195 X1.3946 Y0.1094
N200 X1.348 Y0.1078
N205 X1.3013 Y0.1065
N210 X1.2546 Y0.1056
N215 X1.2079 Y0.1049
N220 X1.1612 Y0.1044
N225 X1.1146 Y0.104
N230 X1.0679 Y0.1037
N235 X1.0212 Y0.1035
N240 X0.9745 Y0.1034
N245 X0.9115 Y0.1032
N250 X0.8961 Y0.1017
N255 X0.8813 Y0.0971
N260 X0.8676 Y0.0898
N265 X0.8556 Y0.08
N270 X0.8458 Y0.068
N275 X0.8385 Y0.0543
N280 X0.834 Y0.0395
N285 X0.8325 Y0.024
N290 G3 X0.8743 Y-0.0119 I0.0375 J0.0013
N295 G1 X1.7709 Y0.0928
N300 G3 X1.7679 Y0.1675 I-0.0043 J0.0372
N305 G1 X1.1492
N310 X1.1267 Y0.1677
N315 X1.1154 Y0.1678
N320 X1.1042 Y0.1688
N325 X1.0928 Y0.1701
N330 X1.0817 Y0.1725
N335 X1.0592 Y0.1786
N340 X1.0518 Y0.1813
N345 X1.0479 Y0.183
N350 X1.016 Y0.1953
N355 X0.9964 Y0.2012
N360 X0.9769 Y0.2053
N365 X0.9584 Y0.2076
N370 X0.9401 Y0.2085
N375 X0.9229 Y0.2079
N380 X0.9056 Y0.206
N385 X0.8978 Y0.2044
N390 X0.8844 Y0.2006
N395 X0.8719 Y0.1945
N400 X0.8606 Y0.1864
N405 X0.8509 Y0.1765
N410 X0.843 Y0.165
N415 X0.8372 Y0.1524
N420 X0.8337 Y0.139
N425 X0.8325 Y0.1251
N430 G3 X0.8752 Y0.0893 I0.0375 J0.0013
N435 G1 X1.0368 Y0.1122
N440 G3 X1.0479 Y0.183 I-0.0053 J0.0371
N445 G1 X1.0254 Y0.193
N450 X1.0198 Y0.1963
N455 X1.0142 Y0.1996
N460 X1.0029 Y0.2076
N465 X0.9933 Y0.215
N470 X0.9804 Y0.2265
N475 X0.9699 Y0.2375
N480 X0.9656 Y0.2417
N485 X0.9591 Y0.2468
N490 X0.9521 Y0.2513
N495 X0.9448 Y0.2553
N500 X0.9364 Y0.259
N505 X0.9282 Y0.2619
N510 X0.9189 Y0.2644
N515 X0.9095 Y0.2661
N520 X0.8949 Y0.266
N525 X0.8806 Y0.2628
N530 X0.8673 Y0.2568
N535 X0.8555 Y0.2482
N540 X0.8458 Y0.2373
N545 X0.8385 Y0.2246
N550 X0.834 Y0.2107
N555 X0.8325 Y0.1962
N560 Y0.1251
N565 G3 X0.8989 Y0.1026 I0.0375 J0.0013
N570 G1 X0.9703 Y0.1894
N575 G3 X0.9699 Y0.2375 I-0.029 J0.0238
N580 G1 X0.9692 Y0.2382
N585 X0.9608 Y0.2487
N590 X0.958 Y0.2525
N595 X0.9526 Y0.2599
N600 X0.9428 Y0.2773
N605 X0.9396 Y0.2824
N610 X0.9359 Y0.2871
N615 X0.9317 Y0.2914
N620 X0.9271 Y0.2952
N625 X0.922 Y0.2988
N630 X0.9167 Y0.3019
N635 X0.9043 Y0.3063
N640 X0.8912 Y0.3078
N645 X0.8781 Y0.3063
N650 X0.8657 Y0.302
N655 X0.8546 Y0.295
N660 X0.8453 Y0.2857
N665 X0.8383 Y0.2746
N670 X0.834 Y0.2622
N675 X0.8325 Y0.2491
N680 Y0.1962
N685 G3 X0.8645 Y0.1621 I0.0355 J0.0012
N690 X0.9428 Y0.2773 I0.0079 J0.0789
N695 G1 X0.94 Y0.2824
N700 X0.9355 Y0.2913
N705 X0.9282 Y0.311
N710 X0.9259 Y0.3166
N715 X0.9228 Y0.3217
N720 X0.9191 Y0.3264
N725 X0.9098 Y0.3339
N730 X0.8989 Y0.3389
N735 X0.8873 Y0.3413
N740 X0.8753 Y0.3408
N745 X0.8639 Y0.3376
N750 X0.8534 Y0.3318
N755 X0.8447 Y0.3237
N760 X0.838 Y0.3138
N765 X0.8339 Y0.3027
N770 X0.8325 Y0.2908
N775 Y0.2491
N780 G3 X0.8585 Y0.222 I0.0281 J0.001
N785 X0.9282 Y0.311 I0.0051 J0.0678
N790 G1 X0.9264 Y0.3161
N795 X0.9242 Y0.3245
N800 X0.9213 Y0.3386
N805 X0.9199 Y0.3444
N810 X0.9177 Y0.35
N815 X0.9147 Y0.3551
N820 X0.9066 Y0.3632
N825 X0.8969 Y0.369
N830 X0.886 Y0.3722
N835 X0.8746 Y0.3727
N840 X0.8635 Y0.3703
N845 X0.8533 Y0.3653
N850 X0.8446 Y0.358
N855 X0.838 Y0.3488
N860 X0.8339 Y0.3382
N865 X0.8325 Y0.3269
N870 Y0.2908
N875 G3 X0.8538 Y0.268 I0.0238 J0.0008
N880 X0.9213 Y0.3386 I0.0065 J0.0614
N885 G1 X0.9192 Y0.3498
N890 X0.9182 Y0.3672
N895 X0.9176 Y0.3732
N900 X0.9157 Y0.3789
N905 X0.913 Y0.3842
N910 X0.9056 Y0.3926
N915 X0.8963 Y0.3988
N920 X0.8857 Y0.4025
N925 X0.8746 Y0.4034
N930 X0.8636 Y0.4014
N935 X0.8534 Y0.3968
N940 X0.8447 Y0.3898
N945 X0.8381 Y0.3808
N950 X0.8339 Y0.3704
N955 X0.8325 Y0.3593
N960 Y0.3269
N965 G3 X0.8519 Y0.3061 I0.0216 J0.0008
N970 X0.9182 Y0.3672 I0.0063 J0.0597
N975 G1 X0.9179 Y0.3723
N980 X0.9175 Y0.3835
N985 Y0.3947
N990 X0.9172 Y0.4007
N995 X0.9158 Y0.4066
N1000 X0.9136 Y0.4121
N1005 X0.9105 Y0.4173
N1010 X0.9029 Y0.4249
N1015 X0.8937 Y0.4305
N1020 X0.8833 Y0.4336
N1025 X0.8725 Y0.434
N1030 X0.862 Y0.4318
N1035 X0.8523 Y0.4271
N1040 X0.844 Y0.4201
N1045 X0.8378 Y0.4113
N1050 X0.8338 Y0.4013
N1055 X0.8325 Y0.3906
N1060 Y0.3593
N1065 G3 X0.8501 Y0.3393 I0.0209 J0.0007
N1070 X0.9175 Y0.3947 I0.0093 J0.0574
N1075 G1 Y0.4261
N1080 X0.9172 Y0.4321
N1085 X0.9157 Y0.438
N1090 X0.9133 Y0.4435
N1095 X0.9102 Y0.4486
N1100 X0.9026 Y0.4561
N1105 X0.8933 Y0.4615
N1110 X0.883 Y0.4645
N1115 X0.8722 Y0.4649
N1120 X0.8617 Y0.4626
N1125 X0.8521 Y0.4578
N1130 X0.8439 Y0.4509
N1135 X0.8377 Y0.4421
N1140 X0.8338 Y0.4321
N1145 X0.8325 Y0.4214
N1150 Y0.3906
N1155 G3 X0.8502 Y0.3706 I0.0209 J0.0007
N1160 X0.9175 Y0.4261 I0.0091 J0.0576
N1165 G1 Y0.4567
N1170 X0.9172 Y0.4626
N1175 X0.9158 Y0.4685
N1180 X0.9134 Y0.474
N1185 X0.9104 Y0.4792
N1190 X0.9028 Y0.4868
N1195 X0.8935 Y0.4922
N1200 X0.8831 Y0.4953
N1205 X0.8724 Y0.4957
N1210 X0.8619 Y0.4934
N1215 X0.8522 Y0.4887
N1220 X0.844 Y0.4817
N1225 X0.8377 Y0.473
N1230 X0.8338 Y0.4629
N1235 X0.8325 Y0.4522
N1240 Y0.4214
N1245 G3 X0.85 Y0.4015 I0.0209 J0.0007
N1250 X0.9175 Y0.4567 I0.0096 J0.0572
N1255 G1 Y0.4865
N1260 X0.9172 Y0.4924
N1265 X0.9159 Y0.4983
N1270 X0.9137 Y0.5039
N1275 X0.9108 Y0.5091
N1280 X0.9033 Y0.5169
N1285 X0.894 Y0.5226
N1290 X0.8837 Y0.5258
N1295 X0.8728 Y0.5263
N1300 X0.8622 Y0.5242
N1305 X0.8525 Y0.5195
N1310 X0.8441 Y0.5126
N1315 X0.8378 Y0.5038
N1320 X0.8338 Y0.4937
N1325 X0.8325 Y0.4829
N1330 Y0.4522
N1335 G3 X0.8494 Y0.4324 I0.021 J0.0007
N1340 X0.9175 Y0.4865 I0.011 J0.0561
N1345 G1 Y0.5183
N1350 X0.9172 Y0.5243
N1355 X0.9157 Y0.5301
N1360 X0.9134 Y0.5356
N1365 X0.9103 Y0.5408
N1370 X0.9026 Y0.5483
N1375 X0.8934 Y0.5538
N1380 X0.8831 Y0.5568
N1385 X0.8723 Y0.5572
N1390 X0.8618 Y0.5549
N1395 X0.8521 Y0.5502
N1400 X0.844 Y0.5432
N1405 X0.8377 Y0.5344
N1410 X0.8338 Y0.5244
N1415 X0.8325 Y0.5137
N1420 Y0.4829
N1425 G3 X0.8501 Y0.463 I0.0209 J0.0007
N1430 X0.9175 Y0.5183 I0.0094 J0.0573
N1435 G1 Y0.5485
N1440 X0.9172 Y0.5545
N1445 X0.9159 Y0.5603
N1450 X0.9136 Y0.5658
N1455 X0.9106 Y0.5711
N1460 X0.903 Y0.5787
N1465 X0.8937 Y0.5843
N1470 X0.8834 Y0.5874
N1475 X0.8726 Y0.5879
N1480 X0.862 Y0.5857
N1485 X0.8523 Y0.581
N1490 X0.8441 Y0.574
N1495 X0.8378 Y0.5652
N1500 X0.8338 Y0.5552
N1505 X0.8325 Y0.5445
N1510 Y0.5137
N1515 G3 X0.8497 Y0.4938 I0.0209 J0.0007
N1520 X0.9175 Y0.5485 I0.0103 J0.0566
N1525 G1 Y0.5778
N1530 X0.9172 Y0.5838
N1535 X0.9161 Y0.5897
N1540 X0.914 Y0.5954
N1545 X0.9111 Y0.6006
N1550 X0.9037 Y0.6086
N1555 X0.8945 Y0.6144
N1560 X0.8841 Y0.6178
N1565 X0.8732 Y0.6184
N1570 X0.8625 Y0.6164
N1575 X0.8527 Y0.6118
N1580 X0.8443 Y0.6048
N1585 X0.8379 Y0.596
N1590 X0.8339 Y0.5859
N1595 X0.8325 Y0.575
N1600 Y0.5445
N1605 G3 X0.8489 Y0.5247 I0.021 J0.0007
N1610 X0.9175 Y0.5778 I0.0122 J0.0551
N1615 G1 Y0.61
N1620 X0.9172 Y0.616
N1625 X0.9158 Y0.6218
N1630 X0.9135 Y0.6274
N1635 X0.9105 Y0.6326
N1640 X0.9028 Y0.6402
N1645 X0.8936 Y0.6457
N1650 X0.8832 Y0.6488
N1655 X0.8725 Y0.6492
N1660 X0.8619 Y0.647
N1665 X0.8522 Y0.6423
N1670 X0.844 Y0.6353
N1675 X0.8378 Y0.6265
N1680 X0.8338 Y0.6165
N1685 X0.8325 Y0.6058
N1690 Y0.575
N1695 G3 X0.8498 Y0.5551 I0.0209 J0.0007
N1700 X0.9175 Y0.61 I0.0099 J0.0569
N1705 G1 Y0.6396
N1710 X0.9172 Y0.6456
N1715 X0.916 Y0.6514
N1720 X0.9139 Y0.657
N1725 X0.911 Y0.6623
N1730 X0.9035 Y0.6702
N1735 X0.8942 Y0.6759
N1740 X0.8839 Y0.6792
N1745 X0.873 Y0.6798
N1750 X0.8624 Y0.6777
N1755 X0.8526 Y0.6731
N1760 X0.8442 Y0.6661
N1765 X0.8378 Y0.6573
N1770 X0.8339 Y0.6472
N1775 X0.8325 Y0.6364
N1780 Y0.6058
N1785 G3 X0.8492 Y0.586 I0.021 J0.0007
N1790 X0.9175 Y0.6396 I0.0116 J0.0556
N1795 G1 Y0.6705
N1800 X0.9172 Y0.6765
N1805 X0.916 Y0.6824
N1810 X0.9138 Y0.6879
N1815 X0.9108 Y0.6932
N1820 X0.9033 Y0.701
N1825 X0.894 Y0.7066
N1830 X0.8837 Y0.7099
N1835 X0.8729 Y0.7104
N1840 X0.8622 Y0.7083
N1845 X0.8525 Y0.7036
N1850 X0.8442 Y0.6966
N1855 X0.8378 Y0.6878
N1860 X0.8338 Y0.6777
N1865 X0.8325 Y0.667
N1870 Y0.6364
N1875 G3 X0.8493 Y0.6166 I0.021 J0.0007
N1880 X0.9175 Y0.6705 I0.0112 J0.0559
N1885 G1 Y0.7014
N1890 X0.9172 Y0.7074
N1895 X0.9159 Y0.7133
N1900 X0.9137 Y0.7188
N1905 X0.9107 Y0.724
N1910 X0.9031 Y0.7318
N1915 X0.8939 Y0.7374
N1920 X0.8835 Y0.7406
N1925 X0.8727 Y0.7411
N1930 X0.8621 Y0.7389
N1935 X0.8524 Y0.7342
N1940 X0.8441 Y0.7272
N1945 X0.8378 Y0.7184
N1950 X0.8338 Y0.7084
N1955 X0.8325 Y0.6976
N1960 Y0.667
N1965 G3 X0.8495 Y0.6471 I0.0209 J0.0007
N1970 X0.9175 Y0.7014 I0.0107 J0.0563
N1975 G1 Y0.7317
N1980 X0.9172 Y0.7377
N1985 X0.916 Y0.7436
N1990 X0.9138 Y0.7492
N1995 X0.9109 Y0.7544
N2000 X0.9033 Y0.7622
N2005 X0.8941 Y0.7679
N2010 X0.8837 Y0.7711
N2015 X0.8729 Y0.7717
N2020 X0.8623 Y0.7696
N2025 X0.8525 Y0.7649
N2030 X0.8442 Y0.7579
N2035 X0.8378 Y0.7491
N2040 X0.8339 Y0.739
N2045 X0.8325 Y0.7283
N2050 Y0.6976
N2055 G3 X0.8493 Y0.6778 I0.021 J0.0007
N2060 X0.9175 Y0.7317 I0.0112 J0.0559
N2065 G1 Y0.7631
N2070 X0.9172 Y0.7691
N2075 X0.9158 Y0.775
N2080 X0.9135 Y0.7805
N2085 X0.9105 Y0.7857
N2090 X0.9029 Y0.7933
N2095 X0.8936 Y0.7989
N2100 X0.8833 Y0.802
N2105 X0.8725 Y0.8024
N2110 X0.862 Y0.8002
N2115 X0.8523 Y0.7955
N2120 X0.844 Y0.7885
N2125 X0.8378 Y0.7797
N2130 X0.8338 Y0.7697
N2135 X0.8325 Y0.759
N2140 Y0.7283
N2145 G3 X0.8498 Y0.7084 I0.0209 J0.0007
N2150 X0.9175 Y0.7631 I0.0101 J0.0568
N2155 G1 Y0.7941
N2160 X0.9172 Y0.8001
N2165 X0.9158 Y0.8059
N2170 X0.9135 Y0.8114
N2175 X0.9104 Y0.8166
N2180 X0.9028 Y0.8242
N2185 X0.8935 Y0.8297
N2190 X0.8832 Y0.8328
N2195 X0.8724 Y0.8332
N2200 X0.8619 Y0.831
N2205 X0.8522 Y0.8262
N2210 X0.844 Y0.8192
N2215 X0.8377 Y0.8105
N2220 X0.8338 Y0.8004
N2225 X0.8325 Y0.7897
N2230 Y0.759
N2235 G3 X0.8499 Y0.7391 I0.0209 J0.0007
N2240 X0.9175 Y0.7941 I0.0098 J0.057
N2245 G1 Y0.825
N2250 X0.9172 Y0.831
N2255 X0.9158 Y0.8368
N2260 X0.9134 Y0.8423
N2265 X0.9104 Y0.8475
N2270 X0.9027 Y0.8551
N2275 X0.8935 Y0.8605
N2280 X0.8831 Y0.8636
N2285 X0.8724 Y0.864
N2290 X0.8618 Y0.8617
N2295 X0.8522 Y0.857
N2300 X0.844 Y0.85
N2305 X0.8377 Y0.8412
N2310 X0.8338 Y0.8312
N2315 X0.8325 Y0.8205
N2320 Y0.7897
N2325 G3 X0.85 Y0.7698 I0.0209 J0.0007
N2330 X0.9175 Y0.825 I0.0096 J0.0572
N2335 G1 Y0.8553
N2340 X0.9172 Y0.8613
N2345 X0.9159 Y0.8671
N2350 X0.9136 Y0.8727
N2355 X0.9106 Y0.8779
N2360 X0.903 Y0.8855
N2365 X0.8937 Y0.8911
N2370 X0.8834 Y0.8942
N2375 X0.8726 Y0.8947
N2380 X0.862 Y0.8925
N2385 X0.8523 Y0.8878
N2390 X0.8441 Y0.8808
N2395 X0.8378 Y0.872
N2400 X0.8338 Y0.862
N2405 X0.8325 Y0.8513
N2410 Y0.8205
N2415 G3 X0.8497 Y0.8006 I0.0209 J0.0007
N2420 X0.9175 Y0.8553 I0.0103 J0.0566
N2425 G1 Y0.8665
N2430 X0.9179 Y0.8777
N2435 X0.9183 Y0.8839
N2440 Y0.8899
N2445 X0.9173 Y0.8958
N2450 X0.9153 Y0.9015
N2455 X0.9126 Y0.9068
N2460 X0.9051 Y0.9151
N2465 X0.8958 Y0.9212
N2470 X0.8853 Y0.9248
N2475 X0.8743 Y0.9256
N2480 X0.8633 Y0.9237
N2485 X0.8532 Y0.919
N2490 X0.8446 Y0.912
N2495 X0.838 Y0.9031
N2500 X0.8339 Y0.8928
N2505 X0.8325 Y0.8817
N2510 Y0.8513
N2515 G3 X0.8495 Y0.8316 I0.0207 J0.0007
N2520 X0.9183 Y0.8839 I0.0104 J0.0577
N2525 G1 X0.9192 Y0.9002
N2530 X0.9209 Y0.9092
N2535 X0.9217 Y0.9151
N2540 X0.9219 Y0.9211
N2545 X0.9212 Y0.9271
N2550 X0.9195 Y0.9328
N2555 X0.9171 Y0.9383
N2560 X0.9098 Y0.9476
N2565 X0.9003 Y0.9547
N2570 X0.8894 Y0.9591
N2575 X0.8777 Y0.9606
N2580 X0.8659 Y0.959
N2585 X0.8551 Y0.9544
N2590 X0.8457 Y0.9472
N2595 X0.8385 Y0.9378
N2600 X0.834 Y0.9268
N2605 X0.8325 Y0.9151
N2610 Y0.8817
N2615 G3 X0.8488 Y0.8625 I0.0204 J0.0007
N2620 X0.9209 Y0.9092 I0.0122 J0.0601
N2625 G1 X0.9213 Y0.9114
N2630 X0.9242 Y0.9255
N2635 X0.9264 Y0.9339
N2640 X0.9276 Y0.9373
N2645 X0.9294 Y0.943
N2650 X0.9304 Y0.949
N2655 X0.9359 Y0.9716
N2660 X0.9584 Y1.0126
N2665 X0.9923 Y1.0447
N2670 X1.0318 Y1.0695
N2675 X1.0745 Y1.0885
N2680 X1.1189 Y1.1029
N2685 X1.1643 Y1.1138
N2690 X1.2102 Y1.1221
N2695 X1.2565 Y1.1283
N2700 X1.2798 Y1.1307
N2705 X1.2914 Y1.1317
N2710 X1.3379 Y1.1355
N2715 X1.3845 Y1.1384
N2720 X1.4312 Y1.1406
N2725 X1.4428 Y1.141
N2730 X1.4544 Y1.1399
N2735 X1.4658 Y1.1372
N2740 X1.4767 Y1.133
N2745 X1.5177 Y1.1107
N2750 X1.5283 Y1.1009
N2755 X1.5404 Y1.093
N2760 X1.5536 Y1.0872
N2765 X1.5676 Y1.0837
N2770 X1.582 Y1.0825
N2775 X1.6216
N2780 G3 X1.6291 Y1.1564 I-0.0013 J0.0375
N2785 G1 X0.8787 Y1.3364
N2790 G3 X0.8325 Y1.3012 I-0.0087 J-0.0365
N2795 G1 Y0.9151
N2800 G3 X0.8491 Y0.8954 I0.0208 J0.0007
N2805 X0.9276 Y0.9373 I0.0141 J0.0681
N2810 G1 X0.9355 Y0.9587
N2815 X0.94 Y0.9676
N2820 X0.9526 Y0.9901
N2825 X0.958 Y0.9975
N2830 X0.9608 Y1.0013
N2835 X0.9692 Y1.0118
N2840 X0.9699 Y1.0125
N2845 X0.9804 Y1.0235
N2850 X0.9933 Y1.035
N2855 X1.0029 Y1.0424
N2860 X1.0142 Y1.0504
N2865 X1.0198 Y1.0537
N2870 X1.0254 Y1.057
N2875 X1.0518 Y1.0687
N2880 X1.0592 Y1.0714
N2885 X1.0817 Y1.0775
N2890 X1.0929 Y1.08
N2895 X1.1042 Y1.0812
N2900 X1.1154 Y1.0822
N2905 X1.1379 Y1.0824
N2910 X1.1492 Y1.0825
N2915 X1.582
N2920 X1.585 Y1.083 Z-0.0893
N2925 X1.5878 Y1.0836 Z-0.0884
N2930 X1.5904 Y1.084 Z-0.0869
N2935 X1.5926 Y1.0844 Z-0.0848
N2940 X1.5942 Y1.085 Z-0.0827
N2945 X1.5953 Y1.0855 Z-0.0802
N2950 X1.596 Y1.0858 Z-0.0776
N2955 X1.5962 Y1.0859 Z-0.0749
N2960 G0 Z0.2
N2965 X2.0515 Y0.1288
N2970 Z-0.1042
N2975 G1 Z-0.1417 F15.
N2980 X2.0512 Y0.1289 Z-0.1462
N2985 X2.0504 Y0.1291 Z-0.1507
N2990 X2.0491 Y0.1294 Z-0.155
N2995 X2.0473 Y0.1299 Z-0.1591
N3000 X2.045 Y0.1305 Z-0.163
N3005 X2.0423 Y0.1312 Z-0.1666
N3010 X2.0392 Y0.132 Z-0.1698
N3015 X2.0358 Y0.1329 Z-0.1726
N3020 X2.032 Y0.1338 Z-0.1749
N3025 X2.028 Y0.1348 Z-0.1768
N3030 X2.0238 Y0.1359 Z-0.1781
N3035 X2.0195 Y0.137 Z-0.1789
N3040 X2.0151 Y0.1381 Z-0.1792
N3045 G3 X1.811 Y0.1675 I-0.2376 J-0.9274
N3050 G1 X1.7679
N3055 X1.7619 Y0.1672
N3060 X1.7179 Y0.1514
N3065 X1.6728 Y0.1394
N3070 X1.627 Y0.1304
N3075 X1.5808 Y0.1235
N3080 X1.5344 Y0.1184
N3085 X1.4879 Y0.1145
N3090 X1.4413 Y0.1116
N3095 X1.3946 Y0.1094
N3100 X1.348 Y0.1078
N3105 X1.3013 Y0.1065
N3110 X1.2546 Y0.1056
N3115 X1.2079 Y0.1049
N3120 X1.1612 Y0.1044
N3125 X1.1146 Y0.104
N3130 X1.0679 Y0.1037
N3135 X1.0212 Y0.1035
N3140 X0.9745 Y0.1034
N3145 X0.9115 Y0.1032
N3150 X0.8961 Y0.1017
N3155 X0.8813 Y0.0971
N3160 X0.8676 Y0.0898
N3165 X0.8556 Y0.08
N3170 X0.8458 Y0.068
N3175 X0.8385 Y0.0543
N3180 X0.834 Y0.0395
N3185 X0.8325 Y0.024
N3190 G3 X0.8743 Y-0.0119 I0.0375 J0.0013
N3195 G1 X1.7709 Y0.0928
N3200 G3 X1.7679 Y0.1675 I-0.0043 J0.0372
N3205 G1 X1.1492
N3210 X1.1267 Y0.1677
N3215 X1.1154 Y0.1678
N3220 X1.1042 Y0.1688
N3225 X1.0928 Y0.1701
N3230 X1.0817 Y0.1725
N3235 X1.0592 Y0.1786
N3240 X1.0518 Y0.1813
N3245 X1.0479 Y0.183
N3250 X1.016 Y0.1953
N3255 X0.9964 Y0.2012
N3260 X0.9769 Y0.2053
N3265 X0.9584 Y0.2076
N3270 X0.9401 Y0.2085
N3275 X0.9229 Y0.2079
N3280 X0.9056 Y0.206
N3285 X0.8978 Y0.2044
N3290 X0.8844 Y0.2006
N3295 X0.8719 Y0.1945
N3300 X0.8606 Y0.1864
N3305 X0.8509 Y0.1765
N3310 X0.843 Y0.165
N3315 X0.8372 Y0.1524
N3320 X0.8337 Y0.139
N3325 X0.8325 Y0.1251
N3330 G3 X0.8752 Y0.0893 I0.0375 J0.0013
N3335 G1 X1.0368 Y0.1122
N3340 G3 X1.0479 Y0.183 I-0.0053 J0.0371
N3345 G1 X1.0254 Y0.193
N3350 X1.0198 Y0.1963
N3355 X1.0142 Y0.1996
N3360 X1.0029 Y0.2076
N3365 X0.9933 Y0.215
N3370 X0.9804 Y0.2265
N3375 X0.9699 Y0.2375
N3380 X0.9656 Y0.2417
N3385 X0.9591 Y0.2468
N3390 X0.9521 Y0.2513
N3395 X0.9448 Y0.2553
N3400 X0.9364 Y0.259
N3405 X0.9282 Y0.2619
N3410 X0.9189 Y0.2644
N3415 X0.9095 Y0.2661
N3420 X0.8949 Y0.266
N3425 X0.8806 Y0.2628
N3430 X0.8673 Y0.2568
N3435 X0.8555 Y0.2482
N3440 X0.8458 Y0.2373
N3445 X0.8385 Y0.2246
N3450 X0.834 Y0.2107
N3455 X0.8325 Y0.1962
N3460 Y0.1251
N3465 G3 X0.8989 Y0.1026 I0.0375 J0.0013
N3470 G1 X0.9703 Y0.1894
N3475 G3 X0.9699 Y0.2375 I-0.029 J0.0238
N3480 G1 X0.9692 Y0.2382
N3485 X0.9608 Y0.2487
N3490 X0.958 Y0.2525
N3495 X0.9526 Y0.2599
N3500 X0.9428 Y0.2773
N3505 X0.9396 Y0.2824
N3510 X0.9359 Y0.2871
N3515 X0.9317 Y0.2914
N3520 X0.9271 Y0.2952
N3525 X0.922 Y0.2988
N3530 X0.9167 Y0.3019
N3535 X0.9043 Y0.3063
N3540 X0.8912 Y0.3078
N3545 X0.8781 Y0.3063
N3550 X0.8657 Y0.302
N3555 X0.8546 Y0.295
N3560 X0.8453 Y0.2857
N3565 X0.8383 Y0.2746
N3570 X0.834 Y0.2622
N3575 X0.8325 Y0.2491
N3580 Y0.1962
N3585 G3 X0.8645 Y0.1621 I0.0355 J0.0012
N3590 X0.9428 Y0.2773 I0.0079 J0.0789
N3595 G1 X0.94 Y0.2824
N3600 X0.9355 Y0.2913
N3605 X0.9282 Y0.311
N3610 X0.9259 Y0.3166
N3615 X0.9228 Y0.3217
N3620 X0.9191 Y0.3264
N3625 X0.9098 Y0.3339
N3630 X0.8989 Y0.3389
N3635 X0.8873 Y0.3413
N3640 X0.8753 Y0.3408
N3645 X0.8639 Y0.3376
N3650 X0.8534 Y0.3318
N3655 X0.8447 Y0.3237
N3660 X0.838 Y0.3138
N3665 X0.8339 Y0.3027
N3670 X0.8325 Y0.2908
N3675 Y0.2491
N3680 G3 X0.8585 Y0.222 I0.0281 J0.001
N3685 X0.9282 Y0.311 I0.0051 J0.0678
N3690 G1 X0.9264 Y0.3161
N3695 X0.9242 Y0.3245
N3700 X0.9213 Y0.3386
N3705 X0.9199 Y0.3444
N3710 X0.9177 Y0.35
N3715 X0.9147 Y0.3551
N3720 X0.9066 Y0.3632
N3725 X0.8969 Y0.369
N3730 X0.886 Y0.3722
N3735 X0.8746 Y0.3727
N3740 X0.8635 Y0.3703
N3745 X0.8533 Y0.3653
N3750 X0.8446 Y0.358
N3755 X0.838 Y0.3488
N3760 X0.8339 Y0.3382
N3765 X0.8325 Y0.3269
N3770 Y0.2908
N3775 G3 X0.8538 Y0.268 I0.0238 J0.0008
N3780 X0.9213 Y0.3386 I0.0065 J0.0614
N3785 G1 X0.9192 Y0.3498
N3790 X0.9182 Y0.3672
N3795 X0.9176 Y0.3732
N3800 X0.9157 Y0.3789
N3805 X0.913 Y0.3842
N3810 X0.9056 Y0.3926
N3815 X0.8963 Y0.3988
N3820 X0.8857 Y0.4025
N3825 X0.8746 Y0.4034
N3830 X0.8636 Y0.4014
N3835 X0.8534 Y0.3968
N3840 X0.8447 Y0.3898
N3845 X0.8381 Y0.3808
N3850 X0.8339 Y0.3704
N3855 X0.8325 Y0.3593
N3860 Y0.3269
N3865 G3 X0.8519 Y0.3061 I0.0216 J0.0008
N3870 X0.9182 Y0.3672 I0.0063 J0.0597
N3875 G1 X0.9179 Y0.3723
N3880 X0.9175 Y0.3835
N3885 Y0.3947
N3890 X0.9172 Y0.4007
N3895 X0.9158 Y0.4066
N3900 X0.9136 Y0.4121
N3905 X0.9105 Y0.4173
N3910 X0.9029 Y0.4249
N3915 X0.8937 Y0.4305
N3920 X0.8833 Y0.4336
N3925 X0.8725 Y0.434
N3930 X0.862 Y0.4318
N3935 X0.8523 Y0.4271
N3940 X0.844 Y0.4201
N3945 X0.8378 Y0.4113
N3950 X0.8338 Y0.4013
N3955 X0.8325 Y0.3906
N3960 Y0.3593
N3965 G3 X0.8501 Y0.3393 I0.0209 J0.0007
N3970 X0.9175 Y0.3947 I0.0093 J0.0574
N3975 G1 Y0.4261
N3980 X0.9172 Y0.4321
N3985 X0.9157 Y0.438
N3990 X0.9133 Y0.4435
N3995 X0.9102 Y0.4486
N4000 X0.9026 Y0.4561
N4005 X0.8933 Y0.4615
N4010 X0.883 Y0.4645
N4015 X0.8722 Y0.4649
N4020 X0.8617 Y0.4626
N4025 X0.8521 Y0.4578
N4030 X0.8439 Y0.4509
N4035 X0.8377 Y0.4421
N4040 X0.8338 Y0.4321
N4045 X0.8325 Y0.4214
N4050 Y0.3906
N4055 G3 X0.8502 Y0.3706 I0.0209 J0.0007
N4060 X0.9175 Y0.4261 I0.0091 J0.0576
N4065 G1 Y0.4567
N4070 X0.9172 Y0.4626
N4075 X0.9158 Y0.4685
N4080 X0.9134 Y0.474
N4085 X0.9104 Y0.4792
N4090 X0.9028 Y0.4868
N4095 X0.8935 Y0.4922
N4100 X0.8831 Y0.4953
N4105 X0.8724 Y0.4957
N4110 X0.8619 Y0.4934
N4115 X0.8522 Y0.4887
N4120 X0.844 Y0.4817
N4125 X0.8377 Y0.473
N4130 X0.8338 Y0.4629
N4135 X0.8325 Y0.4522
N4140 Y0.4214
N4145 G3 X0.85 Y0.4015 I0.0209 J0.0007
N4150 X0.9175 Y0.4567 I0.0096 J0.0572
N4155 G1 Y0.4865
N4160 X0.9172 Y0.4924
N4165 X0.9159 Y0.4983
N4170 X0.9137 Y0.5039
N4175 X0.9108 Y0.5091
N4180 X0.9033 Y0.5169
N4185 X0.894 Y0.5226
N4190 X0.8837 Y0.5258
N4195 X0.8728 Y0.5263
N4200 X0.8622 Y0.5242
N4205 X0.8525 Y0.5195
N4210 X0.8441 Y0.5126
N4215 X0.8378 Y0.5038
N4220 X0.8338 Y0.4937
N4225 X0.8325 Y0.4829
N4230 Y0.4522
N4235 G3 X0.8494 Y0.4324 I0.021 J0.0007
N4240 X0.9175 Y0.4865 I0.011 J0.0561
N4245 G1 Y0.5183
N4250 X0.9172 Y0.5243
N4255 X0.9157 Y0.5301
N4260 X0.9134 Y0.5356
N4265 X0.9103 Y0.5408
N4270 X0.9026 Y0.5483
N4275 X0.8934 Y0.5538
N4280 X0.8831 Y0.5568
N4285 X0.8723 Y0.5572
N4290 X0.8618 Y0.5549
N4295 X0.8521 Y0.5502
N4300 X0.844 Y0.5432
N4305 X0.8377 Y0.5344
N4310 X0.8338 Y0.5244
N4315 X0.8325 Y0.5137
N4320 Y0.4829
N4325 G3 X0.8501 Y0.463 I0.0209 J0.0007
N4330 X0.9175 Y0.5183 I0.0094 J0.0573
N4335 G1 Y0.5485
N4340 X0.9172 Y0.5545
N4345 X0.9159 Y0.5603
N4350 X0.9136 Y0.5658
N4355 X0.9106 Y0.5711
N4360 X0.903 Y0.5787
N4365 X0.8937 Y0.5843
N4370 X0.8834 Y0.5874
N4375 X0.8726 Y0.5879
N4380 X0.862 Y0.5857
N4385 X0.8523 Y0.581
N4390 X0.8441 Y0.574
N4395 X0.8378 Y0.5652
N4400 X0.8338 Y0.5552
N4405 X0.8325 Y0.5445
N4410 Y0.5137
N4415 G3 X0.8497 Y0.4938 I0.0209 J0.0007
N4420 X0.9175 Y0.5485 I0.0103 J0.0566
N4425 G1 Y0.5778
N4430 X0.9172 Y0.5838
N4435 X0.9161 Y0.5897
N4440 X0.914 Y0.5954
N4445 X0.9111 Y0.6006
N4450 X0.9037 Y0.6086
N4455 X0.8945 Y0.6144
N4460 X0.8841 Y0.6178
N4465 X0.8732 Y0.6184
N4470 X0.8625 Y0.6164
N4475 X0.8527 Y0.6118
N4480 X0.8443 Y0.6048
N4485 X0.8379 Y0.596
N4490 X0.8339 Y0.5859
N4495 X0.8325 Y0.575
N4500 Y0.5445
N4505 G3 X0.8489 Y0.5247 I0.021 J0.0007
N4510 X0.9175 Y0.5778 I0.0122 J0.0551
N4515 G1 Y0.61
N4520 X0.9172 Y0.616
N4525 X0.9158 Y0.6218
N4530 X0.9135 Y0.6274
N4535 X0.9105 Y0.6326
N4540 X0.9028 Y0.6402
N4545 X0.8936 Y0.6457
N4550 X0.8832 Y0.6488
N4555 X0.8725 Y0.6492
N4560 X0.8619 Y0.647
N4565 X0.8522 Y0.6423
N4570 X0.844 Y0.6353
N4575 X0.8378 Y0.6265
N4580 X0.8338 Y0.6165
N4585 X0.8325 Y0.6058
N4590 Y0.575
N4595 G3 X0.8498 Y0.5551 I0.0209 J0.0007
N4600 X0.9175 Y0.61 I0.0099 J0.0569
N4605 G1 Y0.6396
N4610 X0.9172 Y0.6456
N4615 X0.916 Y0.6514
N4620 X0.9139 Y0.657
N4625 X0.911 Y0.6623
N4630 X0.9035 Y0.6702
N4635 X0.8942 Y0.6759
N4640 X0.8839 Y0.6792
N4645 X0.873 Y0.6798
N4650 X0.8624 Y0.6777
N4655 X0.8526 Y0.6731
N4660 X0.8442 Y0.6661
N4665 X0.8378 Y0.6573
N4670 X0.8339 Y0.6472
N4675 X0.8325 Y0.6364
N4680 Y0.6058
N4685 G3 X0.8492 Y0.586 I0.021 J0.0007
N4690 X0.9175 Y0.6396 I0.0116 J0.0556
N4695 G1 Y0.6705
N4700 X0.9172 Y0.6765
N4705 X0.916 Y0.6824
N4710 X0.9138 Y0.6879
N4715 X0.9108 Y0.6932
N4720 X0.9033 Y0.701
N4725 X0.894 Y0.7066
N4730 X0.8837 Y0.7099
N4735 X0.8729 Y0.7104
N4740 X0.8622 Y0.7083
N4745 X0.8525 Y0.7036
N4750 X0.8442 Y0.6966
N4755 X0.8378 Y0.6878
N4760 X0.8338 Y0.6777
N4765 X0.8325 Y0.667
N4770 Y0.6364
N4775 G3 X0.8493 Y0.6166 I0.021 J0.0007
N4780 X0.9175 Y0.6705 I0.0112 J0.0559
N4785 G1 Y0.7014
N4790 X0.9172 Y0.7074
N4795 X0.9159 Y0.7133
N4800 X0.9137 Y0.7188
N4805 X0.9107 Y0.724
N4810 X0.9031 Y0.7318
N4815 X0.8939 Y0.7374
N4820 X0.8835 Y0.7406
N4825 X0.8727 Y0.7411
N4830 X0.8621 Y0.7389
N4835 X0.8524 Y0.7342
N4840 X0.8441 Y0.7272
N4845 X0.8378 Y0.7184
N4850 X0.8338 Y0.7084
N4855 X0.8325 Y0.6976
N4860 Y0.667
N4865 G3 X0.8495 Y0.6471 I0.0209 J0.0007
N4870 X0.9175 Y0.7014 I0.0107 J0.0563
N4875 G1 Y0.7317
N4880 X0.9172 Y0.7377
N4885 X0.916 Y0.7436
N4890 X0.9138 Y0.7492
N4895 X0.9109 Y0.7544
N4900 X0.9033 Y0.7622
N4905 X0.8941 Y0.7679
N4910 X0.8837 Y0.7711
N4915 X0.8729 Y0.7717
N4920 X0.8623 Y0.7696
N4925 X0.8525 Y0.7649
N4930 X0.8442 Y0.7579
N4935 X0.8378 Y0.7491
N4940 X0.8339 Y0.739
N4945 X0.8325 Y0.7283
N4950 Y0.6976
N4955 G3 X0.8493 Y0.6778 I0.021 J0.0007
N4960 X0.9175 Y0.7317 I0.0112 J0.0559
N4965 G1 Y0.7631
N4970 X0.9172 Y0.7691
N4975 X0.9158 Y0.775
N4980 X0.9135 Y0.7805
N4985 X0.9105 Y0.7857
N4990 X0.9029 Y0.7933
N4995 X0.8936 Y0.7989
N5000 X0.8833 Y0.802
N5005 X0.8725 Y0.8024
N5010 X0.862 Y0.8002
N5015 X0.8523 Y0.7955
N5020 X0.844 Y0.7885
N5025 X0.8378 Y0.7797
N5030 X0.8338 Y0.7697
N5035 X0.8325 Y0.759
N5040 Y0.7283
N5045 G3 X0.8498 Y0.7084 I0.0209 J0.0007
N5050 X0.9175 Y0.7631 I0.0101 J0.0568
N5055 G1 Y0.7941
N5060 X0.9172 Y0.8001
N5065 X0.9158 Y0.8059
N5070 X0.9135 Y0.8114
N5075 X0.9104 Y0.8166
N5080 X0.9028 Y0.8242
N5085 X0.8935 Y0.8297
N5090 X0.8832 Y0.8328
N5095 X0.8724 Y0.8332
N5100 X0.8619 Y0.831
N5105 X0.8522 Y0.8262
N5110 X0.844 Y0.8192
N5115 X0.8377 Y0.8105
N5120 X0.8338 Y0.8004
N5125 X0.8325 Y0.7897
N5130 Y0.759
N5135 G3 X0.8499 Y0.7391 I0.0209 J0.0007
N5140 X0.9175 Y0.7941 I0.0098 J0.057
N5145 G1 Y0.825
N5150 X0.9172 Y0.831
N5155 X0.9158 Y0.8368
N5160 X0.9134 Y0.8423
N5165 X0.9104 Y0.8475
N5170 X0.9027 Y0.8551
N5175 X0.8935 Y0.8605
N5180 X0.8831 Y0.8636
N5185 X0.8724 Y0.864
N5190 X0.8618 Y0.8617
N5195 X0.8522 Y0.857
N5200 X0.844 Y0.85
N5205 X0.8377 Y0.8412
N5210 X0.8338 Y0.8312
N5215 X0.8325 Y0.8205
N5220 Y0.7897
N5225 G3 X0.85 Y0.7698 I0.0209 J0.0007
N5230 X0.9175 Y0.825 I0.0096 J0.0572
N5235 G1 Y0.8553
N5240 X0.9172 Y0.8613
N5245 X0.9159 Y0.8671
N5250 X0.9136 Y0.8727
N5255 X0.9106 Y0.8779
N5260 X0.903 Y0.8855
N5265 X0.8937 Y0.8911
N5270 X0.8834 Y0.8942
N5275 X0.8726 Y0.8947
N5280 X0.862 Y0.8925
N5285 X0.8523 Y0.8878
N5290 X0.8441 Y0.8808
N5295 X0.8378 Y0.872
N5300 X0.8338 Y0.862
N5305 X0.8325 Y0.8513
N5310 Y0.8205
N5315 G3 X0.8497 Y0.8006 I0.0209 J0.0007
N5320 X0.9175 Y0.8553 I0.0103 J0.0566
N5325 G1 Y0.8665
N5330 X0.9179 Y0.8777
N5335 X0.9183 Y0.8839
N5340 Y0.8899
N5345 X0.9173 Y0.8958
N5350 X0.9153 Y0.9015
N5355 X0.9126 Y0.9068
N5360 X0.9051 Y0.9151
N5365 X0.8958 Y0.9212
N5370 X0.8853 Y0.9248
N5375 X0.8743 Y0.9256
N5380 X0.8633 Y0.9237
N5385 X0.8532 Y0.919
N5390 X0.8446 Y0.912
N5395 X0.838 Y0.9031
N5400 X0.8339 Y0.8928
N5405 X0.8325 Y0.8817
N5410 Y0.8513
N5415 G3 X0.8495 Y0.8316 I0.0207 J0.0007
N5420 X0.9183 Y0.8839 I0.0104 J0.0577
N5425 G1 X0.9192 Y0.9002
N5430 X0.9209 Y0.9092
N5435 X0.9217 Y0.9151
N5440 X0.9219 Y0.9211
N5445 X0.9212 Y0.9271
N5450 X0.9195 Y0.9328
N5455 X0.9171 Y0.9383
N5460 X0.9098 Y0.9476
N5465 X0.9003 Y0.9547
N5470 X0.8894 Y0.9591
N5475 X0.8777 Y0.9606
N5480 X0.8659 Y0.959
N5485 X0.8551 Y0.9544
N5490 X0.8457 Y0.9472
N5495 X0.8385 Y0.9378
N5500 X0.834 Y0.9268
N5505 X0.8325 Y0.9151
N5510 Y0.8817
N5515 G3 X0.8488 Y0.8625 I0.0204 J0.0007
N5520 X0.9209 Y0.9092 I0.0122 J0.0601
N5525 G1 X0.9213 Y0.9114
N5530 X0.9242 Y0.9255
N5535 X0.9264 Y0.9339
N5540 X0.9276 Y0.9373
N5545 X0.9294 Y0.943
N5550 X0.9304 Y0.949
N5555 X0.9359 Y0.9716
N5560 X0.9584 Y1.0126
N5565 X0.9923 Y1.0447
N5570 X1.0318 Y1.0695
N5575 X1.0745 Y1.0885
N5580 X1.1189 Y1.1029
N5585 X1.1643 Y1.1138
N5590 X1.2102 Y1.1221
N5595 X1.2565 Y1.1283
N5600 X1.2798 Y1.1307
N5605 X1.2914 Y1.1317
N5610 X1.3379 Y1.1355
N5615 X1.3845 Y1.1384
N5620 X1.4312 Y1.1406
N5625 X1.4428 Y1.141
N5630 X1.4544 Y1.1399
N5635 X1.4658 Y1.1372
N5640 X1.4767 Y1.133
N5645 X1.5177 Y1.1107
N5650 X1.5283 Y1.1009
N5655 X1.5404 Y1.093
N5660 X1.5536 Y1.0872
N5665 X1.5676 Y1.0837
N5670 X1.582 Y1.0825
N5675 X1.6216
N5680 G3 X1.6291 Y1.1564 I-0.0013 J0.0375
N5685 G1 X0.8787 Y1.3364
N5690 G3 X0.8325 Y1.3012 I-0.0087 J-0.0365
N5695 G1 Y0.9151
N5700 G3 X0.8491 Y0.8954 I0.0208 J0.0007
N5705 X0.9276 Y0.9373 I0.0141 J0.0681
N5710 G1 X0.9355 Y0.9587
N5715 X0.94 Y0.9676
N5720 X0.9526 Y0.9901
N5725 X0.958 Y0.9975
N5730 X0.9608 Y1.0013
N5735 X0.9692 Y1.0118
N5740 X0.9699 Y1.0125
N5745 X0.9804 Y1.0235
N5750 X0.9933 Y1.035
N5755 X1.0029 Y1.0424
N5760 X1.0142 Y1.0504
N5765 X1.0198 Y1.0537
N5770 X1.0254 Y1.057
N5775 X1.0518 Y1.0687
N5780 X1.0592 Y1.0714
N5785 X1.0817 Y1.0775
N5790 X1.0929 Y1.08
N5795 X1.1042 Y1.0812
N5800 X1.1154 Y1.0822
N5805 X1.1379 Y1.0824
N5810 X1.1492 Y1.0825
N5815 X1.582
N5820 X1.585 Y1.083 Z-0.1789
N5825 X1.5878 Y1.0836 Z-0.178
N5830 X1.5904 Y1.084 Z-0.1765
N5835 X1.5926 Y1.0844 Z-0.1745
N5840 X1.5942 Y1.085 Z-0.1723
N5845 X1.5953 Y1.0855 Z-0.1698
N5850 X1.596 Y1.0858 Z-0.1672
N5855 X1.5962 Y1.0859 Z-0.1645
N5860 G0 Z0.2
N5865 X2.0515 Y0.1288
N5870 Z-0.1938
N5875 G1 Z-0.2313 F15.
N5880 X2.0512 Y0.1289 Z-0.2358
N5885 X2.0504 Y0.1291 Z-0.2403
N5890 X2.0491 Y0.1294 Z-0.2446
N5895 X2.0473 Y0.1299 Z-0.2487
N5900 X2.045 Y0.1305 Z-0.2526
N5905 X2.0423 Y0.1312 Z-0.2562
N5910 X2.0392 Y0.132 Z-0.2594
N5915 X2.0358 Y0.1329 Z-0.2622
N5920 X2.032 Y0.1338 Z-0.2645
N5925 X2.028 Y0.1348 Z-0.2664
N5930 X2.0238 Y0.1359 Z-0.2677
N5935 X2.0195 Y0.137 Z-0.2685
N5940 X2.0151 Y0.1381 Z-0.2688
N5945 G3 X1.811 Y0.1675 I-0.2376 J-0.9274
N5950 G1 X1.7679
N5955 X1.7619 Y0.1672
N5960 X1.7179 Y0.1514
N5965 X1.6728 Y0.1394
N5970 X1.627 Y0.1304
N5975 X1.5808 Y0.1235
N5980 X1.5344 Y0.1184
N5985 X1.4879 Y0.1145
N5990 X1.4413 Y0.1116
N5995 X1.3946 Y0.1094
N6000 X1.348 Y0.1078
N6005 X1.3013 Y0.1065
N6010 X1.2546 Y0.1056
N6015 X1.2079 Y0.1049
N6020 X1.1612 Y0.1044
N6025 X1.1146 Y0.104
N6030 X1.0679 Y0.1037
N6035 X1.0212 Y0.1035
N6040 X0.9745 Y0.1034
N6045 X0.9115 Y0.1032
N6050 X0.8961 Y0.1017
N6055 X0.8813 Y0.0971
N6060 X0.8676 Y0.0898
N6065 X0.8556 Y0.08
N6070 X0.8458 Y0.068
N6075 X0.8385 Y0.0543
N6080 X0.834 Y0.0395
N6085 X0.8325 Y0.024
N6090 G3 X0.8743 Y-0.0119 I0.0375 J0.0013
N6095 G1 X1.7709 Y0.0928
N6100 G3 X1.7679 Y0.1675 I-0.0043 J0.0372
N6105 G1 X1.1492
N6110 X1.1267 Y0.1677
N6115 X1.1154 Y0.1678
N6120 X1.1042 Y0.1688
N6125 X1.0928 Y0.1701
N6130 X1.0817 Y0.1725
N6135 X1.0592 Y0.1786
N6140 X1.0518 Y0.1813
N6145 X1.0479 Y0.183
N6150 X1.016 Y0.1953
N6155 X0.9964 Y0.2012
N6160 X0.9769 Y0.2053
N6165 X0.9584 Y0.2076
N6170 X0.9401 Y0.2085
N6175 X0.9229 Y0.2079
N6180 X0.9056 Y0.206
N6185 X0.8978 Y0.2044
N6190 X0.8844 Y0.2006
N6195 X0.8719 Y0.1945
N6200 X0.8606 Y0.1864
N6205 X0.8509 Y0.1765
N6210 X0.843 Y0.165
N6215 X0.8372 Y0.1524
N6220 X0.8337 Y0.139
N6225 X0.8325 Y0.1251
N6230 G3 X0.8752 Y0.0893 I0.0375 J0.0013
N6235 G1 X1.0368 Y0.1122
N6240 G3 X1.0479 Y0.183 I-0.0053 J0.0371
N6245 G1 X1.0254 Y0.193
N6250 X1.0198 Y0.1963
N6255 X1.0142 Y0.1996
N6260 X1.0029 Y0.2076
N6265 X0.9933 Y0.215
N6270 X0.9804 Y0.2265
N6275 X0.9699 Y0.2375
N6280 X0.9656 Y0.2417
N6285 X0.9591 Y0.2468
N6290 X0.9521 Y0.2513
N6295 X0.9448 Y0.2553
N6300 X0.9364 Y0.259
N6305 X0.9282 Y0.2619
N6310 X0.9189 Y0.2644
N6315 X0.9095 Y0.2661
N6320 X0.8949 Y0.266
N6325 X0.8806 Y0.2628
N6330 X0.8673 Y0.2568
N6335 X0.8555 Y0.2482
N6340 X0.8458 Y0.2373
N6345 X0.8385 Y0.2246
N6350 X0.834 Y0.2107
N6355 X0.8325 Y0.1962
N6360 Y0.1251
N6365 G3 X0.8989 Y0.1026 I0.0375 J0.0013
N6370 G1 X0.9703 Y0.1894
N6375 G3 X0.9699 Y0.2375 I-0.029 J0.0238
N6380 G1 X0.9692 Y0.2382
N6385 X0.9608 Y0.2487
N6390 X0.958 Y0.2525
N6395 X0.9526 Y0.2599
N6400 X0.9428 Y0.2773
N6405 X0.9396 Y0.2824
N6410 X0.9359 Y0.2871
N6415 X0.9317 Y0.2914
N6420 X0.9271 Y0.2952
N6425 X0.922 Y0.2988
N6430 X0.9167 Y0.3019
N6435 X0.9043 Y0.3063
N6440 X0.8912 Y0.3078
N6445 X0.8781 Y0.3063
N6450 X0.8657 Y0.302
N6455 X0.8546 Y0.295
N6460 X0.8453 Y0.2857
N6465 X0.8383 Y0.2746
N6470 X0.834 Y0.2622
N6475 X0.8325 Y0.2491
N6480 Y0.1962
N6485 G3 X0.8645 Y0.1621 I0.0355 J0.0012
N6490 X0.9428 Y0.2773 I0.0079 J0.0789
N6495 G1 X0.94 Y0.2824
N6500 X0.9355 Y0.2913
N6505 X0.9282 Y0.311
N6510 X0.9259 Y0.3166
N6515 X0.9228 Y0.3217
N6520 X0.9191 Y0.3264
N6525 X0.9098 Y0.3339
N6530 X0.8989 Y0.3389
N6535 X0.8873 Y0.3413
N6540 X0.8753 Y0.3408
N6545 X0.8639 Y0.3376
N6550 X0.8534 Y0.3318
N6555 X0.8447 Y0.3237
N6560 X0.838 Y0.3138
N6565 X0.8339 Y0.3027
N6570 X0.8325 Y0.2908
N6575 Y0.2491
N6580 G3 X0.8585 Y0.222 I0.0281 J0.001
N6585 X0.9282 Y0.311 I0.0051 J0.0678
N6590 G1 X0.9264 Y0.3161
N6595 X0.9242 Y0.3245
N6600 X0.9213 Y0.3386
N6605 X0.9199 Y0.3444
N6610 X0.9177 Y0.35
N6615 X0.9147 Y0.3551
N6620 X0.9066 Y0.3632
N6625 X0.8969 Y0.369
N6630 X0.886 Y0.3722
N6635 X0.8746 Y0.3727
N6640 X0.8635 Y0.3703
N6645 X0.8533 Y0.3653
N6650 X0.8446 Y0.358
N6655 X0.838 Y0.3488
N6660 X0.8339 Y0.3382
N6665 X0.8325 Y0.3269
N6670 Y0.2908
N6675 G3 X0.8538 Y0.268 I0.0238 J0.0008
N6680 X0.9213 Y0.3386 I0.0065 J0.0614
N6685 G1 X0.9192 Y0.3498
N6690 X0.9182 Y0.3672
N6695 X0.9176 Y0.3732
N6700 X0.9157 Y0.3789
N6705 X0.913 Y0.3842
N6710 X0.9056 Y0.3926
N6715 X0.8963 Y0.3988
N6720 X0.8857 Y0.4025
N6725 X0.8746 Y0.4034
N6730 X0.8636 Y0.4014
N6735 X0.8534 Y0.3968
N6740 X0.8447 Y0.3898
N6745 X0.8381 Y0.3808
N6750 X0.8339 Y0.3704
N6755 X0.8325 Y0.3593
N6760 Y0.3269
N6765 G3 X0.8519 Y0.3061 I0.0216 J0.0008
N6770 X0.9182 Y0.3672 I0.0063 J0.0597
N6775 G1 X0.9179 Y0.3723
N6780 X0.9175 Y0.3835
N6785 Y0.3947
N6790 X0.9172 Y0.4007
N6795 X0.9158 Y0.4066
N6800 X0.9136 Y0.4121
N6805 X0.9105 Y0.4173
N6810 X0.9029 Y0.4249
N6815 X0.8937 Y0.4305
N6820 X0.8833 Y0.4336
N6825 X0.8725 Y0.434
N6830 X0.862 Y0.4318
N6835 X0.8523 Y0.4271
N6840 X0.844 Y0.4201
N6845 X0.8378 Y0.4113
N6850 X0.8338 Y0.4013
N6855 X0.8325 Y0.3906
N6860 Y0.3593
N6865 G3 X0.8501 Y0.3393 I0.0209 J0.0007
N6870 X0.9175 Y0.3947 I0.0093 J0.0574
N6875 G1 Y0.4261
N6880 X0.9172 Y0.4321
N6885 X0.9157 Y0.438
N6890 X0.9133 Y0.4435
N6895 X0.9102 Y0.4486
N6900 X0.9026 Y0.4561
N6905 X0.8933 Y0.4615
N6910 X0.883 Y0.4645
N6915 X0.8722 Y0.4649
N6920 X0.8617 Y0.4626
N6925 X0.8521 Y0.4578
N6930 X0.8439 Y0.4509
N6935 X0.8377 Y0.4421
N6940 X0.8338 Y0.4321
N6945 X0.8325 Y0.4214
N6950 Y0.3906
N6955 G3 X0.8502 Y0.3706 I0.0209 J0.0007
N6960 X0.9175 Y0.4261 I0.0091 J0.0576
N6965 G1 Y0.4567
N6970 X0.9172 Y0.4626
N6975 X0.9158 Y0.4685
N6980 X0.9134 Y0.474
N6985 X0.9104 Y0.4792
N6990 X0.9028 Y0.4868
N6995 X0.8935 Y0.4922
N7000 X0.8831 Y0.4953
N7005 X0.8724 Y0.4957
N7010 X0.8619 Y0.4934
N7015 X0.8522 Y0.4887
N7020 X0.844 Y0.4817
N7025 X0.8377 Y0.473
N7030 X0.8338 Y0.4629
N7035 X0.8325 Y0.4522
N7040 Y0.4214
N7045 G3 X0.85 Y0.4015 I0.0209 J0.0007
N7050 X0.9175 Y0.4567 I0.0096 J0.0572
N7055 G1 Y0.4865
N7060 X0.9172 Y0.4924
N7065 X0.9159 Y0.4983
N7070 X0.9137 Y0.5039
N7075 X0.9108 Y0.5091
N7080 X0.9033 Y0.5169
N7085 X0.894 Y0.5226
N7090 X0.8837 Y0.5258
N7095 X0.8728 Y0.5263
N7100 X0.8622 Y0.5242
N7105 X0.8525 Y0.5195
N7110 X0.8441 Y0.5126
N7115 X0.8378 Y0.5038
N7120 X0.8338 Y0.4937
N7125 X0.8325 Y0.4829
N7130 Y0.4522
N7135 G3 X0.8494 Y0.4324 I0.021 J0.0007
N7140 X0.9175 Y0.4865 I0.011 J0.0561
N7145 G1 Y0.5183
N7150 X0.9172 Y0.5243
N7155 X0.9157 Y0.5301
N7160 X0.9134 Y0.5356
N7165 X0.9103 Y0.5408
N7170 X0.9026 Y0.5483
N7175 X0.8934 Y0.5538
N7180 X0.8831 Y0.5568
N7185 X0.8723 Y0.5572
N7190 X0.8618 Y0.5549
N7195 X0.8521 Y0.5502
N7200 X0.844 Y0.5432
N7205 X0.8377 Y0.5344
N7210 X0.8338 Y0.5244
N7215 X0.8325 Y0.5137
N7220 Y0.4829
N7225 G3 X0.8501 Y0.463 I0.0209 J0.0007
N7230 X0.9175 Y0.5183 I0.0094 J0.0573
N7235 G1 Y0.5485
N7240 X0.9172 Y0.5545
N7245 X0.9159 Y0.5603
N7250 X0.9136 Y0.5658
N7255 X0.9106 Y0.5711
N7260 X0.903 Y0.5787
N7265 X0.8937 Y0.5843
N7270 X0.8834 Y0.5874
N7275 X0.8726 Y0.5879
N7280 X0.862 Y0.5857
N7285 X0.8523 Y0.581
N7290 X0.8441 Y0.574
N7295 X0.8378 Y0.5652
N7300 X0.8338 Y0.5552
N7305 X0.8325 Y0.5445
N7310 Y0.5137
N7315 G3 X0.8497 Y0.4938 I0.0209 J0.0007
N7320 X0.9175 Y0.5485 I0.0103 J0.0566
N7325 G1 Y0.5778
N7330 X0.9172 Y0.5838
N7335 X0.9161 Y0.5897
N7340 X0.914 Y0.5954
N7345 X0.9111 Y0.6006
N7350 X0.9037 Y0.6086
N7355 X0.8945 Y0.6144
N7360 X0.8841 Y0.6178
N7365 X0.8732 Y0.6184
N7370 X0.8625 Y0.6164
N7375 X0.8527 Y0.6118
N7380 X0.8443 Y0.6048
N7385 X0.8379 Y0.596
N7390 X0.8339 Y0.5859
N7395 X0.8325 Y0.575
N7400 Y0.5445
N7405 G3 X0.8489 Y0.5247 I0.021 J0.0007
N7410 X0.9175 Y0.5778 I0.0122 J0.0551
N7415 G1 Y0.61
N7420 X0.9172 Y0.616
N7425 X0.9158 Y0.6218
N7430 X0.9135 Y0.6274
N7435 X0.9105 Y0.6326
N7440 X0.9028 Y0.6402
N7445 X0.8936 Y0.6457
N7450 X0.8832 Y0.6488
N7455 X0.8725 Y0.6492
N7460 X0.8619 Y0.647
N7465 X0.8522 Y0.6423
N7470 X0.844 Y0.6353
N7475 X0.8378 Y0.6265
N7480 X0.8338 Y0.6165
N7485 X0.8325 Y0.6058
N7490 Y0.575
N7495 G3 X0.8498 Y0.5551 I0.0209 J0.0007
N7500 X0.9175 Y0.61 I0.0099 J0.0569
N7505 G1 Y0.6396
N7510 X0.9172 Y0.6456
N7515 X0.916 Y0.6514
N7520 X0.9139 Y0.657
N7525 X0.911 Y0.6623
N7530 X0.9035 Y0.6702
N7535 X0.8942 Y0.6759
N7540 X0.8839 Y0.6792
N7545 X0.873 Y0.6798
N7550 X0.8624 Y0.6777
N7555 X0.8526 Y0.6731
N7560 X0.8442 Y0.6661
N7565 X0.8378 Y0.6573
N7570 X0.8339 Y0.6472
N7575 X0.8325 Y0.6364
N7580 Y0.6058
N7585 G3 X0.8492 Y0.586 I0.021 J0.0007
N7590 X0.9175 Y0.6396 I0.0116 J0.0556
N7595 G1 Y0.6705
N7600 X0.9172 Y0.6765
N7605 X0.916 Y0.6824
N7610 X0.9138 Y0.6879
N7615 X0.9108 Y0.6932
N7620 X0.9033 Y0.701
N7625 X0.894 Y0.7066
N7630 X0.8837 Y0.7099
N7635 X0.8729 Y0.7104
N7640 X0.8622 Y0.7083
N7645 X0.8525 Y0.7036
N7650 X0.8442 Y0.6966
N7655 X0.8378 Y0.6878
N7660 X0.8338 Y0.6777
N7665 X0.8325 Y0.667
N7670 Y0.6364
N7675 G3 X0.8493 Y0.6166 I0.021 J0.0007
N7680 X0.9175 Y0.6705 I0.0112 J0.0559
N7685 G1 Y0.7014
N7690 X0.9172 Y0.7074
N7695 X0.9159 Y0.7133
N7700 X0.9137 Y0.7188
N7705 X0.9107 Y0.724
N7710 X0.9031 Y0.7318
N7715 X0.8939 Y0.7374
N7720 X0.8835 Y0.7406
N7725 X0.8727 Y0.7411
N7730 X0.8621 Y0.7389
N7735 X0.8524 Y0.7342
N7740 X0.8441 Y0.7272
N7745 X0.8378 Y0.7184
N7750 X0.8338 Y0.7084
N7755 X0.8325 Y0.6976
N7760 Y0.667
N7765 G3 X0.8495 Y0.6471 I0.0209 J0.0007
N7770 X0.9175 Y0.7014 I0.0107 J0.0563
N7775 G1 Y0.7317
N7780 X0.9172 Y0.7377
N7785 X0.916 Y0.7436
N7790 X0.9138 Y0.7492
N7795 X0.9109 Y0.7544
N7800 X0.9033 Y0.7622
N7805 X0.8941 Y0.7679
N7810 X0.8837 Y0.7711
N7815 X0.8729 Y0.7717
N7820 X0.8623 Y0.7696
N7825 X0.8525 Y0.7649
N7830 X0.8442 Y0.7579
N7835 X0.8378 Y0.7491
N7840 X0.8339 Y0.739
N7845 X0.8325 Y0.7283
N7850 Y0.6976
N7855 G3 X0.8493 Y0.6778 I0.021 J0.0007
N7860 X0.9175 Y0.7317 I0.0112 J0.0559
N7865 G1 Y0.7631
N7870 X0.9172 Y0.7691
N7875 X0.9158 Y0.775
N7880 X0.9135 Y0.7805
N7885 X0.9105 Y0.7857
N7890 X0.9029 Y0.7933
N7895 X0.8936 Y0.7989
N7900 X0.8833 Y0.802
N7905 X0.8725 Y0.8024
N7910 X0.862 Y0.8002
N7915 X0.8523 Y0.7955
N7920 X0.844 Y0.7885
N7925 X0.8378 Y0.7797
N7930 X0.8338 Y0.7697
N7935 X0.8325 Y0.759
N7940 Y0.7283
N7945 G3 X0.8498 Y0.7084 I0.0209 J0.0007
N7950 X0.9175 Y0.7631 I0.0101 J0.0568
N7955 G1 Y0.7941
N7960 X0.9172 Y0.8001
N7965 X0.9158 Y0.8059
N7970 X0.9135 Y0.8114
N7975 X0.9104 Y0.8166
N7980 X0.9028 Y0.8242
N7985 X0.8935 Y0.8297
N7990 X0.8832 Y0.8328
N7995 X0.8724 Y0.8332
N8000 X0.8619 Y0.831
N8005 X0.8522 Y0.8262
N8010 X0.844 Y0.8192
N8015 X0.8377 Y0.8105
N8020 X0.8338 Y0.8004
N8025 X0.8325 Y0.7897
N8030 Y0.759
N8035 G3 X0.8499 Y0.7391 I0.0209 J0.0007
N8040 X0.9175 Y0.7941 I0.0098 J0.057
N8045 G1 Y0.825
N8050 X0.9172 Y0.831
N8055 X0.9158 Y0.8368
N8060 X0.9134 Y0.8423
N8065 X0.9104 Y0.8475
N8070 X0.9027 Y0.8551
N8075 X0.8935 Y0.8605
N8080 X0.8831 Y0.8636
N8085 X0.8724 Y0.864
N8090 X0.8618 Y0.8617
N8095 X0.8522 Y0.857
N8100 X0.844 Y0.85
N8105 X0.8377 Y0.8412
N8110 X0.8338 Y0.8312
N8115 X0.8325 Y0.8205
N8120 Y0.7897
N8125 G3 X0.85 Y0.7698 I0.0209 J0.0007
N8130 X0.9175 Y0.825 I0.0096 J0.0572
N8135 G1 Y0.8553
N8140 X0.9172 Y0.8613
N8145 X0.9159 Y0.8671
N8150 X0.9136 Y0.8727
N8155 X0.9106 Y0.8779
N8160 X0.903 Y0.8855
N8165 X0.8937 Y0.8911
N8170 X0.8834 Y0.8942
N8175 X0.8726 Y0.8947
N8180 X0.862 Y0.8925
N8185 X0.8523 Y0.8878
N8190 X0.8441 Y0.8808
N8195 X0.8378 Y0.872
N8200 X0.8338 Y0.862
N8205 X0.8325 Y0.8513
N8210 Y0.8205
N8215 G3 X0.8497 Y0.8006 I0.0209 J0.0007
N8220 X0.9175 Y0.8553 I0.0103 J0.0566
N8225 G1 Y0.8665
N8230 X0.9179 Y0.8777
N8235 X0.9183 Y0.8839
N8240 Y0.8899
N8245 X0.9173 Y0.8958
N8250 X0.9153 Y0.9015
N8255 X0.9126 Y0.9068
N8260 X0.9051 Y0.9151
N8265 X0.8958 Y0.9212
N8270 X0.8853 Y0.9248
N8275 X0.8743 Y0.9256
N8280 X0.8633 Y0.9237
N8285 X0.8532 Y0.919
N8290 X0.8446 Y0.912
N8295 X0.838 Y0.9031
N8300 X0.8339 Y0.8928
N8305 X0.8325 Y0.8817
N8310 Y0.8513
N8315 G3 X0.8495 Y0.8316 I0.0207 J0.0007
N8320 X0.9183 Y0.8839 I0.0104 J0.0577
N8325 G1 X0.9192 Y0.9002
N8330 X0.9209 Y0.9092
N8335 X0.9217 Y0.9151
N8340 X0.9219 Y0.9211
N8345 X0.9212 Y0.9271
N8350 X0.9195 Y0.9328
N8355 X0.9171 Y0.9383
N8360 X0.9098 Y0.9476
N8365 X0.9003 Y0.9547
N8370 X0.8894 Y0.9591
N8375 X0.8777 Y0.9606
N8380 X0.8659 Y0.959
N8385 X0.8551 Y0.9544
N8390 X0.8457 Y0.9472
N8395 X0.8385 Y0.9378
N8400 X0.834 Y0.9268
N8405 X0.8325 Y0.9151
N8410 Y0.8817
N8415 G3 X0.8488 Y0.8625 I0.0204 J0.0007
N8420 X0.9209 Y0.9092 I0.0122 J0.0601
N8425 G1 X0.9213 Y0.9114
N8430 X0.9242 Y0.9255
N8435 X0.9264 Y0.9339
N8440 X0.9276 Y0.9373
N8445 X0.9294 Y0.943
N8450 X0.9304 Y0.949
N8455 X0.9359 Y0.9716
N8460 X0.9584 Y1.0126
N8465 X0.9923 Y1.0447
N8470 X1.0318 Y1.0695
N8475 X1.0745 Y1.0885
N8480 X1.1189 Y1.1029
N8485 X1.1643 Y1.1138
N8490 X1.2102 Y1.1221
N8495 X1.2565 Y1.1283
N8500 X1.2798 Y1.1307
N8505 X1.2914 Y1.1317
N8510 X1.3379 Y1.1355
N8515 X1.3845 Y1.1384
N8520 X1.4312 Y1.1406
N8525 X1.4428 Y1.141
N8530 X1.4544 Y1.1399
N8535 X1.4658 Y1.1372
N8540 X1.4767 Y1.133
N8545 X1.5177 Y1.1107
N8550 X1.5283 Y1.1009
N8555 X1.5404 Y1.093
N8560 X1.5536 Y1.0872
N8565 X1.5676 Y1.0837
N8570 X1.582 Y1.0825
N8575 X1.6216
N8580 G3 X1.6291 Y1.1564 I-0.0013 J0.0375
N8585 G1 X0.8787 Y1.3364
N8590 G3 X0.8325 Y1.3012 I-0.0087 J-0.0365
N8595 G1 Y0.9151
N8600 G3 X0.8491 Y0.8954 I0.0208 J0.0007
N8605 X0.9276 Y0.9373 I0.0141 J0.0681
N8610 G1 X0.9355 Y0.9587
N8615 X0.94 Y0.9676
N8620 X0.9526 Y0.9901
N8625 X0.958 Y0.9975
N8630 X0.9608 Y1.0013
N8635 X0.9692 Y1.0118
N8640 X0.9699 Y1.0125
N8645 X0.9804 Y1.0235
N8650 X0.9933 Y1.035
N8655 X1.0029 Y1.0424
N8660 X1.0142 Y1.0504
N8665 X1.0198 Y1.0537
N8670 X1.0254 Y1.057
N8675 X1.0518 Y1.0687
N8680 X1.0592 Y1.0714
N8685 X1.0817 Y1.0775
N8690 X1.0929 Y1.08
N8695 X1.1042 Y1.0812
N8700 X1.1154 Y1.0822
N8705 X1.1379 Y1.0824
N8710 X1.1492 Y1.0825
N8715 X1.582
N8720 X1.585 Y1.083 Z-0.2685
N8725 X1.5878 Y1.0836 Z-0.2676
N8730 X1.5904 Y1.084 Z-0.2661
N8735 X1.5926 Y1.0844 Z-0.2641
N8740 X1.5942 Y1.085 Z-0.2619
N8745 X1.5953 Y1.0855 Z-0.2594
N8750 X1.596 Y1.0858 Z-0.2568
N8755 X1.5962 Y1.0859 Z-0.2541
N8760 G0 Z0.2
N8765 X2.0515 Y0.1288
N8770 Z-0.2834
N8775 G1 Z-0.3209 F15.
N8780 X2.0512 Y0.1289 Z-0.3254
N8785 X2.0504 Y0.1291 Z-0.3299
N8790 X2.0491 Y0.1294 Z-0.3342
N8795 X2.0473 Y0.1299 Z-0.3384
N8800 X2.045 Y0.1305 Z-0.3422
N8805 X2.0423 Y0.1312 Z-0.3458
N8810 X2.0392 Y0.132 Z-0.349
N8815 X2.0358 Y0.1329 Z-0.3518
N8820 X2.032 Y0.1338 Z-0.3541
N8825 X2.028 Y0.1348 Z-0.356
N8830 X2.0238 Y0.1359 Z-0.3573
N8835 X2.0195 Y0.137 Z-0.3582
N8840 X2.0151 Y0.1381 Z-0.3584
N8845 G3 X1.811 Y0.1675 I-0.2376 J-0.9274
N8850 G1 X1.7679
N8855 X1.7619 Y0.1672
N8860 X1.7179 Y0.1514
N8865 X1.6728 Y0.1394
N8870 X1.627 Y0.1304
N8875 X1.5808 Y0.1235
N8880 X1.5344 Y0.1184
N8885 X1.4879 Y0.1145
N8890 X1.4413 Y0.1116
N8895 X1.3946 Y0.1094
N8900 X1.348 Y0.1078
N8905 X1.3013 Y0.1065
N8910 X1.2546 Y0.1056
N8915 X1.2079 Y0.1049
N8920 X1.1612 Y0.1044
N8925 X1.1146 Y0.104
N8930 X1.0679 Y0.1037
N8935 X1.0212 Y0.1035
N8940 X0.9745 Y0.1034
N8945 X0.9115 Y0.1032
N8950 X0.8961 Y0.1017
N8955 X0.8813 Y0.0971
N8960 X0.8676 Y0.0898
N8965 X0.8556 Y0.08
N8970 X0.8458 Y0.068
N8975 X0.8385 Y0.0543
N8980 X0.834 Y0.0395
N8985 X0.8325 Y0.024
N8990 G3 X0.8743 Y-0.0119 I0.0375 J0.0013
N8995 G1 X1.7709 Y0.0928
N9000 G3 X1.7679 Y0.1675 I-0.0043 J0.0372
N9005 G1 X1.1492
N9010 X1.1267 Y0.1677
N9015 X1.1154 Y0.1678
N9020 X1.1042 Y0.1688
N9025 X1.0928 Y0.1701
N9030 X1.0817 Y0.1725
N9035 X1.0592 Y0.1786
N9040 X1.0518 Y0.1813
N9045 X1.0479 Y0.183
N9050 X1.016 Y0.1953
N9055 X0.9964 Y0.2012
N9060 X0.9769 Y0.2053
N9065 X0.9584 Y0.2076
N9070 X0.9401 Y0.2085
N9075 X0.9229 Y0.2079
N9080 X0.9056 Y0.206
N9085 X0.8978 Y0.2044
N9090 X0.8844 Y0.2006
N9095 X0.8719 Y0.1945
N9100 X0.8606 Y0.1864
N9105 X0.8509 Y0.1765
N9110 X0.843 Y0.165
N9115 X0.8372 Y0.1524
N9120 X0.8337 Y0.139
N9125 X0.8325 Y0.1251
N9130 G3 X0.8752 Y0.0893 I0.0375 J0.0013
N9135 G1 X1.0368 Y0.1122
N9140 G3 X1.0479 Y0.183 I-0.0053 J0.0371
N9145 G1 X1.0254 Y0.193
N9150 X1.0198 Y0.1963
N9155 X1.0142 Y0.1996
N9160 X1.0029 Y0.2076
N9165 X0.9933 Y0.215
N9170 X0.9804 Y0.2265
N9175 X0.9699 Y0.2375
N9180 X0.9656 Y0.2417
N9185 X0.9591 Y0.2468
N9190 X0.9521 Y0.2513
N9195 X0.9448 Y0.2553
N9200 X0.9364 Y0.259
N9205 X0.9282 Y0.2619
N9210 X0.9189 Y0.2644
N9215 X0.9095 Y0.2661
N9220 X0.8949 Y0.266
N9225 X0.8806 Y0.2628
N9230 X0.8673 Y0.2568
N9235 X0.8555 Y0.2482
N9240 X0.8458 Y0.2373
N9245 X0.8385 Y0.2246
N9250 X0.834 Y0.2107
N9255 X0.8325 Y0.1962
N9260 Y0.1251
N9265 G3 X0.8989 Y0.1026 I0.0375 J0.0013
N9270 G1 X0.9703 Y0.1894
N9275 G3 X0.9699 Y0.2375 I-0.029 J0.0238
N9280 G1 X0.9692 Y0.2382
N9285 X0.9608 Y0.2487
N9290 X0.958 Y0.2525
N9295 X0.9526 Y0.2599
N9300 X0.9428 Y0.2773
N9305 X0.9396 Y0.2824
N9310 X0.9359 Y0.2871
N9315 X0.9317 Y0.2914
N9320 X0.9271 Y0.2952
N9325 X0.922 Y0.2988
N9330 X0.9167 Y0.3019
N9335 X0.9043 Y0.3063
N9340 X0.8912 Y0.3078
N9345 X0.8781 Y0.3063
N9350 X0.8657 Y0.302
N9355 X0.8546 Y0.295
N9360 X0.8453 Y0.2857
N9365 X0.8383 Y0.2746
N9370 X0.834 Y0.2622
N9375 X0.8325 Y0.2491
N9380 Y0.1962
N9385 G3 X0.8645 Y0.1621 I0.0355 J0.0012
N9390 X0.9428 Y0.2773 I0.0079 J0.0789
N9395 G1 X0.94 Y0.2824
N9400 X0.9355 Y0.2913
N9405 X0.9282 Y0.311
N9410 X0.9259 Y0.3166
N9415 X0.9228 Y0.3217
N9420 X0.9191 Y0.3264
N9425 X0.9098 Y0.3339
N9430 X0.8989 Y0.3389
N9435 X0.8873 Y0.3413
N9440 X0.8753 Y0.3408
N9445 X0.8639 Y0.3376
N9450 X0.8534 Y0.3318
N9455 X0.8447 Y0.3237
N9460 X0.838 Y0.3138
N9465 X0.8339 Y0.3027
N9470 X0.8325 Y0.2908
N9475 Y0.2491
N9480 G3 X0.8585 Y0.222 I0.0281 J0.001
N9485 X0.9282 Y0.311 I0.0051 J0.0678
N9490 G1 X0.9264 Y0.3161
N9495 X0.9242 Y0.3245
N9500 X0.9213 Y0.3386
N9505 X0.9199 Y0.3444
N9510 X0.9177 Y0.35
N9515 X0.9147 Y0.3551
N9520 X0.9066 Y0.3632
N9525 X0.8969 Y0.369
N9530 X0.886 Y0.3722
N9535 X0.8746 Y0.3727
N9540 X0.8635 Y0.3703
N9545 X0.8533 Y0.3653
N9550 X0.8446 Y0.358
N9555 X0.838 Y0.3488
N9560 X0.8339 Y0.3382
N9565 X0.8325 Y0.3269
N9570 Y0.2908
N9575 G3 X0.8538 Y0.268 I0.0238 J0.0008
N9580 X0.9213 Y0.3386 I0.0065 J0.0614
N9585 G1 X0.9192 Y0.3498
N9590 X0.9182 Y0.3672
N9595 X0.9176 Y0.3732
N9600 X0.9157 Y0.3789
N9605 X0.913 Y0.3842
N9610 X0.9056 Y0.3926
N9615 X0.8963 Y0.3988
N9620 X0.8857 Y0.4025
N9625 X0.8746 Y0.4034
N9630 X0.8636 Y0.4014
N9635 X0.8534 Y0.3968
N9640 X0.8447 Y0.3898
N9645 X0.8381 Y0.3808
N9650 X0.8339 Y0.3704
N9655 X0.8325 Y0.3593
N9660 Y0.3269
N9665 G3 X0.8519 Y0.3061 I0.0216 J0.0008
N9670 X0.9182 Y0.3672 I0.0063 J0.0597
N9675 G1 X0.9179 Y0.3723
N9680 X0.9175 Y0.3835
N9685 Y0.3947
N9690 X0.9172 Y0.4007
N9695 X0.9158 Y0.4066
N9700 X0.9136 Y0.4121
N9705 X0.9105 Y0.4173
N9710 X0.9029 Y0.4249
N9715 X0.8937 Y0.4305
N9720 X0.8833 Y0.4336
N9725 X0.8725 Y0.434
N9730 X0.862 Y0.4318
N9735 X0.8523 Y0.4271
N9740 X0.844 Y0.4201
N9745 X0.8378 Y0.4113
N9750 X0.8338 Y0.4013
N9755 X0.8325 Y0.3906
N9760 Y0.3593
N9765 G3 X0.8501 Y0.3393 I0.0209 J0.0007
N9770 X0.9175 Y0.3947 I0.0093 J0.0574
N9775 G1 Y0.4261
N9780 X0.9172 Y0.4321
N9785 X0.9157 Y0.438
N9790 X0.9133 Y0.4435
N9795 X0.9102 Y0.4486
N9800 X0.9026 Y0.4561
N9805 X0.8933 Y0.4615
N9810 X0.883 Y0.4645
N9815 X0.8722 Y0.4649
N9820 X0.8617 Y0.4626
N9825 X0.8521 Y0.4578
N9830 X0.8439 Y0.4509
N9835 X0.8377 Y0.4421
N9840 X0.8338 Y0.4321
N9845 X0.8325 Y0.4214
N9850 Y0.3906
N9855 G3 X0.8502 Y0.3706 I0.0209 J0.0007
N9860 X0.9175 Y0.4261 I0.0091 J0.0576
N9865 G1 Y0.4567
N9870 X0.9172 Y0.4626
N9875 X0.9158 Y0.4685
N9880 X0.9134 Y0.474
N9885 X0.9104 Y0.4792
N9890 X0.9028 Y0.4868
N9895 X0.8935 Y0.4922
N9900 X0.8831 Y0.4953
N9905 X0.8724 Y0.4957
N9910 X0.8619 Y0.4934
N9915 X0.8522 Y0.4887
N9920 X0.844 Y0.4817
N9925 X0.8377 Y0.473
N9930 X0.8338 Y0.4629
N9935 X0.8325 Y0.4522
N9940 Y0.4214
N9945 G3 X0.85 Y0.4015 I0.0209 J0.0007
N9950 X0.9175 Y0.4567 I0.0096 J0.0572
N9955 G1 Y0.4865
N9960 X0.9172 Y0.4924
N9965 X0.9159 Y0.4983
N9970 X0.9137 Y0.5039
N9975 X0.9108 Y0.5091
N9980 X0.9033 Y0.5169
N9985 X0.894 Y0.5226
N9990 X0.8837 Y0.5258
N9995 X0.8728 Y0.5263
N10000 X0.8622 Y0.5242
N10005 X0.8525 Y0.5195
N10010 X0.8441 Y0.5126
N10015 X0.8378 Y0.5038
N10020 X0.8338 Y0.4937
N10025 X0.8325 Y0.4829
N10030 Y0.4522
N10035 G3 X0.8494 Y0.4324 I0.021 J0.0007
N10040 X0.9175 Y0.4865 I0.011 J0.0561
N10045 G1 Y0.5183
N10050 X0.9172 Y0.5243
N10055 X0.9157 Y0.5301
N10060 X0.9134 Y0.5356
N10065 X0.9103 Y0.5408
N10070 X0.9026 Y0.5483
N10075 X0.8934 Y0.5538
N10080 X0.8831 Y0.5568
N10085 X0.8723 Y0.5572
N10090 X0.8618 Y0.5549
N10095 X0.8521 Y0.5502
N10100 X0.844 Y0.5432
N10105 X0.8377 Y0.5344
N10110 X0.8338 Y0.5244
N10115 X0.8325 Y0.5137
N10120 Y0.4829
N10125 G3 X0.8501 Y0.463 I0.0209 J0.0007
N10130 X0.9175 Y0.5183 I0.0094 J0.0573
N10135 G1 Y0.5485
N10140 X0.9172 Y0.5545
N10145 X0.9159 Y0.5603
N10150 X0.9136 Y0.5658
N10155 X0.9106 Y0.5711
N10160 X0.903 Y0.5787
N10165 X0.8937 Y0.5843
N10170 X0.8834 Y0.5874
N10175 X0.8726 Y0.5879
N10180 X0.862 Y0.5857
N10185 X0.8523 Y0.581
N10190 X0.8441 Y0.574
N10195 X0.8378 Y0.5652
N10200 X0.8338 Y0.5552
N10205 X0.8325 Y0.5445
N10210 Y0.5137
N10215 G3 X0.8497 Y0.4938 I0.0209 J0.0007
N10220 X0.9175 Y0.5485 I0.0103 J0.0566
N10225 G1 Y0.5778
N10230 X0.9172 Y0.5838
N10235 X0.9161 Y0.5897
N10240 X0.914 Y0.5954
N10245 X0.9111 Y0.6006
N10250 X0.9037 Y0.6086
N10255 X0.8945 Y0.6144
N10260 X0.8841 Y0.6178
N10265 X0.8732 Y0.6184
N10270 X0.8625 Y0.6164
N10275 X0.8527 Y0.6118
N10280 X0.8443 Y0.6048
N10285 X0.8379 Y0.596
N10290 X0.8339 Y0.5859
N10295 X0.8325 Y0.575
N10300 Y0.5445
N10305 G3 X0.8489 Y0.5247 I0.021 J0.0007
N10310 X0.9175 Y0.5778 I0.0122 J0.0551
N10315 G1 Y0.61
N10320 X0.9172 Y0.616
N10325 X0.9158 Y0.6218
N10330 X0.9135 Y0.6274
N10335 X0.9105 Y0.6326
N10340 X0.9028 Y0.6402
N10345 X0.8936 Y0.6457
N10350 X0.8832 Y0.6488
N10355 X0.8725 Y0.6492
N10360 X0.8619 Y0.647
N10365 X0.8522 Y0.6423
N10370 X0.844 Y0.6353
N10375 X0.8378 Y0.6265
N10380 X0.8338 Y0.6165
N10385 X0.8325 Y0.6058
N10390 Y0.575
N10395 G3 X0.8498 Y0.5551 I0.0209 J0.0007
N10400 X0.9175 Y0.61 I0.0099 J0.0569
N10405 G1 Y0.6396
N10410 X0.9172 Y0.6456
N10415 X0.916 Y0.6514
N10420 X0.9139 Y0.657
N10425 X0.911 Y0.6623
N10430 X0.9035 Y0.6702
N10435 X0.8942 Y0.6759
N10440 X0.8839 Y0.6792
N10445 X0.873 Y0.6798
N10450 X0.8624 Y0.6777
N10455 X0.8526 Y0.6731
N10460 X0.8442 Y0.6661
N10465 X0.8378 Y0.6573
N10470 X0.8339 Y0.6472
N10475 X0.8325 Y0.6364
N10480 Y0.6058
N10485 G3 X0.8492 Y0.586 I0.021 J0.0007
N10490 X0.9175 Y0.6396 I0.0116 J0.0556
N10495 G1 Y0.6705
N10500 X0.9172 Y0.6765
N10505 X0.916 Y0.6824
N10510 X0.9138 Y0.6879
N10515 X0.9108 Y0.6932
N10520 X0.9033 Y0.701
N10525 X0.894 Y0.7066
N10530 X0.8837 Y0.7099
N10535 X0.8729 Y0.7104
N10540 X0.8622 Y0.7083
N10545 X0.8525 Y0.7036
N10550 X0.8442 Y0.6966
N10555 X0.8378 Y0.6878
N10560 X0.8338 Y0.6777
N10565 X0.8325 Y0.667
N10570 Y0.6364
N10575 G3 X0.8493 Y0.6166 I0.021 J0.0007
N10580 X0.9175 Y0.6705 I0.0112 J0.0559
N10585 G1 Y0.7014
N10590 X0.9172 Y0.7074
N10595 X0.9159 Y0.7133
N10600 X0.9137 Y0.7188
N10605 X0.9107 Y0.724
N10610 X0.9031 Y0.7318
N10615 X0.8939 Y0.7374
N10620 X0.8835 Y0.7406
N10625 X0.8727 Y0.7411
N10630 X0.8621 Y0.7389
N10635 X0.8524 Y0.7342
N10640 X0.8441 Y0.7272
N10645 X0.8378 Y0.7184
N10650 X0.8338 Y0.7084
N10655 X0.8325 Y0.6976
N10660 Y0.667
N10665 G3 X0.8495 Y0.6471 I0.0209 J0.0007
N10670 X0.9175 Y0.7014 I0.0107 J0.0563
N10675 G1 Y0.7317
N10680 X0.9172 Y0.7377
N10685 X0.916 Y0.7436
N10690 X0.9138 Y0.7492
N10695 X0.9109 Y0.7544
N10700 X0.9033 Y0.7622
N10705 X0.8941 Y0.7679
N10710 X0.8837 Y0.7711
N10715 X0.8729 Y0.7717
N10720 X0.8623 Y0.7696
N10725 X0.8525 Y0.7649
N10730 X0.8442 Y0.7579
N10735 X0.8378 Y0.7491
N10740 X0.8339 Y0.739
N10745 X0.8325 Y0.7283
N10750 Y0.6976
N10755 G3 X0.8493 Y0.6778 I0.021 J0.0007
N10760 X0.9175 Y0.7317 I0.0112 J0.0559
N10765 G1 Y0.7631
N10770 X0.9172 Y0.7691
N10775 X0.9158 Y0.775
N10780 X0.9135 Y0.7805
N10785 X0.9105 Y0.7857
N10790 X0.9029 Y0.7933
N10795 X0.8936 Y0.7989
N10800 X0.8833 Y0.802
N10805 X0.8725 Y0.8024
N10810 X0.862 Y0.8002
N10815 X0.8523 Y0.7955
N10820 X0.844 Y0.7885
N10825 X0.8378 Y0.7797
N10830 X0.8338 Y0.7697
N10835 X0.8325 Y0.759
N10840 Y0.7283
N10845 G3 X0.8498 Y0.7084 I0.0209 J0.0007
N10850 X0.9175 Y0.7631 I0.0101 J0.0568
N10855 G1 Y0.7941
N10860 X0.9172 Y0.8001
N10865 X0.9158 Y0.8059
N10870 X0.9135 Y0.8114
N10875 X0.9104 Y0.8166
N10880 X0.9028 Y0.8242
N10885 X0.8935 Y0.8297
N10890 X0.8832 Y0.8328
N10895 X0.8724 Y0.8332
N10900 X0.8619 Y0.831
N10905 X0.8522 Y0.8262
N10910 X0.844 Y0.8192
N10915 X0.8377 Y0.8105
N10920 X0.8338 Y0.8004
N10925 X0.8325 Y0.7897
N10930 Y0.759
N10935 G3 X0.8499 Y0.7391 I0.0209 J0.0007
N10940 X0.9175 Y0.7941 I0.0098 J0.057
N10945 G1 Y0.825
N10950 X0.9172 Y0.831
N10955 X0.9158 Y0.8368
N10960 X0.9134 Y0.8423
N10965 X0.9104 Y0.8475
N10970 X0.9027 Y0.8551
N10975 X0.8935 Y0.8605
N10980 X0.8831 Y0.8636
N10985 X0.8724 Y0.864
N10990 X0.8618 Y0.8617
N10995 X0.8522 Y0.857
N11000 X0.844 Y0.85
N11005 X0.8377 Y0.8412
N11010 X0.8338 Y0.8312
N11015 X0.8325 Y0.8205
N11020 Y0.7897
N11025 G3 X0.85 Y0.7698 I0.0209 J0.0007
N11030 X0.9175 Y0.825 I0.0096 J0.0572
N11035 G1 Y0.8553
N11040 X0.9172 Y0.8613
N11045 X0.9159 Y0.8671
N11050 X0.9136 Y0.8727
N11055 X0.9106 Y0.8779
N11060 X0.903 Y0.8855
N11065 X0.8937 Y0.8911
N11070 X0.8834 Y0.8942
N11075 X0.8726 Y0.8947
N11080 X0.862 Y0.8925
N11085 X0.8523 Y0.8878
N11090 X0.8441 Y0.8808
N11095 X0.8378 Y0.872
N11100 X0.8338 Y0.862
N11105 X0.8325 Y0.8513
N11110 Y0.8205
N11115 G3 X0.8497 Y0.8006 I0.0209 J0.0007
N11120 X0.9175 Y0.8553 I0.0103 J0.0566
N11125 G1 Y0.8665
N11130 X0.9179 Y0.8777
N11135 X0.9183 Y0.8839
N11140 Y0.8899
N11145 X0.9173 Y0.8958
N11150 X0.9153 Y0.9015
N11155 X0.9126 Y0.9068
N11160 X0.9051 Y0.9151
N11165 X0.8958 Y0.9212
N11170 X0.8853 Y0.9248
N11175 X0.8743 Y0.9256
N11180 X0.8633 Y0.9237
N11185 X0.8532 Y0.919
N11190 X0.8446 Y0.912
N11195 X0.838 Y0.9031
N11200 X0.8339 Y0.8928
N11205 X0.8325 Y0.8817
N11210 Y0.8513
N11215 G3 X0.8495 Y0.8316 I0.0207 J0.0007
N11220 X0.9183 Y0.8839 I0.0104 J0.0577
N11225 G1 X0.9192 Y0.9002
N11230 X0.9209 Y0.9092
N11235 X0.9217 Y0.9151
N11240 X0.9219 Y0.9211
N11245 X0.9212 Y0.9271
N11250 X0.9195 Y0.9328
N11255 X0.9171 Y0.9383
N11260 X0.9098 Y0.9476
N11265 X0.9003 Y0.9547
N11270 X0.8894 Y0.9591
N11275 X0.8777 Y0.9606
N11280 X0.8659 Y0.959
N11285 X0.8551 Y0.9544
N11290 X0.8457 Y0.9472
N11295 X0.8385 Y0.9378
N11300 X0.834 Y0.9268
N11305 X0.8325 Y0.9151
N11310 Y0.8817
N11315 G3 X0.8488 Y0.8625 I0.0204 J0.0007
N11320 X0.9209 Y0.9092 I0.0122 J0.0601
N11325 G1 X0.9213 Y0.9114
N11330 X0.9242 Y0.9255
N11335 X0.9264 Y0.9339
N11340 X0.9276 Y0.9373
N11345 X0.9294 Y0.943
N11350 X0.9304 Y0.949
N11355 X0.9359 Y0.9716
N11360 X0.9584 Y1.0126
N11365 X0.9923 Y1.0447
N11370 X1.0318 Y1.0695
N11375 X1.0745 Y1.0885
N11380 X1.1189 Y1.1029
N11385 X1.1643 Y1.1138
N11390 X1.2102 Y1.1221
N11395 X1.2565 Y1.1283
N11400 X1.2798 Y1.1307
N11405 X1.2914 Y1.1317
N11410 X1.3379 Y1.1355
N11415 X1.3845 Y1.1384
N11420 X1.4312 Y1.1406
N11425 X1.4428 Y1.141
N11430 X1.4544 Y1.1399
N11435 X1.4658 Y1.1372
N11440 X1.4767 Y1.133
N11445 X1.5177 Y1.1107
N11450 X1.5283 Y1.1009
N11455 X1.5404 Y1.093
N11460 X1.5536 Y1.0872
N11465 X1.5676 Y1.0837
N11470 X1.582 Y1.0825
N11475 X1.6216
N11480 G3 X1.6291 Y1.1564 I-0.0013 J0.0375
N11485 G1 X0.8787 Y1.3364
N11490 G3 X0.8325 Y1.3012 I-0.0087 J-0.0365
N11495 G1 Y0.9151
N11500 G3 X0.8491 Y0.8954 I0.0208 J0.0007
N11505 X0.9276 Y0.9373 I0.0141 J0.0681
N11510 G1 X0.9355 Y0.9587
N11515 X0.94 Y0.9676
N11520 X0.9526 Y0.9901
N11525 X0.958 Y0.9975
N11530 X0.9608 Y1.0013
N11535 X0.9692 Y1.0118
N11540 X0.9699 Y1.0125
N11545 X0.9804 Y1.0235
N11550 X0.9933 Y1.035
N11555 X1.0029 Y1.0424
N11560 X1.0142 Y1.0504
N11565 X1.0198 Y1.0537
N11570 X1.0254 Y1.057
N11575 X1.0518 Y1.0687
N11580 X1.0592 Y1.0714
N11585 X1.0817 Y1.0775
N11590 X1.0929 Y1.08
N11595 X1.1042 Y1.0812
N11600 X1.1154 Y1.0822
N11605 X1.1379 Y1.0824
N11610 X1.1492 Y1.0825
N11615 X1.582
N11620 X1.585 Y1.083 Z-0.3581
N11625 X1.5878 Y1.0836 Z-0.3572
N11630 X1.5904 Y1.084 Z-0.3557
N11635 X1.5926 Y1.0844 Z-0.3537
N11640 X1.5942 Y1.085 Z-0.3515
N11645 X1.5953 Y1.0855 Z-0.349
N11650 X1.596 Y1.0858 Z-0.3464
N11655 X1.5962 Y1.0859 Z-0.3437
N11660 G0 Z0.2
N11665 X2.0515 Y0.1288
N11670 Z-0.373
N11675 G1 Z-0.4105 F15.
N11680 X2.0512 Y0.1289 Z-0.4151
N11685 X2.0504 Y0.1291 Z-0.4195
N11690 X2.0491 Y0.1294 Z-0.4238
N11695 X2.0473 Y0.1299 Z-0.428
N11700 X2.045 Y0.1305 Z-0.4318
N11705 X2.0423 Y0.1312 Z-0.4354
N11710 X2.0392 Y0.132 Z-0.4386
N11715 X2.0358 Y0.1329 Z-0.4414
N11720 X2.032 Y0.1338 Z-0.4437
N11725 X2.028 Y0.1348 Z-0.4456
N11730 X2.0238 Y0.1359 Z-0.4469
N11735 X2.0195 Y0.137 Z-0.4478
N11740 X2.0151 Y0.1381 Z-0.448
N11745 G3 X1.811 Y0.1675 I-0.2376 J-0.9274
N11750 G1 X1.7679
N11755 X1.7619 Y0.1672
N11760 X1.7179 Y0.1514
N11765 X1.6728 Y0.1394
N11770 X1.627 Y0.1304
N11775 X1.5808 Y0.1235
N11780 X1.5344 Y0.1184
N11785 X1.4879 Y0.1145
N11790 X1.4413 Y0.1116
N11795 X1.3946 Y0.1094
N11800 X1.348 Y0.1078
N11805 X1.3013 Y0.1065
N11810 X1.2546 Y0.1056
N11815 X1.2079 Y0.1049
N11820 X1.1612 Y0.1044
N11825 X1.1146 Y0.104
N11830 X1.0679 Y0.1037
N11835 X1.0212 Y0.1035
N11840 X0.9745 Y0.1034
N11845 X0.9115 Y0.1032
N11850 X0.8961 Y0.1017
N11855 X0.8813 Y0.0971
N11860 X0.8676 Y0.0898
N11865 X0.8556 Y0.08
N11870 X0.8458 Y0.068
N11875 X0.8385 Y0.0543
N11880 X0.834 Y0.0395
N11885 X0.8325 Y0.024
N11890 G3 X0.8743 Y-0.0119 I0.0375 J0.0013
N11895 G1 X1.7709 Y0.0928
N11900 G3 X1.7679 Y0.1675 I-0.0043 J0.0372
N11905 G1 X1.1492
N11910 X1.1267 Y0.1677
N11915 X1.1154 Y0.1678
N11920 X1.1042 Y0.1688
N11925 X1.0928 Y0.1701
N11930 X1.0817 Y0.1725
N11935 X1.0592 Y0.1786
N11940 X1.0518 Y0.1813
N11945 X1.0479 Y0.183
N11950 X1.016 Y0.1953
N11955 X0.9964 Y0.2012
N11960 X0.9769 Y0.2053
N11965 X0.9584 Y0.2076
N11970 X0.9401 Y0.2085
N11975 X0.9229 Y0.2079
N11980 X0.9056 Y0.206
N11985 X0.8978 Y0.2044
N11990 X0.8844 Y0.2006
N11995 X0.8719 Y0.1945
N12000 X0.8606 Y0.1864
N12005 X0.8509 Y0.1765
N12010 X0.843 Y0.165
N12015 X0.8372 Y0.1524
N12020 X0.8337 Y0.139
N12025 X0.8325 Y0.1251
N12030 G3 X0.8752 Y0.0893 I0.0375 J0.0013
N12035 G1 X1.0368 Y0.1122
N12040 G3 X1.0479 Y0.183 I-0.0053 J0.0371
N12045 G1 X1.0254 Y0.193
N12050 X1.0198 Y0.1963
N12055 X1.0142 Y0.1996
N12060 X1.0029 Y0.2076
N12065 X0.9933 Y0.215
N12070 X0.9804 Y0.2265
N12075 X0.9699 Y0.2375
N12080 X0.9656 Y0.2417
N12085 X0.9591 Y0.2468
N12090 X0.9521 Y0.2513
N12095 X0.9448 Y0.2553
N12100 X0.9364 Y0.259
N12105 X0.9282 Y0.2619
N12110 X0.9189 Y0.2644
N12115 X0.9095 Y0.2661
N12120 X0.8949 Y0.266
N12125 X0.8806 Y0.2628
N12130 X0.8673 Y0.2568
N12135 X0.8555 Y0.2482
N12140 X0.8458 Y0.2373
N12145 X0.8385 Y0.2246
N12150 X0.834 Y0.2107
N12155 X0.8325 Y0.1962
N12160 Y0.1251
N12165 G3 X0.8989 Y0.1026 I0.0375 J0.0013
N12170 G1 X0.9703 Y0.1894
N12175 G3 X0.9699 Y0.2375 I-0.029 J0.0238
N12180 G1 X0.9692 Y0.2382
N12185 X0.9608 Y0.2487
N12190 X0.958 Y0.2525
N12195 X0.9526 Y0.2599
N12200 X0.9428 Y0.2773
N12205 X0.9396 Y0.2824
N12210 X0.9359 Y0.2871
N12215 X0.9317 Y0.2914
N12220 X0.9271 Y0.2952
N12225 X0.922 Y0.2988
N12230 X0.9167 Y0.3019
N12235 X0.9043 Y0.3063
N12240 X0.8912 Y0.3078
N12245 X0.8781 Y0.3063
N12250 X0.8657 Y0.302
N12255 X0.8546 Y0.295
N12260 X0.8453 Y0.2857
N12265 X0.8383 Y0.2746
N12270 X0.834 Y0.2622
N12275 X0.8325 Y0.2491
N12280 Y0.1962
N12285 G3 X0.8645 Y0.1621 I0.0355 J0.0012
N12290 X0.9428 Y0.2773 I0.0079 J0.0789
N12295 G1 X0.94 Y0.2824
N12300 X0.9355 Y0.2913
N12305 X0.9282 Y0.311
N12310 X0.9259 Y0.3166
N12315 X0.9228 Y0.3217
N12320 X0.9191 Y0.3264
N12325 X0.9098 Y0.3339
N12330 X0.8989 Y0.3389
N12335 X0.8873 Y0.3413
N12340 X0.8753 Y0.3408
N12345 X0.8639 Y0.3376
N12350 X0.8534 Y0.3318
N12355 X0.8447 Y0.3237
N12360 X0.838 Y0.3138
N12365 X0.8339 Y0.3027
N12370 X0.8325 Y0.2908
N12375 Y0.2491
N12380 G3 X0.8585 Y0.222 I0.0281 J0.001
N12385 X0.9282 Y0.311 I0.0051 J0.0678
N12390 G1 X0.9264 Y0.3161
N12395 X0.9242 Y0.3245
N12400 X0.9213 Y0.3386
N12405 X0.9199 Y0.3444
N12410 X0.9177 Y0.35
N12415 X0.9147 Y0.3551
N12420 X0.9066 Y0.3632
N12425 X0.8969 Y0.369
N12430 X0.886 Y0.3722
N12435 X0.8746 Y0.3727
N12440 X0.8635 Y0.3703
N12445 X0.8533 Y0.3653
N12450 X0.8446 Y0.358
N12455 X0.838 Y0.3488
N12460 X0.8339 Y0.3382
N12465 X0.8325 Y0.3269
N12470 Y0.2908
N12475 G3 X0.8538 Y0.268 I0.0238 J0.0008
N12480 X0.9213 Y0.3386 I0.0065 J0.0614
N12485 G1 X0.9192 Y0.3498
N12490 X0.9182 Y0.3672
N12495 X0.9176 Y0.3732
N12500 X0.9157 Y0.3789
N12505 X0.913 Y0.3842
N12510 X0.9056 Y0.3926
N12515 X0.8963 Y0.3988
N12520 X0.8857 Y0.4025
N12525 X0.8746 Y0.4034
N12530 X0.8636 Y0.4014
N12535 X0.8534 Y0.3968
N12540 X0.8447 Y0.3898
N12545 X0.8381 Y0.3808
N12550 X0.8339 Y0.3704
N12555 X0.8325 Y0.3593
N12560 Y0.3269
N12565 G3 X0.8519 Y0.3061 I0.0216 J0.0008
N12570 X0.9182 Y0.3672 I0.0063 J0.0597
N12575 G1 X0.9179 Y0.3723
N12580 X0.9175 Y0.3835
N12585 Y0.3947
N12590 X0.9172 Y0.4007
N12595 X0.9158 Y0.4066
N12600 X0.9136 Y0.4121
N12605 X0.9105 Y0.4173
N12610 X0.9029 Y0.4249
N12615 X0.8937 Y0.4305
N12620 X0.8833 Y0.4336
N12625 X0.8725 Y0.434
N12630 X0.862 Y0.4318
N12635 X0.8523 Y0.4271
N12640 X0.844 Y0.4201
N12645 X0.8378 Y0.4113
N12650 X0.8338 Y0.4013
N12655 X0.8325 Y0.3906
N12660 Y0.3593
N12665 G3 X0.8501 Y0.3393 I0.0209 J0.0007
N12670 X0.9175 Y0.3947 I0.0093 J0.0574
N12675 G1 Y0.4261
N12680 X0.9172 Y0.4321
N12685 X0.9157 Y0.438
N12690 X0.9133 Y0.4435
N12695 X0.9102 Y0.4486
N12700 X0.9026 Y0.4561
N12705 X0.8933 Y0.4615
N12710 X0.883 Y0.4645
N12715 X0.8722 Y0.4649
N12720 X0.8617 Y0.4626
N12725 X0.8521 Y0.4578
N12730 X0.8439 Y0.4509
N12735 X0.8377 Y0.4421
N12740 X0.8338 Y0.4321
N12745 X0.8325 Y0.4214
N12750 Y0.3906
N12755 G3 X0.8502 Y0.3706 I0.0209 J0.0007
N12760 X0.9175 Y0.4261 I0.0091 J0.0576
N12765 G1 Y0.4567
N12770 X0.9172 Y0.4626
N12775 X0.9158 Y0.4685
N12780 X0.9134 Y0.474
N12785 X0.9104 Y0.4792
N12790 X0.9028 Y0.4868
N12795 X0.8935 Y0.4922
N12800 X0.8831 Y0.4953
N12805 X0.8724 Y0.4957
N12810 X0.8619 Y0.4934
N12815 X0.8522 Y0.4887
N12820 X0.844 Y0.4817
N12825 X0.8377 Y0.473
N12830 X0.8338 Y0.4629
N12835 X0.8325 Y0.4522
N12840 Y0.4214
N12845 G3 X0.85 Y0.4015 I0.0209 J0.0007
N12850 X0.9175 Y0.4567 I0.0096 J0.0572
N12855 G1 Y0.4865
N12860 X0.9172 Y0.4924
N12865 X0.9159 Y0.4983
N12870 X0.9137 Y0.5039
N12875 X0.9108 Y0.5091
N12880 X0.9033 Y0.5169
N12885 X0.894 Y0.5226
N12890 X0.8837 Y0.5258
N12895 X0.8728 Y0.5263
N12900 X0.8622 Y0.5242
N12905 X0.8525 Y0.5195
N12910 X0.8441 Y0.5126
N12915 X0.8378 Y0.5038
N12920 X0.8338 Y0.4937
N12925 X0.8325 Y0.4829
N12930 Y0.4522
N12935 G3 X0.8494 Y0.4324 I0.021 J0.0007
N12940 X0.9175 Y0.4865 I0.011 J0.0561
N12945 G1 Y0.5183
N12950 X0.9172 Y0.5243
N12955 X0.9157 Y0.5301
N12960 X0.9134 Y0.5356
N12965 X0.9103 Y0.5408
N12970 X0.9026 Y0.5483
N12975 X0.8934 Y0.5538
N12980 X0.8831 Y0.5568
N12985 X0.8723 Y0.5572
N12990 X0.8618 Y0.5549
N12995 X0.8521 Y0.5502
N13000 X0.844 Y0.5432
N13005 X0.8377 Y0.5344
N13010 X0.8338 Y0.5244
N13015 X0.8325 Y0.5137
N13020 Y0.4829
N13025 G3 X0.8501 Y0.463 I0.0209 J0.0007
N13030 X0.9175 Y0.5183 I0.0094 J0.0573
N13035 G1 Y0.5485
N13040 X0.9172 Y0.5545
N13045 X0.9159 Y0.5603
N13050 X0.9136 Y0.5658
N13055 X0.9106 Y0.5711
N13060 X0.903 Y0.5787
N13065 X0.8937 Y0.5843
N13070 X0.8834 Y0.5874
N13075 X0.8726 Y0.5879
N13080 X0.862 Y0.5857
N13085 X0.8523 Y0.581
N13090 X0.8441 Y0.574
N13095 X0.8378 Y0.5652
N13100 X0.8338 Y0.5552
N13105 X0.8325 Y0.5445
N13110 Y0.5137
N13115 G3 X0.8497 Y0.4938 I0.0209 J0.0007
N13120 X0.9175 Y0.5485 I0.0103 J0.0566
N13125 G1 Y0.5778
N13130 X0.9172 Y0.5838
N13135 X0.9161 Y0.5897
N13140 X0.914 Y0.5954
N13145 X0.9111 Y0.6006
N13150 X0.9037 Y0.6086
N13155 X0.8945 Y0.6144
N13160 X0.8841 Y0.6178
N13165 X0.8732 Y0.6184
N13170 X0.8625 Y0.6164
N13175 X0.8527 Y0.6118
N13180 X0.8443 Y0.6048
N13185 X0.8379 Y0.596
N13190 X0.8339 Y0.5859
N13195 X0.8325 Y0.575
N13200 Y0.5445
N13205 G3 X0.8489 Y0.5247 I0.021 J0.0007
N13210 X0.9175 Y0.5778 I0.0122 J0.0551
N13215 G1 Y0.61
N13220 X0.9172 Y0.616
N13225 X0.9158 Y0.6218
N13230 X0.9135 Y0.6274
N13235 X0.9105 Y0.6326
N13240 X0.9028 Y0.6402
N13245 X0.8936 Y0.6457
N13250 X0.8832 Y0.6488
N13255 X0.8725 Y0.6492
N13260 X0.8619 Y0.647
N13265 X0.8522 Y0.6423
N13270 X0.844 Y0.6353
N13275 X0.8378 Y0.6265
N13280 X0.8338 Y0.6165
N13285 X0.8325 Y0.6058
N13290 Y0.575
N13295 G3 X0.8498 Y0.5551 I0.0209 J0.0007
N13300 X0.9175 Y0.61 I0.0099 J0.0569
N13305 G1 Y0.6396
N13310 X0.9172 Y0.6456
N13315 X0.916 Y0.6514
N13320 X0.9139 Y0.657
N13325 X0.911 Y0.6623
N13330 X0.9035 Y0.6702
N13335 X0.8942 Y0.6759
N13340 X0.8839 Y0.6792
N13345 X0.873 Y0.6798
N13350 X0.8624 Y0.6777
N13355 X0.8526 Y0.6731
N13360 X0.8442 Y0.6661
N13365 X0.8378 Y0.6573
N13370 X0.8339 Y0.6472
N13375 X0.8325 Y0.6364
N13380 Y0.6058
N13385 G3 X0.8492 Y0.586 I0.021 J0.0007
N13390 X0.9175 Y0.6396 I0.0116 J0.0556
N13395 G1 Y0.6705
N13400 X0.9172 Y0.6765
N13405 X0.916 Y0.6824
N13410 X0.9138 Y0.6879
N13415 X0.9108 Y0.6932
N13420 X0.9033 Y0.701
N13425 X0.894 Y0.7066
N13430 X0.8837 Y0.7099
N13435 X0.8729 Y0.7104
N13440 X0.8622 Y0.7083
N13445 X0.8525 Y0.7036
N13450 X0.8442 Y0.6966
N13455 X0.8378 Y0.6878
N13460 X0.8338 Y0.6777
N13465 X0.8325 Y0.667
N13470 Y0.6364
N13475 G3 X0.8493 Y0.6166 I0.021 J0.0007
N13480 X0.9175 Y0.6705 I0.0112 J0.0559
N13485 G1 Y0.7014
N13490 X0.9172 Y0.7074
N13495 X0.9159 Y0.7133
N13500 X0.9137 Y0.7188
N13505 X0.9107 Y0.724
N13510 X0.9031 Y0.7318
N13515 X0.8939 Y0.7374
N13520 X0.8835 Y0.7406
N13525 X0.8727 Y0.7411
N13530 X0.8621 Y0.7389
N13535 X0.8524 Y0.7342
N13540 X0.8441 Y0.7272
N13545 X0.8378 Y0.7184
N13550 X0.8338 Y0.7084
N13555 X0.8325 Y0.6976
N13560 Y0.667
N13565 G3 X0.8495 Y0.6471 I0.0209 J0.0007
N13570 X0.9175 Y0.7014 I0.0107 J0.0563
N13575 G1 Y0.7317
N13580 X0.9172 Y0.7377
N13585 X0.916 Y0.7436
N13590 X0.9138 Y0.7492
N13595 X0.9109 Y0.7544
N13600 X0.9033 Y0.7622
N13605 X0.8941 Y0.7679
N13610 X0.8837 Y0.7711
N13615 X0.8729 Y0.7717
N13620 X0.8623 Y0.7696
N13625 X0.8525 Y0.7649
N13630 X0.8442 Y0.7579
N13635 X0.8378 Y0.7491
N13640 X0.8339 Y0.739
N13645 X0.8325 Y0.7283
N13650 Y0.6976
N13655 G3 X0.8493 Y0.6778 I0.021 J0.0007
N13660 X0.9175 Y0.7317 I0.0112 J0.0559
N13665 G1 Y0.7631
N13670 X0.9172 Y0.7691
N13675 X0.9158 Y0.775
N13680 X0.9135 Y0.7805
N13685 X0.9105 Y0.7857
N13690 X0.9029 Y0.7933
N13695 X0.8936 Y0.7989
N13700 X0.8833 Y0.802
N13705 X0.8725 Y0.8024
N13710 X0.862 Y0.8002
N13715 X0.8523 Y0.7955
N13720 X0.844 Y0.7885
N13725 X0.8378 Y0.7797
N13730 X0.8338 Y0.7697
N13735 X0.8325 Y0.759
N13740 Y0.7283
N13745 G3 X0.8498 Y0.7084 I0.0209 J0.0007
N13750 X0.9175 Y0.7631 I0.0101 J0.0568
N13755 G1 Y0.7941
N13760 X0.9172 Y0.8001
N13765 X0.9158 Y0.8059
N13770 X0.9135 Y0.8114
N13775 X0.9104 Y0.8166
N13780 X0.9028 Y0.8242
N13785 X0.8935 Y0.8297
N13790 X0.8832 Y0.8328
N13795 X0.8724 Y0.8332
N13800 X0.8619 Y0.831
N13805 X0.8522 Y0.8262
N13810 X0.844 Y0.8192
N13815 X0.8377 Y0.8105
N13820 X0.8338 Y0.8004
N13825 X0.8325 Y0.7897
N13830 Y0.759
N13835 G3 X0.8499 Y0.7391 I0.0209 J0.0007
N13840 X0.9175 Y0.7941 I0.0098 J0.057
N13845 G1 Y0.825
N13850 X0.9172 Y0.831
N13855 X0.9158 Y0.8368
N13860 X0.9134 Y0.8423
N13865 X0.9104 Y0.8475
N13870 X0.9027 Y0.8551
N13875 X0.8935 Y0.8605
N13880 X0.8831 Y0.8636
N13885 X0.8724 Y0.864
N13890 X0.8618 Y0.8617
N13895 X0.8522 Y0.857
N13900 X0.844 Y0.85
N13905 X0.8377 Y0.8412
N13910 X0.8338 Y0.8312
N13915 X0.8325 Y0.8205
N13920 Y0.7897
N13925 G3 X0.85 Y0.7698 I0.0209 J0.0007
N13930 X0.9175 Y0.825 I0.0096 J0.0572
N13935 G1 Y0.8553
N13940 X0.9172 Y0.8613
N13945 X0.9159 Y0.8671
N13950 X0.9136 Y0.8727
N13955 X0.9106 Y0.8779
N13960 X0.903 Y0.8855
N13965 X0.8937 Y0.8911
N13970 X0.8834 Y0.8942
N13975 X0.8726 Y0.8947
N13980 X0.862 Y0.8925
N13985 X0.8523 Y0.8878
N13990 X0.8441 Y0.8808
N13995 X0.8378 Y0.872
N14000 X0.8338 Y0.862
N14005 X0.8325 Y0.8513
N14010 Y0.8205
N14015 G3 X0.8497 Y0.8006 I0.0209 J0.0007
N14020 X0.9175 Y0.8553 I0.0103 J0.0566
N14025 G1 Y0.8665
N14030 X0.9179 Y0.8777
N14035 X0.9183 Y0.8839
N14040 Y0.8899
N14045 X0.9173 Y0.8958
N14050 X0.9153 Y0.9015
N14055 X0.9126 Y0.9068
N14060 X0.9051 Y0.9151
N14065 X0.8958 Y0.9212
N14070 X0.8853 Y0.9248
N14075 X0.8743 Y0.9256
N14080 X0.8633 Y0.9237
N14085 X0.8532 Y0.919
N14090 X0.8446 Y0.912
N14095 X0.838 Y0.9031
N14100 X0.8339 Y0.8928
N14105 X0.8325 Y0.8817
N14110 Y0.8513
N14115 G3 X0.8495 Y0.8316 I0.0207 J0.0007
N14120 X0.9183 Y0.8839 I0.0104 J0.0577
N14125 G1 X0.9192 Y0.9002
N14130 X0.9209 Y0.9092
N14135 X0.9217 Y0.9151
N14140 X0.9219 Y0.9211
N14145 X0.9212 Y0.9271
N14150 X0.9195 Y0.9328
N14155 X0.9171 Y0.9383
N14160 X0.9098 Y0.9476
N14165 X0.9003 Y0.9547
N14170 X0.8894 Y0.9591
N14175 X0.8777 Y0.9606
N14180 X0.8659 Y0.959
N14185 X0.8551 Y0.9544
N14190 X0.8457 Y0.9472
N14195 X0.8385 Y0.9378
N14200 X0.834 Y0.9268
N14205 X0.8325 Y0.9151
N14210 Y0.8817
N14215 G3 X0.8488 Y0.8625 I0.0204 J0.0007
N14220 X0.9209 Y0.9092 I0.0122 J0.0601
N14225 G1 X0.9213 Y0.9114
N14230 X0.9242 Y0.9255
N14235 X0.9264 Y0.9339
N14240 X0.9276 Y0.9373
N14245 X0.9294 Y0.943
N14250 X0.9304 Y0.949
N14255 X0.9359 Y0.9716
N14260 X0.9584 Y1.0126
N14265 X0.9923 Y1.0447
N14270 X1.0318 Y1.0695
N14275 X1.0745 Y1.0885
N14280 X1.1189 Y1.1029
N14285 X1.1643 Y1.1138
N14290 X1.2102 Y1.1221
N14295 X1.2565 Y1.1283
N14300 X1.2798 Y1.1307
N14305 X1.2914 Y1.1317
N14310 X1.3379 Y1.1355
N14315 X1.3845 Y1.1384
N14320 X1.4312 Y1.1406
N14325 X1.4428 Y1.141
N14330 X1.4544 Y1.1399
N14335 X1.4658 Y1.1372
N14340 X1.4767 Y1.133
N14345 X1.5177 Y1.1107
N14350 X1.5283 Y1.1009
N14355 X1.5404 Y1.093
N14360 X1.5536 Y1.0872
N14365 X1.5676 Y1.0837
N14370 X1.582 Y1.0825
N14375 X1.6216
N14380 G3 X1.6291 Y1.1564 I-0.0013 J0.0375
N14385 G1 X0.8787 Y1.3364
N14390 G3 X0.8325 Y1.3012 I-0.0087 J-0.0365
N14395 G1 Y0.9151
N14400 G3 X0.8491 Y0.8954 I0.0208 J0.0007
N14405 X0.9276 Y0.9373 I0.0141 J0.0681
N14410 G1 X0.9355 Y0.9587
N14415 X0.94 Y0.9676
N14420 X0.9526 Y0.9901
N14425 X0.958 Y0.9975
N14430 X0.9608 Y1.0013
N14435 X0.9692 Y1.0118
N14440 X0.9699 Y1.0125
N14445 X0.9804 Y1.0235
N14450 X0.9933 Y1.035
N14455 X1.0029 Y1.0424
N14460 X1.0142 Y1.0504
N14465 X1.0198 Y1.0537
N14470 X1.0254 Y1.057
N14475 X1.0518 Y1.0687
N14480 X1.0592 Y1.0714
N14485 X1.0817 Y1.0775
N14490 X1.0929 Y1.08
N14495 X1.1042 Y1.0812
N14500 X1.1154 Y1.0822
N14505 X1.1379 Y1.0824
N14510 X1.1492 Y1.0825
N14515 X1.582
N14520 X1.585 Y1.083 Z-0.4477
N14525 X1.5878 Y1.0836 Z-0.4468
N14530 X1.5904 Y1.084 Z-0.4453
N14535 X1.5926 Y1.0844 Z-0.4433
N14540 X1.5942 Y1.085 Z-0.4411
N14545 X1.5953 Y1.0855 Z-0.4387
N14550 X1.596 Y1.0858 Z-0.436
N14555 X1.5962 Y1.0859 Z-0.4333
N14560 G0 Z0.2
N14565 X2.0515 Y0.1288
N14570 Z-0.4626
N14575 G1 Z-0.5001 F15.
N14580 X2.0512 Y0.1289 Z-0.5047
N14585 X2.0504 Y0.1291 Z-0.5091
N14590 X2.0491 Y0.1294 Z-0.5134
N14595 X2.0473 Y0.1299 Z-0.5176
N14600 X2.045 Y0.1305 Z-0.5214
N14605 X2.0423 Y0.1312 Z-0.525
N14610 X2.0392 Y0.132 Z-0.5282
N14615 X2.0358 Y0.1329 Z-0.531
N14620 X2.032 Y0.1338 Z-0.5333
N14625 X2.028 Y0.1348 Z-0.5352
N14630 X2.0238 Y0.1359 Z-0.5365
N14635 X2.0195 Y0.137 Z-0.5374
N14640 X2.0151 Y0.1381 Z-0.5376
N14645 G3 X1.811 Y0.1675 I-0.2376 J-0.9274
N14650 G1 X1.7679
N14655 X1.7619 Y0.1672
N14660 X1.7179 Y0.1514
N14665 X1.6728 Y0.1394
N14670 X1.627 Y0.1304
N14675 X1.5808 Y0.1235
N14680 X1.5344 Y0.1184
N14685 X1.4879 Y0.1145
N14690 X1.4413 Y0.1116
N14695 X1.3946 Y0.1094
N14700 X1.348 Y0.1078
N14705 X1.3013 Y0.1065
N14710 X1.2546 Y0.1056
N14715 X1.2079 Y0.1049
N14720 X1.1612 Y0.1044
N14725 X1.1146 Y0.104
N14730 X1.0679 Y0.1037
N14735 X1.0212 Y0.1035
N14740 X0.9745 Y0.1034
N14745 X0.9115 Y0.1032
N14750 X0.8961 Y0.1017
N14755 X0.8813 Y0.0971
N14760 X0.8676 Y0.0898
N14765 X0.8556 Y0.08
N14770 X0.8458 Y0.068
N14775 X0.8385 Y0.0543
N14780 X0.834 Y0.0395
N14785 X0.8325 Y0.024
N14790 G3 X0.8743 Y-0.0119 I0.0375 J0.0013
N14795 G1 X1.7709 Y0.0928
N14800 G3 X1.7679 Y0.1675 I-0.0043 J0.0372
N14805 G1 X1.1492
N14810 X1.1267 Y0.1677
N14815 X1.1154 Y0.1678
N14820 X1.1042 Y0.1688
N14825 X1.0928 Y0.1701
N14830 X1.0817 Y0.1725
N14835 X1.0592 Y0.1786
N14840 X1.0518 Y0.1813
N14845 X1.0479 Y0.183
N14850 X1.016 Y0.1953
N14855 X0.9964 Y0.2012
N14860 X0.9769 Y0.2053
N14865 X0.9584 Y0.2076
N14870 X0.9401 Y0.2085
N14875 X0.9229 Y0.2079
N14880 X0.9056 Y0.206
N14885 X0.8978 Y0.2044
N14890 X0.8844 Y0.2006
N14895 X0.8719 Y0.1945
N14900 X0.8606 Y0.1864
N14905 X0.8509 Y0.1765
N14910 X0.843 Y0.165
N14915 X0.8372 Y0.1524
N14920 X0.8337 Y0.139
N14925 X0.8325 Y0.1251
N14930 G3 X0.8752 Y0.0893 I0.0375 J0.0013
N14935 G1 X1.0368 Y0.1122
N14940 G3 X1.0479 Y0.183 I-0.0053 J0.0371
N14945 G1 X1.0254 Y0.193
N14950 X1.0198 Y0.1963
N14955 X1.0142 Y0.1996
N14960 X1.0029 Y0.2076
N14965 X0.9933 Y0.215
N14970 X0.9804 Y0.2265
N14975 X0.9699 Y0.2375
N14980 X0.9656 Y0.2417
N14985 X0.9591 Y0.2468
N14990 X0.9521 Y0.2513
N14995 X0.9448 Y0.2553
N15000 X0.9364 Y0.259
N15005 X0.9282 Y0.2619
N15010 X0.9189 Y0.2644
N15015 X0.9095 Y0.2661
N15020 X0.8949 Y0.266
N15025 X0.8806 Y0.2628
N15030 X0.8673 Y0.2568
N15035 X0.8555 Y0.2482
N15040 X0.8458 Y0.2373
N15045 X0.8385 Y0.2246
N15050 X0.834 Y0.2107
N15055 X0.8325 Y0.1962
N15060 Y0.1251
N15065 G3 X0.8989 Y0.1026 I0.0375 J0.0013
N15070 G1 X0.9703 Y0.1894
N15075 G3 X0.9699 Y0.2375 I-0.029 J0.0238
N15080 G1 X0.9692 Y0.2382
N15085 X0.9608 Y0.2487
N15090 X0.958 Y0.2525
N15095 X0.9526 Y0.2599
N15100 X0.9428 Y0.2773
N15105 X0.9396 Y0.2824
N15110 X0.9359 Y0.2871
N15115 X0.9317 Y0.2914
N15120 X0.9271 Y0.2952
N15125 X0.922 Y0.2988
N15130 X0.9167 Y0.3019
N15135 X0.9043 Y0.3063
N15140 X0.8912 Y0.3078
N15145 X0.8781 Y0.3063
N15150 X0.8657 Y0.302
N15155 X0.8546 Y0.295
N15160 X0.8453 Y0.2857
N15165 X0.8383 Y0.2746
N15170 X0.834 Y0.2622
N15175 X0.8325 Y0.2491
N15180 Y0.1962
N15185 G3 X0.8645 Y0.1621 I0.0355 J0.0012
N15190 X0.9428 Y0.2773 I0.0079 J0.0789
N15195 G1 X0.94 Y0.2824
N15200 X0.9355 Y0.2913
N15205 X0.9282 Y0.311
N15210 X0.9259 Y0.3166
N15215 X0.9228 Y0.3217
N15220 X0.9191 Y0.3264
N15225 X0.9098 Y0.3339
N15230 X0.8989 Y0.3389
N15235 X0.8873 Y0.3413
N15240 X0.8753 Y0.3408
N15245 X0.8639 Y0.3376
N15250 X0.8534 Y0.3318
N15255 X0.8447 Y0.3237
N15260 X0.838 Y0.3138
N15265 X0.8339 Y0.3027
N15270 X0.8325 Y0.2908
N15275 Y0.2491
N15280 G3 X0.8585 Y0.222 I0.0281 J0.001
N15285 X0.9282 Y0.311 I0.0051 J0.0678
N15290 G1 X0.9264 Y0.3161
N15295 X0.9242 Y0.3245
N15300 X0.9213 Y0.3386
N15305 X0.9199 Y0.3444
N15310 X0.9177 Y0.35
N15315 X0.9147 Y0.3551
N15320 X0.9066 Y0.3632
N15325 X0.8969 Y0.369
N15330 X0.886 Y0.3722
N15335 X0.8746 Y0.3727
N15340 X0.8635 Y0.3703
N15345 X0.8533 Y0.3653
N15350 X0.8446 Y0.358
N15355 X0.838 Y0.3488
N15360 X0.8339 Y0.3382
N15365 X0.8325 Y0.3269
N15370 Y0.2908
N15375 G3 X0.8538 Y0.268 I0.0238 J0.0008
N15380 X0.9213 Y0.3386 I0.0065 J0.0614
N15385 G1 X0.9192 Y0.3498
N15390 X0.9182 Y0.3672
N15395 X0.9176 Y0.3732
N15400 X0.9157 Y0.3789
N15405 X0.913 Y0.3842
N15410 X0.9056 Y0.3926
N15415 X0.8963 Y0.3988
N15420 X0.8857 Y0.4025
N15425 X0.8746 Y0.4034
N15430 X0.8636 Y0.4014
N15435 X0.8534 Y0.3968
N15440 X0.8447 Y0.3898
N15445 X0.8381 Y0.3808
N15450 X0.8339 Y0.3704
N15455 X0.8325 Y0.3593
N15460 Y0.3269
N15465 G3 X0.8519 Y0.3061 I0.0216 J0.0008
N15470 X0.9182 Y0.3672 I0.0063 J0.0597
N15475 G1 X0.9179 Y0.3723
N15480 X0.9175 Y0.3835
N15485 Y0.3947
N15490 X0.9172 Y0.4007
N15495 X0.9158 Y0.4066
N15500 X0.9136 Y0.4121
N15505 X0.9105 Y0.4173
N15510 X0.9029 Y0.4249
N15515 X0.8937 Y0.4305
N15520 X0.8833 Y0.4336
N15525 X0.8725 Y0.434
N15530 X0.862 Y0.4318
N15535 X0.8523 Y0.4271
N15540 X0.844 Y0.4201
N15545 X0.8378 Y0.4113
N15550 X0.8338 Y0.4013
N15555 X0.8325 Y0.3906
N15560 Y0.3593
N15565 G3 X0.8501 Y0.3393 I0.0209 J0.0007
N15570 X0.9175 Y0.3947 I0.0093 J0.0574
N15575 G1 Y0.4261
N15580 X0.9172 Y0.4321
N15585 X0.9157 Y0.438
N15590 X0.9133 Y0.4435
N15595 X0.9102 Y0.4486
N15600 X0.9026 Y0.4561
N15605 X0.8933 Y0.4615
N15610 X0.883 Y0.4645
N15615 X0.8722 Y0.4649
N15620 X0.8617 Y0.4626
N15625 X0.8521 Y0.4578
N15630 X0.8439 Y0.4509
N15635 X0.8377 Y0.4421
N15640 X0.8338 Y0.4321
N15645 X0.8325 Y0.4214
N15650 Y0.3906
N15655 G3 X0.8502 Y0.3706 I0.0209 J0.0007
N15660 X0.9175 Y0.4261 I0.0091 J0.0576
N15665 G1 Y0.4567
N15670 X0.9172 Y0.4626
N15675 X0.9158 Y0.4685
N15680 X0.9134 Y0.474
N15685 X0.9104 Y0.4792
N15690 X0.9028 Y0.4868
N15695 X0.8935 Y0.4922
N15700 X0.8831 Y0.4953
N15705 X0.8724 Y0.4957
N15710 X0.8619 Y0.4934
N15715 X0.8522 Y0.4887
N15720 X0.844 Y0.4817
N15725 X0.8377 Y0.473
N15730 X0.8338 Y0.4629
N15735 X0.8325 Y0.4522
N15740 Y0.4214
N15745 G3 X0.85 Y0.4015 I0.0209 J0.0007
N15750 X0.9175 Y0.4567 I0.0096 J0.0572
N15755 G1 Y0.4865
N15760 X0.9172 Y0.4924
N15765 X0.9159 Y0.4983
N15770 X0.9137 Y0.5039
N15775 X0.9108 Y0.5091
N15780 X0.9033 Y0.5169
N15785 X0.894 Y0.5226
N15790 X0.8837 Y0.5258
N15795 X0.8728 Y0.5263
N15800 X0.8622 Y0.5242
N15805 X0.8525 Y0.5195
N15810 X0.8441 Y0.5126
N15815 X0.8378 Y0.5038
N15820 X0.8338 Y0.4937
N15825 X0.8325 Y0.4829
N15830 Y0.4522
N15835 G3 X0.8494 Y0.4324 I0.021 J0.0007
N15840 X0.9175 Y0.4865 I0.011 J0.0561
N15845 G1 Y0.5183
N15850 X0.9172 Y0.5243
N15855 X0.9157 Y0.5301
N15860 X0.9134 Y0.5356
N15865 X0.9103 Y0.5408
N15870 X0.9026 Y0.5483
N15875 X0.8934 Y0.5538
N15880 X0.8831 Y0.5568
N15885 X0.8723 Y0.5572
N15890 X0.8618 Y0.5549
N15895 X0.8521 Y0.5502
N15900 X0.844 Y0.5432
N15905 X0.8377 Y0.5344
N15910 X0.8338 Y0.5244
N15915 X0.8325 Y0.5137
N15920 Y0.4829
N15925 G3 X0.8501 Y0.463 I0.0209 J0.0007
N15930 X0.9175 Y0.5183 I0.0094 J0.0573
N15935 G1 Y0.5485
N15940 X0.9172 Y0.5545
N15945 X0.9159 Y0.5603
N15950 X0.9136 Y0.5658
N15955 X0.9106 Y0.5711
N15960 X0.903 Y0.5787
N15965 X0.8937 Y0.5843
N15970 X0.8834 Y0.5874
N15975 X0.8726 Y0.5879
N15980 X0.862 Y0.5857
N15985 X0.8523 Y0.581
N15990 X0.8441 Y0.574
N15995 X0.8378 Y0.5652
N16000 X0.8338 Y0.5552
N16005 X0.8325 Y0.5445
N16010 Y0.5137
N16015 G3 X0.8497 Y0.4938 I0.0209 J0.0007
N16020 X0.9175 Y0.5485 I0.0103 J0.0566
N16025 G1 Y0.5778
N16030 X0.9172 Y0.5838
N16035 X0.9161 Y0.5897
N16040 X0.914 Y0.5954
N16045 X0.9111 Y0.6006
N16050 X0.9037 Y0.6086
N16055 X0.8945 Y0.6144
N16060 X0.8841 Y0.6178
N16065 X0.8732 Y0.6184
N16070 X0.8625 Y0.6164
N16075 X0.8527 Y0.6118
N16080 X0.8443 Y0.6048
N16085 X0.8379 Y0.596
N16090 X0.8339 Y0.5859
N16095 X0.8325 Y0.575
N16100 Y0.5445
N16105 G3 X0.8489 Y0.5247 I0.021 J0.0007
N16110 X0.9175 Y0.5778 I0.0122 J0.0551
N16115 G1 Y0.61
N16120 X0.9172 Y0.616
N16125 X0.9158 Y0.6218
N16130 X0.9135 Y0.6274
N16135 X0.9105 Y0.6326
N16140 X0.9028 Y0.6402
N16145 X0.8936 Y0.6457
N16150 X0.8832 Y0.6488
N16155 X0.8725 Y0.6492
N16160 X0.8619 Y0.647
N16165 X0.8522 Y0.6423
N16170 X0.844 Y0.6353
N16175 X0.8378 Y0.6265
N16180 X0.8338 Y0.6165
N16185 X0.8325 Y0.6058
N16190 Y0.575
N16195 G3 X0.8498 Y0.5551 I0.0209 J0.0007
N16200 X0.9175 Y0.61 I0.0099 J0.0569
N16205 G1 Y0.6396
N16210 X0.9172 Y0.6456
N16215 X0.916 Y0.6514
N16220 X0.9139 Y0.657
N16225 X0.911 Y0.6623
N16230 X0.9035 Y0.6702
N16235 X0.8942 Y0.6759
N16240 X0.8839 Y0.6792
N16245 X0.873 Y0.6798
N16250 X0.8624 Y0.6777
N16255 X0.8526 Y0.6731
N16260 X0.8442 Y0.6661
N16265 X0.8378 Y0.6573
N16270 X0.8339 Y0.6472
N16275 X0.8325 Y0.6364
N16280 Y0.6058
N16285 G3 X0.8492 Y0.586 I0.021 J0.0007
N16290 X0.9175 Y0.6396 I0.0116 J0.0556
N16295 G1 Y0.6705
N16300 X0.9172 Y0.6765
N16305 X0.916 Y0.6824
N16310 X0.9138 Y0.6879
N16315 X0.9108 Y0.6932
N16320 X0.9033 Y0.701
N16325 X0.894 Y0.7066
N16330 X0.8837 Y0.7099
N16335 X0.8729 Y0.7104
N16340 X0.8622 Y0.7083
N16345 X0.8525 Y0.7036
N16350 X0.8442 Y0.6966
N16355 X0.8378 Y0.6878
N16360 X0.8338 Y0.6777
N16365 X0.8325 Y0.667
N16370 Y0.6364
N16375 G3 X0.8493 Y0.6166 I0.021 J0.0007
N16380 X0.9175 Y0.6705 I0.0112 J0.0559
N16385 G1 Y0.7014
N16390 X0.9172 Y0.7074
N16395 X0.9159 Y0.7133
N16400 X0.9137 Y0.7188
N16405 X0.9107 Y0.724
N16410 X0.9031 Y0.7318
N16415 X0.8939 Y0.7374
N16420 X0.8835 Y0.7406
N16425 X0.8727 Y0.7411
N16430 X0.8621 Y0.7389
N16435 X0.8524 Y0.7342
N16440 X0.8441 Y0.7272
N16445 X0.8378 Y0.7184
N16450 X0.8338 Y0.7084
N16455 X0.8325 Y0.6976
N16460 Y0.667
N16465 G3 X0.8495 Y0.6471 I0.0209 J0.0007
N16470 X0.9175 Y0.7014 I0.0107 J0.0563
N16475 G1 Y0.7317
N16480 X0.9172 Y0.7377
N16485 X0.916 Y0.7436
N16490 X0.9138 Y0.7492
N16495 X0.9109 Y0.7544
N16500 X0.9033 Y0.7622
N16505 X0.8941 Y0.7679
N16510 X0.8837 Y0.7711
N16515 X0.8729 Y0.7717
N16520 X0.8623 Y0.7696
N16525 X0.8525 Y0.7649
N16530 X0.8442 Y0.7579
N16535 X0.8378 Y0.7491
N16540 X0.8339 Y0.739
N16545 X0.8325 Y0.7283
N16550 Y0.6976
N16555 G3 X0.8493 Y0.6778 I0.021 J0.0007
N16560 X0.9175 Y0.7317 I0.0112 J0.0559
N16565 G1 Y0.7631
N16570 X0.9172 Y0.7691
N16575 X0.9158 Y0.775
N16580 X0.9135 Y0.7805
N16585 X0.9105 Y0.7857
N16590 X0.9029 Y0.7933
N16595 X0.8936 Y0.7989
N16600 X0.8833 Y0.802
N16605 X0.8725 Y0.8024
N16610 X0.862 Y0.8002
N16615 X0.8523 Y0.7955
N16620 X0.844 Y0.7885
N16625 X0.8378 Y0.7797
N16630 X0.8338 Y0.7697
N16635 X0.8325 Y0.759
N16640 Y0.7283
N16645 G3 X0.8498 Y0.7084 I0.0209 J0.0007
N16650 X0.9175 Y0.7631 I0.0101 J0.0568
N16655 G1 Y0.7941
N16660 X0.9172 Y0.8001
N16665 X0.9158 Y0.8059
N16670 X0.9135 Y0.8114
N16675 X0.9104 Y0.8166
N16680 X0.9028 Y0.8242
N16685 X0.8935 Y0.8297
N16690 X0.8832 Y0.8328
N16695 X0.8724 Y0.8332
N16700 X0.8619 Y0.831
N16705 X0.8522 Y0.8262
N16710 X0.844 Y0.8192
N16715 X0.8377 Y0.8105
N16720 X0.8338 Y0.8004
N16725 X0.8325 Y0.7897
N16730 Y0.759
N16735 G3 X0.8499 Y0.7391 I0.0209 J0.0007
N16740 X0.9175 Y0.7941 I0.0098 J0.057
N16745 G1 Y0.825
N16750 X0.9172 Y0.831
N16755 X0.9158 Y0.8368
N16760 X0.9134 Y0.8423
N16765 X0.9104 Y0.8475
N16770 X0.9027 Y0.8551
N16775 X0.8935 Y0.8605
N16780 X0.8831 Y0.8636
N16785 X0.8724 Y0.864
N16790 X0.8618 Y0.8617
N16795 X0.8522 Y0.857
N16800 X0.844 Y0.85
N16805 X0.8377 Y0.8412
N16810 X0.8338 Y0.8312
N16815 X0.8325 Y0.8205
N16820 Y0.7897
N16825 G3 X0.85 Y0.7698 I0.0209 J0.0007
N16830 X0.9175 Y0.825 I0.0096 J0.0572
N16835 G1 Y0.8553
N16840 X0.9172 Y0.8613
N16845 X0.9159 Y0.8671
N16850 X0.9136 Y0.8727
N16855 X0.9106 Y0.8779
N16860 X0.903 Y0.8855
N16865 X0.8937 Y0.8911
N16870 X0.8834 Y0.8942
N16875 X0.8726 Y0.8947
N16880 X0.862 Y0.8925
N16885 X0.8523 Y0.8878
N16890 X0.8441 Y0.8808
N16895 X0.8378 Y0.872
N16900 X0.8338 Y0.862
N16905 X0.8325 Y0.8513
N16910 Y0.8205
N16915 G3 X0.8497 Y0.8006 I0.0209 J0.0007
N16920 X0.9175 Y0.8553 I0.0103 J0.0566
N16925 G1 Y0.8665
N16930 X0.9179 Y0.8777
N16935 X0.9183 Y0.8839
N16940 Y0.8899
N16945 X0.9173 Y0.8958
N16950 X0.9153 Y0.9015
N16955 X0.9126 Y0.9068
N16960 X0.9051 Y0.9151
N16965 X0.8958 Y0.9212
N16970 X0.8853 Y0.9248
N16975 X0.8743 Y0.9256
N16980 X0.8633 Y0.9237
N16985 X0.8532 Y0.919
N16990 X0.8446 Y0.912
N16995 X0.838 Y0.9031
N17000 X0.8339 Y0.8928
N17005 X0.8325 Y0.8817
N17010 Y0.8513
N17015 G3 X0.8495 Y0.8316 I0.0207 J0.0007
N17020 X0.9183 Y0.8839 I0.0104 J0.0577
N17025 G1 X0.9192 Y0.9002
N17030 X0.9209 Y0.9092
N17035 X0.9217 Y0.9151
N17040 X0.9219 Y0.9211
N17045 X0.9212 Y0.9271
N17050 X0.9195 Y0.9328
N17055 X0.9171 Y0.9383
N17060 X0.9098 Y0.9476
N17065 X0.9003 Y0.9547
N17070 X0.8894 Y0.9591
N17075 X0.8777 Y0.9606
N17080 X0.8659 Y0.959
N17085 X0.8551 Y0.9544
N17090 X0.8457 Y0.9472
N17095 X0.8385 Y0.9378
N17100 X0.834 Y0.9268
N17105 X0.8325 Y0.9151
N17110 Y0.8817
N17115 G3 X0.8488 Y0.8625 I0.0204 J0.0007
N17120 X0.9209 Y0.9092 I0.0122 J0.0601
N17125 G1 X0.9213 Y0.9114
N17130 X0.9242 Y0.9255
N17135 X0.9264 Y0.9339
N17140 X0.9276 Y0.9373
N17145 X0.9294 Y0.943
N17150 X0.9304 Y0.949
N17155 X0.9359 Y0.9716
N17160 X0.9584 Y1.0126
N17165 X0.9923 Y1.0447
N17170 X1.0318 Y1.0695
N17175 X1.0745 Y1.0885
N17180 X1.1189 Y1.1029
N17185 X1.1643 Y1.1138
N17190 X1.2102 Y1.1221
N17195 X1.2565 Y1.1283
N17200 X1.2798 Y1.1307
N17205 X1.2914 Y1.1317
N17210 X1.3379 Y1.1355
N17215 X1.3845 Y1.1384
N17220 X1.4312 Y1.1406
N17225 X1.4428 Y1.141
N17230 X1.4544 Y1.1399
N17235 X1.4658 Y1.1372
N17240 X1.4767 Y1.133
N17245 X1.5177 Y1.1107
N17250 X1.5283 Y1.1009
N17255 X1.5404 Y1.093
N17260 X1.5536 Y1.0872
N17265 X1.5676 Y1.0837
N17270 X1.582 Y1.0825
N17275 X1.6216
N17280 G3 X1.6291 Y1.1564 I-0.0013 J0.0375
N17285 G1 X0.8787 Y1.3364
N17290 G3 X0.8325 Y1.3012 I-0.0087 J-0.0365
N17295 G1 Y0.9151
N17300 G3 X0.8491 Y0.8954 I0.0208 J0.0007
N17305 X0.9276 Y0.9373 I0.0141 J0.0681
N17310 G1 X0.9355 Y0.9587
N17315 X0.94 Y0.9676
N17320 X0.9526 Y0.9901
N17325 X0.958 Y0.9975
N17330 X0.9608 Y1.0013
N17335 X0.9692 Y1.0118
N17340 X0.9699 Y1.0125
N17345 X0.9804 Y1.0235
N17350 X0.9933 Y1.035
N17355 X1.0029 Y1.0424
N17360 X1.0142 Y1.0504
N17365 X1.0198 Y1.0537
N17370 X1.0254 Y1.057
N17375 X1.0518 Y1.0687
N17380 X1.0592 Y1.0714
N17385 X1.0817 Y1.0775
N17390 X1.0929 Y1.08
N17395 X1.1042 Y1.0812
N17400 X1.1154 Y1.0822
N17405 X1.1379 Y1.0824
N17410 X1.1492 Y1.0825
N17415 X1.582
N17420 X1.585 Y1.083 Z-0.5373
N17425 X1.5878 Y1.0836 Z-0.5364
N17430 X1.5904 Y1.084 Z-0.5349
N17435 X1.5926 Y1.0844 Z-0.5329
N17440 X1.5942 Y1.085 Z-0.5307
N17445 X1.5953 Y1.0855 Z-0.5283
N17450 X1.596 Y1.0858 Z-0.5256
N17455 X1.5962 Y1.0859 Z-0.5229
N17460 G0 Z0.2
N17465 X2.0515 Y0.1288
N17470 Z-0.5522
N17475 G1 Z-0.5897 F15.
N17480 X2.0512 Y0.1289 Z-0.5943
N17485 X2.0504 Y0.1291 Z-0.5987
N17490 X2.0491 Y0.1294 Z-0.603
N17495 X2.0473 Y0.1299 Z-0.6072
N17500 X2.045 Y0.1305 Z-0.611
N17505 X2.0423 Y0.1312 Z-0.6146
N17510 X2.0392 Y0.132 Z-0.6178
N17515 X2.0358 Y0.1329 Z-0.6206
N17520 X2.032 Y0.1338 Z-0.6229
N17525 X2.028 Y0.1348 Z-0.6248
N17530 X2.0238 Y0.1359 Z-0.6262
N17535 X2.0195 Y0.137 Z-0.627
N17540 X2.0151 Y0.1381 Z-0.6272
N17545 G3 X1.811 Y0.1675 I-0.2376 J-0.9274
N17550 G1 X1.7679
N17555 X1.7619 Y0.1672
N17560 X1.7179 Y0.1514
N17565 X1.6728 Y0.1394
N17570 X1.627 Y0.1304
N17575 X1.5808 Y0.1235
N17580 X1.5344 Y0.1184
N17585 X1.4879 Y0.1145
N17590 X1.4413 Y0.1116
N17595 X1.3946 Y0.1094
N17600 X1.348 Y0.1078
N17605 X1.3013 Y0.1065
N17610 X1.2546 Y0.1056
N17615 X1.2079 Y0.1049
N17620 X1.1612 Y0.1044
N17625 X1.1146 Y0.104
N17630 X1.0679 Y0.1037
N17635 X1.0212 Y0.1035
N17640 X0.9745 Y0.1034
N17645 X0.9115 Y0.1032
N17650 X0.8961 Y0.1017
N17655 X0.8813 Y0.0971
N17660 X0.8676 Y0.0898
N17665 X0.8556 Y0.08
N17670 X0.8458 Y0.068
N17675 X0.8385 Y0.0543
N17680 X0.834 Y0.0395
N17685 X0.8325 Y0.024
N17690 G3 X0.8743 Y-0.0119 I0.0375 J0.0013
N17695 G1 X1.7709 Y0.0928
N17700 G3 X1.7679 Y0.1675 I-0.0043 J0.0372
N17705 G1 X1.1492
N17710 X1.1267 Y0.1677
N17715 X1.1154 Y0.1678
N17720 X1.1042 Y0.1688
N17725 X1.0928 Y0.1701
N17730 X1.0817 Y0.1725
N17735 X1.0592 Y0.1786
N17740 X1.0518 Y0.1813
N17745 X1.0479 Y0.183
N17750 X1.016 Y0.1953
N17755 X0.9964 Y0.2012
N17760 X0.9769 Y0.2053
N17765 X0.9584 Y0.2076
N17770 X0.9401 Y0.2085
N17775 X0.9229 Y0.2079
N17780 X0.9056 Y0.206
N17785 X0.8978 Y0.2044
N17790 X0.8844 Y0.2006
N17795 X0.8719 Y0.1945
N17800 X0.8606 Y0.1864
N17805 X0.8509 Y0.1765
N17810 X0.843 Y0.165
N17815 X0.8372 Y0.1524
N17820 X0.8337 Y0.139
N17825 X0.8325 Y0.1251
N17830 G3 X0.8752 Y0.0893 I0.0375 J0.0013
N17835 G1 X1.0368 Y0.1122
N17840 G3 X1.0479 Y0.183 I-0.0053 J0.0371
N17845 G1 X1.0254 Y0.193
N17850 X1.0198 Y0.1963
N17855 X1.0142 Y0.1996
N17860 X1.0029 Y0.2076
N17865 X0.9933 Y0.215
N17870 X0.9804 Y0.2265
N17875 X0.9699 Y0.2375
N17880 X0.9656 Y0.2417
N17885 X0.9591 Y0.2468
N17890 X0.9521 Y0.2513
N17895 X0.9448 Y0.2553
N17900 X0.9364 Y0.259
N17905 X0.9282 Y0.2619
N17910 X0.9189 Y0.2644
N17915 X0.9095 Y0.2661
N17920 X0.8949 Y0.266
N17925 X0.8806 Y0.2628
N17930 X0.8673 Y0.2568
N17935 X0.8555 Y0.2482
N17940 X0.8458 Y0.2373
N17945 X0.8385 Y0.2246
N17950 X0.834 Y0.2107
N17955 X0.8325 Y0.1962
N17960 Y0.1251
N17965 G3 X0.8989 Y0.1026 I0.0375 J0.0013
N17970 G1 X0.9703 Y0.1894
N17975 G3 X0.9699 Y0.2375 I-0.029 J0.0238
N17980 G1 X0.9692 Y0.2382
N17985 X0.9608 Y0.2487
N17990 X0.958 Y0.2525
N17995 X0.9526 Y0.2599
N18000 X0.9428 Y0.2773
N18005 X0.9396 Y0.2824
N18010 X0.9359 Y0.2871
N18015 X0.9317 Y0.2914
N18020 X0.9271 Y0.2952
N18025 X0.922 Y0.2988
N18030 X0.9167 Y0.3019
N18035 X0.9043 Y0.3063
N18040 X0.8912 Y0.3078
N18045 X0.8781 Y0.3063
N18050 X0.8657 Y0.302
N18055 X0.8546 Y0.295
N18060 X0.8453 Y0.2857
N18065 X0.8383 Y0.2746
N18070 X0.834 Y0.2622
N18075 X0.8325 Y0.2491
N18080 Y0.1962
N18085 G3 X0.8645 Y0.1621 I0.0355 J0.0012
N18090 X0.9428 Y0.2773 I0.0079 J0.0789
N18095 G1 X0.94 Y0.2824
N18100 X0.9355 Y0.2913
N18105 X0.9282 Y0.311
N18110 X0.9259 Y0.3166
N18115 X0.9228 Y0.3217
N18120 X0.9191 Y0.3264
N18125 X0.9098 Y0.3339
N18130 X0.8989 Y0.3389
N18135 X0.8873 Y0.3413
N18140 X0.8753 Y0.3408
N18145 X0.8639 Y0.3376
N18150 X0.8534 Y0.3318
N18155 X0.8447 Y0.3237
N18160 X0.838 Y0.3138
N18165 X0.8339 Y0.3027
N18170 X0.8325 Y0.2908
N18175 Y0.2491
N18180 G3 X0.8585 Y0.222 I0.0281 J0.001
N18185 X0.9282 Y0.311 I0.0051 J0.0678
N18190 G1 X0.9264 Y0.3161
N18195 X0.9242 Y0.3245
N18200 X0.9213 Y0.3386
N18205 X0.9199 Y0.3444
N18210 X0.9177 Y0.35
N18215 X0.9147 Y0.3551
N18220 X0.9066 Y0.3632
N18225 X0.8969 Y0.369
N18230 X0.886 Y0.3722
N18235 X0.8746 Y0.3727
N18240 X0.8635 Y0.3703
N18245 X0.8533 Y0.3653
N18250 X0.8446 Y0.358
N18255 X0.838 Y0.3488
N18260 X0.8339 Y0.3382
N18265 X0.8325 Y0.3269
N18270 Y0.2908
N18275 G3 X0.8538 Y0.268 I0.0238 J0.0008
N18280 X0.9213 Y0.3386 I0.0065 J0.0614
N18285 G1 X0.9192 Y0.3498
N18290 X0.9182 Y0.3672
N18295 X0.9176 Y0.3732
N18300 X0.9157 Y0.3789
N18305 X0.913 Y0.3842
N18310 X0.9056 Y0.3926
N18315 X0.8963 Y0.3988
N18320 X0.8857 Y0.4025
N18325 X0.8746 Y0.4034
N18330 X0.8636 Y0.4014
N18335 X0.8534 Y0.3968
N18340 X0.8447 Y0.3898
N18345 X0.8381 Y0.3808
N18350 X0.8339 Y0.3704
N18355 X0.8325 Y0.3593
N18360 Y0.3269
N18365 G3 X0.8519 Y0.3061 I0.0216 J0.0008
N18370 X0.9182 Y0.3672 I0.0063 J0.0597
N18375 G1 X0.9179 Y0.3723
N18380 X0.9175 Y0.3835
N18385 Y0.3947
N18390 X0.9172 Y0.4007
N18395 X0.9158 Y0.4066
N18400 X0.9136 Y0.4121
N18405 X0.9105 Y0.4173
N18410 X0.9029 Y0.4249
N18415 X0.8937 Y0.4305
N18420 X0.8833 Y0.4336
N18425 X0.8725 Y0.434
N18430 X0.862 Y0.4318
N18435 X0.8523 Y0.4271
N18440 X0.844 Y0.4201
N18445 X0.8378 Y0.4113
N18450 X0.8338 Y0.4013
N18455 X0.8325 Y0.3906
N18460 Y0.3593
N18465 G3 X0.8501 Y0.3393 I0.0209 J0.0007
N18470 X0.9175 Y0.3947 I0.0093 J0.0574
N18475 G1 Y0.4261
N18480 X0.9172 Y0.4321
N18485 X0.9157 Y0.438
N18490 X0.9133 Y0.4435
N18495 X0.9102 Y0.4486
N18500 X0.9026 Y0.4561
N18505 X0.8933 Y0.4615
N18510 X0.883 Y0.4645
N18515 X0.8722 Y0.4649
N18520 X0.8617 Y0.4626
N18525 X0.8521 Y0.4578
N18530 X0.8439 Y0.4509
N18535 X0.8377 Y0.4421
N18540 X0.8338 Y0.4321
N18545 X0.8325 Y0.4214
N18550 Y0.3906
N18555 G3 X0.8502 Y0.3706 I0.0209 J0.0007
N18560 X0.9175 Y0.4261 I0.0091 J0.0576
N18565 G1 Y0.4567
N18570 X0.9172 Y0.4626
N18575 X0.9158 Y0.4685
N18580 X0.9134 Y0.474
N18585 X0.9104 Y0.4792
N18590 X0.9028 Y0.4868
N18595 X0.8935 Y0.4922
N18600 X0.8831 Y0.4953
N18605 X0.8724 Y0.4957
N18610 X0.8619 Y0.4934
N18615 X0.8522 Y0.4887
N18620 X0.844 Y0.4817
N18625 X0.8377 Y0.473
N18630 X0.8338 Y0.4629
N18635 X0.8325 Y0.4522
N18640 Y0.4214
N18645 G3 X0.85 Y0.4015 I0.0209 J0.0007
N18650 X0.9175 Y0.4567 I0.0096 J0.0572
N18655 G1 Y0.4865
N18660 X0.9172 Y0.4924
N18665 X0.9159 Y0.4983
N18670 X0.9137 Y0.5039
N18675 X0.9108 Y0.5091
N18680 X0.9033 Y0.5169
N18685 X0.894 Y0.5226
N18690 X0.8837 Y0.5258
N18695 X0.8728 Y0.5263
N18700 X0.8622 Y0.5242
N18705 X0.8525 Y0.5195
N18710 X0.8441 Y0.5126
N18715 X0.8378 Y0.5038
N18720 X0.8338 Y0.4937
N18725 X0.8325 Y0.4829
N18730 Y0.4522
N18735 G3 X0.8494 Y0.4324 I0.021 J0.0007
N18740 X0.9175 Y0.4865 I0.011 J0.0561
N18745 G1 Y0.5183
N18750 X0.9172 Y0.5243
N18755 X0.9157 Y0.5301
N18760 X0.9134 Y0.5356
N18765 X0.9103 Y0.5408
N18770 X0.9026 Y0.5483
N18775 X0.8934 Y0.5538
N18780 X0.8831 Y0.5568
N18785 X0.8723 Y0.5572
N18790 X0.8618 Y0.5549
N18795 X0.8521 Y0.5502
N18800 X0.844 Y0.5432
N18805 X0.8377 Y0.5344
N18810 X0.8338 Y0.5244
N18815 X0.8325 Y0.5137
N18820 Y0.4829
N18825 G3 X0.8501 Y0.463 I0.0209 J0.0007
N18830 X0.9175 Y0.5183 I0.0094 J0.0573
N18835 G1 Y0.5485
N18840 X0.9172 Y0.5545
N18845 X0.9159 Y0.5603
N18850 X0.9136 Y0.5658
N18855 X0.9106 Y0.5711
N18860 X0.903 Y0.5787
N18865 X0.8937 Y0.5843
N18870 X0.8834 Y0.5874
N18875 X0.8726 Y0.5879
N18880 X0.862 Y0.5857
N18885 X0.8523 Y0.581
N18890 X0.8441 Y0.574
N18895 X0.8378 Y0.5652
N18900 X0.8338 Y0.5552
N18905 X0.8325 Y0.5445
N18910 Y0.5137
N18915 G3 X0.8497 Y0.4938 I0.0209 J0.0007
N18920 X0.9175 Y0.5485 I0.0103 J0.0566
N18925 G1 Y0.5778
N18930 X0.9172 Y0.5838
N18935 X0.9161 Y0.5897
N18940 X0.914 Y0.5954
N18945 X0.9111 Y0.6006
N18950 X0.9037 Y0.6086
N18955 X0.8945 Y0.6144
N18960 X0.8841 Y0.6178
N18965 X0.8732 Y0.6184
N18970 X0.8625 Y0.6164
N18975 X0.8527 Y0.6118
N18980 X0.8443 Y0.6048
N18985 X0.8379 Y0.596
N18990 X0.8339 Y0.5859
N18995 X0.8325 Y0.575
N19000 Y0.5445
N19005 G3 X0.8489 Y0.5247 I0.021 J0.0007
N19010 X0.9175 Y0.5778 I0.0122 J0.0551
N19015 G1 Y0.61
N19020 X0.9172 Y0.616
N19025 X0.9158 Y0.6218
N19030 X0.9135 Y0.6274
N19035 X0.9105 Y0.6326
N19040 X0.9028 Y0.6402
N19045 X0.8936 Y0.6457
N19050 X0.8832 Y0.6488
N19055 X0.8725 Y0.6492
N19060 X0.8619 Y0.647
N19065 X0.8522 Y0.6423
N19070 X0.844 Y0.6353
N19075 X0.8378 Y0.6265
N19080 X0.8338 Y0.6165
N19085 X0.8325 Y0.6058
N19090 Y0.575
N19095 G3 X0.8498 Y0.5551 I0.0209 J0.0007
N19100 X0.9175 Y0.61 I0.0099 J0.0569
N19105 G1 Y0.6396
N19110 X0.9172 Y0.6456
N19115 X0.916 Y0.6514
N19120 X0.9139 Y0.657
N19125 X0.911 Y0.6623
N19130 X0.9035 Y0.6702
N19135 X0.8942 Y0.6759
N19140 X0.8839 Y0.6792
N19145 X0.873 Y0.6798
N19150 X0.8624 Y0.6777
N19155 X0.8526 Y0.6731
N19160 X0.8442 Y0.6661
N19165 X0.8378 Y0.6573
N19170 X0.8339 Y0.6472
N19175 X0.8325 Y0.6364
N19180 Y0.6058
N19185 G3 X0.8492 Y0.586 I0.021 J0.0007
N19190 X0.9175 Y0.6396 I0.0116 J0.0556
N19195 G1 Y0.6705
N19200 X0.9172 Y0.6765
N19205 X0.916 Y0.6824
N19210 X0.9138 Y0.6879
N19215 X0.9108 Y0.6932
N19220 X0.9033 Y0.701
N19225 X0.894 Y0.7066
N19230 X0.8837 Y0.7099
N19235 X0.8729 Y0.7104
N19240 X0.8622 Y0.7083
N19245 X0.8525 Y0.7036
N19250 X0.8442 Y0.6966
N19255 X0.8378 Y0.6878
N19260 X0.8338 Y0.6777
N19265 X0.8325 Y0.667
N19270 Y0.6364
N19275 G3 X0.8493 Y0.6166 I0.021 J0.0007
N19280 X0.9175 Y0.6705 I0.0112 J0.0559
N19285 G1 Y0.7014
N19290 X0.9172 Y0.7074
N19295 X0.9159 Y0.7133
N19300 X0.9137 Y0.7188
N19305 X0.9107 Y0.724
N19310 X0.9031 Y0.7318
N19315 X0.8939 Y0.7374
N19320 X0.8835 Y0.7406
N19325 X0.8727 Y0.7411
N19330 X0.8621 Y0.7389
N19335 X0.8524 Y0.7342
N19340 X0.8441 Y0.7272
N19345 X0.8378 Y0.7184
N19350 X0.8338 Y0.7084
N19355 X0.8325 Y0.6976
N19360 Y0.667
N19365 G3 X0.8495 Y0.6471 I0.0209 J0.0007
N19370 X0.9175 Y0.7014 I0.0107 J0.0563
N19375 G1 Y0.7317
N19380 X0.9172 Y0.7377
N19385 X0.916 Y0.7436
N19390 X0.9138 Y0.7492
N19395 X0.9109 Y0.7544
N19400 X0.9033 Y0.7622
N19405 X0.8941 Y0.7679
N19410 X0.8837 Y0.7711
N19415 X0.8729 Y0.7717
N19420 X0.8623 Y0.7696
N19425 X0.8525 Y0.7649
N19430 X0.8442 Y0.7579
N19435 X0.8378 Y0.7491
N19440 X0.8339 Y0.739
N19445 X0.8325 Y0.7283
N19450 Y0.6976
N19455 G3 X0.8493 Y0.6778 I0.021 J0.0007
N19460 X0.9175 Y0.7317 I0.0112 J0.0559
N19465 G1 Y0.7631
N19470 X0.9172 Y0.7691
N19475 X0.9158 Y0.775
N19480 X0.9135 Y0.7805
N19485 X0.9105 Y0.7857
N19490 X0.9029 Y0.7933
N19495 X0.8936 Y0.7989
N19500 X0.8833 Y0.802
N19505 X0.8725 Y0.8024
N19510 X0.862 Y0.8002
N19515 X0.8523 Y0.7955
N19520 X0.844 Y0.7885
N19525 X0.8378 Y0.7797
N19530 X0.8338 Y0.7697
N19535 X0.8325 Y0.759
N19540 Y0.7283
N19545 G3 X0.8498 Y0.7084 I0.0209 J0.0007
N19550 X0.9175 Y0.7631 I0.0101 J0.0568
N19555 G1 Y0.7941
N19560 X0.9172 Y0.8001
N19565 X0.9158 Y0.8059
N19570 X0.9135 Y0.8114
N19575 X0.9104 Y0.8166
N19580 X0.9028 Y0.8242
N19585 X0.8935 Y0.8297
N19590 X0.8832 Y0.8328
N19595 X0.8724 Y0.8332
N19600 X0.8619 Y0.831
N19605 X0.8522 Y0.8262
N19610 X0.844 Y0.8192
N19615 X0.8377 Y0.8105
N19620 X0.8338 Y0.8004
N19625 X0.8325 Y0.7897
N19630 Y0.759
N19635 G3 X0.8499 Y0.7391 I0.0209 J0.0007
N19640 X0.9175 Y0.7941 I0.0098 J0.057
N19645 G1 Y0.825
N19650 X0.9172 Y0.831
N19655 X0.9158 Y0.8368
N19660 X0.9134 Y0.8423
N19665 X0.9104 Y0.8475
N19670 X0.9027 Y0.8551
N19675 X0.8935 Y0.8605
N19680 X0.8831 Y0.8636
N19685 X0.8724 Y0.864
N19690 X0.8618 Y0.8617
N19695 X0.8522 Y0.857
N19700 X0.844 Y0.85
N19705 X0.8377 Y0.8412
N19710 X0.8338 Y0.8312
N19715 X0.8325 Y0.8205
N19720 Y0.7897
N19725 G3 X0.85 Y0.7698 I0.0209 J0.0007
N19730 X0.9175 Y0.825 I0.0096 J0.0572
N19735 G1 Y0.8553
N19740 X0.9172 Y0.8613
N19745 X0.9159 Y0.8671
N19750 X0.9136 Y0.8727
N19755 X0.9106 Y0.8779
N19760 X0.903 Y0.8855
N19765 X0.8937 Y0.8911
N19770 X0.8834 Y0.8942
N19775 X0.8726 Y0.8947
N19780 X0.862 Y0.8925
N19785 X0.8523 Y0.8878
N19790 X0.8441 Y0.8808
N19795 X0.8378 Y0.872
N19800 X0.8338 Y0.862
N19805 X0.8325 Y0.8513
N19810 Y0.8205
N19815 G3 X0.8497 Y0.8006 I0.0209 J0.0007
N19820 X0.9175 Y0.8553 I0.0103 J0.0566
N19825 G1 Y0.8665
N19830 X0.9179 Y0.8777
N19835 X0.9183 Y0.8839
N19840 Y0.8899
N19845 X0.9173 Y0.8958
N19850 X0.9153 Y0.9015
N19855 X0.9126 Y0.9068
N19860 X0.9051 Y0.9151
N19865 X0.8958 Y0.9212
N19870 X0.8853 Y0.9248
N19875 X0.8743 Y0.9256
N19880 X0.8633 Y0.9237
N19885 X0.8532 Y0.919
N19890 X0.8446 Y0.912
N19895 X0.838 Y0.9031
N19900 X0.8339 Y0.8928
N19905 X0.8325 Y0.8817
N19910 Y0.8513
N19915 G3 X0.8495 Y0.8316 I0.0207 J0.0007
N19920 X0.9183 Y0.8839 I0.0104 J0.0577
N19925 G1 X0.9192 Y0.9002
N19930 X0.9209 Y0.9092
N19935 X0.9217 Y0.9151
N19940 X0.9219 Y0.9211
N19945 X0.9212 Y0.9271
N19950 X0.9195 Y0.9328
N19955 X0.9171 Y0.9383
N19960 X0.9098 Y0.9476
N19965 X0.9003 Y0.9547
N19970 X0.8894 Y0.9591
N19975 X0.8777 Y0.9606
N19980 X0.8659 Y0.959
N19985 X0.8551 Y0.9544
N19990 X0.8457 Y0.9472
N19995 X0.8385 Y0.9378
N20000 X0.834 Y0.9268
N20005 X0.8325 Y0.9151
N20010 Y0.8817
N20015 G3 X0.8488 Y0.8625 I0.0204 J0.0007
N20020 X0.9209 Y0.9092 I0.0122 J0.0601
N20025 G1 X0.9213 Y0.9114
N20030 X0.9242 Y0.9255
N20035 X0.9264 Y0.9339
N20040 X0.9276 Y0.9373
N20045 X0.9294 Y0.943
N20050 X0.9304 Y0.949
N20055 X0.9359 Y0.9716
N20060 X0.9584 Y1.0126
N20065 X0.9923 Y1.0447
N20070 X1.0318 Y1.0695
N20075 X1.0745 Y1.0885
N20080 X1.1189 Y1.1029
N20085 X1.1643 Y1.1138
N20090 X1.2102 Y1.1221
N20095 X1.2565 Y1.1283
N20100 X1.2798 Y1.1307
N20105 X1.2914 Y1.1317
N20110 X1.3379 Y1.1355
N20115 X1.3845 Y1.1384
N20120 X1.4312 Y1.1406
N20125 X1.4428 Y1.141
N20130 X1.4544 Y1.1399
N20135 X1.4658 Y1.1372
N20140 X1.4767 Y1.133
N20145 X1.5177 Y1.1107
N20150 X1.5283 Y1.1009
N20155 X1.5404 Y1.093
N20160 X1.5536 Y1.0872
N20165 X1.5676 Y1.0837
N20170 X1.582 Y1.0825
N20175 X1.6216
N20180 G3 X1.6291 Y1.1564 I-0.0013 J0.0375
N20185 G1 X0.8787 Y1.3364
N20190 G3 X0.8325 Y1.3012 I-0.0087 J-0.0365
N20195 G1 Y0.9151
N20200 G3 X0.8491 Y0.8954 I0.0208 J0.0007
N20205 X0.9276 Y0.9373 I0.0141 J0.0681
N20210 G1 X0.9355 Y0.9587
N20215 X0.94 Y0.9676
N20220 X0.9526 Y0.9901
N20225 X0.958 Y0.9975
N20230 X0.9608 Y1.0013
N20235 X0.9692 Y1.0118
N20240 X0.9699 Y1.0125
N20245 X0.9804 Y1.0235
N20250 X0.9933 Y1.035
N20255 X1.0029 Y1.0424
N20260 X1.0142 Y1.0504
N20265 X1.0198 Y1.0537
N20270 X1.0254 Y1.057
N20275 X1.0518 Y1.0687
N20280 X1.0592 Y1.0714
N20285 X1.0817 Y1.0775
N20290 X1.0929 Y1.08
N20295 X1.1042 Y1.0812
N20300 X1.1154 Y1.0822
N20305 X1.1379 Y1.0824
N20310 X1.1492 Y1.0825
N20315 X1.582
N20320 X1.585 Y1.083 Z-0.6269
N20325 X1.5878 Y1.0836 Z-0.626
N20330 X1.5904 Y1.084 Z-0.6245
N20335 X1.5926 Y1.0844 Z-0.6225
N20340 X1.5942 Y1.085 Z-0.6203
N20345 X1.5953 Y1.0855 Z-0.6179
N20350 X1.596 Y1.0858 Z-0.6152
N20355 X1.5962 Y1.0859 Z-0.6125
N20360 G0 Z0.2
N20365 X2.0515 Y0.1288
N20370 Z-0.6419
N20375 G1 Z-0.6794 F15.
N20380 X2.0512 Y0.1289 Z-0.6839
N20385 X2.0504 Y0.1291 Z-0.6883
N20390 X2.0491 Y0.1294 Z-0.6926
N20395 X2.0473 Y0.1299 Z-0.6968
N20400 X2.045 Y0.1305 Z-0.7007
N20405 X2.0423 Y0.1312 Z-0.7042
N20410 X2.0392 Y0.132 Z-0.7074
N20415 X2.0358 Y0.1329 Z-0.7102
N20420 X2.032 Y0.1338 Z-0.7126
N20425 X2.028 Y0.1348 Z-0.7144
N20430 X2.0238 Y0.1359 Z-0.7158
N20435 X2.0195 Y0.137 Z-0.7166
N20440 X2.0151 Y0.1381 Z-0.7169
N20445 G3 X1.811 Y0.1675 I-0.2376 J-0.9274
N20450 G1 X1.7679
N20455 X1.7619 Y0.1672
N20460 X1.7179 Y0.1514
N20465 X1.6728 Y0.1394
N20470 X1.627 Y0.1304
N20475 X1.5808 Y0.1235
N20480 X1.5344 Y0.1184
N20485 X1.4879 Y0.1145
N20490 X1.4413 Y0.1116
N20495 X1.3946 Y0.1094
N20500 X1.348 Y0.1078
N20505 X1.3013 Y0.1065
N20510 X1.2546 Y0.1056
N20515 X1.2079 Y0.1049
N20520 X1.1612 Y0.1044
N20525 X1.1146 Y0.104
N20530 X1.0679 Y0.1037
N20535 X1.0212 Y0.1035
N20540 X0.9745 Y0.1034
N20545 X0.9115 Y0.1032
N20550 X0.8961 Y0.1017
N20555 X0.8813 Y0.0971
N20560 X0.8676 Y0.0898
N20565 X0.8556 Y0.08
N20570 X0.8458 Y0.068
N20575 X0.8385 Y0.0543
N20580 X0.834 Y0.0395
N20585 X0.8325 Y0.024
N20590 G3 X0.8743 Y-0.0119 I0.0375 J0.0013
N20595 G1 X1.7709 Y0.0928
N20600 G3 X1.7679 Y0.1675 I-0.0043 J0.0372
N20605 G1 X1.1492
N20610 X1.1267 Y0.1677
N20615 X1.1154 Y0.1678
N20620 X1.1042 Y0.1688
N20625 X1.0928 Y0.1701
N20630 X1.0817 Y0.1725
N20635 X1.0592 Y0.1786
N20640 X1.0518 Y0.1813
N20645 X1.0479 Y0.183
N20650 X1.016 Y0.1953
N20655 X0.9964 Y0.2012
N20660 X0.9769 Y0.2053
N20665 X0.9584 Y0.2076
N20670 X0.9401 Y0.2085
N20675 X0.9229 Y0.2079
N20680 X0.9056 Y0.206
N20685 X0.8978 Y0.2044
N20690 X0.8844 Y0.2006
N20695 X0.8719 Y0.1945
N20700 X0.8606 Y0.1864
N20705 X0.8509 Y0.1765
N20710 X0.843 Y0.165
N20715 X0.8372 Y0.1524
N20720 X0.8337 Y0.139
N20725 X0.8325 Y0.1251
N20730 G3 X0.8752 Y0.0893 I0.0375 J0.0013
N20735 G1 X1.0368 Y0.1122
N20740 G3 X1.0479 Y0.183 I-0.0053 J0.0371
N20745 G1 X1.0254 Y0.193
N20750 X1.0198 Y0.1963
N20755 X1.0142 Y0.1996
N20760 X1.0029 Y0.2076
N20765 X0.9933 Y0.215
N20770 X0.9804 Y0.2265
N20775 X0.9699 Y0.2375
N20780 X0.9656 Y0.2417
N20785 X0.9591 Y0.2468
N20790 X0.9521 Y0.2513
N20795 X0.9448 Y0.2553
N20800 X0.9364 Y0.259
N20805 X0.9282 Y0.2619
N20810 X0.9189 Y0.2644
N20815 X0.9095 Y0.2661
N20820 X0.8949 Y0.266
N20825 X0.8806 Y0.2628
N20830 X0.8673 Y0.2568
N20835 X0.8555 Y0.2482
N20840 X0.8458 Y0.2373
N20845 X0.8385 Y0.2246
N20850 X0.834 Y0.2107
N20855 X0.8325 Y0.1962
N20860 Y0.1251
N20865 G3 X0.8989 Y0.1026 I0.0375 J0.0013
N20870 G1 X0.9703 Y0.1894
N20875 G3 X0.9699 Y0.2375 I-0.029 J0.0238
N20880 G1 X0.9692 Y0.2382
N20885 X0.9608 Y0.2487
N20890 X0.958 Y0.2525
N20895 X0.9526 Y0.2599
N20900 X0.9428 Y0.2773
N20905 X0.9396 Y0.2824
N20910 X0.9359 Y0.2871
N20915 X0.9317 Y0.2914
N20920 X0.9271 Y0.2952
N20925 X0.922 Y0.2988
N20930 X0.9167 Y0.3019
N20935 X0.9043 Y0.3063
N20940 X0.8912 Y0.3078
N20945 X0.8781 Y0.3063
N20950 X0.8657 Y0.302
N20955 X0.8546 Y0.295
N20960 X0.8453 Y0.2857
N20965 X0.8383 Y0.2746
N20970 X0.834 Y0.2622
N20975 X0.8325 Y0.2491
N20980 Y0.1962
N20985 G3 X0.8645 Y0.1621 I0.0355 J0.0012
N20990 X0.9428 Y0.2773 I0.0079 J0.0789
N20995 G1 X0.94 Y0.2824
N21000 X0.9355 Y0.2913
N21005 X0.9282 Y0.311
N21010 X0.9259 Y0.3166
N21015 X0.9228 Y0.3217
N21020 X0.9191 Y0.3264
N21025 X0.9098 Y0.3339
N21030 X0.8989 Y0.3389
N21035 X0.8873 Y0.3413
