%
(BASSITONE_FRETBOARD)
(2MM END MIL 1500 RPM 10 MINUTES)
(T1  D=0.125 CR=0.0625 - ZMIN=-0.0625 - BALL END MILL)
N10 G90 G94 G17 G91.1
N15 G20
N20 G53 G0 Z0.
(SLOT1)
N25 M9
N30 T1 M6
N35 S1500 M3
N40 G54
N45 M8
N55 G0 X1.684 Y0.85
N60 G43 Z0.6 H1
N65 G0 Z0.2
N70 G1 Z0.1 F20.
N75 Y-0.85 Z0.0458 F10.
N80 Y0.85 Z-0.0083
N85 Y-0.85 Z-0.0625
N90 Y0.85 F20.
N95 G0 Z0.2
N100 X3.273 Y-0.85
N105 G1 Z0.1 F20.
N110 Y0.85 Z0.0458 F10.
N115 Y-0.85 Z-0.0083
N120 Y0.85 Z-0.0625
N125 Y-0.85 F20.
N130 G0 Z0.2
N135 X4.773
N140 G1 Z0.1 F20.
N145 Y0.85 Z0.0458 F10.
N150 Y-0.85 Z-0.0083
N155 Y0.85 Z-0.0625
N160 Y-0.85 F20.
N165 G0 Z0.2
N170 X6.189
N175 G1 Z0.1 F20.
N180 Y0.85 Z0.0458 F10.
N185 Y-0.85 Z-0.0083
N190 Y0.85 Z-0.0625
N195 Y-0.85 F20.
N200 G0 Z0.2
N205 X7.525
N210 G1 Z0.1 F20.
N215 Y0.85 Z0.0458 F10.
N220 Y-0.85 Z-0.0083
N225 Y0.85 Z-0.0625
N230 Y-0.85 F20.
N235 G0 Z0.2
N240 X8.786
N245 G1 Z0.1 F20.
N250 Y0.85 Z0.0458 F10.
N255 Y-0.85 Z-0.0083
N260 Y0.85 Z-0.0625
N265 Y-0.85 F20.
N270 G0 Z0.2
N275 X9.977
N280 G1 Z0.1 F20.
N285 Y0.85 Z0.0458 F10.
N290 Y-0.85 Z-0.0083
N295 Y0.85 Z-0.0625
N300 Y-0.85 F20.
N305 G0 Z0.2
N310 X11.101
N315 G1 Z0.1 F20.
N320 Y0.85 Z0.0458 F10.
N325 Y-0.85 Z-0.0083
N330 Y0.85 Z-0.0625
N335 Y-0.85 F20.
N340 G0 Z0.2
N345 X12.162
N350 G1 Z0.1 F20.
N355 Y0.85 Z0.0458 F10.
N360 Y-0.85 Z-0.0083
N365 Y0.85 Z-0.0625
N370 Y-0.85 F20.
N375 G0 Z0.2
N380 X13.163
N385 G1 Z0.1 F20.
N390 Y0.85 Z0.0458 F10.
N395 Y-0.85 Z-0.0083
N400 Y0.85 Z-0.0625
N405 Y-0.85 F20.
N410 G0 Z0.2
N415 X14.108
N420 G1 Z0.1 F20.
N425 Y0.85 Z0.0458 F10.
N430 Y-0.85 Z-0.0083
N435 Y0.85 Z-0.0625
N440 Y-0.85 F20.
N445 G0 Z0.2
N450 X15.
N455 G1 Z0.1 F20.
N460 Y0.85 Z0.0458 F10.
N465 Y-0.85 Z-0.0083
N470 Y0.85 Z-0.0625
N475 Y-0.85 F20.
N480 G0 Z0.2
N485 X16.637
N490 G1 Z0.1 F20.
N495 Y0.85 Z0.0458 F10.
N500 Y-0.85 Z-0.0083
N505 Y0.85 Z-0.0625
N510 Y-0.85 F20.
N515 G0 Z0.2
N520 X17.387
N525 G1 Z0.1 F20.
N530 Y0.85 Z0.0458 F10.
N535 Y-0.85 Z-0.0083
N540 Y0.85 Z-0.0625
N545 Y-0.85 F20.
N550 G0 Z0.2
N555 X15.842 Y0.85
N560 G1 Z0.1 F20.
N565 Y-0.85 Z0.0458 F10.
N570 Y0.85 Z-0.0083
N575 Y-0.85 Z-0.0625
N580 Y0.85 F20.
N585 G0 Z0.6
(2D ADAPTIVE1)
N595 M8
N600 G0 X4.0323 Y-0.0126
N605 Z0.6
N610 Z0.2
N615 Z0.1145
N620 G1 Z0.102 F20.
N625 G3 X4.0137 Y0.0126 Z0.1003 I-0.0093 J0.0126 F10.
N630 X4.0323 Y-0.0126 Z0.0986 I0.0093 J-0.0126
N635 X4.0137 Y0.0126 Z0.0969 I-0.0093 J0.0126
N640 X4.0323 Y-0.0126 Z0.0951 I0.0093 J-0.0126
N645 X4.0137 Y0.0126 Z0.0934 I-0.0093 J0.0126
N650 X4.0323 Y-0.0126 Z0.0917 I0.0093 J-0.0126
N655 X4.0137 Y0.0126 Z0.09 I-0.0093 J0.0126
N660 X4.0323 Y-0.0126 Z0.0883 I0.0093 J-0.0126
N665 X4.0137 Y0.0126 Z0.0866 I-0.0093 J0.0126
N670 X4.0323 Y-0.0126 Z0.0849 I0.0093 J-0.0126
N675 X4.0137 Y0.0126 Z0.0831 I-0.0093 J0.0126
N680 X4.0323 Y-0.0126 Z0.0814 I0.0093 J-0.0126
N685 X4.0137 Y0.0126 Z0.0797 I-0.0093 J0.0126
N690 X4.0323 Y-0.0126 Z0.078 I0.0093 J-0.0126
N695 X4.0137 Y0.0126 Z0.0763 I-0.0093 J0.0126
N700 X4.0323 Y-0.0126 Z0.0746 I0.0093 J-0.0126
N705 X4.0137 Y0.0126 Z0.0729 I-0.0093 J0.0126
N710 X4.0323 Y-0.0126 Z0.0711 I0.0093 J-0.0126
N715 X4.0137 Y0.0126 Z0.0694 I-0.0093 J0.0126
N720 X4.0323 Y-0.0126 Z0.0677 I0.0093 J-0.0126
N725 X4.0137 Y0.0126 Z0.066 I-0.0093 J0.0126
N730 X4.0323 Y-0.0126 Z0.0643 I0.0093 J-0.0126
N735 X4.0137 Y0.0126 Z0.0626 I-0.0093 J0.0126
N740 X4.0323 Y-0.0126 Z0.0609 I0.0093 J-0.0126
N745 X4.0137 Y0.0126 Z0.0591 I-0.0093 J0.0126
N750 X4.0323 Y-0.0126 Z0.0574 I0.0093 J-0.0126
N755 X4.0137 Y0.0126 Z0.0557 I-0.0093 J0.0126
N760 X4.0323 Y-0.0126 Z0.054 I0.0093 J-0.0126
N765 X4.0137 Y0.0126 Z0.0523 I-0.0093 J0.0126
N770 X4.0323 Y-0.0126 Z0.0506 I0.0093 J-0.0126
N775 X4.0137 Y0.0126 Z0.0489 I-0.0093 J0.0126
N780 X4.0323 Y-0.0126 Z0.0471 I0.0093 J-0.0126
N785 X4.0137 Y0.0126 Z0.0454 I-0.0093 J0.0126
N790 X4.0323 Y-0.0126 Z0.0437 I0.0093 J-0.0126
N795 X4.0137 Y0.0126 Z0.042 I-0.0093 J0.0126
N800 X4.0323 Y-0.0126 Z0.0403 I0.0093 J-0.0126
N805 X4.0137 Y0.0126 Z0.0386 I-0.0093 J0.0126
N810 X4.0323 Y-0.0126 Z0.0369 I0.0093 J-0.0126
N815 X4.0137 Y0.0126 Z0.0351 I-0.0093 J0.0126
N820 X4.0323 Y-0.0126 Z0.0334 I0.0093 J-0.0126
N825 X4.0137 Y0.0126 Z0.0317 I-0.0093 J0.0126
N830 X4.0323 Y-0.0126 Z0.03 I0.0093 J-0.0126
N835 X4.0137 Y0.0126 Z0.0283 I-0.0093 J0.0126
N840 X4.0323 Y-0.0126 Z0.0266 I0.0093 J-0.0126
N845 X4.0137 Y0.0126 Z0.0249 I-0.0093 J0.0126
N850 X4.0323 Y-0.0126 Z0.0231 I0.0093 J-0.0126
N855 X4.0137 Y0.0126 Z0.0214 I-0.0093 J0.0126
N860 X4.0323 Y-0.0126 Z0.0197 I0.0093 J-0.0126
N865 X4.0137 Y0.0126 Z0.018 I-0.0093 J0.0126
N870 X4.0323 Y-0.0126 Z0.0163 I0.0093 J-0.0126
N875 X4.0137 Y0.0126 Z0.0146 I-0.0093 J0.0126
N880 X4.0323 Y-0.0126 Z0.0129 I0.0093 J-0.0126
N885 X4.0137 Y0.0126 Z0.0111 I-0.0093 J0.0126
N890 X4.0323 Y-0.0126 Z0.0094 I0.0093 J-0.0126
N895 X4.0137 Y0.0126 Z0.0077 I-0.0093 J0.0126
N900 X4.0323 Y-0.0126 Z0.006 I0.0093 J-0.0126
N905 X4.0137 Y0.0126 Z0.0043 I-0.0093 J0.0126
N910 X4.0323 Y-0.0126 Z0.0026 I0.0093 J-0.0126
N915 X4.0137 Y0.0126 Z0.0009 I-0.0093 J0.0126
N920 X4.0323 Y-0.0126 Z-0.0009 I0.0093 J-0.0126
N925 X4.0137 Y0.0126 Z-0.0026 I-0.0093 J0.0126
N930 X4.0323 Y-0.0126 Z-0.0043 I0.0093 J-0.0126
N935 X4.0137 Y0.0126 Z-0.006 I-0.0093 J0.0126
N940 X4.0323 Y-0.0126 Z-0.0077 I0.0093 J-0.0126
N945 X4.0137 Y0.0126 Z-0.0094 I-0.0093 J0.0126
N950 X4.0323 Y-0.0126 Z-0.0111 I0.0093 J-0.0126
N955 X4.0137 Y0.0126 Z-0.0128 I-0.0093 J0.0126
N960 X4.0323 Y-0.0126 Z-0.0146 I0.0093 J-0.0126
N965 X4.0137 Y0.0126 Z-0.0163 I-0.0093 J0.0126
N970 X4.0323 Y-0.0126 Z-0.018 I0.0093 J-0.0126
N975 X4.0137 Y0.0126 Z-0.0197 I-0.0093 J0.0126
N980 X4.0323 Y-0.0126 Z-0.0214 I0.0093 J-0.0126
N985 X4.0137 Y0.0126 Z-0.0231 I-0.0093 J0.0126
N990 X4.0323 Y-0.0126 Z-0.0248 I0.0093 J-0.0126
N995 X4.0137 Y0.0126 Z-0.0266 I-0.0093 J0.0126
N1000 X4.0323 Y-0.0126 Z-0.0283 I0.0093 J-0.0126
N1005 X4.0137 Y0.0126 Z-0.03 I-0.0093 J0.0126
N1010 X4.0323 Y-0.0126 Z-0.0317 I0.0093 J-0.0126
N1015 X4.0137 Y0.0126 Z-0.0334 I-0.0093 J0.0126
N1020 X4.0323 Y-0.0126 Z-0.0351 I0.0093 J-0.0126
N1025 X4.0137 Y0.0126 Z-0.0368 I-0.0093 J0.0126
N1030 X4.0323 Y-0.0126 Z-0.0386 I0.0093 J-0.0126
N1035 X4.0137 Y0.0126 Z-0.0403 I-0.0093 J0.0126
N1040 X4.0323 Y-0.0126 Z-0.042 I0.0093 J-0.0126
N1045 X4.0386 Y0. Z-0.0425 I-0.0093 J0.0126
N1050 X4.0074 I-0.0156 J0.
N1055 X4.0386 I0.0156 J0.
N1060 G1 X4.0396 Y0.0056 F20.
N1065 X4.0416 Y0.0112
N1070 X4.0415 Y0.0172
N1075 X4.0391 Y0.0227
N1080 X4.0352 Y0.0273
N1085 X4.0303 Y0.0307
N1090 X4.0247 Y0.0329
N1095 X4.0187 Y0.0338
N1100 X4.0128 Y0.0334
N1105 X4.0069 Y0.032
N1110 X4.0015 Y0.0294
N1115 X3.9966 Y0.026
N1120 X3.9924 Y0.0217
N1125 X3.9889 Y0.0168
N1130 X3.9864 Y0.0114
N1135 X3.9847 Y0.0056
N1140 X3.9841 Y-0.0004
N1145 X3.9843 Y-0.0064
N1150 X3.9856 Y-0.0122
N1155 X3.9877 Y-0.0178
N1160 X3.9906 Y-0.0231
N1165 X3.9944 Y-0.0278
N1170 X3.9988 Y-0.0318
N1175 X4.0038 Y-0.0352
N1180 X4.0092 Y-0.0377
N1185 X4.0149 Y-0.0395
N1190 X4.0209 Y-0.0403
N1195 X4.0269 Y-0.0402
N1200 X4.0328 Y-0.0392
N1205 X4.0385 Y-0.0374
N1210 X4.0439 Y-0.0347
N1215 X4.0488 Y-0.0313
N1220 X4.0495 Y-0.0307
N1225 X4.0521 Y-0.0284
N1230 X4.0541 Y-0.0266
N1235 X4.0551 Y-0.0255
N1240 X4.0584 Y-0.02
N1245 X4.0602 Y-0.0167
N1250 X4.0611 Y-0.0151
N1255 X4.0618 Y-0.0133
N1260 X4.0631 Y-0.0067
N1265 X4.064 Y0.
N1270 X4.0631 Y0.0067
N1275 X4.0618 Y0.0133
N1280 X4.0611 Y0.0151
N1285 X4.0602 Y0.0167
N1290 X4.0584 Y0.02
N1295 X4.0551 Y0.0255
N1300 X4.0541 Y0.0266
N1305 X4.0484 Y0.0317
N1310 X4.0465 Y0.0333
N1315 X4.0441 Y0.0351
N1320 X4.0417 Y0.0364
N1325 X4.0351 Y0.0388
N1330 X4.032 Y0.0399
N1335 X4.0302 Y0.0404
N1340 X4.0284 Y0.0406
N1345 X4.0184
N1350 X4.0167 Y0.0405
N1355 X4.0151 Y0.0402
N1360 X4.014 Y0.0399
N1365 X4.0051 Y0.0367
N1370 X4.0034 Y0.036
N1375 X4.0018 Y0.0351
N1380 X3.9995 Y0.0333
N1385 X3.9935 Y0.0282
N1390 X3.9927 Y0.0275
N1395 X3.9918 Y0.0266
N1400 X3.9884 Y0.0213
N1405 X3.9857 Y0.0166
N1410 X3.9848 Y0.015
N1415 X3.9842 Y0.0133
N1420 X3.9829 Y0.0067
N1425 X3.9821 Y0.0017
N1430 X3.982 Y0.
N1435 X3.9821 Y-0.0017
N1440 X3.9829 Y-0.0067
N1445 X3.9842 Y-0.0133
N1450 X3.9848 Y-0.015
N1455 X3.9857 Y-0.0166
N1460 X3.9884 Y-0.0213
N1465 X3.9918 Y-0.0266
N1470 X3.9927 Y-0.0275
N1475 X3.9935 Y-0.0282
N1480 X3.9995 Y-0.0333
N1485 X4.0018 Y-0.0351
N1490 X4.0034 Y-0.036
N1495 X4.0051 Y-0.0367
N1500 X4.014 Y-0.0399
N1505 X4.0151 Y-0.0402
N1510 X4.0167 Y-0.0405
N1515 X4.0184 Y-0.0406
N1520 X4.0284
N1525 X4.0302 Y-0.0404
N1530 X4.032 Y-0.0399
N1535 X4.0351 Y-0.0388
N1540 X4.0417 Y-0.0364
N1545 X4.0441 Y-0.0351
N1550 X4.0465 Y-0.0333
N1555 X4.0484 Y-0.0317
N1560 X4.0495 Y-0.0307
N1565 G3 X4.0524 Y-0.0267 I-0.0086 J0.0091
N1570 G1 X4.0535 Y-0.0242 Z-0.0422
N1575 X4.0546 Y-0.0217 Z-0.0413
N1580 X4.0555 Y-0.0196 Z-0.0398
N1585 X4.0563 Y-0.0178 Z-0.0378
N1590 X4.0569 Y-0.0164 Z-0.0354
N1595 X4.0573 Y-0.0156 Z-0.0328
N1600 X4.0574 Y-0.0153 Z-0.03
N1605 G0 Z0.6
N1610 X11.6408 Y-0.0126
N1615 Z0.2
N1620 Z0.1145
N1625 G1 Z0.102 F20.
N1630 G3 X11.6222 Y0.0126 Z0.1003 I-0.0093 J0.0126 F10.
N1635 X11.6408 Y-0.0126 Z0.0986 I0.0093 J-0.0126
N1640 X11.6222 Y0.0126 Z0.0969 I-0.0093 J0.0126
N1645 X11.6408 Y-0.0126 Z0.0951 I0.0093 J-0.0126
N1650 X11.6416 Y0.0119 Z0.0942 I-0.0093 J0.0126
N1655 X11.6163 Y0.0034 Z0.093 I-0.0101 J-0.0119
N1660 X11.6468 Y-0.0034 Z0.0913 I0.0153 J-0.0034
N1665 X11.643 Y0.0106 Z0.0908 I-0.0153 J0.0034
N1670 X11.6168 Y0.0053 Z0.0897 I-0.0115 J-0.0106
N1675 X11.6462 Y-0.0053 Z0.088 I0.0147 J-0.0053
N1680 X11.6168 Y0.0053 Z0.0862 I-0.0147 J0.0053
N1685 X11.6462 Y-0.0053 Z0.0845 I0.0147 J-0.0053
N1690 X11.6168 Y0.0053 Z0.0828 I-0.0147 J0.0053
N1695 X11.6462 Y-0.0053 Z0.0811 I0.0147 J-0.0053
N1700 X11.6168 Y0.0053 Z0.0794 I-0.0147 J0.0053
N1705 X11.6279 Y-0.0152 Z0.0785 I0.0147 J-0.0053
N1710 X11.6467 Y0.0038 Z0.0774 I0.0036 J0.0152
N1715 X11.6164 Y-0.0038 Z0.0756 I-0.0151 J-0.0038
N1720 X11.626 Y-0.0146 Z0.0751 I0.0151 J0.0038
N1725 X11.647 Y0.0019 Z0.074 I0.0055 J0.0146
N1730 X11.616 Y-0.0019 Z0.0723 I-0.0155 J-0.0019
N1735 X11.647 Y0.0019 Z0.0706 I0.0155 J0.0019
N1740 X11.616 Y-0.0019 Z0.0689 I-0.0155 J-0.0019
N1745 X11.647 Y0.0019 Z0.0671 I0.0155 J0.0019
N1750 X11.616 Y-0.0019 Z0.0654 I-0.0155 J-0.0019
N1755 X11.647 Y0.0019 Z0.0637 I0.0155 J0.0019
N1760 X11.616 Y-0.0019 Z0.062 I-0.0155 J-0.0019
N1765 X11.6197 Y-0.0102 Z0.0617 I0.0155 J0.0019
N1770 X11.646 Y-0.0057 Z0.0606 I0.0118 J0.0102
N1775 X11.6298 Y0.0155 Z0.0594 I-0.0145 J0.0057
N1780 X11.6332 Y-0.0155 Z0.0577 I0.0017 J-0.0155
N1785 X11.6452 Y-0.0075 Z0.0572 I-0.0017 J0.0155
N1790 X11.6178 Y0.0075 Z0.0555 I-0.0137 J0.0075
N1795 X11.6175 Y-0.007 Z0.055 I0.0137 J-0.0075
N1800 X11.6442 Y-0.0091 Z0.0538 I0.014 J0.007
N1805 X11.6188 Y0.0091 Z0.0521 I-0.0127 J0.0091
N1810 X11.6442 Y-0.0091 Z0.0504 I0.0127 J-0.0091
N1815 X11.6188 Y0.0091 Z0.0487 I-0.0127 J0.0091
N1820 X11.6442 Y-0.0091 Z0.047 I0.0127 J-0.0091
N1825 X11.6188 Y0.0091 Z0.0453 I-0.0127 J0.0091
N1830 X11.6442 Y-0.0091 Z0.0435 I0.0127 J-0.0091
N1835 X11.6188 Y0.0091 Z0.0418 I-0.0127 J0.0091
N1840 X11.6442 Y-0.0091 Z0.0401 I0.0127 J-0.0091
N1845 X11.6408 Y0.0125 Z0.0393 I-0.0127 J0.0091
N1850 X11.6161 Y0.0024 Z0.0382 I-0.0093 J-0.0125
N1855 X11.6469 Y-0.0024 Z0.0364 I0.0154 J-0.0024
N1860 X11.6423 Y0.0113 Z0.0359 I-0.0154 J0.0024
N1865 X11.6165 Y0.0043 Z0.0348 I-0.0108 J-0.0113
N1870 X11.6465 Y-0.0043 Z0.0331 I0.015 J-0.0043
N1875 X11.6165 Y0.0043 Z0.0314 I-0.015 J0.0043
N1880 X11.6465 Y-0.0043 Z0.0296 I0.015 J-0.0043
N1885 X11.6165 Y0.0043 Z0.0279 I-0.015 J0.0043
N1890 X11.6465 Y-0.0043 Z0.0262 I0.015 J-0.0043
N1895 X11.6165 Y0.0043 Z0.0245 I-0.015 J0.0043
N1900 X11.6465 Y-0.0043 Z0.0228 I0.015 J-0.0043
N1905 X11.6165 Y0.0043 Z0.0211 I-0.015 J0.0043
N1910 X11.6465 Y-0.0043 Z0.0194 I0.015 J-0.0043
N1915 X11.6165 Y0.0043 Z0.0176 I-0.015 J0.0043
N1920 X11.6465 Y-0.0043 Z0.0159 I0.015 J-0.0043
N1925 X11.6165 Y0.0043 Z0.0142 I-0.015 J0.0043
N1930 X11.6234 Y-0.0134 Z0.0135 I0.015 J-0.0043
N1935 X11.6471 Y-0.001 Z0.0124 I0.0081 J0.0134
N1940 X11.6159 Y0.001 Z0.0107 I-0.0156 J0.001
N1945 X11.6218 Y-0.0123 Z0.0101 I0.0156 J-0.001
N1950 X11.6412 Y0.0123 Z0.0084 I0.0097 J0.0123
N1955 X11.6218 Y-0.0123 Z0.0067 I-0.0097 J-0.0123
N1960 X11.6412 Y0.0123 Z0.005 I0.0097 J0.0123
N1965 X11.6218 Y-0.0123 Z0.0033 I-0.0097 J-0.0123
N1970 X11.6412 Y0.0123 Z0.0016 I0.0097 J0.0123
N1975 X11.6218 Y-0.0123 Z-0.0001 I-0.0097 J-0.0123
N1980 X11.6412 Y0.0123 Z-0.0019 I0.0097 J0.0123
N1985 X11.6171 Y-0.0061 Z-0.0033 I-0.0097 J-0.0123
N1990 X11.6436 Y-0.0099 Z-0.0044 I0.0144 J0.0061
N1995 X11.6194 Y0.0099 Z-0.0061 I-0.0121 J0.0099
N2000 X11.6165 Y-0.0043 Z-0.0067 I0.0121 J-0.0099
N2005 X11.6465 Y0.0043 Z-0.0084 I0.015 J0.0043
N2010 X11.6365 Y0.0148 Z-0.0089 I-0.015 J-0.0043
N2015 X11.6161 Y-0.0024 Z-0.01 I-0.005 J-0.0148
N2020 X11.6408 Y-0.0126 Z-0.0111 I0.0154 J0.0024
N2025 X11.6383 Y0.0141 Z-0.0123 I-0.0093 J0.0126
N2030 X11.6159 Y-0.0005 Z-0.0134 I-0.0068 J-0.0141
N2035 X11.6471 Y0.0005 Z-0.0151 I0.0156 J0.0005
N2040 X11.6159 Y-0.0005 Z-0.0168 I-0.0156 J-0.0005
N2045 X11.6471 Y0.0005 Z-0.0185 I0.0156 J0.0005
N2050 X11.6416 Y0.012 Z-0.019 I-0.0156 J-0.0005
N2055 X11.6162 Y0.0034 Z-0.0201 I-0.0101 J-0.012
N2060 X11.6468 Y-0.0034 Z-0.0218 I0.0153 J-0.0034
N2065 X11.643 Y0.0106 Z-0.0223 I-0.0153 J0.0034
N2070 X11.6168 Y0.0052 Z-0.0235 I-0.0115 J-0.0106
N2075 X11.6462 Y-0.0052 Z-0.0252 I0.0147 J-0.0052
N2080 X11.6442 Y0.0091 Z-0.0257 I-0.0147 J0.0052
N2085 X11.6188 Y-0.0091 Z-0.0274 I-0.0127 J-0.0091
N2090 X11.6442 Y0.0091 Z-0.0291 I0.0127 J0.0091
N2095 X11.6188 Y-0.0091 Z-0.0308 I-0.0127 J-0.0091
N2100 X11.6461 Y0.0057 Z-0.0324 I0.0127 J0.0091
N2105 X11.6197 Y0.0102 Z-0.0335 I-0.0145 J-0.0057
N2110 X11.6433 Y-0.0103 Z-0.0353 I0.0118 J-0.0102
N2115 X11.6466 Y0.0038 Z-0.0358 I-0.0118 J0.0103
N2120 X11.6211 Y0.0116 Z-0.0369 I-0.0151 J-0.0038
N2125 X11.6419 Y-0.0116 Z-0.0386 I0.0104 J-0.0116
N2130 X11.647 Y0.0019 Z-0.0391 I-0.0104 J0.0116
N2135 X11.616 Y-0.0019 Z-0.0409 I-0.0155 J-0.0019
N2140 X11.6471 Y0. Z-0.0425 I0.0155 J0.0019
N2145 X11.6193 Y0.0097 I-0.0156 J0.
N2150 X11.6437 Y-0.0097 I0.0122 J-0.0097
N2155 X11.6471 Y0. I-0.0122 J0.0097
N2160 G1 X11.6481 Y0.0056 F20.
N2165 X11.6501 Y0.0112
N2170 X11.65 Y0.0172
N2175 X11.6476 Y0.0227
N2180 X11.6437 Y0.0273
N2185 X11.6388 Y0.0307
N2190 X11.6332 Y0.0329
N2195 X11.6273 Y0.0338
N2200 X11.6213 Y0.0334
N2205 X11.6154 Y0.032
N2210 X11.61 Y0.0294
N2215 X11.6051 Y0.026
N2220 X11.6009 Y0.0217
N2225 X11.5974 Y0.0168
N2230 X11.5949 Y0.0114
N2235 X11.5932 Y0.0056
N2240 X11.5926 Y-0.0004
N2245 X11.5928 Y-0.0064
N2250 X11.5941 Y-0.0122
N2255 X11.5962 Y-0.0179
N2260 X11.5992 Y-0.0231
N2265 X11.6029 Y-0.0278
N2270 X11.6073 Y-0.0318
N2275 X11.6123 Y-0.0352
N2280 X11.6177 Y-0.0377
N2285 X11.6234 Y-0.0395
N2290 X11.6294 Y-0.0403
N2295 X11.6354 Y-0.0402
N2300 X11.6413 Y-0.0392
N2305 X11.647 Y-0.0374
N2310 X11.6524 Y-0.0347
N2315 X11.6573 Y-0.0313
N2320 X11.6601 Y-0.0289
N2325 X11.6626 Y-0.0266
N2330 X11.6636 Y-0.0254
N2335 X11.6644 Y-0.0243
N2340 X11.6688 Y-0.0166
N2345 X11.6697 Y-0.015
N2350 X11.6703 Y-0.0133
N2355 X11.6716 Y-0.0067
N2360 X11.6724 Y-0.0019
N2365 X11.6725 Y0.
N2370 X11.6724 Y0.0019
N2375 X11.6716 Y0.0067
N2380 X11.6703 Y0.0133
N2385 X11.6697 Y0.015
N2390 X11.6688 Y0.0166
N2395 X11.6644 Y0.0243
N2400 X11.6636 Y0.0254
N2405 X11.6626 Y0.0266
N2410 X11.6591 Y0.0299
N2415 X11.655 Y0.0333
N2420 X11.6524 Y0.0353
N2425 X11.6507 Y0.0362
N2430 X11.6457 Y0.038
N2435 X11.6405 Y0.0399
N2440 X11.6391 Y0.0403
N2445 X11.6374 Y0.0405
N2450 X11.6357 Y0.0406
N2455 X11.6257 Y0.0405
N2460 X11.6241 Y0.0403
N2465 X11.6225 Y0.0399
N2470 X11.6124 Y0.0362
N2475 X11.6113 Y0.0357
N2480 X11.6102 Y0.035
N2485 X11.608 Y0.0333
N2490 X11.6058 Y0.0314
N2495 X11.6003 Y0.0266
N2500 X11.5991 Y0.025
N2505 X11.5942 Y0.0166
N2510 X11.5934 Y0.015
N2515 X11.5927 Y0.0133
N2520 X11.5924 Y0.0121
N2525 X11.5906 Y0.0017
N2530 X11.5905 Y0.
N2535 X11.5906 Y-0.0017
N2540 X11.5924 Y-0.0121
N2545 X11.5927 Y-0.0133
N2550 X11.5934 Y-0.015
N2555 X11.5942 Y-0.0166
N2560 X11.5991 Y-0.025
N2565 X11.6003 Y-0.0266
N2570 X11.6058 Y-0.0314
N2575 X11.608 Y-0.0333
N2580 X11.6102 Y-0.035
N2585 X11.6113 Y-0.0357
N2590 X11.6124 Y-0.0362
N2595 X11.6225 Y-0.0399
N2600 X11.6241 Y-0.0403
N2605 X11.6257 Y-0.0405
N2610 X11.6357 Y-0.0406
N2615 X11.6374 Y-0.0405
N2620 X11.6391 Y-0.0403
N2625 X11.6405 Y-0.0399
N2630 X11.6491 Y-0.0368
N2635 X11.6507 Y-0.0362
N2640 X11.6524 Y-0.0353
N2645 X11.655 Y-0.0333
N2650 X11.6591 Y-0.0299
N2655 X11.6601 Y-0.0289
N2660 G3 X11.6629 Y-0.0249 I-0.0088 J0.0089
N2665 G1 X11.6639 Y-0.0223 Z-0.0422
N2670 X11.665 Y-0.0199 Z-0.0413
N2675 X11.6659 Y-0.0177 Z-0.0398
N2680 X11.6667 Y-0.0159 Z-0.0378
N2685 X11.6673 Y-0.0145 Z-0.0354
N2690 X11.6676 Y-0.0137 Z-0.0328
N2695 X11.6677 Y-0.0134 Z-0.03
N2700 G0 Z0.6
N2705 X6.8663 Y-0.0126
N2710 Z0.2
N2715 Z0.1145
N2720 G1 Z0.102 F20.
N2725 G3 X6.8477 Y0.0126 Z0.1003 I-0.0093 J0.0126 F10.
N2730 X6.8663 Y-0.0126 Z0.0986 I0.0093 J-0.0126
N2735 X6.8477 Y0.0126 Z0.0969 I-0.0093 J0.0126
N2740 X6.8663 Y-0.0126 Z0.0951 I0.0093 J-0.0126
N2745 X6.8477 Y0.0126 Z0.0934 I-0.0093 J0.0126
N2750 X6.8663 Y-0.0126 Z0.0917 I0.0093 J-0.0126
N2755 X6.8477 Y0.0126 Z0.09 I-0.0093 J0.0126
N2760 X6.8663 Y-0.0126 Z0.0883 I0.0093 J-0.0126
N2765 X6.8477 Y0.0126 Z0.0866 I-0.0093 J0.0126
N2770 X6.8663 Y-0.0126 Z0.0849 I0.0093 J-0.0126
N2775 X6.8477 Y0.0126 Z0.0831 I-0.0093 J0.0126
N2780 X6.8663 Y-0.0126 Z0.0814 I0.0093 J-0.0126
N2785 X6.8477 Y0.0126 Z0.0797 I-0.0093 J0.0126
N2790 X6.8663 Y-0.0126 Z0.078 I0.0093 J-0.0126
N2795 X6.8477 Y0.0126 Z0.0763 I-0.0093 J0.0126
N2800 X6.8663 Y-0.0126 Z0.0746 I0.0093 J-0.0126
N2805 X6.8477 Y0.0126 Z0.0729 I-0.0093 J0.0126
N2810 X6.8663 Y-0.0126 Z0.0711 I0.0093 J-0.0126
N2815 X6.8477 Y0.0126 Z0.0694 I-0.0093 J0.0126
N2820 X6.8663 Y-0.0126 Z0.0677 I0.0093 J-0.0126
N2825 X6.8477 Y0.0126 Z0.066 I-0.0093 J0.0126
N2830 X6.8663 Y-0.0126 Z0.0643 I0.0093 J-0.0126
N2835 X6.8477 Y0.0126 Z0.0626 I-0.0093 J0.0126
N2840 X6.8663 Y-0.0126 Z0.0609 I0.0093 J-0.0126
N2845 X6.8477 Y0.0126 Z0.0591 I-0.0093 J0.0126
N2850 X6.8663 Y-0.0126 Z0.0574 I0.0093 J-0.0126
N2855 X6.8477 Y0.0126 Z0.0557 I-0.0093 J0.0126
N2860 X6.8663 Y-0.0126 Z0.054 I0.0093 J-0.0126
N2865 X6.8477 Y0.0126 Z0.0523 I-0.0093 J0.0126
N2870 X6.8663 Y-0.0126 Z0.0506 I0.0093 J-0.0126
N2875 X6.8477 Y0.0126 Z0.0489 I-0.0093 J0.0126
N2880 X6.8663 Y-0.0126 Z0.0471 I0.0093 J-0.0126
N2885 X6.8477 Y0.0126 Z0.0454 I-0.0093 J0.0126
N2890 X6.8663 Y-0.0126 Z0.0437 I0.0093 J-0.0126
N2895 X6.8477 Y0.0126 Z0.042 I-0.0093 J0.0126
N2900 X6.8663 Y-0.0126 Z0.0403 I0.0093 J-0.0126
N2905 X6.8477 Y0.0126 Z0.0386 I-0.0093 J0.0126
N2910 X6.8663 Y-0.0126 Z0.0369 I0.0093 J-0.0126
N2915 X6.8477 Y0.0126 Z0.0351 I-0.0093 J0.0126
N2920 X6.8663 Y-0.0126 Z0.0334 I0.0093 J-0.0126
N2925 X6.8477 Y0.0126 Z0.0317 I-0.0093 J0.0126
N2930 X6.8663 Y-0.0126 Z0.03 I0.0093 J-0.0126
N2935 X6.8477 Y0.0126 Z0.0283 I-0.0093 J0.0126
N2940 X6.8663 Y-0.0126 Z0.0266 I0.0093 J-0.0126
N2945 X6.8477 Y0.0126 Z0.0249 I-0.0093 J0.0126
N2950 X6.8663 Y-0.0126 Z0.0231 I0.0093 J-0.0126
N2955 X6.8477 Y0.0126 Z0.0214 I-0.0093 J0.0126
N2960 X6.8663 Y-0.0126 Z0.0197 I0.0093 J-0.0126
N2965 X6.8477 Y0.0126 Z0.018 I-0.0093 J0.0126
N2970 X6.8663 Y-0.0126 Z0.0163 I0.0093 J-0.0126
N2975 X6.8477 Y0.0126 Z0.0146 I-0.0093 J0.0126
N2980 X6.8663 Y-0.0126 Z0.0129 I0.0093 J-0.0126
N2985 X6.8477 Y0.0126 Z0.0111 I-0.0093 J0.0126
N2990 X6.8663 Y-0.0126 Z0.0094 I0.0093 J-0.0126
N2995 X6.8477 Y0.0126 Z0.0077 I-0.0093 J0.0126
N3000 X6.8663 Y-0.0126 Z0.006 I0.0093 J-0.0126
N3005 X6.8477 Y0.0126 Z0.0043 I-0.0093 J0.0126
N3010 X6.8663 Y-0.0126 Z0.0026 I0.0093 J-0.0126
N3015 X6.8477 Y0.0126 Z0.0009 I-0.0093 J0.0126
N3020 X6.8663 Y-0.0126 Z-0.0009 I0.0093 J-0.0126
N3025 X6.8477 Y0.0126 Z-0.0026 I-0.0093 J0.0126
N3030 X6.8663 Y-0.0126 Z-0.0043 I0.0093 J-0.0126
N3035 X6.8477 Y0.0126 Z-0.006 I-0.0093 J0.0126
N3040 X6.8663 Y-0.0126 Z-0.0077 I0.0093 J-0.0126
N3045 X6.8477 Y0.0126 Z-0.0094 I-0.0093 J0.0126
N3050 X6.8663 Y-0.0126 Z-0.0111 I0.0093 J-0.0126
N3055 X6.8477 Y0.0126 Z-0.0128 I-0.0093 J0.0126
N3060 X6.8663 Y-0.0126 Z-0.0146 I0.0093 J-0.0126
N3065 X6.8477 Y0.0126 Z-0.0163 I-0.0093 J0.0126
N3070 X6.8663 Y-0.0126 Z-0.018 I0.0093 J-0.0126
N3075 X6.8477 Y0.0126 Z-0.0197 I-0.0093 J0.0126
N3080 X6.8663 Y-0.0126 Z-0.0214 I0.0093 J-0.0126
N3085 X6.8477 Y0.0126 Z-0.0231 I-0.0093 J0.0126
N3090 X6.8663 Y-0.0126 Z-0.0248 I0.0093 J-0.0126
N3095 X6.8477 Y0.0126 Z-0.0266 I-0.0093 J0.0126
N3100 X6.8663 Y-0.0126 Z-0.0283 I0.0093 J-0.0126
N3105 X6.8477 Y0.0126 Z-0.03 I-0.0093 J0.0126
N3110 X6.8663 Y-0.0126 Z-0.0317 I0.0093 J-0.0126
N3115 X6.8477 Y0.0126 Z-0.0334 I-0.0093 J0.0126
N3120 X6.8663 Y-0.0126 Z-0.0351 I0.0093 J-0.0126
N3125 X6.8477 Y0.0126 Z-0.0368 I-0.0093 J0.0126
N3130 X6.8663 Y-0.0126 Z-0.0386 I0.0093 J-0.0126
N3135 X6.8477 Y0.0126 Z-0.0403 I-0.0093 J0.0126
N3140 X6.8663 Y-0.0126 Z-0.042 I0.0093 J-0.0126
N3145 X6.8726 Y0. Z-0.0425 I-0.0093 J0.0126
N3150 X6.8414 I-0.0156 J0.
N3155 X6.8726 I0.0156 J0.
N3160 G1 X6.8736 Y0.0056 F20.
N3165 X6.8756 Y0.0112
N3170 X6.8755 Y0.0172
N3175 X6.8731 Y0.0227
N3180 X6.8692 Y0.0273
N3185 X6.8643 Y0.0307
N3190 X6.8587 Y0.0329
N3195 X6.8527 Y0.0338
N3200 X6.8468 Y0.0334
N3205 X6.8409 Y0.032
N3210 X6.8355 Y0.0294
N3215 X6.8306 Y0.026
N3220 X6.8264 Y0.0217
N3225 X6.8229 Y0.0168
N3230 X6.8204 Y0.0114
N3235 X6.8187 Y0.0056
N3240 X6.8181 Y-0.0004
N3245 X6.8183 Y-0.0064
N3250 X6.8196 Y-0.0122
N3255 X6.8217 Y-0.0178
N3260 X6.8246 Y-0.0231
N3265 X6.8284 Y-0.0278
N3270 X6.8328 Y-0.0318
N3275 X6.8378 Y-0.0352
N3280 X6.8432 Y-0.0377
N3285 X6.8489 Y-0.0395
N3290 X6.8549 Y-0.0403
N3295 X6.8609 Y-0.0402
N3300 X6.8668 Y-0.0392
N3305 X6.8725 Y-0.0374
N3310 X6.8779 Y-0.0347
N3315 X6.8824 Y-0.0316
N3320 X6.884 Y-0.0303
N3325 X6.8859 Y-0.0287
N3330 X6.8874 Y-0.0274
N3335 X6.8881 Y-0.0266
N3340 X6.8895 Y-0.0249
N3345 X6.8941 Y-0.017
N3350 X6.8951 Y-0.0151
N3355 X6.8958 Y-0.0133
N3360 X6.8971 Y-0.0067
N3365 X6.8979 Y-0.0017
N3370 X6.898 Y0.
N3375 X6.8979 Y0.0017
N3380 X6.8971 Y0.0067
N3385 X6.8958 Y0.0133
N3390 X6.8951 Y0.0151
N3395 X6.8941 Y0.017
N3400 X6.8895 Y0.0249
N3405 X6.8881 Y0.0266
N3410 X6.8874 Y0.0274
N3415 X6.8805 Y0.0333
N3420 X6.8789 Y0.0346
N3425 X6.8773 Y0.0356
N3430 X6.8741 Y0.037
N3435 X6.866 Y0.0399
N3440 X6.8634 Y0.0405
N3445 X6.8607 Y0.0406
N3450 X6.8541
N3455 X6.851 Y0.0405
N3460 X6.8495 Y0.0403
N3465 X6.8479 Y0.0399
N3470 X6.8408 Y0.0373
N3475 X6.8374 Y0.036
N3480 X6.8358 Y0.035
N3485 X6.8341 Y0.0338
N3490 X6.8274 Y0.0282
N3495 X6.8258 Y0.0266
N3500 X6.8245 Y0.0249
N3505 X6.8193 Y0.0159
N3510 X6.8187 Y0.0146
N3515 X6.8182 Y0.0133
N3520 X6.8169 Y0.0067
N3525 X6.816 Y0.
N3530 X6.8169 Y-0.0067
N3535 X6.8182 Y-0.0133
N3540 X6.8187 Y-0.0146
N3545 X6.8193 Y-0.0159
N3550 X6.8245 Y-0.0249
N3555 X6.8258 Y-0.0266
N3560 X6.8274 Y-0.0282
N3565 X6.8341 Y-0.0338
N3570 X6.8358 Y-0.035
N3575 X6.8374 Y-0.036
N3580 X6.8408 Y-0.0373
N3585 X6.8479 Y-0.0399
N3590 X6.8495 Y-0.0403
N3595 X6.851 Y-0.0405
N3600 X6.8541 Y-0.0406
N3605 X6.8607
N3610 X6.8634 Y-0.0405
N3615 X6.866 Y-0.0399
N3620 X6.8741 Y-0.037
N3625 X6.8773 Y-0.0356
N3630 X6.8789 Y-0.0346
N3635 X6.8825 Y-0.0316
N3640 X6.884 Y-0.0303
N3645 X6.8849 Y-0.0291 Z-0.0423
N3650 X6.8857 Y-0.028 Z-0.0416
N3655 X6.8863 Y-0.0271 Z-0.0405
N3660 X6.8867 Y-0.0266 Z-0.0391
N3665 X6.8869 Y-0.0264 Z-0.0376
N3670 G0 Z0.2
N3675 X9.3908 Y-0.0126
N3680 Z0.1145
N3685 G1 Z0.102 F20.
N3690 G3 X9.3722 Y0.0126 Z0.1003 I-0.0093 J0.0126 F10.
N3695 X9.3908 Y-0.0126 Z0.0986 I0.0093 J-0.0126
N3700 X9.3722 Y0.0126 Z0.0969 I-0.0093 J0.0126
N3705 X9.3908 Y-0.0126 Z0.0951 I0.0093 J-0.0126
N3710 X9.3722 Y0.0126 Z0.0934 I-0.0093 J0.0126
N3715 X9.3908 Y-0.0126 Z0.0917 I0.0093 J-0.0126
N3720 X9.3722 Y0.0126 Z0.09 I-0.0093 J0.0126
N3725 X9.3908 Y-0.0126 Z0.0883 I0.0093 J-0.0126
N3730 X9.3722 Y0.0126 Z0.0866 I-0.0093 J0.0126
N3735 X9.3908 Y-0.0126 Z0.0849 I0.0093 J-0.0126
N3740 X9.3722 Y0.0126 Z0.0831 I-0.0093 J0.0126
N3745 X9.3908 Y-0.0126 Z0.0814 I0.0093 J-0.0126
N3750 X9.3722 Y0.0126 Z0.0797 I-0.0093 J0.0126
N3755 X9.3908 Y-0.0126 Z0.078 I0.0093 J-0.0126
N3760 X9.3722 Y0.0126 Z0.0763 I-0.0093 J0.0126
N3765 X9.3908 Y-0.0126 Z0.0746 I0.0093 J-0.0126
N3770 X9.3722 Y0.0126 Z0.0729 I-0.0093 J0.0126
N3775 X9.3908 Y-0.0126 Z0.0711 I0.0093 J-0.0126
N3780 X9.3722 Y0.0126 Z0.0694 I-0.0093 J0.0126
N3785 X9.3908 Y-0.0126 Z0.0677 I0.0093 J-0.0126
N3790 X9.3722 Y0.0126 Z0.066 I-0.0093 J0.0126
N3795 X9.3908 Y-0.0126 Z0.0643 I0.0093 J-0.0126
N3800 X9.3722 Y0.0126 Z0.0626 I-0.0093 J0.0126
N3805 X9.3908 Y-0.0126 Z0.0609 I0.0093 J-0.0126
N3810 X9.3722 Y0.0126 Z0.0591 I-0.0093 J0.0126
N3815 X9.3908 Y-0.0126 Z0.0574 I0.0093 J-0.0126
N3820 X9.3722 Y0.0126 Z0.0557 I-0.0093 J0.0126
N3825 X9.3908 Y-0.0126 Z0.054 I0.0093 J-0.0126
N3830 X9.3722 Y0.0126 Z0.0523 I-0.0093 J0.0126
N3835 X9.3908 Y-0.0126 Z0.0506 I0.0093 J-0.0126
N3840 X9.3722 Y0.0126 Z0.0489 I-0.0093 J0.0126
N3845 X9.3908 Y-0.0126 Z0.0471 I0.0093 J-0.0126
N3850 X9.3722 Y0.0126 Z0.0454 I-0.0093 J0.0126
N3855 X9.3908 Y-0.0126 Z0.0437 I0.0093 J-0.0126
N3860 X9.3722 Y0.0126 Z0.042 I-0.0093 J0.0126
N3865 X9.3908 Y-0.0126 Z0.0403 I0.0093 J-0.0126
N3870 X9.3722 Y0.0126 Z0.0386 I-0.0093 J0.0126
N3875 X9.3908 Y-0.0126 Z0.0369 I0.0093 J-0.0126
N3880 X9.3722 Y0.0126 Z0.0351 I-0.0093 J0.0126
N3885 X9.3908 Y-0.0126 Z0.0334 I0.0093 J-0.0126
N3890 X9.3722 Y0.0126 Z0.0317 I-0.0093 J0.0126
N3895 X9.3908 Y-0.0126 Z0.03 I0.0093 J-0.0126
N3900 X9.3722 Y0.0126 Z0.0283 I-0.0093 J0.0126
N3905 X9.3908 Y-0.0126 Z0.0266 I0.0093 J-0.0126
N3910 X9.3722 Y0.0126 Z0.0249 I-0.0093 J0.0126
N3915 X9.3908 Y-0.0126 Z0.0231 I0.0093 J-0.0126
N3920 X9.3722 Y0.0126 Z0.0214 I-0.0093 J0.0126
N3925 X9.3908 Y-0.0126 Z0.0197 I0.0093 J-0.0126
N3930 X9.3722 Y0.0126 Z0.018 I-0.0093 J0.0126
N3935 X9.3908 Y-0.0126 Z0.0163 I0.0093 J-0.0126
N3940 X9.3722 Y0.0126 Z0.0146 I-0.0093 J0.0126
N3945 X9.3908 Y-0.0126 Z0.0129 I0.0093 J-0.0126
N3950 X9.3722 Y0.0126 Z0.0111 I-0.0093 J0.0126
N3955 X9.3908 Y-0.0126 Z0.0094 I0.0093 J-0.0126
N3960 X9.3722 Y0.0126 Z0.0077 I-0.0093 J0.0126
N3965 X9.3908 Y-0.0126 Z0.006 I0.0093 J-0.0126
N3970 X9.3722 Y0.0126 Z0.0043 I-0.0093 J0.0126
N3975 X9.3908 Y-0.0126 Z0.0026 I0.0093 J-0.0126
N3980 X9.3722 Y0.0126 Z0.0009 I-0.0093 J0.0126
N3985 X9.3908 Y-0.0126 Z-0.0009 I0.0093 J-0.0126
N3990 X9.3722 Y0.0126 Z-0.0026 I-0.0093 J0.0126
N3995 X9.3908 Y-0.0126 Z-0.0043 I0.0093 J-0.0126
N4000 X9.3722 Y0.0126 Z-0.006 I-0.0093 J0.0126
N4005 X9.3908 Y-0.0126 Z-0.0077 I0.0093 J-0.0126
N4010 X9.3722 Y0.0126 Z-0.0094 I-0.0093 J0.0126
N4015 X9.3908 Y-0.0126 Z-0.0111 I0.0093 J-0.0126
N4020 X9.3722 Y0.0126 Z-0.0128 I-0.0093 J0.0126
N4025 X9.3908 Y-0.0126 Z-0.0146 I0.0093 J-0.0126
N4030 X9.3722 Y0.0126 Z-0.0163 I-0.0093 J0.0126
N4035 X9.3908 Y-0.0126 Z-0.018 I0.0093 J-0.0126
N4040 X9.3722 Y0.0126 Z-0.0197 I-0.0093 J0.0126
N4045 X9.3908 Y-0.0126 Z-0.0214 I0.0093 J-0.0126
N4050 X9.3722 Y0.0126 Z-0.0231 I-0.0093 J0.0126
N4055 X9.3908 Y-0.0126 Z-0.0248 I0.0093 J-0.0126
N4060 X9.3722 Y0.0126 Z-0.0266 I-0.0093 J0.0126
N4065 X9.3908 Y-0.0126 Z-0.0283 I0.0093 J-0.0126
N4070 X9.3722 Y0.0126 Z-0.03 I-0.0093 J0.0126
N4075 X9.3908 Y-0.0126 Z-0.0317 I0.0093 J-0.0126
N4080 X9.3722 Y0.0126 Z-0.0334 I-0.0093 J0.0126
N4085 X9.3908 Y-0.0126 Z-0.0351 I0.0093 J-0.0126
N4090 X9.3722 Y0.0126 Z-0.0368 I-0.0093 J0.0126
N4095 X9.3908 Y-0.0126 Z-0.0386 I0.0093 J-0.0126
N4100 X9.3722 Y0.0126 Z-0.0403 I-0.0093 J0.0126
N4105 X9.3908 Y-0.0126 Z-0.042 I0.0093 J-0.0126
N4110 X9.3971 Y0. Z-0.0425 I-0.0093 J0.0126
N4115 X9.3659 I-0.0156 J0.
N4120 X9.3971 I0.0156 J0.
N4125 G1 X9.3981 Y0.0056 F20.
N4130 X9.4001 Y0.0112
N4135 X9.4 Y0.0172
N4140 X9.3976 Y0.0227
N4145 X9.3937 Y0.0273
N4150 X9.3888 Y0.0307
N4155 X9.3832 Y0.0329
N4160 X9.3773 Y0.0338
N4165 X9.3713 Y0.0334
N4170 X9.3654 Y0.032
N4175 X9.36 Y0.0294
N4180 X9.3551 Y0.026
N4185 X9.3509 Y0.0217
N4190 X9.3474 Y0.0168
N4195 X9.3449 Y0.0114
N4200 X9.3432 Y0.0056
N4205 X9.3426 Y-0.0004
N4210 X9.3428 Y-0.0064
N4215 X9.3441 Y-0.0122
N4220 X9.3462 Y-0.0179
N4225 X9.3492 Y-0.0231
N4230 X9.3529 Y-0.0278
N4235 X9.3573 Y-0.0318
N4240 X9.3623 Y-0.0352
N4245 X9.3677 Y-0.0377
N4250 X9.3734 Y-0.0395
N4255 X9.3794 Y-0.0403
N4260 X9.3854 Y-0.0402
N4265 X9.3913 Y-0.0392
N4270 X9.397 Y-0.0374
N4275 X9.4024 Y-0.0347
N4280 X9.4068 Y-0.0316
N4285 X9.4078 Y-0.0309
N4290 X9.4086 Y-0.0301
N4295 X9.4109 Y-0.0282
N4300 X9.4127 Y-0.0266
N4305 X9.4132 Y-0.026
N4310 X9.4169 Y-0.02
N4315 X9.4199 Y-0.0145
N4320 X9.4203 Y-0.0133
N4325 X9.4216 Y-0.0067
N4330 X9.4225 Y0.
N4335 X9.4216 Y0.0067
N4340 X9.4203 Y0.0133
N4345 X9.4199 Y0.0145
N4350 X9.4169 Y0.02
N4355 X9.4132 Y0.026
N4360 X9.4127 Y0.0266
N4365 X9.4065 Y0.032
N4370 X9.405 Y0.0333
N4375 X9.4024 Y0.0353
N4380 X9.4012 Y0.036
N4385 X9.3999 Y0.0365
N4390 X9.3905 Y0.0399
N4395 X9.3885 Y0.0404
N4400 X9.3865 Y0.0406
N4405 X9.3765
N4410 X9.3749 Y0.0404
N4415 X9.3732 Y0.0401
N4420 X9.3725 Y0.0399
N4425 X9.3632 Y0.0365
N4430 X9.3615 Y0.0358
N4435 X9.3599 Y0.0348
N4440 X9.358 Y0.0333
N4445 X9.3532 Y0.0293
N4450 X9.3503 Y0.0266
N4455 X9.3492 Y0.0251
N4460 X9.3483 Y0.0236
N4465 X9.3442 Y0.0166
N4470 X9.3434 Y0.015
N4475 X9.3427 Y0.0133
N4480 X9.3415 Y0.0067
N4485 X9.3406 Y0.0017
N4490 X9.3405 Y0.
N4495 X9.3406 Y-0.0017
N4500 X9.3415 Y-0.0067
N4505 X9.3427 Y-0.0133
N4510 X9.3434 Y-0.015
N4515 X9.3442 Y-0.0166
N4520 X9.3483 Y-0.0236
N4525 X9.3492 Y-0.0251
N4530 X9.3503 Y-0.0266
N4535 X9.3532 Y-0.0293
N4540 X9.358 Y-0.0333
N4545 X9.3599 Y-0.0348
N4550 X9.3615 Y-0.0358
N4555 X9.3632 Y-0.0365
N4560 X9.3725 Y-0.0399
N4565 X9.3732 Y-0.0401
N4570 X9.3749 Y-0.0404
N4575 X9.3765 Y-0.0406
N4580 X9.3865
N4585 X9.3885 Y-0.0404
N4590 X9.3905 Y-0.0399
N4595 X9.3999 Y-0.0365
N4600 X9.4012 Y-0.036
N4605 X9.4024 Y-0.0353
N4610 X9.405 Y-0.0333
N4615 X9.4077 Y-0.031
N4620 X9.4086 Y-0.0301
N4625 X9.4095 Y-0.0289 Z-0.0423
N4630 X9.4103 Y-0.0278 Z-0.0416
N4635 X9.4109 Y-0.0269 Z-0.0405
N4640 X9.4113 Y-0.0264 Z-0.0391
N4645 X9.4115 Y-0.0262 Z-0.0376
N4650 G0 Z0.2
N4655 X14.5633 Y-0.5125
N4660 Z0.1145
N4665 G1 Z0.102 F20.
N4670 G3 X14.5447 Y-0.4874 Z0.1003 I-0.0093 J0.0126 F10.
N4675 X14.5633 Y-0.5125 Z0.0986 I0.0093 J-0.0126
N4680 X14.5625 Y-0.4869 Z0.0975 I-0.0093 J0.0126
N4685 X14.5384 Y-0.4985 Z0.0964 I-0.0085 J-0.0131
N4690 X14.5696 Y-0.5014 Z0.0947 I0.0156 J-0.0015
N4695 X14.5641 Y-0.488 Z0.0942 I-0.0156 J0.0015
N4700 X14.5387 Y-0.4966 Z0.093 I-0.0101 J-0.0119
N4705 X14.5581 Y-0.5151 Z0.0919 I0.0153 J-0.0034
N4710 X14.5655 Y-0.4894 Z0.0908 I-0.0041 J0.0151
N4715 X14.5393 Y-0.4947 Z0.0897 I-0.0115 J-0.0106
N4720 X14.5687 Y-0.5052 Z0.088 I0.0147 J-0.0053
N4725 X14.5667 Y-0.4909 Z0.0874 I-0.0147 J0.0053
N4730 X14.5401 Y-0.4929 Z0.0863 I-0.0127 J-0.0091
N4735 X14.5679 Y-0.507 Z0.0846 I0.0139 J-0.007
N4740 X14.5677 Y-0.4925 Z0.0841 I-0.0139 J0.007
N4745 X14.541 Y-0.4913 Z0.083 I-0.0137 J-0.0074
N4750 X14.567 Y-0.5087 Z0.0812 I0.013 J-0.0087
N4755 X14.541 Y-0.4913 Z0.0795 I-0.013 J0.0087
N4760 X14.567 Y-0.5087 Z0.0778 I0.013 J-0.0087
N4765 X14.5691 Y-0.4961 Z0.0774 I-0.013 J0.0087
N4770 X14.5436 Y-0.4883 Z0.0762 I-0.0151 J-0.0038
N4775 X14.5644 Y-0.5116 Z0.0745 I0.0104 J-0.0116
N4780 X14.5695 Y-0.4981 Z0.074 I-0.0104 J0.0116
N4785 X14.5385 Y-0.5019 Z0.0723 I-0.0155 J-0.0019
N4790 X14.5695 Y-0.4981 Z0.0706 I0.0155 J0.0019
N4795 X14.5385 Y-0.5019 Z0.0689 I-0.0155 J-0.0019
N4800 X14.5695 Y-0.4981 Z0.0671 I0.0155 J0.0019
N4805 X14.5385 Y-0.5019 Z0.0654 I-0.0155 J-0.0019
N4810 X14.5695 Y-0.4981 Z0.0637 I0.0155 J0.0019
N4815 X14.5385 Y-0.5019 Z0.062 I-0.0155 J-0.0019
N4820 X14.5422 Y-0.5102 Z0.0617 I0.0155 J0.0019
N4825 X14.5685 Y-0.5057 Z0.0606 I0.0118 J0.0102
N4830 X14.5395 Y-0.4943 Z0.0588 I-0.0145 J0.0057
N4835 X14.541 Y-0.5087 Z0.0583 I0.0145 J-0.0057
N4840 X14.5677 Y-0.5074 Z0.0572 I0.013 J0.0087
N4845 X14.5403 Y-0.4925 Z0.0555 I-0.0137 J0.0075
N4850 X14.54 Y-0.507 Z0.055 I0.0137 J-0.0075
N4855 X14.5667 Y-0.5091 Z0.0538 I0.014 J0.007
N4860 X14.5413 Y-0.4909 Z0.0521 I-0.0127 J0.0091
N4865 X14.5667 Y-0.5091 Z0.0504 I0.0127 J-0.0091
N4870 X14.5581 Y-0.4849 Z0.0494 I-0.0127 J0.0091
N4875 X14.5387 Y-0.5033 Z0.0482 I-0.0041 J-0.0151
N4880 X14.5641 Y-0.5119 Z0.0471 I0.0153 J0.0034
N4885 X14.5439 Y-0.488 Z0.0454 I-0.0101 J0.012
N4890 X14.5641 Y-0.5119 Z0.0437 I0.0101 J-0.012
N4895 X14.5439 Y-0.488 Z0.042 I-0.0101 J0.012
N4900 X14.5641 Y-0.5119 Z0.0403 I0.0101 J-0.012
N4905 X14.5633 Y-0.4874 Z0.0393 I-0.0101 J0.012
N4910 X14.5386 Y-0.4975 Z0.0382 I-0.0093 J-0.0125
N4915 X14.5694 Y-0.5024 Z0.0364 I0.0154 J-0.0024
N4920 X14.5648 Y-0.4887 Z0.0359 I-0.0154 J0.0024
N4925 X14.539 Y-0.4956 Z0.0348 I-0.0108 J-0.0113
N4930 X14.569 Y-0.5043 Z0.0331 I0.015 J-0.0043
N4935 X14.539 Y-0.4956 Z0.0314 I-0.015 J0.0043
N4940 X14.569 Y-0.5043 Z0.0296 I0.015 J-0.0043
N4945 X14.539 Y-0.4956 Z0.0279 I-0.015 J0.0043
N4950 X14.569 Y-0.5043 Z0.0262 I0.015 J-0.0043
N4955 X14.539 Y-0.4956 Z0.0245 I-0.015 J0.0043
N4960 X14.569 Y-0.5043 Z0.0228 I0.015 J-0.0043
N4965 X14.539 Y-0.4956 Z0.0211 I-0.015 J0.0043
N4970 X14.5494 Y-0.5149 Z0.0202 I0.015 J-0.0043
N4975 X14.5694 Y-0.4971 Z0.0191 I0.0046 J0.0149
N4980 X14.5443 Y-0.4877 Z0.018 I-0.0154 J-0.0029
N4985 X14.5637 Y-0.5122 Z0.0163 I0.0097 J-0.0123
N4990 X14.5443 Y-0.4877 Z0.0146 I-0.0097 J0.0123
N4995 X14.5459 Y-0.5133 Z0.0135 I0.0097 J-0.0123
N5000 X14.5696 Y-0.501 Z0.0124 I0.0081 J0.0134
N5005 X14.5476 Y-0.4857 Z0.0113 I-0.0156 J0.001
N5010 X14.5604 Y-0.5142 Z0.0096 I0.0064 J-0.0143
N5015 X14.5476 Y-0.4857 Z0.0078 I-0.0064 J0.0143
N5020 X14.5429 Y-0.5109 Z0.0068 I0.0064 J-0.0143
N5025 X14.5689 Y-0.5048 Z0.0057 I0.0111 J0.011
N5030 X14.5391 Y-0.4952 Z0.004 I-0.0149 J0.0048
N5035 X14.5416 Y-0.5095 Z0.0034 I0.0149 J-0.0048
N5040 X14.5682 Y-0.5066 Z0.0023 I0.0124 J0.0095
N5045 X14.5398 Y-0.4934 Z0.0006 I-0.0142 J0.0066
N5050 X14.5405 Y-0.5079 Z0.0001 I0.0142 J-0.0066
N5055 X14.5672 Y-0.5083 Z-0.0011 I0.0135 J0.0079
N5060 X14.5408 Y-0.4917 Z-0.0028 I-0.0132 J0.0083
N5065 X14.5396 Y-0.5061 Z-0.0033 I0.0132 J-0.0083
N5070 X14.5661 Y-0.5099 Z-0.0044 I0.0144 J0.0061
N5075 X14.5419 Y-0.4901 Z-0.0061 I-0.0121 J0.0099
N5080 X14.539 Y-0.5043 Z-0.0067 I0.0121 J-0.0099
N5085 X14.5648 Y-0.5113 Z-0.0078 I0.015 J0.0043
N5090 X14.5432 Y-0.4887 Z-0.0095 I-0.0108 J0.0113
N5095 X14.5386 Y-0.5024 Z-0.01 I0.0108 J-0.0113
N5100 X14.5633 Y-0.5125 Z-0.0111 I0.0154 J0.0024
N5105 X14.5608 Y-0.4859 Z-0.0123 I-0.0093 J0.0126
N5110 X14.5384 Y-0.5005 Z-0.0134 I-0.0068 J-0.0141
N5115 X14.5696 Y-0.4995 Z-0.0151 I0.0156 J0.0005
N5120 X14.5384 Y-0.5005 Z-0.0168 I-0.0156 J-0.0005
N5125 X14.5696 Y-0.4995 Z-0.0185 I0.0156 J0.0005
N5130 X14.5641 Y-0.488 Z-0.019 I-0.0156 J-0.0005
N5135 X14.5387 Y-0.4966 Z-0.0201 I-0.0101 J-0.012
N5140 X14.5693 Y-0.5034 Z-0.0218 I0.0153 J-0.0034
N5145 X14.5655 Y-0.4894 Z-0.0223 I-0.0153 J0.0034
N5150 X14.5393 Y-0.4947 Z-0.0235 I-0.0115 J-0.0106
N5155 X14.5687 Y-0.5052 Z-0.0252 I0.0147 J-0.0052
N5160 X14.5667 Y-0.4909 Z-0.0257 I-0.0147 J0.0052
N5165 X14.5413 Y-0.5091 Z-0.0274 I-0.0127 J-0.0091
N5170 X14.5667 Y-0.4909 Z-0.0291 I0.0127 J0.0091
N5175 X14.5413 Y-0.5091 Z-0.0308 I-0.0127 J-0.0091
N5180 X14.5685 Y-0.4943 Z-0.0324 I0.0127 J0.0091
N5185 X14.5422 Y-0.4897 Z-0.0335 I-0.0145 J-0.0057
N5190 X14.5658 Y-0.5102 Z-0.0353 I0.0118 J-0.0102
N5195 X14.5691 Y-0.4961 Z-0.0358 I-0.0118 J0.0103
N5200 X14.5436 Y-0.4883 Z-0.0369 I-0.0151 J-0.0038
N5205 X14.5485 Y-0.5146 Z-0.038 I0.0104 J-0.0116
N5210 X14.5695 Y-0.498 Z-0.0391 I0.0055 J0.0146
N5215 X14.5451 Y-0.4871 Z-0.0403 I-0.0155 J-0.0019
N5220 X14.5629 Y-0.5128 Z-0.042 I0.0089 J-0.0128
N5225 X14.5696 Y-0.5 Z-0.0425 I-0.0089 J0.0128
N5230 X14.5418 Y-0.4903 I-0.0156 J0.
N5235 X14.5662 Y-0.5097 I0.0122 J-0.0097
N5240 X14.5696 Y-0.5 I-0.0122 J0.0097
N5245 G1 X14.5706 Y-0.4944 F20.
N5250 X14.5726 Y-0.4888
N5255 X14.5725 Y-0.4828
N5260 X14.5701 Y-0.4772
N5265 X14.5662 Y-0.4727
N5270 X14.5613 Y-0.4693
N5275 X14.5557 Y-0.4671
N5280 X14.5497 Y-0.4662
N5285 X14.5438 Y-0.4665
N5290 X14.5379 Y-0.468
N5295 X14.5325 Y-0.4705
N5300 X14.5276 Y-0.474
N5305 X14.5234 Y-0.4783
N5310 X14.5199 Y-0.4832
N5315 X14.5174 Y-0.4886
N5320 X14.5157 Y-0.4944
N5325 X14.5151 Y-0.5003
N5330 X14.5153 Y-0.5063
N5335 X14.5166 Y-0.5122
N5340 X14.5187 Y-0.5178
N5345 X14.5216 Y-0.523
N5350 X14.5254 Y-0.5277
N5355 X14.5298 Y-0.5318
N5360 X14.5348 Y-0.5352
N5365 X14.5402 Y-0.5377
N5370 X14.5459 Y-0.5394
N5375 X14.5519 Y-0.5403
N5380 X14.5579 Y-0.5402
N5385 X14.5638 Y-0.5392
N5390 X14.5695 Y-0.5374
N5395 X14.5749 Y-0.5347
N5400 X14.5798 Y-0.5313
N5405 X14.5819 Y-0.5295
N5410 X14.5835 Y-0.5282
N5415 X14.5847 Y-0.5271
N5420 X14.5861 Y-0.5255
N5425 X14.5914 Y-0.5165
N5430 X14.5924 Y-0.5143
N5435 X14.5931 Y-0.5122
N5440 X14.5948 Y-0.5022
N5445 X14.595 Y-0.5005
N5450 X14.5949 Y-0.4989
N5455 X14.5939 Y-0.4922
N5460 X14.5933 Y-0.4889
N5465 X14.5929 Y-0.4872
N5470 X14.5923 Y-0.4856
N5475 X14.5914 Y-0.4835
N5480 X14.587 Y-0.4759
N5485 X14.5859 Y-0.4744
N5490 X14.5847 Y-0.4729
N5495 X14.5841 Y-0.4723
N5500 X14.5762 Y-0.4656
N5505 X14.575 Y-0.4648
N5510 X14.5738 Y-0.4641
N5515 X14.5714 Y-0.4631
N5520 X14.563 Y-0.4601
N5525 X14.5614 Y-0.4597
N5530 X14.5581 Y-0.4594
N5535 X14.5514
N5540 X14.5481 Y-0.4595
N5545 X14.5464 Y-0.4597
N5550 X14.5447 Y-0.4602
N5555 X14.5381 Y-0.4626
N5560 X14.5349 Y-0.4638
N5565 X14.5334 Y-0.4646
N5570 X14.5318 Y-0.4656
N5575 X14.5239 Y-0.4723
N5580 X14.5231 Y-0.4731
N5585 X14.5224 Y-0.4739
N5590 X14.5212 Y-0.4756
N5595 X14.5181 Y-0.481
N5600 X14.5157 Y-0.4856
N5605 X14.5151 Y-0.4872
N5610 X14.5147 Y-0.4889
N5615 X14.5142 Y-0.4922
N5620 X14.5131 Y-0.4989
N5625 X14.513 Y-0.5005
N5630 X14.5132 Y-0.5022
N5635 X14.5149 Y-0.5122
N5640 X14.5154 Y-0.5138
N5645 X14.5161 Y-0.5155
N5650 X14.5181 Y-0.519
N5655 X14.5219 Y-0.5255
N5660 X14.5231 Y-0.527
N5665 X14.5247 Y-0.5285
N5670 X14.5314 Y-0.534
N5675 X14.5331 Y-0.5352
N5680 X14.5347 Y-0.5362
N5685 X14.5381 Y-0.5374
N5690 X14.5447 Y-0.5398
N5695 X14.5464 Y-0.5403
N5700 X14.5481 Y-0.5405
N5705 X14.5514 Y-0.5406
N5710 X14.5581
N5715 X14.5614 Y-0.5403
N5720 X14.563 Y-0.5399
N5725 X14.5714 Y-0.5369
N5730 X14.5747 Y-0.5354
N5735 X14.5764 Y-0.5342
N5740 X14.5806 Y-0.5307
N5745 X14.5819 Y-0.5295
N5750 X14.5828 Y-0.5283 Z-0.0423
N5755 X14.5836 Y-0.5272 Z-0.0416
N5760 X14.5843 Y-0.5263 Z-0.0405
N5765 X14.5847 Y-0.5257 Z-0.0391
N5770 X14.5848 Y-0.5255 Z-0.0376
N5775 G0 Z0.2
N5780 X14.5633 Y0.4874
N5785 Z0.1145
N5790 G1 Z0.102 F20.
N5795 G3 X14.5447 Y0.5125 Z0.1003 I-0.0093 J0.0126 F10.
N5800 X14.5384 Y0.4995 Z0.0998 I0.0093 J-0.0126
N5805 X14.5696 Y0.5004 Z0.098 I0.0156 J0.0005
N5810 X14.5384 Y0.4995 Z0.0963 I-0.0156 J-0.0005
N5815 X14.5696 Y0.5004 Z0.0946 I0.0156 J0.0005
N5820 X14.5384 Y0.4995 Z0.0929 I-0.0156 J-0.0005
N5825 X14.5696 Y0.5004 Z0.0912 I0.0156 J0.0005
N5830 X14.5655 Y0.5106 Z0.0908 I-0.0156 J-0.0005
N5835 X14.5393 Y0.5052 Z0.0897 I-0.0115 J-0.0106
N5840 X14.5687 Y0.4947 Z0.088 I0.0147 J-0.0053
N5845 X14.5667 Y0.5091 Z0.0874 I-0.0147 J0.0053
N5850 X14.5413 Y0.4909 Z0.0857 I-0.0127 J-0.0091
N5855 X14.5667 Y0.5091 Z0.084 I0.0127 J0.0091
N5860 X14.5413 Y0.4909 Z0.0823 I-0.0127 J-0.0091
N5865 X14.5523 Y0.4845 Z0.0818 I0.0127 J0.0091
N5870 X14.5685 Y0.5057 Z0.0807 I0.0017 J0.0155
N5875 X14.5422 Y0.5102 Z0.0796 I-0.0146 J-0.0057
N5880 X14.5658 Y0.4897 Z0.0779 I0.0118 J-0.0103
N5885 X14.5691 Y0.5038 Z0.0774 I-0.0118 J0.0103
N5890 X14.5388 Y0.4961 Z0.0756 I-0.0151 J-0.0038
N5895 X14.5485 Y0.4854 Z0.0751 I0.0151 J0.0038
N5900 X14.5695 Y0.5019 Z0.074 I0.0055 J0.0146
N5905 X14.5451 Y0.5128 Z0.0729 I-0.0155 J-0.0019
N5910 X14.5467 Y0.4861 Z0.0718 I0.0089 J-0.0128
N5915 X14.5696 Y0.5 Z0.0706 I0.0073 J0.0138
N5920 X14.5468 Y0.5138 Z0.0695 I-0.0156 J0.
N5925 X14.5451 Y0.4872 Z0.0684 I0.0072 J-0.0139
N5930 X14.5695 Y0.498 Z0.0673 I0.0089 J0.0128
N5935 X14.5385 Y0.5019 Z0.0656 I-0.0155 J0.002
N5940 X14.5435 Y0.4884 Z0.065 I0.0155 J-0.002
N5945 X14.5691 Y0.4961 Z0.0639 I0.0104 J0.0116
N5950 X14.5388 Y0.5038 Z0.0622 I-0.0151 J0.0039
N5955 X14.5422 Y0.4897 Z0.0617 I0.0151 J-0.0039
N5960 X14.5685 Y0.4943 Z0.0606 I0.0118 J0.0102
N5965 X14.5394 Y0.5057 Z0.0588 I-0.0145 J0.0057
N5970 X14.541 Y0.4913 Z0.0583 I0.0145 J-0.0057
N5975 X14.5677 Y0.4925 Z0.0572 I0.013 J0.0087
N5980 X14.5403 Y0.5075 Z0.0555 I-0.0137 J0.0075
N5985 X14.54 Y0.493 Z0.055 I0.0137 J-0.0075
N5990 X14.5667 Y0.4909 Z0.0538 I0.014 J0.007
N5995 X14.5413 Y0.5091 Z0.0521 I-0.0127 J0.0091
N6000 X14.5393 Y0.4947 Z0.0516 I0.0127 J-0.0091
N6005 X14.5655 Y0.4894 Z0.0505 I0.0147 J0.0052
N6010 X14.5425 Y0.5106 Z0.0488 I-0.0115 J0.0106
N6015 X14.5387 Y0.4966 Z0.0482 I0.0115 J-0.0106
N6020 X14.564 Y0.488 Z0.0471 I0.0153 J0.0034
N6025 X14.5599 Y0.5144 Z0.046 I-0.0101 J0.012
N6030 X14.5384 Y0.4985 Z0.0449 I-0.0059 J-0.0145
N6035 X14.5625 Y0.4869 Z0.0438 I0.0156 J0.0014
N6040 X14.5617 Y0.5136 Z0.0426 I-0.0085 J0.0131
N6045 X14.5384 Y0.5005 Z0.0415 I-0.0077 J-0.0136
N6050 X14.5608 Y0.4859 Z0.0404 I0.0156 J-0.0005
N6055 X14.5633 Y0.5125 Z0.0393 I-0.0068 J0.0141
N6060 X14.5386 Y0.5024 Z0.0382 I-0.0093 J-0.0125
N6065 X14.5694 Y0.4976 Z0.0364 I0.0154 J-0.0024
N6070 X14.5648 Y0.5113 Z0.0359 I-0.0154 J0.0024
N6075 X14.539 Y0.5043 Z0.0348 I-0.0108 J-0.0113
N6080 X14.569 Y0.4957 Z0.0331 I0.015 J-0.0043
N6085 X14.5661 Y0.5099 Z0.0326 I-0.015 J0.0043
N6090 X14.5419 Y0.4901 Z0.0308 I-0.0121 J-0.0099
N6095 X14.5661 Y0.5099 Z0.0291 I0.0121 J0.0099
N6100 X14.5419 Y0.4901 Z0.0274 I-0.0121 J-0.0099
N6105 X14.5661 Y0.5099 Z0.0257 I0.0121 J0.0099
N6110 X14.5419 Y0.4901 Z0.024 I-0.0121 J-0.0099
N6115 X14.5513 Y0.4846 Z0.0236 I0.0121 J0.0099
N6120 X14.5689 Y0.5048 Z0.0225 I0.0027 J0.0154
N6125 X14.5429 Y0.5109 Z0.0213 I-0.0149 J-0.0048
N6130 X14.5651 Y0.489 Z0.0196 I0.0111 J-0.011
N6135 X14.5693 Y0.5029 Z0.0191 I-0.0111 J0.011
N6140 X14.5443 Y0.5122 Z0.018 I-0.0154 J-0.0029
N6145 X14.5637 Y0.4877 Z0.0163 I0.0097 J-0.0123
N6150 X14.5443 Y0.5122 Z0.0146 I-0.0097 J0.0123
N6155 X14.5637 Y0.4877 Z0.0128 I0.0097 J-0.0123
N6160 X14.5443 Y0.5122 Z0.0111 I-0.0097 J0.0123
N6165 X14.5637 Y0.4877 Z0.0094 I0.0097 J-0.0123
N6170 X14.5443 Y0.5122 Z0.0077 I-0.0097 J0.0123
N6175 X14.5637 Y0.4877 Z0.006 I0.0097 J-0.0123
N6180 X14.5443 Y0.5122 Z0.0043 I-0.0097 J0.0123
N6185 X14.5637 Y0.4877 Z0.0026 I0.0097 J-0.0123
N6190 X14.5443 Y0.5122 Z0.0008 I-0.0097 J0.0123
N6195 X14.5405 Y0.4921 Z0.0001 I0.0097 J-0.0123
N6200 X14.5672 Y0.4917 Z-0.0011 I0.0135 J0.0079
N6205 X14.5408 Y0.5083 Z-0.0028 I-0.0132 J0.0083
N6210 X14.5396 Y0.4938 Z-0.0033 I0.0132 J-0.0083
N6215 X14.5661 Y0.4901 Z-0.0044 I0.0144 J0.0061
N6220 X14.5419 Y0.5099 Z-0.0061 I-0.0121 J0.0099
N6225 X14.539 Y0.4957 Z-0.0067 I0.0121 J-0.0099
N6230 X14.569 Y0.5043 Z-0.0084 I0.015 J0.0043
N6235 X14.559 Y0.5148 Z-0.0089 I-0.015 J-0.0043
N6240 X14.5386 Y0.4976 Z-0.01 I-0.005 J-0.0148
N6245 X14.5633 Y0.4874 Z-0.0111 I0.0154 J0.0024
N6250 X14.5447 Y0.5125 Z-0.0128 I-0.0093 J0.0126
N6255 X14.5384 Y0.4995 Z-0.0134 I0.0093 J-0.0126
N6260 X14.5617 Y0.4864 Z-0.0145 I0.0156 J0.0005
N6265 X14.5463 Y0.5136 Z-0.0162 I-0.0077 J0.0136
N6270 X14.5617 Y0.4864 Z-0.0179 I0.0077 J-0.0136
N6275 X14.5641 Y0.5119 Z-0.019 I-0.0077 J0.0136
N6280 X14.5387 Y0.5034 Z-0.0201 I-0.0101 J-0.012
N6285 X14.5692 Y0.4966 Z-0.0218 I0.0153 J-0.0034
N6290 X14.5655 Y0.5106 Z-0.0223 I-0.0153 J0.0034
N6295 X14.5393 Y0.5052 Z-0.0235 I-0.0115 J-0.0106
N6300 X14.5687 Y0.4947 Z-0.0252 I0.0147 J-0.0052
N6305 X14.5667 Y0.5091 Z-0.0257 I-0.0147 J0.0052
N6310 X14.54 Y0.507 Z-0.0268 I-0.0127 J-0.0091
N6315 X14.5679 Y0.493 Z-0.0285 I0.014 J-0.007
N6320 X14.5677 Y0.5074 Z-0.0291 I-0.014 J0.007
N6325 X14.541 Y0.5087 Z-0.0302 I-0.0137 J-0.0075
N6330 X14.567 Y0.4913 Z-0.0319 I0.013 J-0.0087
N6335 X14.5685 Y0.5057 Z-0.0324 I-0.013 J0.0087
N6340 X14.5422 Y0.5102 Z-0.0335 I-0.0145 J-0.0057
N6345 X14.5658 Y0.4897 Z-0.0353 I0.0118 J-0.0102
N6350 X14.5691 Y0.5038 Z-0.0358 I-0.0118 J0.0102
N6355 X14.5436 Y0.5116 Z-0.0369 I-0.0151 J-0.0038
N6360 X14.5644 Y0.4883 Z-0.0386 I0.0104 J-0.0116
N6365 X14.5695 Y0.5019 Z-0.0391 I-0.0104 J0.0116
N6370 X14.5385 Y0.498 Z-0.0409 I-0.0155 J-0.0019
N6375 X14.5467 Y0.4861 Z-0.0414 I0.0155 J0.0019
N6380 X14.5696 Y0.5 Z-0.0425 I0.0072 J0.0138
N6385 X14.5418 Y0.5097 I-0.0156 J0.
N6390 X14.554 Y0.4844 I0.0122 J-0.0097
N6395 X14.5696 Y0.5 I0. J0.0156
N6400 G1 X14.5706 Y0.5056 F20.
N6405 X14.5726 Y0.5112
N6410 X14.5725 Y0.5172
N6415 X14.5701 Y0.5227
N6420 X14.5662 Y0.5273
N6425 X14.5613 Y0.5307
N6430 X14.5557 Y0.5328
N6435 X14.5497 Y0.5337
N6440 X14.5437 Y0.5334
N6445 X14.5379 Y0.5319
N6450 X14.5325 Y0.5294
N6455 X14.5276 Y0.526
N6460 X14.5234 Y0.5217
N6465 X14.5199 Y0.5168
N6470 X14.5174 Y0.5113
N6475 X14.5157 Y0.5056
N6480 X14.5151 Y0.4996
N6485 X14.5153 Y0.4936
N6490 X14.5165 Y0.4877
N6495 X14.5187 Y0.4821
N6500 X14.5216 Y0.4769
N6505 X14.5254 Y0.4722
N6510 X14.5298 Y0.4681
N6515 X14.5348 Y0.4648
N6520 X14.5402 Y0.4622
N6525 X14.5459 Y0.4605
N6530 X14.5519 Y0.4597
N6535 X14.5579 Y0.4598
N6540 X14.5638 Y0.4607
N6545 X14.5695 Y0.4626
N6550 X14.5749 Y0.4652
N6555 X14.5798 Y0.4687
N6560 X14.5815 Y0.4701
N6565 X14.5841 Y0.4726
N6570 X14.5864 Y0.4753
N6575 X14.5884 Y0.4783
N6580 X14.5914 Y0.4835
N6585 X14.5923 Y0.4856
N6590 X14.5929 Y0.4872
N6595 X14.5933 Y0.4889
N6600 X14.5939 Y0.4922
N6605 X14.5949 Y0.4989
N6610 X14.595 Y0.5005
N6615 X14.5948 Y0.5022
N6620 X14.5931 Y0.5122
N6625 X14.5924 Y0.5143
N6630 X14.5914 Y0.5165
N6635 X14.5861 Y0.5255
N6640 X14.5847 Y0.5271
N6645 X14.578 Y0.5328
N6650 X14.5764 Y0.5342
N6655 X14.5747 Y0.5354
N6660 X14.5714 Y0.5369
N6665 X14.563 Y0.5399
N6670 X14.5614 Y0.5403
N6675 X14.5581 Y0.5406
N6680 X14.5514
N6685 X14.5481 Y0.5405
N6690 X14.5464 Y0.5403
N6695 X14.5447 Y0.5398
N6700 X14.5381 Y0.5374
N6705 X14.5347 Y0.5362
N6710 X14.5331 Y0.5352
N6715 X14.5314 Y0.534
N6720 X14.5247 Y0.5285
N6725 X14.5231 Y0.527
N6730 X14.5219 Y0.5255
N6735 X14.518 Y0.5188
N6740 X14.5161 Y0.5155
N6745 X14.5154 Y0.5138
N6750 X14.5149 Y0.5122
N6755 X14.5132 Y0.5022
N6760 X14.513 Y0.5005
N6765 X14.5131 Y0.4989
N6770 X14.5142 Y0.4922
N6775 X14.5147 Y0.4889
N6780 X14.5151 Y0.4872
N6785 X14.5157 Y0.4856
N6790 X14.5181 Y0.481
N6795 X14.5212 Y0.4756
N6800 X14.5224 Y0.4739
N6805 X14.5231 Y0.4731
N6810 X14.5239 Y0.4723
N6815 X14.5318 Y0.4656
N6820 X14.5334 Y0.4646
N6825 X14.5349 Y0.4638
N6830 X14.5381 Y0.4626
N6835 X14.5447 Y0.4602
N6840 X14.5464 Y0.4597
N6845 X14.5481 Y0.4595
N6850 X14.5514 Y0.4594
N6855 X14.5581
N6860 X14.5614 Y0.4597
N6865 X14.563 Y0.4601
N6870 X14.5714 Y0.4631
N6875 X14.5738 Y0.4641
N6880 X14.575 Y0.4648
N6885 X14.5762 Y0.4656
N6890 X14.5841 Y0.4723
N6895 X14.5847 Y0.4729
N6900 X14.5859 Y0.4744
N6905 X14.587 Y0.4759
N6910 X14.5884 Y0.4783
N6915 X14.5888 Y0.4798 Z-0.0423
N6920 X14.5892 Y0.4811 Z-0.0416
N6925 X14.5895 Y0.4821 Z-0.0405
N6930 X14.5897 Y0.4828 Z-0.0391
N6935 X14.5898 Y0.483 Z-0.0376
N6940 G0 Z0.2
N6945 X17.0213 Y-0.0126
N6950 Z0.1145
N6955 G1 Z0.102 F20.
N6960 G3 X17.0027 Y0.0126 Z0.1003 I-0.0093 J0.0126 F10.
N6965 X17.0213 Y-0.0126 Z0.0986 I0.0093 J-0.0126
N6970 X17.0027 Y0.0126 Z0.0969 I-0.0093 J0.0126
N6975 X17.0213 Y-0.0126 Z0.0951 I0.0093 J-0.0126
N6980 X17.0221 Y0.0119 Z0.0942 I-0.0093 J0.0126
N6985 X16.9967 Y0.0034 Z0.093 I-0.0101 J-0.0119
N6990 X17.0273 Y-0.0034 Z0.0913 I0.0153 J-0.0034
N6995 X17.0235 Y0.0106 Z0.0908 I-0.0153 J0.0034
N7000 X16.9973 Y0.0053 Z0.0897 I-0.0115 J-0.0106
N7005 X17.0267 Y-0.0053 Z0.088 I0.0147 J-0.0053
N7010 X17.0247 Y0.0091 Z0.0874 I-0.0147 J0.0053
N7015 X16.9993 Y-0.0091 Z0.0857 I-0.0127 J-0.0091
N7020 X17.0122 Y-0.0156 Z0.0852 I0.0127 J0.0091
N7025 X17.0257 Y0.0074 Z0.0841 I-0.0002 J0.0156
N7030 X16.9983 Y-0.0074 Z0.0824 I-0.0137 J-0.0074
N7035 X17.0257 Y0.0074 Z0.0806 I0.0137 J0.0074
N7040 X16.9983 Y-0.0074 Z0.0789 I-0.0137 J-0.0074
N7045 X17.0084 Y-0.0152 Z0.0785 I0.0137 J0.0074
N7050 X17.0271 Y0.0038 Z0.0774 I0.0036 J0.0152
N7055 X17.0016 Y0.0116 Z0.0762 I-0.0151 J-0.0038
N7060 X17.0224 Y-0.0116 Z0.0745 I0.0104 J-0.0116
N7065 X17.0275 Y0.0019 Z0.074 I-0.0104 J0.0116
N7070 X16.9965 Y-0.0019 Z0.0723 I-0.0155 J-0.0019
N7075 X17.0275 Y0.0019 Z0.0706 I0.0155 J0.0019
N7080 X16.9965 Y-0.0019 Z0.0689 I-0.0155 J-0.0019
N7085 X17.0275 Y0.0019 Z0.0671 I0.0155 J0.0019
N7090 X16.9965 Y-0.0019 Z0.0654 I-0.0155 J-0.0019
N7095 X17.0275 Y0.0019 Z0.0637 I0.0155 J0.0019
N7100 X16.9965 Y-0.0019 Z0.062 I-0.0155 J-0.0019
N7105 X17.0002 Y-0.0102 Z0.0617 I0.0155 J0.0019
N7110 X17.0265 Y-0.0057 Z0.0606 I0.0118 J0.0102
N7115 X16.9975 Y0.0057 Z0.0588 I-0.0145 J0.0057
N7120 X16.999 Y-0.0087 Z0.0583 I0.0145 J-0.0057
N7125 X17.0257 Y-0.0075 Z0.0572 I0.013 J0.0087
N7130 X16.9983 Y0.0075 Z0.0555 I-0.0137 J0.0075
N7135 X16.998 Y-0.007 Z0.055 I0.0137 J-0.0075
N7140 X17.0247 Y-0.0091 Z0.0538 I0.014 J0.007
N7145 X16.9993 Y0.0091 Z0.0521 I-0.0127 J0.0091
N7150 X17.0247 Y-0.0091 Z0.0504 I0.0127 J-0.0091
N7155 X17.0161 Y0.0151 Z0.0494 I-0.0127 J0.0091
N7160 X16.9967 Y-0.0034 Z0.0482 I-0.0041 J-0.0151
N7165 X17.0221 Y-0.012 Z0.0471 I0.0153 J0.0034
N7170 X17.0019 Y0.012 Z0.0454 I-0.0101 J0.012
N7175 X17.0221 Y-0.012 Z0.0437 I0.0101 J-0.012
N7180 X17.0019 Y0.012 Z0.042 I-0.0101 J0.012
N7185 X17.0221 Y-0.012 Z0.0403 I0.0101 J-0.012
N7190 X17.0213 Y0.0125 Z0.0393 I-0.0101 J0.012
N7195 X16.9966 Y0.0024 Z0.0382 I-0.0093 J-0.0125
N7200 X17.0274 Y-0.0024 Z0.0364 I0.0154 J-0.0024
N7205 X17.0228 Y0.0113 Z0.0359 I-0.0154 J0.0024
N7210 X16.997 Y0.0043 Z0.0348 I-0.0108 J-0.0113
N7215 X17.027 Y-0.0043 Z0.0331 I0.015 J-0.0043
N7220 X16.997 Y0.0043 Z0.0314 I-0.015 J0.0043
N7225 X17.027 Y-0.0043 Z0.0296 I0.015 J-0.0043
N7230 X16.997 Y0.0043 Z0.0279 I-0.015 J0.0043
N7235 X17.027 Y-0.0043 Z0.0262 I0.015 J-0.0043
N7240 X16.997 Y0.0043 Z0.0245 I-0.015 J0.0043
N7245 X17.027 Y-0.0043 Z0.0228 I0.015 J-0.0043
N7250 X16.997 Y0.0043 Z0.0211 I-0.015 J0.0043
N7255 X17.027 Y-0.0043 Z0.0194 I0.015 J-0.0043
N7260 X16.997 Y0.0043 Z0.0176 I-0.015 J0.0043
N7265 X17.027 Y-0.0043 Z0.0159 I0.015 J-0.0043
N7270 X16.997 Y0.0043 Z0.0142 I-0.015 J0.0043
N7275 X17.0039 Y-0.0134 Z0.0135 I0.015 J-0.0043
N7280 X17.0276 Y-0.001 Z0.0124 I0.0081 J0.0134
N7285 X17.0056 Y0.0143 Z0.0113 I-0.0156 J0.001
N7290 X17.0184 Y-0.0143 Z0.0096 I0.0064 J-0.0143
N7295 X17.0056 Y0.0143 Z0.0078 I-0.0064 J0.0143
N7300 X17.0009 Y-0.011 Z0.0068 I0.0064 J-0.0143
N7305 X17.0269 Y-0.0048 Z0.0057 I0.0111 J0.011
N7310 X16.9971 Y0.0048 Z0.004 I-0.0149 J0.0048
N7315 X16.9996 Y-0.0095 Z0.0034 I0.0149 J-0.0048
N7320 X17.0244 Y0.0095 Z0.0017 I0.0124 J0.0095
N7325 X16.9996 Y-0.0095 Z0. I-0.0124 J-0.0095
N7330 X17.0244 Y0.0095 Z-0.0017 I0.0124 J0.0095
N7335 X17.0132 Y0.0156 Z-0.0022 I-0.0124 J-0.0095
N7340 X16.9976 Y-0.0061 Z-0.0033 I-0.0012 J-0.0156
N7345 X17.0241 Y-0.0099 Z-0.0044 I0.0144 J0.0061
N7350 X16.9999 Y0.0099 Z-0.0061 I-0.0121 J0.0099
N7355 X16.997 Y-0.0043 Z-0.0067 I0.0121 J-0.0099
N7360 X17.0228 Y-0.0113 Z-0.0078 I0.015 J0.0043
N7365 X17.0012 Y0.0113 Z-0.0095 I-0.0108 J0.0113
N7370 X16.9966 Y-0.0024 Z-0.01 I0.0108 J-0.0113
N7375 X17.0213 Y-0.0126 Z-0.0111 I0.0154 J0.0024
N7380 X17.0188 Y0.0141 Z-0.0123 I-0.0093 J0.0126
N7385 X16.9964 Y-0.0005 Z-0.0134 I-0.0068 J-0.0141
N7390 X17.0276 Y0.0005 Z-0.0151 I0.0156 J0.0005
N7395 X16.9964 Y-0.0005 Z-0.0168 I-0.0156 J-0.0005
N7400 X17.0276 Y0.0005 Z-0.0185 I0.0156 J0.0005
N7405 X17.0221 Y0.012 Z-0.019 I-0.0156 J-0.0005
N7410 X16.9967 Y0.0034 Z-0.0201 I-0.0101 J-0.012
N7415 X17.0273 Y-0.0034 Z-0.0218 I0.0153 J-0.0034
N7420 X17.0235 Y0.0106 Z-0.0223 I-0.0153 J0.0034
N7425 X16.9973 Y0.0052 Z-0.0235 I-0.0115 J-0.0106
N7430 X17.0267 Y-0.0052 Z-0.0252 I0.0147 J-0.0052
N7435 X17.0247 Y0.0091 Z-0.0257 I-0.0147 J0.0052
N7440 X16.9993 Y-0.0091 Z-0.0274 I-0.0127 J-0.0091
N7445 X17.0247 Y0.0091 Z-0.0291 I0.0127 J0.0091
N7450 X16.9993 Y-0.0091 Z-0.0308 I-0.0127 J-0.0091
N7455 X17.0265 Y0.0057 Z-0.0324 I0.0127 J0.0091
N7460 X17.0002 Y0.0102 Z-0.0335 I-0.0145 J-0.0057
N7465 X17.0238 Y-0.0103 Z-0.0353 I0.0118 J-0.0102
N7470 X17.0271 Y0.0038 Z-0.0358 I-0.0118 J0.0103
N7475 X17.0016 Y0.0116 Z-0.0369 I-0.0151 J-0.0038
N7480 X17.0065 Y-0.0146 Z-0.038 I0.0104 J-0.0116
N7485 X17.0275 Y0.0019 Z-0.0391 I0.0055 J0.0146
N7490 X16.9965 Y-0.0019 Z-0.0409 I-0.0155 J-0.0019
N7495 X17.0276 Y0. Z-0.0425 I0.0155 J0.0019
N7500 X16.9998 Y0.0097 I-0.0156 J0.
N7505 X17.0242 Y-0.0097 I0.0122 J-0.0097
N7510 X17.0276 Y0. I-0.0122 J0.0097
N7515 G1 X17.0286 Y0.0056 F20.
N7520 X17.0306 Y0.0112
N7525 X17.0305 Y0.0172
N7530 X17.0281 Y0.0227
N7535 X17.0242 Y0.0273
N7540 X17.0193 Y0.0307
N7545 X17.0137 Y0.0329
N7550 X17.0077 Y0.0338
N7555 X17.0018 Y0.0334
N7560 X16.9959 Y0.032
N7565 X16.9905 Y0.0294
N7570 X16.9856 Y0.026
N7575 X16.9814 Y0.0217
N7580 X16.9779 Y0.0168
N7585 X16.9754 Y0.0114
N7590 X16.9737 Y0.0056
N7595 X16.9731 Y-0.0004
N7600 X16.9733 Y-0.0064
N7605 X16.9746 Y-0.0122
N7610 X16.9767 Y-0.0179
N7615 X16.9796 Y-0.0231
N7620 X16.9834 Y-0.0278
N7625 X16.9878 Y-0.0318
N7630 X16.9928 Y-0.0352
N7635 X16.9982 Y-0.0377
N7640 X17.0039 Y-0.0395
N7645 X17.0099 Y-0.0403
N7650 X17.0159 Y-0.0402
N7655 X17.0218 Y-0.0392
N7660 X17.0275 Y-0.0374
N7665 X17.0329 Y-0.0347
N7670 X17.0373 Y-0.0316
N7675 X17.0383 Y-0.0309
N7680 X17.0391 Y-0.0301
N7685 X17.0414 Y-0.0282
N7690 X17.0432 Y-0.0266
N7695 X17.0438 Y-0.0258
N7700 X17.0474 Y-0.02
N7705 X17.0505 Y-0.0141
N7710 X17.0508 Y-0.0133
N7715 X17.0521 Y-0.0067
N7720 X17.0529 Y-0.0017
N7725 X17.053 Y0.
N7730 X17.0529 Y0.0017
N7735 X17.0521 Y0.0067
N7740 X17.0508 Y0.0133
N7745 X17.0505 Y0.0141
N7750 X17.0474 Y0.02
N7755 X17.0438 Y0.0258
N7760 X17.0432 Y0.0266
N7765 X17.0372 Y0.0319
N7770 X17.0355 Y0.0333
N7775 X17.033 Y0.0352
N7780 X17.0305 Y0.0365
N7785 X17.0239 Y0.0389
N7790 X17.021 Y0.0399
N7795 X17.0191 Y0.0404
N7800 X17.0172 Y0.0406
N7805 X17.0072
N7810 X17.0055 Y0.0405
N7815 X17.0039 Y0.0402
N7820 X17.003 Y0.0399
N7825 X16.9939 Y0.0366
N7830 X16.9922 Y0.0359
N7835 X16.9905 Y0.0349
N7840 X16.9885 Y0.0333
N7845 X16.9839 Y0.0294
N7850 X16.9808 Y0.0266
N7855 X16.9797 Y0.0252
N7860 X16.9788 Y0.0238
N7865 X16.9747 Y0.0166
N7870 X16.9738 Y0.015
N7875 X16.9732 Y0.0133
N7880 X16.9719 Y0.0067
N7885 X16.971 Y0.
N7890 X16.9719 Y-0.0067
N7895 X16.9732 Y-0.0133
N7900 X16.9738 Y-0.015
N7905 X16.9747 Y-0.0166
N7910 X16.9788 Y-0.0238
N7915 X16.9797 Y-0.0252
N7920 X16.9808 Y-0.0266
N7925 X16.9839 Y-0.0294
N7930 X16.9885 Y-0.0333
N7935 X16.9905 Y-0.0349
N7940 X16.9922 Y-0.0359
N7945 X16.9939 Y-0.0366
N7950 X17.003 Y-0.0399
N7955 X17.0039 Y-0.0402
N7960 X17.0055 Y-0.0405
N7965 X17.0072 Y-0.0406
N7970 X17.0172
N7975 X17.0191 Y-0.0404
N7980 X17.021 Y-0.0399
N7985 X17.0239 Y-0.0389
N7990 X17.0305 Y-0.0365
N7995 X17.033 Y-0.0352
N8000 X17.0355 Y-0.0333
N8005 X17.0383 Y-0.0309
N8010 X17.0391 Y-0.0301
N8015 G3 X17.042 Y-0.0262 I-0.0086 J0.0091
N8020 G1 X17.0431 Y-0.0236 Z-0.0422
N8025 X17.0442 Y-0.0212 Z-0.0413
N8030 X17.0452 Y-0.0191 Z-0.0398
N8035 X17.046 Y-0.0173 Z-0.0378
N8040 X17.0466 Y-0.0159 Z-0.0354
N8045 X17.047 Y-0.0151 Z-0.0328
N8050 X17.0471 Y-0.0148 Z-0.03
N8055 G0 Z0.6
N8065 M9
N8070 G53 Z0.
N8075 M30
%
