%
(DRILL THRU HOLES)
(DRILL 14 1000 RPM)
(T3  D=0.25 CR=0. TAPER=118DEG - ZMIN=-0.2851 - DRILL)
N10 G90 G94 G17 G91.1
N15 G20
N20 G53 G0 Z0.
(DRILL1)
N25 M9
N30 T3 M6
N35 S1000 M3
N40 G54
N45 M8
N55 G0 X-0.7874 Y0.7874
N60 G43 Z0.6 H3
N70 G0 Z0.2
N75 Z0.09
N80 G1 Z-0.0351 F20.
N85 Z-0.2851 F10.
N90 Z0.09 F20.
N95 G0 Z0.2
N100 X0.7874
N105 Z0.09
N110 G1 Z-0.0351 F20.
N115 Z-0.2851 F10.
N120 Z0.09 F20.
N125 G0 Z0.2
N130 Y-0.7874
N135 Z0.09
N140 G1 Z-0.0351 F20.
N145 Z-0.2851 F10.
N150 Z0.09 F20.
N155 G0 Z0.2
N160 X-0.7874
N165 Z0.09
N170 G1 Z-0.0351 F20.
N175 Z-0.2851 F10.
N180 Z0.09 F20.
N185 G0 Z0.2
N190 Z0.6
N200 M9
N205 G53 Z0.
N210 M30
%
