%
(1001)
(2MM END MILL)
(T2  D=0.0787 CR=0. - ZMIN=-0.03 - FLAT END MILL)
N10 G90 G94 G17 G91.1
N15 G20
N20 G53 G0 Z0.
(2D POCKET3)
N25 M9
N30 T2 M6
N35 S12000 M3
N40 G54
N45 M8
N55 G0 X-0.2185 Y0.4035
N60 G43 Z0.6 H2
N65 G0 Z0.2
N70 G1 Z0.0394 F5.
N75 Z-0.0221
N80 X-0.2183 Y0.4036 Z-0.0242
N85 X-0.2176 Y0.4041 Z-0.0261
N90 X-0.2166 Y0.4048 Z-0.0277
N95 X-0.2153 Y0.4058 Z-0.0289
N100 X-0.2138 Y0.407 Z-0.0297
N105 X-0.2122 Y0.4082 Z-0.03
N110 X-0.2115 Y0.4086
N115 G2 X-0.2112 Y0.4089 I0.0854 J-0.1139
N120 X-0.1886 Y0.4247 I0.264 J-0.3537
N125 G3 X-0.166 Y0.4405 I-0.2414 J0.3695
N130 X-0.1494 Y0.4709 I-0.0248 J0.0333
N135 X-0.1463 Y0.5216 I-2.9289 J0.2031
N140 G2 X-0.1453 Y0.5252 I0.008 J-0.0004
N145 G1 X-0.0613 Y0.6696
N150 G2 X-0.0599 Y0.6714 I0.0069 J-0.004
N155 X0.0574 Y0.6755 I0.061 J-0.0653
N160 X0.0593 Y0.6733 I-0.005 J-0.0062
N165 G1 X0.6083 Y-0.2741
N170 G2 X0.6092 Y-0.28 I-0.0069 J-0.004
N175 X0.6006 Y-0.3102 I-0.4684 J0.1171
N180 X0.5692 Y-0.3872 I-0.5148 J0.1649
N185 G3 X0.5763 Y-0.4079 I0.0138 J-0.0069
N190 X0.5969 Y-0.4005 I0.0066 J0.0139
N195 G1 X0.6195 Y-0.351
N200 G3 X0.6209 Y-0.3454 I-0.014 J0.0064
N205 G1 X0.6241 Y-0.2837
N210 G3 X0.6231 Y-0.2774 I-0.0154 J0.0008
N215 G1 X0.5904 Y-0.1923
N220 G3 X0.5607 Y-0.1965 I-0.0144 J-0.0055
N225 G2 X0.5383 Y-0.3028 I-0.4247 J0.0339
N230 X0.4991 Y-0.3875 I-0.4471 J0.1557
N235 G3 X0.5052 Y-0.4089 I0.0133 J-0.0078
N240 X0.5263 Y-0.4018 I0.0072 J0.0136
N245 G1 X0.5686 Y-0.3107
N250 G3 X0.5701 Y-0.3051 I-0.0139 J0.0065
N255 G1 X0.576 Y-0.1978
N260 G3 X0.5749 Y-0.1909 I-0.0154 J0.0009
N265 G1 X0.5337 Y-0.0931
N270 G3 X0.5041 Y-0.0983 I-0.0142 J-0.006
N275 G1 X0.5001 Y-0.1806
N280 G2 X0.477 Y-0.2921 I-0.3677 J0.0181
N285 X0.4258 Y-0.3873 I-0.3818 J0.1437
N290 G3 X0.4305 Y-0.4096 I0.0125 J-0.009
N295 X0.4522 Y-0.403 I0.0078 J0.0132
N300 G1 X0.5184 Y-0.2639
N305 G3 X0.5199 Y-0.2572 I-0.0139 J0.0066
N310 G1 X0.5195 Y-0.099
N315 G3 X0.5183 Y-0.0931 I-0.0154 J0.
N320 G1 X0.4769 Y0.0054
N325 G3 X0.4474 Y0.0003 I-0.0142 J-0.006
N330 G1 X0.4386 Y-0.1776
N335 G2 X0.4147 Y-0.2827 I-0.3103 J0.0153
N340 X0.3578 Y-0.3743 I-0.315 J0.1324
N345 G3 X0.3503 Y-0.3872 I0.0304 J-0.0264
N350 X0.3787 Y-0.3989 I0.0145 J-0.0051
N355 G1 X0.4652 Y-0.2153
N360 G3 X0.4666 Y-0.2084 I-0.0139 J0.0066
N365 G1 X0.4627 Y-0.0005
N370 G3 X0.4615 Y0.0052 I-0.0154 J-0.0003
N375 G1 X0.4201 Y0.1035
N380 G3 X0.3906 Y0.0983 I-0.0142 J-0.006
N385 G1 X0.3772 Y-0.1745
N390 G2 X0.3525 Y-0.2717 I-0.2525 J0.0124
N395 X0.2934 Y-0.3526 I-0.2488 J0.1196
N400 G3 X0.2841 Y-0.377 I0.0207 J-0.0219
N405 G1 X0.2849 Y-0.3872
N410 G3 X0.3145 Y-0.3918 I0.0153 J0.0013
N415 G1 X0.4076 Y-0.165
N420 G3 X0.4087 Y-0.159 I-0.0142 J0.0058
N425 G1 X0.406 Y0.0975
N430 G3 X0.4048 Y0.1033 I-0.0154 J-0.0002
N435 G1 X0.3634 Y0.202
N440 G3 X0.3338 Y0.1968 I-0.0142 J-0.0059
N445 G1 X0.3157 Y-0.1715
N450 G2 X0.2903 Y-0.2587 I-0.1944 J0.0096
N455 X0.2293 Y-0.3259 I-0.183 J0.1047
N460 G3 X0.2198 Y-0.3462 I0.0131 J-0.0184
N465 G1 X0.2232 Y-0.3871
N470 G3 X0.2526 Y-0.3908 I0.0151 J0.0013
N475 G1 X0.3482 Y-0.1175
N480 G3 X0.349 Y-0.1125 I-0.0143 J0.005
N485 G1 Y0.1961
N490 G3 X0.3472 Y0.2031 I-0.0152 J0.
N495 G1 X0.1749 Y0.529
N500 G3 X0.1463 Y0.5214 I-0.0134 J-0.0071
N505 G1 X0.1504 Y0.3863
N510 G3 X0.1635 Y0.3705 I0.0169 J0.0006
N515 G2 X0.2452 Y0.3185 I-0.0323 J-0.1411
N520 X0.2745 Y0.2262 I-0.1094 J-0.0855
N525 G1 X0.2551 Y-0.1685
N530 G2 X0.2286 Y-0.2431 I-0.1368 J0.0067
N535 X0.1662 Y-0.2918 I-0.1182 J0.087
N540 G3 X0.1558 Y-0.3088 I0.0064 J-0.0156
N545 G1 X0.1623 Y-0.3874
N550 Y-0.3877
N555 X0.1625 Y-0.3897 Z-0.0297
N560 X0.1627 Y-0.3916 Z-0.0289
N565 X0.1628 Y-0.3932 Z-0.0277
N570 X0.1629 Y-0.3945 Z-0.0261
N575 X0.163 Y-0.3953 Z-0.0242
N580 Y-0.3955 Z-0.0221
N585 G0 Z0.2
N590 X-0.6097 Y-0.4272
N595 G1 Z-0.0221 F5.
N600 X-0.6096 Y-0.4269 Z-0.0242
N605 X-0.6095 Y-0.4261 Z-0.0261
N610 X-0.6093 Y-0.4249 Z-0.0277
N615 X-0.6091 Y-0.4233 Z-0.0289
N620 X-0.6089 Y-0.4214 Z-0.0297
N625 X-0.6086 Y-0.4194 Z-0.03
N630 X-0.6042 Y-0.3875
N635 X-0.5835 Y-0.2355
N640 G3 X-0.614 Y-0.2312 I-0.0152 J0.0021
N645 G1 X-0.6242 Y-0.3042
N650 G3 X-0.6244 Y-0.3073 I0.0152 J-0.0021
N655 G1 X-0.6195 Y-0.3854
N660 G3 X-0.6044 Y-0.3998 I0.0154 J0.001
N665 G1 X-0.5579 Y-0.4007
N670 G3 X-0.5424 Y-0.3874 I0.0003 J0.0154
N675 G1 X-0.5027 Y-0.0956
N680 G3 X-0.5158 Y-0.0783 I-0.0152 J0.0021
N685 X-0.5332 Y-0.0915 I-0.0021 J-0.0152
N690 G1 X-0.553 Y-0.2374
N695 X-0.5577 Y-0.3854
N700 G3 X-0.5421 Y-0.4012 I0.0154 J-0.0005
N705 G1 X-0.4954 Y-0.4007
N710 G3 X-0.4803 Y-0.3874 I-0.0002 J0.0154
N715 G1 X-0.4248 Y0.0199
N720 G2 X-0.4189 Y0.0495 I0.2397 J-0.0329
N725 G3 X-0.4306 Y0.0685 I-0.0149 J0.004
N730 X-0.449 Y0.0557 I-0.0031 J-0.0151
N735 G1 X-0.481 Y-0.1646
N740 X-0.4956 Y-0.3853
N745 G3 X-0.4799 Y-0.4017 I0.0153 J-0.001
N750 G1 X-0.4331 Y-0.4007
N755 G3 X-0.4182 Y-0.3874 I-0.0003 J0.0154
N760 G1 X-0.3639 Y0.0115
N765 G2 X-0.3512 Y0.0611 I0.222 J-0.0305
N770 X-0.3292 Y0.1072 I0.3001 J-0.1147
N775 G3 X-0.3309 Y0.1299 I-0.0174 J0.0101
N780 G2 X-0.3535 Y0.1628 I0.205 J0.1648
N785 G3 X-0.3821 Y0.1568 I-0.0133 J-0.0077
N790 G1 X-0.4103 Y-0.1012
N795 X-0.4335 Y-0.3853
N800 G3 X-0.4177 Y-0.4019 I0.0153 J-0.0013
N805 G1 X-0.371 Y-0.4006
N810 G3 X-0.3561 Y-0.3873 I-0.0004 J0.0154
N815 G1 X-0.3029 Y0.0031
N820 G2 X-0.2843 Y0.0624 I0.184 J-0.0253
N825 X-0.2486 Y0.1132 I0.1981 J-0.1012
N830 G3 X-0.2487 Y0.1315 I-0.0097 J0.0091
N835 X-0.2605 Y0.1431 I-0.1917 J-0.1833
N840 G2 X-0.2723 Y0.1547 I0.1799 J0.1949
N845 X-0.3166 Y0.2264 I0.1463 J0.1398
N850 G3 X-0.3461 Y0.221 I-0.0143 J-0.0051
N855 G1 X-0.3419 Y-0.0578
N860 X-0.3712 Y-0.3853
N865 G3 X-0.3557 Y-0.4018 I0.0151 J-0.0014
N870 G1 X-0.3096 Y-0.4007
N875 G3 X-0.2949 Y-0.3875 I-0.0004 J0.0152
N880 G1 X-0.2428 Y-0.0051
N885 G2 X-0.2139 Y0.0618 I0.1348 J-0.0185
N890 X-0.1556 Y0.1055 I0.1151 J-0.0928
N895 G3 X-0.1527 Y0.119 I-0.0032 J0.0077
N900 X-0.2276 Y0.1957 I-3.6871 J-3.525
N905 G2 X-0.2685 Y0.2947 I0.0993 J0.099
N910 X-0.2676 Y0.3114 I0.1424 J0.
N915 G3 X-0.2806 Y0.3263 I-0.0132 J0.0016
N920 X-0.294 Y0.3118 I-0.0002 J-0.0133
N925 G1 X-0.2681 Y0.0078
N930 G2 Y0.0053 I-0.0133 J-0.0011
N935 G1 X-0.3081 Y-0.3857
N940 G3 X-0.2943 Y-0.4004 I0.0132 J-0.0014
N945 G1 X-0.2538 Y-0.3988
N950 G3 X-0.2411 Y-0.3873 I-0.0005 J0.0133
N955 G1 X-0.19 Y-0.0124
N960 G2 X-0.1493 Y0.0504 I0.0871 J-0.012
N965 X-0.0751 Y0.0598 I0.0473 J-0.0763
N970 X-0.063 Y0.0556 I-0.0611 J-0.1945
N975 G3 X-0.051 Y0.0514 I0.0731 J0.1903
N980 X-0.035 Y0.0597 I0.0038 J0.0122
N985 G1 X-0.0339 Y0.0632
N990 G3 X-0.0378 Y0.0766 I-0.012 J0.0038
N995 X-0.0415 Y0.0797 I-0.4018 J-0.4783
N1000 G2 X-0.045 Y0.083 I0.0261 J0.0316
N1005 G1 X-0.1905 Y0.233
N1010 G2 X-0.1794 Y0.3663 I0.0646 J0.0617
N1015 X-0.147 Y0.3894 I0.526 J-0.7049
N1020 G3 X-0.1145 Y0.4124 I-0.4936 J0.728
N1025 X-0.098 Y0.4428 I-0.0248 J0.0333
N1030 G1 X-0.088 Y0.6124
N1035 G2 X-0.0859 Y0.6262 I0.0891 J-0.0062
N1040 G1 X-0.0868 Y0.6471
N1045 G2 X-0.0827 Y0.6513 I0.0039 J0.0002
N1050 G1 X0.0876 Y0.6462
N1055 G2 X0.0914 Y0.6419 I-0.0001 J-0.0039
N1060 G1 X0.0893 Y0.6204
N1065 G2 X0.0904 Y0.6096 I-0.0882 J-0.0142
N1070 G1 X0.0991 Y0.3811
N1075 G2 X0.0929 Y0.3475 I-0.0785 J-0.003
N1080 X0.0745 Y0.3188 I-0.0933 J0.0395
N1085 G3 X0.0795 Y0.3104 I0.0037 J-0.0034
N1090 X0.0952 Y0.3148 I-0.0624 J0.2541
N1095 G2 X0.111 Y0.3192 I0.0782 J-0.2497
N1100 X0.1888 Y0.3017 I0.0214 J-0.0869
N1105 X0.2213 Y0.2288 I-0.0558 J-0.0685
N1110 G1 X0.2019 Y-0.1659
N1115 G2 X0.1722 Y-0.2269 I-0.0862 J0.0042
N1120 X0.1081 Y-0.249 I-0.0594 J0.0685
N1125 G3 X0.0983 Y-0.2591 I-0.0005 J-0.0094
N1130 G1 X0.1089 Y-0.3873
N1135 Y-0.3876
N1140 X0.1091 Y-0.3896 Z-0.0297
N1145 X0.1092 Y-0.3915 Z-0.0289
N1150 X0.1093 Y-0.3931 Z-0.0277
N1155 X0.1094 Y-0.3944 Z-0.0261
N1160 X0.1095 Y-0.3952 Z-0.0242
N1165 Y-0.3954 Z-0.0221
N1170 G0 Z0.2
N1175 X-0.203 Y-0.427
N1180 G1 Z-0.0229 F5.
N1185 X-0.2029 Y-0.4268 Z-0.0247
N1190 X-0.2027 Y-0.4261 Z-0.0265
N1195 X-0.2024 Y-0.425 Z-0.0279
N1200 X-0.2019 Y-0.4236 Z-0.0291
N1205 X-0.2014 Y-0.422 Z-0.0298
N1210 X-0.2009 Y-0.4202 Z-0.03
N1215 X-0.1913 Y-0.3884
N1220 G3 X-0.191 Y-0.3872 I-0.0075 J0.0023
N1225 G1 X-0.1855 Y-0.3469
N1230 X-0.1405 Y-0.0192
N1235 G2 X-0.0897 Y0.0131 I0.039 J-0.0054
N1240 G1 X-0.0073 Y-0.0128
N1245 X0.03 Y0.106
N1250 G2 X-0.01 Y0.1164 I-0.0115 J0.0376
N1255 G1 X-0.1544 Y0.2675
N1260 G2 X-0.1495 Y0.3263 I0.0285 J0.0272
N1265 G1 X-0.0528 Y0.3984
N1270 X-0.0382 Y0.6089
N1275 G2 X0.0405 Y0.6077 I0.0393 J-0.0027
N1280 G1 X0.0491 Y0.3792
N1285 G2 X0.037 Y0.3492 I-0.0393 J-0.0015
N1290 G1 X-0.0209 Y0.294
N1295 X0.0404 Y0.2512
N1300 X0.1227 Y0.2715
N1305 G2 X0.1714 Y0.2313 I0.0094 J-0.0382
N1310 G1 X0.152 Y-0.1635
N1315 G2 X0.1031 Y-0.1997 I-0.0393 J0.0019
N1320 G1 X0.0438 Y-0.1848
N1325 X0.0574 Y-0.349
N1330 X0.0605 Y-0.3872
N1335 G3 X0.0607 Y-0.3885 I0.0078 J0.0006
N1340 G1 X0.068 Y-0.418
N1345 X0.0684 Y-0.42 Z-0.0297
N1350 X0.0689 Y-0.4219 Z-0.0289
N1355 X0.0693 Y-0.4234 Z-0.0277
N1360 X0.0696 Y-0.4247 Z-0.0261
N1365 X0.0698 Y-0.4254 Z-0.0242
N1370 Y-0.4257 Z-0.0221
N1375 G0 Z0.6
N1385 M9
N1390 G53 Z0.
N1395 M30
%
