%
(MAIN)
(38 END MILL)
(T1  D=0.375 CR=0. - ZMIN=-0.21 - FLAT END MILL)
N10 G90 G94 G17 G91.1
N15 G20
N20 G53 G0 Z0.
(2D ADAPTIVE1)
N25 M9
N30 T1 M6
N35 S1500 M3
N40 G54
N45 M8
N55 G0 X-1.1492 Y-1.5917
N60 G43 Z0.2 H1
N65 G0 Z0.1024
N70 Z-0.035
N75 G1 Z-0.0725 F16.
N80 X-1.1491 Y-1.5914 Z-0.077
N85 X-1.1489 Y-1.5906 Z-0.0815
N90 X-1.1486 Y-1.5893 Z-0.0858
N95 X-1.1481 Y-1.5875 Z-0.0899
N100 X-1.1476 Y-1.5853 Z-0.0938
N105 X-1.1469 Y-1.5826 Z-0.0974
N110 X-1.1461 Y-1.5795 Z-0.1006
N115 X-1.1452 Y-1.576 Z-0.1034
N120 X-1.1442 Y-1.5722 Z-0.1057
N125 X-1.1432 Y-1.5682 Z-0.1076
N130 X-1.1421 Y-1.5641 Z-0.1089
N135 X-1.141 Y-1.5597 Z-0.1097
N140 X-1.1399 Y-1.5554 Z-0.11
N145 G3 X-1.1231 Y-1.4388 I-0.5297 J0.1357
N150 G1 Y-1.4328
N155 X-1.1325 Y-1.387
N160 X-1.1395 Y-1.3409
N165 X-1.1448 Y-1.2945
N170 X-1.1488 Y-1.2479
N175 X-1.1518 Y-1.2013
N180 X-1.154 Y-1.1547
N185 X-1.1557 Y-1.108
N190 X-1.1569 Y-1.0614
N195 X-1.1579 Y-1.0147
N200 X-1.1586 Y-0.968
N205 X-1.1591 Y-0.9213
N210 X-1.1595 Y-0.8746
N215 X-1.1598 Y-0.8279
N220 X-1.16 Y-0.7812
N225 X-1.1602 Y-0.7345
N230 X-1.1604 Y-0.6412
N235 X-1.1605 Y-0.5011
N240 X-1.1606 Y-0.2209
N245 Y0.5728
N250 Y1.0864
N255 X-1.1531 Y1.1085
N260 X-1.1295 Y1.1488
N265 X-1.0956 Y1.181
N270 X-1.0563 Y1.2061
N275 X-1.0138 Y1.2254
N280 X-0.9695 Y1.2402
N285 X-0.9242 Y1.2515
N290 X-0.8783 Y1.26
N295 X-0.832 Y1.2664
N300 X-0.7856 Y1.2713
N305 X-0.739 Y1.2749
N310 X-0.6924 Y1.2776
N315 X-0.6458 Y1.2796
N320 X-0.5991 Y1.2811
N325 X-0.5524 Y1.2823
N330 X-0.5057 Y1.2831
N335 X-0.459 Y1.2838
N340 X-0.4124 Y1.2842
N345 X-0.3657 Y1.2846
N350 X-0.319 Y1.2849
N355 X-0.2723 Y1.285
N360 X-0.1789 Y1.2853
N365 X-0.0388 Y1.2855
N370 X0.1946 Y1.2856
N375 X0.2413
N380 X0.9417
N385 X0.9534 Y1.285
N390 X0.9648 Y1.2828
N395 X0.987 Y1.2755
N400 X1.0266 Y1.2508
N405 X1.0582 Y1.2164
N410 X1.0828 Y1.1767
N415 X1.1017 Y1.134
N420 X1.1162 Y1.0896
N425 X1.1273 Y1.0442
N430 X1.1356 Y0.9983
N435 X1.1419 Y0.952
N440 X1.1466 Y0.9056
N445 X1.1501 Y0.859
N450 X1.1528 Y0.8124
N455 X1.1548 Y0.7658
N460 X1.1562 Y0.7191
N465 X1.1574 Y0.6724
N470 X1.1582 Y0.6257
N475 X1.1588 Y0.579
N480 X1.1593 Y0.5324
N485 X1.1596 Y0.4857
N490 X1.1599 Y0.439
N495 X1.1601 Y0.3923
N500 X1.1603 Y0.2989
N505 X1.1605 Y0.1588
N510 X1.1606 Y0.0654
N515 Y-0.3081
N520 Y-1.0785
N525 X1.1551 Y-1.1012
N530 X1.134 Y-1.1428
N535 X1.1014 Y-1.1763
N540 X1.0627 Y-1.2024
N545 X1.0206 Y-1.2226
N550 X0.9766 Y-1.2381
N555 X0.9314 Y-1.2499
N560 X0.8855 Y-1.2588
N565 X0.8393 Y-1.2655
N570 X0.7929 Y-1.2706
N575 X0.7464 Y-1.2744
N580 X0.6998 Y-1.2772
N585 X0.6531 Y-1.2793
N590 X0.6065 Y-1.2809
N595 X0.5598 Y-1.2821
N600 X0.5131 Y-1.283
N605 X0.4664 Y-1.2837
N610 X0.4197 Y-1.2842
N615 X0.373 Y-1.2845
N620 X0.3264 Y-1.2848
N625 X0.2797 Y-1.285
N630 X0.1863 Y-1.2853
N635 X0.0462 Y-1.2855
N640 X-0.1873 Y-1.2856
N645 X-0.7942
N650 X-0.8169 Y-1.28
N655 X-0.8589 Y-1.2596
N660 X-0.8931 Y-1.2279
N665 X-0.9203 Y-1.1899
N670 X-0.9415 Y-1.1483
N675 X-0.958 Y-1.1046
N680 X-0.9706 Y-1.0597
N685 X-0.9803 Y-1.014
N690 X-0.9877 Y-0.9679
N695 X-0.9933 Y-0.9215
N700 X-0.9975 Y-0.875
N705 X-1.0007 Y-0.8284
N710 X-1.0032 Y-0.7818
N715 X-1.005 Y-0.7352
N720 X-1.0064 Y-0.6885
N725 X-1.0074 Y-0.6418
N730 X-1.0082 Y-0.5951
N735 X-1.0088 Y-0.5484
N740 X-1.0093 Y-0.5017
N745 X-1.0096 Y-0.4551
N750 X-1.0099 Y-0.4084
N755 X-1.01 Y-0.3617
N760 X-1.0103 Y-0.2683
N765 X-1.0105 Y-0.1282
N770 X-1.0106 Y0.1052
N775 Y0.899
N780 X-0.9954 Y0.9431
N785 X-0.9688 Y0.9815
N790 X-0.9348 Y1.0135
N795 X-0.8961 Y1.0396
N800 X-0.8544 Y1.0606
N805 X-0.8107 Y1.0772
N810 X-0.7659 Y1.0903
N815 X-0.7204 Y1.1005
N820 X-0.6744 Y1.1086
N825 X-0.6281 Y1.1148
N830 X-0.5817 Y1.1196
N835 X-0.5351 Y1.1233
N840 X-0.4885 Y1.1262
N845 X-0.4419 Y1.1284
N850 X-0.3952 Y1.1301
N855 X-0.3485 Y1.1314
N860 X-0.3019 Y1.1324
N865 X-0.2552 Y1.1332
N870 X-0.2085 Y1.1337
N875 X-0.1618 Y1.1342
N880 X-0.1151 Y1.1345
N885 X-0.0684 Y1.1348
N890 X-0.0217 Y1.135
N895 X0.0717 Y1.1353
N900 X0.2117 Y1.1355
N905 X0.3985 Y1.1356
N910 X0.772
N915 X0.8163 Y1.1209
N920 X0.855 Y1.0946
N925 X0.8872 Y1.0609
N930 X0.9136 Y1.0223
N935 X0.9347 Y0.9807
N940 X0.9515 Y0.9371
N945 X0.9647 Y0.8923
N950 X0.9751 Y0.8468
N955 X0.9832 Y0.8008
N960 X0.9895 Y0.7546
N965 X0.9944 Y0.7081
N970 X0.9982 Y0.6616
N975 X1.0011 Y0.615
N980 X1.0033 Y0.5684
N985 X1.005 Y0.5217
N990 X1.0063 Y0.475
N995 X1.0074 Y0.4283
N1000 X1.0081 Y0.3817
N1005 X1.0087 Y0.335
N1010 X1.0092 Y0.2883
N1015 X1.0095 Y0.2416
N1020 X1.0098 Y0.1949
N1025 X1.01 Y0.1482
N1030 X1.0103 Y0.0548
N1035 X1.0105 Y-0.0852
N1040 X1.0106 Y-0.272
N1045 Y-0.8323
N1050 Y-0.879
N1055 X1.0019 Y-0.9249
N1060 X0.9796 Y-0.9659
N1065 X0.9484 Y-1.0007
N1070 X0.9115 Y-1.0292
N1075 X0.8709 Y-1.0523
N1080 X0.828 Y-1.0706
N1085 X0.7836 Y-1.0852
N1090 X0.7383 Y-1.0966
N1095 X0.6925 Y-1.1055
N1100 X0.6463 Y-1.1124
N1105 X0.5999 Y-1.1177
N1110 X0.5534 Y-1.1219
N1115 X0.5068 Y-1.1251
N1120 X0.4602 Y-1.1276
N1125 X0.4135 Y-1.1294
N1130 X0.3669 Y-1.1309
N1135 X0.3202 Y-1.132
N1140 X0.2735 Y-1.1329
N1145 X0.2268 Y-1.1335
N1150 X0.1801 Y-1.134
N1155 X0.1334 Y-1.1344
N1160 X0.0868 Y-1.1347
N1165 X0.0401 Y-1.1349
N1170 X-0.0066 Y-1.1351
N1175 X-0.1 Y-1.1353
N1180 X-0.2401 Y-1.1355
N1185 X-0.4735 Y-1.1356
N1190 X-0.6136
N1195 X-0.6584 Y-1.1224
N1200 X-0.6978 Y-1.0973
N1205 X-0.731 Y-1.0645
N1210 X-0.7582 Y-1.0265
N1215 X-0.7802 Y-0.9853
N1220 X-0.7977 Y-0.942
N1225 X-0.8116 Y-0.8975
N1230 X-0.8225 Y-0.8521
N1235 X-0.8311 Y-0.8062
N1240 X-0.8378 Y-0.76
N1245 X-0.843 Y-0.7136
N1250 X-0.847 Y-0.667
N1255 X-0.8502 Y-0.6205
N1260 X-0.8526 Y-0.5738
N1265 X-0.8544 Y-0.5272
N1270 X-0.8559 Y-0.4805
N1275 X-0.8567 Y-0.4465
N1280 X-0.8579 Y-0.4332
N1285 X-0.861 Y-0.4203
N1290 X-0.8659 Y-0.408
N1295 X-0.8674 Y-0.405
N1300 X-0.8772 Y-0.3817
N1305 X-0.8814 Y-0.3712
N1310 X-0.9066 Y-0.3037
N1315 X-0.9147 Y-0.2812
N1320 X-0.9185 Y-0.27
N1325 X-0.9239 Y-0.2475
N1330 X-0.9266 Y-0.2362
N1335 X-0.9412 Y-0.1687
N1340 X-0.9457 Y-0.1462
N1345 X-0.9478 Y-0.135
N1350 X-0.9498 Y-0.1125
N1355 X-0.9508 Y-0.1012
N1360 X-0.9556 Y-0.0337
N1365 X-0.9574 Y0.
N1370 X-0.9556 Y0.0337
N1375 X-0.9508 Y0.1012
N1380 X-0.9488 Y0.1237
N1385 X-0.9478 Y0.135
N1390 X-0.9457 Y0.1462
N1395 X-0.9412 Y0.1687
N1400 X-0.9266 Y0.2362
N1405 X-0.9239 Y0.2475
N1410 X-0.9185 Y0.27
N1415 X-0.9147 Y0.2812
N1420 X-0.9011 Y0.3259
N1425 X-0.8906 Y0.3714
N1430 X-0.8828 Y0.4174
N1435 X-0.8771 Y0.4638
N1440 X-0.8729 Y0.5103
N1445 X-0.8697 Y0.5569
N1450 X-0.8674 Y0.6035
N1455 X-0.8657 Y0.6501
N1460 X-0.8644 Y0.6968
N1465 X-0.8588 Y0.7432
N1470 X-0.8409 Y0.7863
N1475 X-0.8133 Y0.824
N1480 X-0.7792 Y0.8558
N1485 X-0.7406 Y0.8822
N1490 X-0.6991 Y0.9036
N1495 X-0.6558 Y0.9209
N1500 X-0.6112 Y0.9347
N1505 X-0.5658 Y0.9457
N1510 X-0.5199 Y0.9543
N1515 X-0.4737 Y0.9612
N1520 X-0.4273 Y0.9666
N1525 X-0.3808 Y0.9708
N1530 X-0.3343 Y0.9741
N1535 X-0.2876 Y0.9767
N1540 X-0.241 Y0.9787
N1545 X-0.1943 Y0.9802
N1550 X-0.1476 Y0.9814
N1555 X-0.101 Y0.9824
N1560 X-0.0543 Y0.9831
N1565 X-0.0076 Y0.9837
N1570 X0.0391 Y0.9841
N1575 X0.0858 Y0.9845
N1580 X0.1325 Y0.9847
N1585 X0.1792 Y0.9849
N1590 X0.2726 Y0.9852
N1595 X0.4126 Y0.9854
N1600 X0.5527 Y0.9855
N1605 X0.5994 Y0.9854
N1610 X0.6443 Y0.9724
N1615 X0.6844 Y0.9485
N1620 X0.7186 Y0.9168
N1625 X0.7471 Y0.8798
N1630 X0.7705 Y0.8394
N1635 X0.7894 Y0.7967
N1640 X0.8045 Y0.7525
N1645 X0.8166 Y0.7074
N1650 X0.8261 Y0.6617
N1655 X0.8337 Y0.6156
N1660 X0.8396 Y0.5693
N1665 X0.8442 Y0.5228
N1670 X0.8479 Y0.4763
N1675 X0.8491 Y0.4561
N1680 X0.8508 Y0.4435
N1685 X0.8543 Y0.4312
N1690 X0.8596 Y0.4196
N1695 X0.8659 Y0.408
N1700 X0.8674 Y0.405
N1705 X0.8772 Y0.3817
N1710 X0.8814 Y0.3712
N1715 X0.9066 Y0.3037
N1720 X0.9147 Y0.2812
N1725 X0.9185 Y0.27
N1730 X0.9239 Y0.2475
N1735 X0.9266 Y0.2362
N1740 X0.9412 Y0.1687
N1745 X0.9457 Y0.1462
N1750 X0.9478 Y0.135
N1755 X0.9498 Y0.1125
N1760 X0.9508 Y0.1012
N1765 X0.9556 Y0.0337
N1770 X0.9574 Y0.
N1775 X0.9556 Y-0.0337
N1780 X0.9508 Y-0.1012
N1785 X0.9488 Y-0.1237
N1790 X0.9478 Y-0.135
N1795 X0.9457 Y-0.1462
N1800 X0.9412 Y-0.1687
N1805 X0.9266 Y-0.2362
N1810 X0.9239 Y-0.2475
N1815 X0.9185 Y-0.27
N1820 X0.9147 Y-0.2812
N1825 X0.9011 Y-0.3259
N1830 X0.8906 Y-0.3714
N1835 X0.8828 Y-0.4174
N1840 X0.8771 Y-0.4638
N1845 X0.8729 Y-0.5103
N1850 X0.8697 Y-0.5569
N1855 X0.8674 Y-0.6035
N1860 X0.8657 Y-0.6501
N1865 X0.8644 Y-0.6968
N1870 X0.8586 Y-0.7432
N1875 X0.8405 Y-0.7862
N1880 X0.8129 Y-0.8239
N1885 X0.7788 Y-0.8557
N1890 X0.7402 Y-0.8821
N1895 X0.6987 Y-0.9035
N1900 X0.6554 Y-0.9208
N1905 X0.6108 Y-0.9346
N1910 X0.5654 Y-0.9456
N1915 X0.5195 Y-0.9543
N1920 X0.4733 Y-0.9611
N1925 X0.4269 Y-0.9665
N1930 X0.3804 Y-0.9708
N1935 X0.3339 Y-0.9741
N1940 X0.2873 Y-0.9766
N1945 X0.2406 Y-0.9787
N1950 X0.1939 Y-0.9802
N1955 X0.1473 Y-0.9814
N1960 X0.1006 Y-0.9824
N1965 X0.0539 Y-0.9831
N1970 X0.0072 Y-0.9837
N1975 X-0.0395 Y-0.9841
N1980 X-0.0862 Y-0.9845
N1985 X-0.1329 Y-0.9847
N1990 X-0.1796 Y-0.9849
N1995 X-0.2729 Y-0.9852
N2000 X-0.413 Y-0.9854
N2005 X-0.4596 Y-0.982
N2010 X-0.5034 Y-0.9659
N2015 X-0.5421 Y-0.9397
N2020 X-0.5749 Y-0.9066
N2025 X-0.6022 Y-0.8687
N2030 X-0.6245 Y-0.8276
N2035 X-0.6425 Y-0.7845
N2040 X-0.6569 Y-0.7401
N2045 X-0.6665 Y-0.7023
N2050 X-0.6717 Y-0.6876
N2055 X-0.6794 Y-0.674
N2060 X-0.6894 Y-0.662
N2065 X-0.699 Y-0.6524
N2070 X-0.7085 Y-0.6427
N2075 X-0.7304 Y-0.6187
N2080 X-0.731 Y-0.618
N2085 X-0.7422 Y-0.6031
N2090 X-0.7895 Y-0.5399
N2095 X-0.7985 Y-0.5279
N2100 X-0.8054 Y-0.5174
N2105 X-0.8097 Y-0.5108
N2110 X-0.8322 Y-0.4699
N2115 X-0.8553 Y-0.4274
N2120 X-0.8659 Y-0.408
N2125 X-0.8661 Y-0.4078
N2130 G2 X-1.0239 Y-0.2825 I0.1549 J0.3571
N2135 X-1.0312 Y-0.2628 I0.0301 J0.0223
N2140 G1 X-1.0578 Y0.1142
N2145 G2 X-1.0534 Y0.1348 I0.0374 J0.0026
N2150 X-0.9148 Y0.281 I0.3422 J-0.1855
N2155 G1 X-0.9147 Y0.2812
N2160 X-0.9066 Y0.3037
N2165 X-0.8814 Y0.3712
N2170 X-0.8769 Y0.3825
N2175 X-0.8674 Y0.405
N2180 X-0.8659 Y0.408
N2185 X-0.8431 Y0.4499
N2190 X-0.8246 Y0.4837
N2195 X-0.8097 Y0.5108
N2200 X-0.8054 Y0.5174
N2205 X-0.7905 Y0.5425
N2210 X-0.77 Y0.5844
N2215 X-0.7458 Y0.6243
N2220 X-0.7159 Y0.6602
N2225 X-0.6812 Y0.6915
N2230 X-0.6429 Y0.7182
N2235 X-0.6186 Y0.7314
N2240 X-0.6145 Y0.7338
N2245 X-0.6105 Y0.7364
N2250 X-0.6067 Y0.7392
N2255 G3 X-0.602 Y0.792 I-0.024 J0.0288
N2260 X-0.6548 Y0.7967 I-0.0288 J-0.024
N2265 G1 X-0.6583 Y0.7938 Z-0.1097
N2270 X-0.6617 Y0.791 Z-0.1089
N2275 X-0.665 Y0.7882 Z-0.1076
N2280 X-0.6682 Y0.7856 Z-0.1057
N2285 X-0.6712 Y0.7831 Z-0.1034
N2290 X-0.6739 Y0.7808 Z-0.1006
N2295 X-0.6764 Y0.7787 Z-0.0974
N2300 X-0.6785 Y0.7769 Z-0.0938
N2305 X-0.6803 Y0.7754 Z-0.0899
N2310 X-0.6817 Y0.7742 Z-0.0858
N2315 X-0.6828 Y0.7734 Z-0.0815
N2320 X-0.6834 Y0.7729 Z-0.077
N2325 X-0.6836 Y0.7727 Z-0.0725
N2330 G0 Z0.1024
N2335 X-0.9115 Y0.4043
N2340 Z-0.035
N2345 G1 Z-0.0725 F16.
N2350 X-0.9113 Y0.4045 Z-0.077
N2355 X-0.9107 Y0.405 Z-0.0815
N2360 X-0.9097 Y0.4059 Z-0.0858
N2365 X-0.9083 Y0.4072 Z-0.0899
N2370 X-0.9066 Y0.4087 Z-0.0938
N2375 X-0.9045 Y0.4106 Z-0.0974
N2380 X-0.9021 Y0.4128 Z-0.1006
N2385 X-0.8995 Y0.4152 Z-0.1034
N2390 X-0.8966 Y0.4178 Z-0.1057
N2395 X-0.8936 Y0.4205 Z-0.1076
N2400 X-0.8904 Y0.4234 Z-0.1089
N2405 X-0.8871 Y0.4264 Z-0.1097
N2410 X-0.8837 Y0.4294 Z-0.11
N2415 G3 X-0.8054 Y0.5174 I-0.3669 J0.4055
N2420 G1 X-0.7985 Y0.5279
N2425 X-0.7811 Y0.5512
N2430 X-0.739 Y0.6074
N2435 X-0.731 Y0.618
N2440 X-0.7304 Y0.6187
N2445 X-0.7085 Y0.6427
N2450 X-0.699 Y0.6524
N2455 X-0.6427 Y0.7087
N2460 X-0.641 Y0.7104
N2465 X-0.6311 Y0.7199
N2470 X-0.6298 Y0.7211
N2475 X-0.617 Y0.7312
N2480 X-0.596 Y0.7475
N2485 X-0.5427 Y0.7874
N2490 X-0.5276 Y0.7987
N2495 X-0.5173 Y0.8051
N2500 X-0.5061 Y0.812
N2505 X-0.4948 Y0.8186
N2510 X-0.4273 Y0.8554
N2515 X-0.4161 Y0.8612
N2520 X-0.3936 Y0.8726
N2525 X-0.3817 Y0.8774
N2530 X-0.3599 Y0.8857
N2535 X-0.2916 Y0.9111
N2540 X-0.2811 Y0.9148
N2545 X-0.2699 Y0.9186
N2550 X-0.2587 Y0.9215
N2555 X-0.2553 Y0.9224
N2560 X-0.1574 Y0.9437
N2565 X-0.1518 Y0.9449
N2570 X-0.1237 Y0.9489
N2575 X-0.1125 Y0.95
N2580 X-0.0225 Y0.9564
N2585 X-0.0112 Y0.9569
N2590 X0.0112
N2595 X0.0225 Y0.9564
N2600 X0.1125 Y0.95
N2605 X0.1237 Y0.9489
N2610 X0.1518 Y0.9449
N2615 X0.1574 Y0.9437
N2620 X0.2553 Y0.9224
N2625 X0.2587 Y0.9215
N2630 X0.2699 Y0.9186
N2635 X0.2811 Y0.9148
N2640 X0.2924 Y0.9108
N2645 X0.3374 Y0.8941
N2650 X0.3819 Y0.8799
N2655 X0.4271 Y0.8684
N2660 X0.4715 Y0.854
N2665 X0.5122 Y0.8311
N2670 X0.548 Y0.801
N2675 X0.5785 Y0.7657
N2680 X0.5837 Y0.7591
N2685 X0.5896 Y0.753
N2690 X0.596 Y0.7475
N2695 G3 X0.6404 Y0.808 I0.022 J0.0304
N2700 X0.64 Y0.8083 I-0.0224 J-0.0301
N2705 G1 X0.6363 Y0.8109 Z-0.1097
N2710 X0.6327 Y0.8135 Z-0.1089
N2715 X0.6292 Y0.816 Z-0.1076
N2720 X0.6259 Y0.8185 Z-0.1057
N2725 X0.6227 Y0.8207 Z-0.1034
N2730 X0.6198 Y0.8228 Z-0.1006
N2735 X0.6173 Y0.8247 Z-0.0974
N2740 X0.615 Y0.8263 Z-0.0938
N2745 X0.6131 Y0.8277 Z-0.0899
N2750 X0.6116 Y0.8288 Z-0.0858
N2755 X0.6105 Y0.8296 Z-0.0815
N2760 X0.6098 Y0.8301 Z-0.077
N2765 X0.6096 Y0.8302 Z-0.0725
N2770 G0 Z0.1024
N2775 X0.2032 Y0.9719
N2780 Z-0.035
N2785 G1 Z-0.0725 F16.
N2790 X0.2034 Y0.9718 Z-0.077
N2795 X0.2041 Y0.9713 Z-0.0815
N2800 X0.2052 Y0.9705 Z-0.0858
N2805 X0.2067 Y0.9695 Z-0.0899
N2810 X0.2086 Y0.9681 Z-0.0938
N2815 X0.2109 Y0.9665 Z-0.0974
N2820 X0.2136 Y0.9647 Z-0.1006
N2825 X0.2165 Y0.9627 Z-0.1034
N2830 X0.2197 Y0.9605 Z-0.1057
N2835 X0.2231 Y0.9581 Z-0.1076
N2840 X0.2266 Y0.9556 Z-0.1089
N2845 X0.2303 Y0.9531 Z-0.1097
N2850 X0.234 Y0.9505 Z-0.11
N2855 G3 X0.3374 Y0.8941 I0.3123 J0.4489
N2860 G1 X0.3599 Y0.8857
N2865 X0.3824 Y0.8772
N2870 X0.3936 Y0.8726
N2875 X0.4161 Y0.8612
N2880 X0.4273 Y0.8554
N2885 X0.4948 Y0.8186
N2890 X0.5061 Y0.812
N2895 X0.5173 Y0.8051
N2900 X0.5276 Y0.7987
N2905 X0.5577 Y0.7762
N2910 X0.596 Y0.7475
N2915 X0.6185 Y0.73
N2920 X0.6298 Y0.7211
N2925 X0.6311 Y0.7199
N2930 X0.641 Y0.7104
N2935 X0.699 Y0.6524
N2940 X0.7085 Y0.6427
N2945 X0.7304 Y0.6187
N2950 X0.731 Y0.618
N2955 X0.7422 Y0.6031
N2960 X0.7895 Y0.5399
N2965 X0.7985 Y0.5279
N2970 X0.8054 Y0.5174
N2975 X0.8097 Y0.5108
N2980 X0.8322 Y0.4699
N2985 X0.8596 Y0.4196
N2990 X0.8598 Y0.4195
N2995 G2 X1.021 Y0.2914 I-0.1583 J-0.3649
N3000 X1.0282 Y0.272 I-0.0301 J-0.0223
N3005 G1 X1.0582 Y-0.1091
N3010 G2 X1.0541 Y-0.1294 I-0.0374 J-0.0029
N3015 X0.9148 Y-0.281 I-0.3526 J0.184
N3020 G1 X0.9147 Y-0.2812
N3025 X0.9066 Y-0.3037
N3030 X0.8814 Y-0.3712
N3035 X0.8769 Y-0.3825
N3040 X0.8674 Y-0.405
N3045 X0.8659 Y-0.408
N3050 X0.8431 Y-0.4499
N3055 X0.8246 Y-0.4837
N3060 X0.8097 Y-0.5108
N3065 X0.8054 Y-0.5174
N3070 X0.7904 Y-0.5427
N3075 X0.7699 Y-0.5846
N3080 X0.7455 Y-0.6245
N3085 X0.7156 Y-0.6603
N3090 X0.6809 Y-0.6916
N3095 X0.6426 Y-0.7182
N3100 X0.6194 Y-0.7308
N3105 X0.6152 Y-0.7332
N3110 X0.6113 Y-0.7358
N3115 X0.6075 Y-0.7386
N3120 G3 X0.6552 Y-0.7965 I0.024 J-0.0288
N3125 X0.6555 Y-0.7962 I-0.0237 J0.0291
N3130 G1 X0.659 Y-0.7933 Z-0.1097
N3135 X0.6624 Y-0.7904 Z-0.1089
N3140 X0.6658 Y-0.7876 Z-0.1076
N3145 X0.6689 Y-0.785 Z-0.1057
N3150 X0.6719 Y-0.7825 Z-0.1034
N3155 X0.6746 Y-0.7802 Z-0.1006
N3160 X0.6771 Y-0.7782 Z-0.0974
N3165 X0.6792 Y-0.7764 Z-0.0938
N3170 X0.681 Y-0.7749 Z-0.0899
N3175 X0.6825 Y-0.7737 Z-0.0858
N3180 X0.6835 Y-0.7728 Z-0.0815
N3185 X0.6841 Y-0.7723 Z-0.077
N3190 X0.6843 Y-0.7721 Z-0.0725
N3195 G0 Z0.1024
N3200 X0.9115 Y-0.4043
N3205 Z-0.035
N3210 G1 Z-0.0725 F16.
N3215 X0.9113 Y-0.4045 Z-0.077
N3220 X0.9107 Y-0.405 Z-0.0815
N3225 X0.9097 Y-0.4059 Z-0.0858
N3230 X0.9083 Y-0.4072 Z-0.0899
N3235 X0.9066 Y-0.4087 Z-0.0938
N3240 X0.9045 Y-0.4106 Z-0.0974
N3245 X0.9021 Y-0.4128 Z-0.1006
N3250 X0.8995 Y-0.4152 Z-0.1034
N3255 X0.8966 Y-0.4178 Z-0.1057
N3260 X0.8936 Y-0.4205 Z-0.1076
N3265 X0.8904 Y-0.4234 Z-0.1089
N3270 X0.8871 Y-0.4264 Z-0.1097
N3275 X0.8837 Y-0.4294 Z-0.11
N3280 G3 X0.8054 Y-0.5174 I0.3669 J-0.4055
N3285 G1 X0.7985 Y-0.5279
N3290 X0.7811 Y-0.5512
N3295 X0.739 Y-0.6074
N3300 X0.731 Y-0.618
N3305 X0.7304 Y-0.6187
N3310 X0.7085 Y-0.6427
N3315 X0.699 Y-0.6524
N3320 X0.6427 Y-0.7087
N3325 X0.641 Y-0.7104
N3330 X0.6311 Y-0.7199
N3335 X0.6298 Y-0.7211
N3340 X0.617 Y-0.7312
N3345 X0.596 Y-0.7475
N3350 X0.5427 Y-0.7874
N3355 X0.5276 Y-0.7987
N3360 X0.5173 Y-0.8051
N3365 X0.5061 Y-0.812
N3370 X0.4948 Y-0.8186
N3375 X0.4273 Y-0.8554
N3380 X0.4161 Y-0.8612
N3385 X0.3936 Y-0.8726
N3390 X0.3817 Y-0.8774
N3395 X0.3599 Y-0.8857
N3400 X0.2916 Y-0.9111
N3405 X0.2811 Y-0.9148
N3410 X0.2699 Y-0.9186
N3415 X0.2587 Y-0.9215
N3420 X0.2553 Y-0.9224
N3425 X0.1574 Y-0.9437
N3430 X0.1518 Y-0.9449
N3435 X0.1237 Y-0.9489
N3440 X0.1125 Y-0.95
N3445 X0.0225 Y-0.9564
N3450 X0.0112 Y-0.9569
N3455 X-0.0112
N3460 X-0.0225 Y-0.9564
N3465 X-0.1125 Y-0.95
N3470 X-0.1237 Y-0.9489
N3475 X-0.1518 Y-0.9449
N3480 X-0.1574 Y-0.9437
N3485 X-0.2553 Y-0.9224
N3490 X-0.2587 Y-0.9215
N3495 X-0.2699 Y-0.9186
N3500 X-0.2811 Y-0.9148
N3505 X-0.2924 Y-0.9108
N3510 X-0.3599 Y-0.8857
N3515 X-0.3824 Y-0.8772
N3520 X-0.3936 Y-0.8726
N3525 X-0.4161 Y-0.8612
N3530 X-0.4273 Y-0.8554
N3535 X-0.4948 Y-0.8186
N3540 X-0.5061 Y-0.812
N3545 X-0.5173 Y-0.8051
N3550 X-0.5276 Y-0.7987
N3555 X-0.5577 Y-0.7762
N3560 X-0.596 Y-0.7475
N3565 X-0.6185 Y-0.73
N3570 X-0.6298 Y-0.7211
N3575 X-0.6311 Y-0.7199
N3580 X-0.641 Y-0.7104
N3585 X-0.6894 Y-0.662
N3590 G3 X-0.7409 Y-0.7165 I-0.0256 J-0.0274
N3595 X-0.7406 Y-0.7168 I0.0259 J0.0271
N3600 G1 X-0.7373 Y-0.7199 Z-0.1097
N3605 X-0.734 Y-0.7229 Z-0.1089
N3610 X-0.7309 Y-0.7259 Z-0.1076
N3615 X-0.7278 Y-0.7287 Z-0.1057
N3620 X-0.725 Y-0.7313 Z-0.1034
N3625 X-0.7224 Y-0.7338 Z-0.1006
N3630 X-0.7201 Y-0.736 Z-0.0974
N3635 X-0.718 Y-0.7379 Z-0.0938
N3640 X-0.7163 Y-0.7395 Z-0.0899
N3645 X-0.7149 Y-0.7407 Z-0.0858
N3650 X-0.714 Y-0.7417 Z-0.0815
N3655 X-0.7134 Y-0.7422 Z-0.077
N3660 X-0.7132 Y-0.7424 Z-0.0725
N3665 G0 Z0.2
N3670 X1.4674 Y-1.2742
N3675 Z0.1024
N3680 Z-0.135
N3685 G1 Z-0.1725 F16.
N3690 X1.4671 Y-1.2741 Z-0.177
N3695 X1.4663 Y-1.2739 Z-0.1815
N3700 X1.465 Y-1.2736 Z-0.1858
N3705 X1.4632 Y-1.2731 Z-0.1899
N3710 X1.4609 Y-1.2726 Z-0.1938
N3715 X1.4582 Y-1.2719 Z-0.1974
N3720 X1.4551 Y-1.2711 Z-0.2006
N3725 X1.4517 Y-1.2702 Z-0.2034
N3730 X1.4479 Y-1.2692 Z-0.2057
N3735 X1.4439 Y-1.2682 Z-0.2076
N3740 X1.4397 Y-1.2671 Z-0.2089
N3745 X1.4354 Y-1.266 Z-0.2097
N3750 X1.4311 Y-1.2649 Z-0.21
N3755 G3 X1.3144 Y-1.2481 I-0.1357 J-0.5297
N3760 G1 X1.3084
N3765 X1.2627 Y-1.2575
N3770 X1.2165 Y-1.2645
N3775 X1.1701 Y-1.2698
N3780 X1.1236 Y-1.2738
N3785 X1.077 Y-1.2768
N3790 X1.0304 Y-1.279
N3795 X0.9837 Y-1.2807
N3800 X0.9371 Y-1.2819
N3805 X0.8904 Y-1.2829
N3810 X0.8437 Y-1.2836
N3815 X0.797 Y-1.2841
N3820 X0.7503 Y-1.2845
N3825 X0.7036 Y-1.2848
N3830 X0.6569 Y-1.285
N3835 X0.6102 Y-1.2852
N3840 X0.5168 Y-1.2854
N3845 X0.3768 Y-1.2855
N3850 X0.0966 Y-1.2856
N3855 X-0.6971
N3860 X-0.9539
N3865 X-0.9766 Y-1.28
N3870 X-1.0182 Y-1.2587
N3875 X-1.0515 Y-1.226
N3880 X-1.0776 Y-1.1873
N3885 X-1.0978 Y-1.1452
N3890 X-1.1132 Y-1.1012
N3895 X-1.12 Y-1.075
N3900 X-1.1233 Y-1.0648
N3905 X-1.1279 Y-1.0551
N3910 X-1.1336 Y-1.046
N3915 X-1.1358 Y-1.0429
N3920 X-1.1407 Y-1.0349
N3925 X-1.1471 Y-1.023
N3930 X-1.1527 Y-1.0124
N3935 X-1.1583 Y-1.0008
N3940 X-1.1696 Y-0.9773
N3945 X-1.173 Y-0.9674
N3950 X-1.1802 Y-0.9449
N3955 X-1.1808 Y-0.9421
N3960 X-1.1824 Y-0.9336
N3965 X-1.1861 Y-0.9111
N3970 X-1.1894 Y-0.8886
N3975 X-1.1907 Y-0.8774
N3980 X-1.1915 Y-0.8549
N3985 X-1.1918 Y-0.8436
N3990 Y0.8436
N3995 X-1.1915 Y0.8549
N4000 X-1.1907 Y0.8774
N4005 X-1.1894 Y0.8886
N4010 X-1.1861 Y0.9111
N4015 X-1.181 Y0.9575
N4020 X-1.1757 Y1.0039
N4025 X-1.1719 Y1.0505
N4030 X-1.1704 Y1.0738
N4035 X-1.1664 Y1.0968
N4040 X-1.1469 Y1.1392
N4045 X-1.1151 Y1.1734
N4050 X-1.0768 Y1.2002
N4055 X-1.035 Y1.2209
N4060 X-0.9911 Y1.2368
N4065 X-0.946 Y1.2489
N4070 X-0.9002 Y1.258
N4075 X-0.854 Y1.2649
N4080 X-0.8076 Y1.2701
N4085 X-0.7611 Y1.274
N4090 X-0.7145 Y1.277
N4095 X-0.6679 Y1.2792
N4100 X-0.6212 Y1.2808
N4105 X-0.5745 Y1.282
N4110 X-0.5278 Y1.2829
N4115 X-0.4812 Y1.2836
N4120 X-0.4345 Y1.2841
N4125 X-0.3878 Y1.2845
N4130 X-0.3411 Y1.2848
N4135 X-0.2944 Y1.285
N4140 X-0.2477 Y1.2852
N4145 X-0.1543 Y1.2854
N4150 X-0.0142 Y1.2855
N4155 X0.2659 Y1.2856
N4160 X0.5928
N4165 X0.9429
N4170 X0.9546 Y1.2847
N4175 X0.9774 Y1.2798
N4180 X1.0188 Y1.2583
N4185 X1.052 Y1.2254
N4190 X1.078 Y1.1866
N4195 X1.0981 Y1.1445
N4200 X1.1135 Y1.1004
N4205 X1.12 Y1.0751
N4210 X1.1233 Y1.0649
N4215 X1.1279 Y1.0551
N4220 X1.1336 Y1.046
N4225 X1.1358 Y1.0429
N4230 X1.1407 Y1.0349
N4235 X1.1471 Y1.023
N4240 X1.1527 Y1.0124
N4245 X1.1583 Y1.0008
N4250 X1.1696 Y0.9773
N4255 X1.173 Y0.9674
N4260 X1.1802 Y0.9449
N4265 X1.1808 Y0.9421
N4270 X1.1824 Y0.9336
N4275 X1.1861 Y0.9111
N4280 X1.1894 Y0.8886
N4285 X1.1907 Y0.8774
N4290 X1.1915 Y0.8549
N4295 X1.1918 Y0.8436
N4300 Y-0.8436
N4305 X1.1915 Y-0.8549
N4310 X1.1907 Y-0.8774
N4315 X1.1894 Y-0.8886
N4320 X1.1861 Y-0.9111
N4325 X1.1824 Y-0.9336
N4330 X1.1808 Y-0.9421
N4335 X1.1802 Y-0.9449
N4340 X1.173 Y-0.9674
N4345 X1.1696 Y-0.9773
N4350 X1.1582 Y-1.0011
N4355 X1.1527 Y-1.0124
N4360 X1.1468 Y-1.0236
N4365 X1.1407 Y-1.0349
N4370 X1.1358 Y-1.0429
N4375 X1.1246 Y-1.0586
N4380 X1.1172 Y-1.0686
N4385 X1.1134 Y-1.0727
N4390 X1.0909 Y-1.0956
N4395 X1.0842 Y-1.1024
N4400 X1.0796 Y-1.1065
N4405 X1.0571 Y-1.126
N4410 X1.0515 Y-1.1304
N4415 X1.0459 Y-1.1343
N4420 X1.0346 Y-1.1407
N4425 X1.0234 Y-1.1471
N4430 X0.9896 Y-1.1642
N4435 X0.9784 Y-1.169
N4440 X0.9672 Y-1.1733
N4445 X0.9559 Y-1.177
N4450 X0.9334 Y-1.1822
N4455 X0.9222 Y-1.1844
N4460 X0.8997 Y-1.1879
N4465 X0.8884 Y-1.1893
N4470 X0.8659 Y-1.1914
N4475 X0.8547 Y-1.1917
N4480 X0.821 Y-1.1918
N4485 X-0.8322 Y-1.1917
N4490 X-0.8547
N4495 X-0.8659 Y-1.1914
N4500 X-0.8884 Y-1.1893
N4505 X-0.8997 Y-1.1879
N4510 X-0.9222 Y-1.1844
N4515 X-0.9334 Y-1.1822
N4520 X-0.9559 Y-1.177
N4525 X-0.9672 Y-1.1733
N4530 X-0.9784 Y-1.169
N4535 X-0.9896 Y-1.1642
N4540 X-1.0234 Y-1.1471
N4545 X-1.0426 Y-1.1361
N4550 X-1.0459 Y-1.1343
N4555 X-1.0515 Y-1.1304
N4560 X-1.0571 Y-1.126
N4565 X-1.0796 Y-1.1065
N4570 X-1.0842 Y-1.1024
N4575 X-1.1063 Y-1.0799
N4580 G3 X-1.1583 Y-1.1339 I-0.0258 J-0.0272
N4585 X-1.158 Y-1.1342 I0.0262 J0.0268
N4590 G1 X-1.1547 Y-1.1373 Z-0.2097
N4595 X-1.1515 Y-1.1404 Z-0.2089
N4600 X-1.1483 Y-1.1434 Z-0.2076
N4605 X-1.1453 Y-1.1462 Z-0.2057
N4610 X-1.1425 Y-1.1489 Z-0.2034
N4615 X-1.14 Y-1.1513 Z-0.2006
N4620 X-1.1376 Y-1.1536 Z-0.1974
N4625 X-1.1356 Y-1.1555 Z-0.1938
N4630 X-1.1339 Y-1.1571 Z-0.1899
N4635 X-1.1326 Y-1.1584 Z-0.1858
N4640 X-1.1316 Y-1.1593 Z-0.1815
N4645 X-1.131 Y-1.1599 Z-0.177
N4650 X-1.1308 Y-1.1601 Z-0.1725
N4655 G0 Z0.1024
N4660 X-1.2362 Y0.7643
N4665 Z-0.135
N4670 G1 Z-0.1725 F16.
N4675 X-1.2361 Y0.7646 Z-0.177
N4680 X-1.2358 Y0.7653 Z-0.1815
N4685 X-1.2352 Y0.7665 Z-0.1858
N4690 X-1.2345 Y0.7682 Z-0.1899
N4695 X-1.2335 Y0.7704 Z-0.1938
N4700 X-1.2324 Y0.773 Z-0.1974
N4705 X-1.2311 Y0.7759 Z-0.2006
N4710 X-1.2297 Y0.7792 Z-0.2034
N4715 X-1.2282 Y0.7827 Z-0.2057
N4720 X-1.2265 Y0.7865 Z-0.2076
N4725 X-1.2248 Y0.7905 Z-0.2089
N4730 X-1.223 Y0.7945 Z-0.2097
N4735 X-1.2212 Y0.7987 Z-0.21
N4740 G3 X-1.1861 Y0.9111 I-0.5014 J0.2183
N4745 G1 X-1.1824 Y0.9336
N4750 X-1.1808 Y0.9421
N4755 X-1.1802 Y0.9449
N4760 X-1.173 Y0.9674
N4765 X-1.1696 Y0.9773
N4770 X-1.1582 Y1.0011
N4775 X-1.1527 Y1.0124
N4780 X-1.1468 Y1.0236
N4785 X-1.1407 Y1.0349
N4790 X-1.1358 Y1.0429
N4795 X-1.1246 Y1.0586
N4800 X-1.1172 Y1.0686
N4805 X-1.1134 Y1.0727
N4810 X-1.0909 Y1.0956
N4815 X-1.0842 Y1.1024
N4820 X-1.0796 Y1.1065
N4825 X-1.0571 Y1.126
N4830 X-1.0515 Y1.1304
N4835 X-1.0459 Y1.1343
N4840 X-1.0346 Y1.1407
N4845 X-1.0234 Y1.1471
N4850 X-0.9896 Y1.1642
N4855 X-0.9784 Y1.169
N4860 X-0.9672 Y1.1733
N4865 X-0.9559 Y1.177
N4870 X-0.9334 Y1.1822
N4875 X-0.9222 Y1.1844
N4880 X-0.8997 Y1.1879
N4885 X-0.8884 Y1.1893
N4890 X-0.8659 Y1.1914
N4895 X-0.8547 Y1.1917
N4900 X-0.821 Y1.1918
N4905 X0.8322 Y1.1917
N4910 X0.8547
N4915 X0.8659 Y1.1914
N4920 X0.8884 Y1.1893
N4925 X0.8997 Y1.1879
N4930 X0.9222 Y1.1844
N4935 X0.9334 Y1.1822
N4940 X0.9559 Y1.177
N4945 X0.9672 Y1.1733
N4950 X0.9784 Y1.169
N4955 X0.9896 Y1.1642
N4960 X1.0234 Y1.1471
N4965 X1.0426 Y1.1361
N4970 X1.0459 Y1.1343
N4975 X1.0515 Y1.1304
N4980 X1.0571 Y1.126
N4985 X1.0796 Y1.1065
N4990 X1.0842 Y1.1024
N4995 X1.1063 Y1.0799
N5000 G3 X1.1583 Y1.1339 I0.0258 J0.0272
N5005 X1.158 Y1.1342 I-0.0262 J-0.0268
N5010 G1 X1.1547 Y1.1373 Z-0.2097
N5015 X1.1515 Y1.1404 Z-0.2089
N5020 X1.1483 Y1.1434 Z-0.2076
N5025 X1.1453 Y1.1462 Z-0.2057
N5030 X1.1425 Y1.1489 Z-0.2034
N5035 X1.14 Y1.1513 Z-0.2006
N5040 X1.1376 Y1.1536 Z-0.1974
N5045 X1.1356 Y1.1555 Z-0.1938
N5050 X1.1339 Y1.1571 Z-0.1899
N5055 X1.1326 Y1.1584 Z-0.1858
N5060 X1.1316 Y1.1593 Z-0.1815
N5065 X1.131 Y1.1599 Z-0.177
N5070 X1.1308 Y1.1601 Z-0.1725
N5075 G0 Z0.2
(2D CONTOUR2)
N5085 M8
N5090 G0 Z0.6
N5095 X0.0375 Y-1.2843
N5100 Z0.2
N5105 G1 Z0.0394 F8.
N5110 Z-0.1725 F1.
N5115 G19 G3 Y-1.2468 Z-0.21 J0.0375 K0.
N5120 G1 Y-1.2093 F8.
N5125 G17 G3 X0. Y-1.1718 I-0.0375 J0.
N5130 G1 X-0.8593
N5135 G2 X-1.1718 Y-0.8593 I0. J0.3125
N5140 G1 Y0.8593
N5145 G2 X-0.8593 Y1.1718 I0.3125 J0.
N5150 G1 X0.8593
N5155 G2 X1.1718 Y0.8593 I0. J-0.3125
N5160 G1 Y-0.8593
N5165 G2 X0.8593 Y-1.1718 I-0.3125 J0.
N5170 G1 X0.
N5175 G3 X-0.0375 Y-1.2093 I0. J-0.0375
N5180 G1 Y-1.2468
N5185 G19 G2 Y-1.2843 Z-0.1725 J0. K0.0375
N5190 G0 Z0.6
N5195 G17
(2D CONTOUR3)
N5200 M8
N5205 G0 X1.05 Y0.0375
N5210 Z0.6
N5215 Z0.2
N5220 G1 Z0.0394 F8.
N5225 Z-0.0725 F1.
N5230 G18 G3 X1.0125 Z-0.11 I-0.0375 K0.
N5235 G1 X0.975 F8.
N5240 G17 G3 X0.9375 Y0. I0. J-0.0375
N5245 G2 X-0.9375 I-0.9375 J0.
N5250 X0.9375 I0.9375 J0.
N5255 G3 X0.975 Y-0.0375 I0.0375 J0.
N5260 G1 X1.0125
N5265 G18 G2 X1.05 Z-0.0725 I0. K0.0375
N5270 G0 Z0.6
N5275 G17
(2D CONTOUR4)
N5280 M8
N5285 G0 X0.8816 Y-0.2192
N5290 Z0.6
N5295 Z0.2
N5300 G1 Z0.0394 F8.
N5305 Z-0.0325 F1.
N5310 X0.8813 Y-0.2193 Z-0.037
N5315 X0.8806 Y-0.2196 Z-0.0415
N5320 X0.8793 Y-0.22 Z-0.0458
N5325 X0.8775 Y-0.2206 Z-0.0499
N5330 X0.8753 Y-0.2214 Z-0.0538
N5335 X0.8727 Y-0.2223 Z-0.0574
N5340 X0.8696 Y-0.2233 Z-0.0606
N5345 X0.8663 Y-0.2245 Z-0.0634
N5350 X0.8626 Y-0.2257 Z-0.0657
N5355 X0.8587 Y-0.2271 Z-0.0676
N5360 X0.8546 Y-0.2285 Z-0.0689
N5365 X0.8504 Y-0.2299 Z-0.0697
N5370 X0.8461 Y-0.2314 Z-0.07
N5375 X0.8107 Y-0.2436 F8.
N5380 G3 X0.7874 Y-0.2913 I0.0122 J-0.0355
N5385 G2 X0.6101 Y-0.5397 I-0.1773 J-0.061
N5390 G1 X-0.6101
N5395 G2 X-0.7725 Y-0.2585 I0. J0.1875
N5400 G1 X-0.1624 Y0.7982
N5405 G2 X0.1624 I0.1624 J-0.0937
N5410 G1 X0.7725 Y-0.2585
N5415 G2 X0.7874 Y-0.2913 I-0.1624 J-0.0937
N5420 G3 X0.8351 Y-0.3145 I0.0355 J0.0122
N5425 G1 X0.8705 Y-0.3023
N5430 X0.8748 Y-0.3008 Z-0.0697
N5435 X0.879 Y-0.2994 Z-0.0689
N5440 X0.8831 Y-0.298 Z-0.0676
N5445 X0.887 Y-0.2966 Z-0.0657
N5450 X0.8907 Y-0.2954 Z-0.0634
N5455 X0.894 Y-0.2942 Z-0.0606
N5460 X0.8971 Y-0.2932 Z-0.0574
N5465 X0.8997 Y-0.2923 Z-0.0538
N5470 X0.9019 Y-0.2915 Z-0.0499
N5475 X0.9037 Y-0.2909 Z-0.0458
N5480 X0.905 Y-0.2905 Z-0.0415
N5485 X0.9057 Y-0.2902 Z-0.037
N5490 X0.906 Y-0.2901 Z-0.0325
N5495 G0 Z0.6
(FACE1)
N5505 M8
N5510 G0 X0.3489 Y-0.216
N5515 Z0.4
N5520 Z0.2
N5525 G1 Z0.0275 F10.
N5530 G18 G3 X0.3114 Z-0.01 I-0.0375 K0.
N5535 G1 X0.1192
N5540 X-0.1465
N5545 G17 G2 Y0.1043 I0. J0.1601
N5550 G1 X-0.1231
N5555 X0.1321
N5560 G3 Y0.4245 I0. J0.1601
N5565 G1 X0.0098
N5570 X-0.1259
N5575 G18 G3 X-0.1634 Z0.0275 I0. K0.0375
N5580 G0 Z0.4
N5585 G17
N5590 M9
N5595 G53 G0 Z0.
N5600 M30
%
