%
(HELENA_WAND)
(HELENA WAND TOP)
(T5  D=0.75 CR=0. - ZMIN=0.0504 - FLAT END MILL)
N10 G90 G94 G17 G91.1
N15 G20
N20 G53 G0 Z0.
(ADAPTIVE4)
N25 M9
N30 T5 M6
N35 S1800 M3
N40 G54
N45 M9
N55 G0 X-0.9308 Y1.3517
N60 G43 Z1.85 H5
N65 G0 Z1.45
N70 Z0.775
N75 G1 Z0.7 F30.
N80 X-0.9305 Z0.6935
N85 X-0.9297 Y1.3514 Z0.687
N90 X-0.9283 Y1.3511 Z0.6806
N95 X-0.9264 Y1.3506 Z0.6743
N100 X-0.924 Y1.35 Z0.6683
N105 X-0.9211 Y1.3492 Z0.6625
N110 X-0.9177 Y1.3484 Z0.657
N115 X-0.9138 Y1.3474 Z0.6518
N120 X-0.9095 Y1.3463 Z0.647
N125 X-0.9049 Y1.3451 Z0.6425
N130 X-0.8998 Y1.3438 Z0.6386
N135 X-0.8945 Y1.3424 Z0.635
N140 X-0.8889 Y1.341 Z0.632
N145 X-0.883 Y1.3395 Z0.6295
N150 X-0.877 Y1.3379 Z0.6276
N155 X-0.8708 Y1.3363 Z0.6261
N160 X-0.8645 Y1.3347 Z0.6253
N165 X-0.8582 Y1.3331 Z0.625
N170 G3 X-0.625 Y1.2994 I0.2722 J1.0593
N175 G1 X-0.5883 Y1.2993
N180 X-0.5871 Y1.2994
N185 X-0.5729 Y1.3103
N190 X-0.5565 Y1.3251
N195 X-0.5382 Y1.3445
N200 X-0.5196 Y1.3677
N205 X-0.5028 Y1.3922
N210 X-0.4876 Y1.4177
N215 X-0.4737 Y1.444
N220 X-0.4611 Y1.4709
N225 X-0.4461 Y1.4965
N230 X-0.4286 Y1.5205
N235 X-0.4092 Y1.543
N240 X-0.3882 Y1.564
N245 X-0.3658 Y1.5836
N250 X-0.3424 Y1.6019
N255 X-0.318 Y1.6188
N260 X-0.2928 Y1.6345
N265 X-0.2669 Y1.6491
N270 X-0.2404 Y1.6627
N275 X-0.2135 Y1.6752
N280 X-0.1862 Y1.6868
N285 X-0.1585 Y1.6976
N290 X-0.1305 Y1.7075
N295 X-0.1022 Y1.7167
N300 X-0.0737 Y1.7252
N305 X-0.0451 Y1.733
N310 X-0.0162 Y1.7403
N315 X0.0127 Y1.7469
N320 X0.0418 Y1.7531
N325 X0.0709 Y1.7588
N330 X0.1002 Y1.764
N335 X0.1295 Y1.7689
N340 X0.1589 Y1.7733
N345 X0.1883 Y1.7774
N350 X0.2178 Y1.7812
N355 X0.2473 Y1.7847
N360 X0.2768 Y1.7879
N365 X0.3064 Y1.7909
N370 X0.336 Y1.7936
N375 X0.3656 Y1.7961
N380 X0.3952 Y1.7984
N385 X0.4248 Y1.8005
N390 X0.4545 Y1.8024
N395 X0.4842 Y1.8042
N400 X0.5138 Y1.8059
N405 X0.5435 Y1.8074
N410 X0.5732 Y1.8088
N415 X0.6029 Y1.8101
N420 X0.6325 Y1.8113
N425 X0.6622 Y1.8124
N430 X0.6919 Y1.8134
N435 X0.7216 Y1.8143
N440 X0.7513 Y1.8151
N445 X0.781 Y1.8159
N450 X0.8107 Y1.8166
N455 X0.8404 Y1.8173
N460 X0.8702 Y1.8179
N465 X0.8999 Y1.8185
N470 X0.9296 Y1.819
N475 X0.9593 Y1.8194
N480 X0.989 Y1.8199
N485 X1.0187 Y1.8203
N490 X1.0484 Y1.8206
N495 X1.0781 Y1.821
N500 X1.1078 Y1.8213
N505 X1.1375 Y1.8216
N510 X1.1673 Y1.8218
N515 X1.197 Y1.8221
N520 X1.2267 Y1.8223
N525 X1.2564 Y1.8225
N530 X1.2861 Y1.8227
N535 X1.3158 Y1.8228
N540 X1.3455 Y1.823
N545 X1.3752 Y1.8231
N550 X1.405 Y1.8233
N555 X1.4347 Y1.8234
N560 X1.4644 Y1.8235
N565 X1.4941 Y1.8236
N570 X1.5535 Y1.8238
N575 X1.6129 Y1.824
N580 X1.6724 Y1.8241
N585 X1.7318 Y1.8242
N590 X1.8209 Y1.8243
N595 X1.9101 Y1.8244
N600 X1.9992 Y1.8245
N605 X2.1181 Y1.8246
N610 X2.2666 Y1.8247
N615 X2.4449
N620 X2.6826
N625 X3.0689 Y1.8248
N630 X3.1877
N635 X4.5842
N640 X5.1785
N645 X7.1692
N650 X9.16
N655 X11.1507
N660 X13.1415
N665 X15.1322
N670 X15.1619
N675 X15.1916 Y1.8226
N680 X15.2212 Y1.8206
N685 X15.2509 Y1.8188
N690 X15.2805 Y1.8171
N695 X15.3102 Y1.8156
N700 X15.3399 Y1.8141
N705 X15.3696 Y1.8128
N710 X15.3993 Y1.8116
N715 X15.429 Y1.8105
N720 X15.4587 Y1.8095
N725 X15.4884 Y1.8086
N730 X15.5181 Y1.8077
N735 X15.5478 Y1.8069
N740 X15.5775 Y1.8062
N745 X15.6072 Y1.8055
N750 X15.6369 Y1.8049
N755 X15.6666 Y1.8043
N760 X15.6963 Y1.8038
N765 X15.726 Y1.8033
N770 X15.7557 Y1.8029
N775 X15.7854 Y1.8025
N780 X15.8151 Y1.8021
N785 X15.8448 Y1.8018
N790 X15.8745 Y1.8014
N795 X15.8894 Y1.8013
N800 X15.9042 Y1.7997
N805 X15.9187 Y1.7968
N810 X15.933 Y1.7925
N815 X15.9605 Y1.7813
N820 X15.9864 Y1.7649
N825 X16.0098 Y1.7466
N830 X16.0316 Y1.7264
N835 X16.0518 Y1.7047
N840 X16.0706 Y1.6816
N845 X16.088 Y1.6576
N850 X16.1042 Y1.6326
N855 X16.1191 Y1.6069
N860 X16.1329 Y1.5806
N865 X16.1457 Y1.5538
N870 X16.1576 Y1.5266
N875 X16.1685 Y1.4989
N880 X16.1786 Y1.471
N885 X16.1879 Y1.4428
N890 X16.1927 Y1.4272
N895 X16.198 Y1.4139
N900 X16.2056 Y1.4017
N905 X16.2153 Y1.3911
N910 X16.2267 Y1.3824
N915 X16.2394 Y1.3758
N920 X16.2531 Y1.3715
N925 X16.2673 Y1.3698
N930 X16.2816 Y1.3705
N935 X16.2956 Y1.3738
N940 X16.3088 Y1.3795
N945 G3 X16.3109 Y1.5112 I-0.0349 J0.0664
N950 G1 X16.3062 Y1.5132 Z0.6252
N955 X16.3015 Y1.5153 Z0.6257
N960 X16.2969 Y1.5173 Z0.6266
N965 X16.2917 Y1.5184 Z0.6279
N970 X16.2867 Y1.5195 Z0.6295
N975 X16.2819 Y1.5205 Z0.6316
N980 X16.2778 Y1.5207 Z0.6335
N985 X16.2739 Y1.5209 Z0.6358
N990 X16.2684 Y1.5204 Z0.6394
N995 X16.2634 Y1.5198 Z0.6435
N1000 X16.2586 Y1.5194 Z0.648
N1005 X16.255 Y1.5182 Z0.6522
N1010 X16.2518 Y1.5172 Z0.6567
N1015 X16.2488 Y1.5163 Z0.6615
N1020 X16.2463 Y1.5154 Z0.6664
N1025 X16.244 Y1.5147 Z0.6716
N1030 X16.2419 Y1.5137 Z0.678
N1035 X16.2404 Y1.513 Z0.6847
N1040 X16.2394 Y1.5125 Z0.6915
N1045 X16.2391 Y1.5124 Z0.6957
N1050 X16.239 Y1.5123 Z0.7
N1055 G0 Z1.45
N1060 X-0.8941 Y1.3517
N1065 Z0.775
N1070 G1 Z0.7 F30.
N1075 X-0.8938 Y1.3516 Z0.6935
N1080 X-0.893 Y1.3514 Z0.687
N1085 X-0.8916 Y1.3511 Z0.6806
N1090 X-0.8897 Y1.3506 Z0.6743
N1095 X-0.8873 Y1.35 Z0.6683
N1100 X-0.8844 Y1.3492 Z0.6625
N1105 X-0.881 Y1.3483 Z0.657
N1110 X-0.8771 Y1.3473 Z0.6518
N1115 X-0.8728 Y1.3462 Z0.647
N1120 X-0.8682 Y1.345 Z0.6425
N1125 X-0.8631 Y1.3437 Z0.6386
N1130 X-0.8578 Y1.3424 Z0.635
N1135 X-0.8522 Y1.3409 Z0.632
N1140 X-0.8463 Y1.3394 Z0.6295
N1145 X-0.8403 Y1.3379 Z0.6276
N1150 X-0.8341 Y1.3363 Z0.6261
N1155 X-0.8278 Y1.3347 Z0.6253
N1160 X-0.8215 Y1.333 Z0.625
N1165 G3 X-0.5883 Y1.2993 I0.2722 J1.0593
N1170 G1 X-0.5162
N1175 X-0.4937 Y1.2992
N1180 X-0.4712 Y1.2982
N1185 X-0.47 Y1.2981
N1190 X-0.4412 Y1.3054
N1195 X-0.4126 Y1.3132
N1200 X-0.384 Y1.3214
N1205 X-0.3555 Y1.3297
N1210 X-0.327 Y1.3381
N1215 X-0.2984 Y1.3464
N1220 X-0.2699 Y1.3547
N1225 X-0.2413 Y1.3628
N1230 X-0.2127 Y1.3708
N1235 X-0.184 Y1.3785
N1240 X-0.1553 Y1.386
N1245 X-0.1265 Y1.3933
N1250 X-0.0976 Y1.4003
N1255 X-0.0686 Y1.407
N1260 X-0.0396 Y1.4135
N1265 X-0.0106 Y1.4197
N1270 X0.0185 Y1.4256
N1275 X0.0477 Y1.4313
N1280 X0.0769 Y1.4367
N1285 X0.1062 Y1.4419
N1290 X0.1355 Y1.4467
N1295 X0.1648 Y1.4514
N1300 X0.1942 Y1.4558
N1305 X0.2236 Y1.46
N1310 X0.2531 Y1.4639
N1315 X0.2826 Y1.4677
N1320 X0.3121 Y1.4712
N1325 X0.3416 Y1.4745
N1330 X0.3711 Y1.4777
N1335 X0.4007 Y1.4807
N1340 X0.4303 Y1.4835
N1345 X0.4599 Y1.4861
N1350 X0.4895 Y1.4886
N1355 X0.5191 Y1.4909
N1360 X0.5487 Y1.4931
N1365 X0.5784 Y1.4952
N1370 X0.608 Y1.4971
N1375 X0.6377 Y1.4989
N1380 X0.6673 Y1.5006
N1385 X0.697 Y1.5022
N1390 X0.7267 Y1.5037
N1395 X0.7564 Y1.5051
N1400 X0.7861 Y1.5064
N1405 X0.8157 Y1.5077
N1410 X0.8454 Y1.5088
N1415 X0.8751 Y1.5099
N1420 X0.9048 Y1.5109
N1425 X0.9345 Y1.5118
N1430 X0.9642 Y1.5127
N1435 X0.9939 Y1.5135
N1440 X1.0236 Y1.5143
N1445 X1.0533 Y1.515
N1450 X1.083 Y1.5157
N1455 X1.1127 Y1.5163
N1460 X1.1424 Y1.5169
N1465 X1.1722 Y1.5175
N1470 X1.2019 Y1.518
N1475 X1.2316 Y1.5184
N1480 X1.2613 Y1.5189
N1485 X1.291 Y1.5193
N1490 X1.3207 Y1.5197
N1495 X1.3504 Y1.52
N1500 X1.3801 Y1.5204
N1505 X1.4098 Y1.5207
N1510 X1.4395 Y1.521
N1515 X1.4693 Y1.5212
N1520 X1.499 Y1.5215
N1525 X1.5287 Y1.5217
N1530 X1.5584 Y1.5219
N1535 X1.5881 Y1.5221
N1540 X1.6178 Y1.5223
N1545 X1.6475 Y1.5225
N1550 X1.6772 Y1.5227
N1555 X1.707 Y1.5228
N1560 X1.7367 Y1.523
N1565 X1.7664 Y1.5231
N1570 X1.7961 Y1.5232
N1575 X1.8258 Y1.5233
N1580 X1.8852 Y1.5235
N1585 X1.9447 Y1.5237
N1590 X2.0041 Y1.5239
N1595 X2.0635 Y1.524
N1600 X2.1229 Y1.5241
N1605 X2.2121 Y1.5242
N1610 X2.3012 Y1.5244
N1615 X2.3903
N1620 X2.5092 Y1.5245
N1625 X2.6578 Y1.5246
N1630 X2.836 Y1.5247
N1635 X3.0737
N1640 X3.4006 Y1.5248
N1645 X3.4897
N1650 X4.2028
N1655 X5.4805
N1660 X7.4712
N1665 X9.462
N1670 X11.4527
N1675 X13.4435
N1680 X14.8103
N1685 X14.84 Y1.5246
N1690 X14.8697 Y1.5243
N1695 X14.8994 Y1.5239
N1700 X14.9291 Y1.5234
N1705 X14.9588 Y1.5228
N1710 X14.9885 Y1.5221
N1715 X15.0182 Y1.5214
N1720 X15.0479 Y1.5206
N1725 X15.0776 Y1.5198
N1730 X15.1073 Y1.519
N1735 X15.1964 Y1.5165
N1740 X15.2261 Y1.5157
N1745 X15.2558 Y1.5149
N1750 X15.2855 Y1.5141
N1755 X15.3152 Y1.5133
N1760 X15.3449 Y1.5126
N1765 X15.3746 Y1.5118
N1770 X15.4043 Y1.5111
N1775 X15.4341 Y1.5104
N1780 X15.4637 Y1.5087
N1785 X15.493 Y1.5039
N1790 X15.5217 Y1.4962
N1795 X15.5496 Y1.4859
N1800 X15.5767 Y1.4737
N1805 X15.603 Y1.4599
N1810 X15.6287 Y1.445
N1815 X15.6538 Y1.4291
N1820 X15.6785 Y1.4125
N1825 X15.7028 Y1.3955
N1830 X15.7269 Y1.3781
N1835 X15.7509 Y1.3605
N1840 X15.7748 Y1.3429
N1845 X15.7987 Y1.3253
N1850 X15.8229 Y1.308
N1855 X15.8472 Y1.2909
N1860 X15.8719 Y1.2744
N1865 X15.8969 Y1.2584
N1870 X15.9224 Y1.2431
N1875 X15.9484 Y1.2287
N1880 X15.9749 Y1.2153
N1885 X16.0003 Y1.1998
N1890 X16.0138 Y1.1897
N1895 X16.027 Y1.1817
N1900 X16.0414 Y1.1763
N1905 X16.0566 Y1.1737
N1910 X16.072 Y1.1741
N1915 X16.0871 Y1.1773
N1920 X16.1012 Y1.1833
N1925 X16.114 Y1.1919
N1930 X16.125 Y1.2027
N1935 X16.1337 Y1.2154
N1940 G3 X16.0026 Y1.2883 I-0.0655 J0.0364
N1945 G1 X15.9995 Y1.2826 Z0.6253
N1950 X15.9963 Y1.2769 Z0.6261
N1955 X15.9932 Y1.2713 Z0.6276
N1960 X15.9902 Y1.2659 Z0.6295
N1965 X15.9872 Y1.2606 Z0.632
N1970 X15.9844 Y1.2555 Z0.635
N1975 X15.9817 Y1.2507 Z0.6386
N1980 X15.9792 Y1.2461 Z0.6425
N1985 X15.9769 Y1.2419 Z0.647
N1990 X15.9747 Y1.2381 Z0.6518
N1995 X15.9728 Y1.2346 Z0.657
N2000 X15.9711 Y1.2315 Z0.6625
N2005 X15.9696 Y1.2289 Z0.6683
N2010 X15.9684 Y1.2267 Z0.6743
N2015 X15.9674 Y1.225 Z0.6806
N2020 X15.9667 Y1.2237 Z0.687
N2025 X15.9663 Y1.223 Z0.6935
N2030 X15.9662 Y1.2227 Z0.7
N2035 G0 Z1.45
N2040 X-0.7326 Y1.3911
N2045 Z0.775
N2050 G1 Z0.7 F30.
N2055 X-0.7324 Y1.3909 Z0.6935
N2060 X-0.7316 Y1.3906 Z0.687
N2065 X-0.7303 Y1.3901 Z0.6806
N2070 X-0.7285 Y1.3893 Z0.6743
N2075 X-0.7262 Y1.3883 Z0.6683
N2080 X-0.7234 Y1.3872 Z0.6625
N2085 X-0.7201 Y1.3858 Z0.657
N2090 X-0.7165 Y1.3842 Z0.6518
N2095 X-0.7124 Y1.3825 Z0.647
N2100 X-0.7079 Y1.3807 Z0.6425
N2105 X-0.7032 Y1.3786 Z0.6386
N2110 X-0.6981 Y1.3765 Z0.635
N2115 X-0.6927 Y1.3742 Z0.632
N2120 X-0.6872 Y1.3719 Z0.6295
N2125 X-0.6814 Y1.3695 Z0.6276
N2130 X-0.6755 Y1.367 Z0.6261
N2135 X-0.6695 Y1.3645 Z0.6253
N2140 X-0.6635 Y1.3619 Z0.625
N2145 G3 X-0.4378 Y1.2944 I0.4245 J1.0079
N2150 G1 X-0.4262 Y1.2927
N2155 X-0.4115 Y1.2898
N2160 X-0.4037 Y1.2881
N2165 X-0.3812 Y1.2823
N2170 X-0.3587 Y1.275
N2175 X-0.3386 Y1.2674
N2180 X-0.3362 Y1.2664
N2185 X-0.3137 Y1.2561
N2190 X-0.2922 Y1.245
N2195 X-0.2912 Y1.2444
N2200 X-0.28 Y1.2375
N2205 X-0.2789 Y1.237
N2210 X-0.2508 Y1.2275
N2215 X-0.2222 Y1.2194
N2220 X-0.1932 Y1.2127
N2225 X-0.1641 Y1.2071
N2230 X-0.1347 Y1.2024
N2235 X-0.1053 Y1.1985
N2240 X-0.0757 Y1.1954
N2245 X-0.0461 Y1.1929
N2250 X-0.0165 Y1.1909
N2255 X0.0132 Y1.1895
N2260 X0.0429 Y1.1884
N2265 X0.0726 Y1.1877
N2270 X0.1023 Y1.1873
N2275 X0.132 Y1.1871
N2280 X0.1617 Y1.1872
N2285 X0.1915 Y1.1875
N2290 X0.2212 Y1.1879
N2295 X0.2509 Y1.1885
N2300 X0.2806 Y1.1892
N2305 X0.3103 Y1.19
N2310 X0.34 Y1.1908
N2315 X0.3697 Y1.1918
N2320 X0.3994 Y1.1927
N2325 X0.4291 Y1.1937
N2330 X0.4588 Y1.1948
N2335 X0.4885 Y1.1958
N2340 X0.5775 Y1.199
N2345 X0.6072 Y1.2001
N2350 X0.6369 Y1.2011
N2355 X0.6666 Y1.2021
N2360 X0.6963 Y1.2031
N2365 X0.726 Y1.2041
N2370 X0.7557 Y1.205
N2375 X0.7854 Y1.206
N2380 X0.8151 Y1.2069
N2385 X0.8448 Y1.2077
N2390 X0.8745 Y1.2086
N2395 X0.9042 Y1.2094
N2400 X0.9339 Y1.2102
N2405 X0.9636 Y1.2109
N2410 X0.9933 Y1.2116
N2415 X1.023 Y1.2123
N2420 X1.0527 Y1.213
N2425 X1.0824 Y1.2136
N2430 X1.1121 Y1.2142
N2435 X1.1419 Y1.2148
N2440 X1.1716 Y1.2153
N2445 X1.2013 Y1.2158
N2450 X1.231 Y1.2163
N2455 X1.2607 Y1.2168
N2460 X1.2904 Y1.2173
N2465 X1.3201 Y1.2177
N2470 X1.3498 Y1.2181
N2475 X1.3795 Y1.2185
N2480 X1.4092 Y1.2189
N2485 X1.4389 Y1.2192
N2490 X1.4687 Y1.2195
N2495 X1.4984 Y1.2198
N2500 X1.5281 Y1.2201
N2505 X1.5578 Y1.2204
N2510 X1.5875 Y1.2207
N2515 X1.6172 Y1.2209
N2520 X1.6469 Y1.2211
N2525 X1.6766 Y1.2214
N2530 X1.7063 Y1.2216
N2535 X1.7361 Y1.2218
N2540 X1.7658 Y1.222
N2545 X1.7955 Y1.2221
N2550 X1.8252 Y1.2223
N2555 X1.8549 Y1.2225
N2560 X1.8846 Y1.2226
N2565 X1.9143 Y1.2227
N2570 X1.9738 Y1.223
N2575 X2.0332 Y1.2232
N2580 X2.0926 Y1.2234
N2585 X2.152 Y1.2236
N2590 X2.2115 Y1.2237
N2595 X2.2709 Y1.2239
N2600 X2.36 Y1.224
N2605 X2.4492 Y1.2242
N2610 X2.5383 Y1.2243
N2615 X2.6274 Y1.2244
N2620 X2.7463 Y1.2245
N2625 X2.8949 Y1.2246
N2630 X3.0731
N2635 X3.2811 Y1.2247
N2640 X3.5485
N2645 X3.6971 Y1.2248
N2650 X4.2319
N2655 X5.6878
N2660 X7.6786
N2665 X9.6694
N2670 X11.6601
N2675 X13.6509
N2680 X14.4531
N2685 X14.4828
N2690 X14.5125
N2695 X14.5422 Y1.2247
N2700 X14.572 Y1.2246
N2705 X14.6017 Y1.2245
N2710 X14.6314 Y1.2243
N2715 X14.6611 Y1.2241
N2720 X14.6908 Y1.2239
N2725 X14.7205 Y1.2236
N2730 X14.7502 Y1.2232
N2735 X14.7799 Y1.2229
N2740 X14.8096 Y1.2224
N2745 X14.8394 Y1.222
N2750 X14.8691 Y1.2215
N2755 X14.8988 Y1.221
N2760 X14.9285 Y1.2205
N2765 X14.9582 Y1.22
N2770 X14.9879 Y1.2194
N2775 X15.0176 Y1.2188
N2780 X15.0473 Y1.2182
N2785 X15.077 Y1.2176
N2790 X15.1067 Y1.2159
N2795 X15.1362 Y1.2129
N2800 X15.1657 Y1.2087
N2805 X15.1949 Y1.2034
N2810 X15.2239 Y1.1971
N2815 X15.2527 Y1.1898
N2820 X15.2813 Y1.1816
N2825 X15.3096 Y1.1727
N2830 X15.3378 Y1.1631
N2835 X15.3657 Y1.1529
N2840 X15.3934 Y1.1422
N2845 X15.421 Y1.1311
N2850 X15.4484 Y1.1197
N2855 X15.4757 Y1.108
N2860 X15.5029 Y1.0961
N2865 X15.53 Y1.0839
N2870 X15.557 Y1.0714
N2875 X15.5839 Y1.0588
N2880 X15.6108 Y1.0462
N2885 X15.6377 Y1.0337
N2890 X15.6648 Y1.0215
N2895 X15.6921 Y1.0098
N2900 X15.7197 Y0.9986
N2905 X15.7475 Y0.9882
N2910 X15.7756 Y0.9786
N2915 X15.8041 Y0.97
N2920 X15.8328 Y0.9626
N2925 X15.8619 Y0.9565
N2930 X15.8913 Y0.9517
N2935 X15.906 Y0.9502
N2940 X15.9351 Y0.9443
N2945 X15.9628 Y0.9334
N2950 X15.9842 Y0.9218
N2955 X15.9959 Y0.9169
N2960 X16.0084 Y0.9145
N2965 X16.0211 Y0.9148
N2970 X16.0334 Y0.9176
N2975 X16.045 Y0.923
N2980 X16.0551 Y0.9305
N2985 X16.0635 Y0.94
N2990 X16.0698 Y0.9511
N2995 X16.0737 Y0.9632
N3000 X16.075 Y0.9758
N3005 G3 X15.9574 Y1.0349 I-0.075 J-0.0026
N3010 G1 X15.9535 Y1.0315 Z0.6252
N3015 X15.9496 Y1.0282 Z0.6257
N3020 X15.9457 Y1.0249 Z0.6266
N3025 X15.9425 Y1.0208 Z0.6279
N3030 X15.9394 Y1.0168 Z0.6295
N3035 X15.9364 Y1.0128 Z0.6316
N3040 X15.934 Y1.008 Z0.6342
N3045 X15.9318 Y1.0034 Z0.6373
N3050 X15.9296 Y0.999 Z0.6408
N3055 X15.9286 Y0.9949 Z0.6444
N3060 X15.9276 Y0.991 Z0.6483
N3065 X15.9267 Y0.9875 Z0.6525
N3070 X15.9259 Y0.9842 Z0.6569
N3075 X15.9256 Y0.9807 Z0.6624
N3080 X15.9254 Y0.9777 Z0.6682
N3085 X15.9252 Y0.9752 Z0.6743
N3090 X15.925 Y0.9732 Z0.6805
N3095 X15.9251 Y0.972 Z0.686
N3100 Y0.9711 Z0.6915
N3105 Y0.9708 Z0.6957
N3110 Y0.9706 Z0.7
N3115 G0 Z1.45
N3120 X-0.468 Y1.4357
N3125 Z0.775
N3130 G1 Z0.7 F30.
N3135 X-0.4678 Y1.4355 Z0.6935
N3140 X-0.4673 Y1.4348 Z0.687
N3145 X-0.4664 Y1.4338 Z0.6806
N3150 X-0.4651 Y1.4323 Z0.6743
N3155 X-0.4635 Y1.4304 Z0.6683
N3160 X-0.4615 Y1.428 Z0.6625
N3165 X-0.4592 Y1.4254 Z0.657
N3170 X-0.4567 Y1.4223 Z0.6518
N3175 X-0.4538 Y1.419 Z0.647
N3180 X-0.4507 Y1.4153 Z0.6425
N3185 X-0.4473 Y1.4113 Z0.6386
N3190 X-0.4437 Y1.4071 Z0.635
N3195 X-0.44 Y1.4027 Z0.632
N3200 X-0.436 Y1.3981 Z0.6295
N3205 X-0.432 Y1.3934 Z0.6276
N3210 X-0.4279 Y1.3885 Z0.6261
N3215 X-0.4237 Y1.3836 Z0.6253
N3220 X-0.4194 Y1.3786 Z0.625
N3225 G3 X-0.2483 Y1.2166 I0.833 J0.7087
N3230 G1 X-0.2462 Y1.2151
N3235 X-0.2271 Y1.2001
N3240 X-0.2237 Y1.1971
N3245 X-0.2025 Y1.1777
N3250 X-0.2012 Y1.1764
N3255 X-0.1812 Y1.1552
N3260 X-0.1787 Y1.1524
N3265 X-0.1627 Y1.1328
N3270 X-0.1562 Y1.1239
N3275 X-0.1467 Y1.1104
N3280 X-0.1461 Y1.1094
N3285 X-0.1236 Y1.09
N3290 X-0.0996 Y1.0724
N3295 X-0.0745 Y1.0565
N3300 X-0.0485 Y1.0421
N3305 X-0.0218 Y1.029
N3310 X0.0054 Y1.0172
N3315 X0.0332 Y1.0065
N3320 X0.0613 Y0.9969
N3325 X0.0897 Y0.9881
N3330 X0.1183 Y0.9803
N3335 X0.1471 Y0.9732
N3340 X0.1762 Y0.9667
N3345 X0.2053 Y0.961
N3350 X0.2346 Y0.9558
N3355 X0.2639 Y0.9511
N3360 X0.2933 Y0.9469
N3365 X0.3228 Y0.9432
N3370 X0.3523 Y0.9399
N3375 X0.3819 Y0.9369
N3380 X0.4115 Y0.9342
N3385 X0.4411 Y0.9319
N3390 X0.4707 Y0.9298
N3395 X0.5004 Y0.928
N3400 X0.5301 Y0.9263
N3405 X0.5597 Y0.9249
N3410 X0.5894 Y0.9237
N3415 X0.6191 Y0.9226
N3420 X0.6488 Y0.9217
N3425 X0.6785 Y0.9209
N3430 X0.7082 Y0.9203
N3435 X0.7379 Y0.9197
N3440 X0.7677 Y0.9192
N3445 X0.7974 Y0.9188
N3450 X0.8271 Y0.9185
N3455 X0.8568 Y0.9183
N3460 X0.8865 Y0.9181
N3465 X0.9162 Y0.918
N3470 X0.9459 Y0.9179
N3475 X0.9756
N3480 X1.0053
N3485 X1.0351 Y0.918
N3490 X1.0648
N3495 X1.0945 Y0.9181
N3500 X1.1242 Y0.9182
N3505 X1.1539 Y0.9183
N3510 X1.1836 Y0.9185
N3515 X1.2133 Y0.9186
N3520 X1.2728 Y0.919
N3525 X1.3619 Y0.9195
N3530 X1.5105 Y0.9204
N3535 X1.5996 Y0.9209
N3540 X1.659 Y0.9212
N3545 X1.7184 Y0.9215
N3550 X1.7779 Y0.9218
N3555 X1.8076 Y0.922
N3560 X1.867 Y0.9222
N3565 X1.9264 Y0.9225
N3570 X1.9859 Y0.9227
N3575 X2.0453 Y0.9229
N3580 X2.1047 Y0.9231
N3585 X2.1641 Y0.9233
N3590 X2.2533 Y0.9235
N3595 X2.3424 Y0.9237
N3600 X2.4315 Y0.9239
N3605 X2.5207 Y0.924
N3610 X2.6098 Y0.9241
N3615 X2.7287 Y0.9243
N3620 X2.8475 Y0.9244
N3625 X2.9961 Y0.9245
N3630 X3.1447 Y0.9246
N3635 X3.3229
N3640 X3.5606 Y0.9247
N3645 X3.7983
N3650 X4.244 Y0.9248
N3655 X5.1354
N3660 X5.7891
N3665 X7.7798
N3670 X9.7706
N3675 X11.7613
N3680 X13.7521
N3685 X14.1681
N3690 X14.2275
N3695 X14.2572
N3700 X14.2869 Y0.9247
N3705 X14.3166
N3710 X14.3463 Y0.9246
N3715 X14.3761 Y0.9245
N3720 X14.4058 Y0.9244
N3725 X14.4355 Y0.9243
N3730 X14.4652 Y0.9242
N3735 X14.4949 Y0.924
N3740 X14.5246 Y0.9238
N3745 X14.5543 Y0.9236
N3750 X14.584 Y0.9233
N3755 X14.6138 Y0.9231
N3760 X14.6435 Y0.9228
N3765 X14.6732 Y0.9225
N3770 X14.7029 Y0.9221
N3775 X14.7326 Y0.9217
N3780 X14.7623 Y0.9212
N3785 X14.792 Y0.9202
N3790 X14.8217 Y0.9188
N3795 X14.8513 Y0.9168
N3800 X14.8809 Y0.9142
N3805 X14.9105 Y0.911
N3810 X14.9399 Y0.9072
N3815 X14.9693 Y0.9028
N3820 X14.9986 Y0.8978
N3825 X15.0278 Y0.8923
N3830 X15.0569 Y0.8862
N3835 X15.0859 Y0.8796
N3840 X15.1147 Y0.8725
N3845 X15.1435 Y0.865
N3850 X15.1721 Y0.8571
N3855 X15.2006 Y0.8488
N3860 X15.2291 Y0.8402
N3865 X15.2575 Y0.8314
N3870 X15.2858 Y0.8224
N3875 X15.3141 Y0.8133
N3880 X15.3423 Y0.8041
N3885 X15.3706 Y0.7949
N3890 X15.3989 Y0.7858
N3895 X15.4272 Y0.7768
N3900 X15.4555 Y0.7679
N3905 X15.484 Y0.7593
N3910 X15.5125 Y0.7509
N3915 X15.541 Y0.7425
N3920 X15.5694 Y0.7338
N3925 X15.5978 Y0.7251
N3930 X15.6263 Y0.7166
N3935 X15.6548 Y0.7084
N3940 X15.6835 Y0.7006
N3945 X15.7123 Y0.6935
N3950 X15.7414 Y0.6871
N3955 X15.7465 Y0.6858
N3960 X15.7516 Y0.6845
N3965 X15.7565 Y0.6832
N3970 X15.7615 Y0.682
N3975 X15.7666 Y0.6809
N3980 X15.7717 Y0.6797
N3985 X15.7766 Y0.6787
N3990 X15.7815 Y0.6776
N3995 X15.7862 Y0.6767
N4000 X15.7908 Y0.6758
N4005 X15.7954 Y0.6749
N4010 X15.7999 Y0.6741
N4015 X15.8043 Y0.6734
N4020 X15.8086 Y0.6727
N4025 X15.8129 Y0.672
N4030 X15.8171 Y0.6714
N4035 X15.8212 Y0.6708
N4040 X15.8252 Y0.6703
N4045 X15.8293 Y0.6698
N4050 X15.8333 Y0.6693
N4055 X15.8375 Y0.6688
N4060 X15.8416 Y0.6684
N4065 X15.8457 Y0.668
N4070 X15.8497 Y0.6676
N4075 X15.8537 Y0.6673
N4080 X15.8576 Y0.667
N4085 X15.8615 Y0.6667
N4090 X15.8653 Y0.6665
N4095 X15.869 Y0.6663
N4100 X15.8727 Y0.6662
N4105 X15.8764 Y0.666
N4110 X15.8912 Y0.6656
N4115 X15.906 Y0.6637
N4120 X15.9205 Y0.6605
N4125 X15.9346 Y0.6559
N4130 X15.9619 Y0.6441
N4135 X15.9877 Y0.6276
N4140 X15.9941 Y0.6225
N4145 X16.0036 Y0.6166
N4150 X16.0141 Y0.613
N4155 X16.0252 Y0.6118
N4160 X16.0363 Y0.6131
N4165 X16.0468 Y0.6168
N4170 X16.0563 Y0.6227
N4175 X16.0641 Y0.6306
N4180 X16.0701 Y0.6401
N4185 X16.0738 Y0.6506
N4190 X16.075 Y0.6617
N4195 G3 X15.9573 Y0.7208 I-0.075 J-0.0026
N4200 G1 X15.9534 Y0.7174 Z0.6252
N4205 X15.9496 Y0.7141 Z0.6257
N4210 X15.9457 Y0.7108 Z0.6266
N4215 X15.9425 Y0.7067 Z0.6279
N4220 X15.9394 Y0.7026 Z0.6295
N4225 X15.9363 Y0.6987 Z0.6316
N4230 X15.934 Y0.6939 Z0.6342
N4235 X15.9317 Y0.6893 Z0.6373
N4240 X15.9296 Y0.6849 Z0.6408
N4245 X15.9286 Y0.6808 Z0.6444
N4250 X15.9276 Y0.6769 Z0.6483
N4255 X15.9267 Y0.6733 Z0.6525
N4260 X15.9258 Y0.6701 Z0.6569
N4265 X15.9256 Y0.6666 Z0.6624
N4270 X15.9254 Y0.6636 Z0.6682
N4275 X15.9252 Y0.6611 Z0.6742
N4280 X15.925 Y0.6591 Z0.6804
N4285 X15.9251 Y0.6578 Z0.6859
N4290 Y0.657 Z0.6915
N4295 Y0.6566 Z0.6957
N4300 Y0.6565 Z0.7
N4305 G0 Z1.45
N4310 X16.9309 Y-1.4772
N4315 Z0.775
N4320 G1 Z0.7 F30.
N4325 X16.9306 Y-1.4771 Z0.6935
N4330 X16.9298 Y-1.4769 Z0.687
N4335 X16.9284 Y-1.4765 Z0.6806
N4340 X16.9265 Y-1.476 Z0.6743
N4345 X16.9241 Y-1.4754 Z0.6683
N4350 X16.9211 Y-1.4747 Z0.6625
N4355 X16.9177 Y-1.4738 Z0.657
N4360 X16.9139 Y-1.4728 Z0.6518
N4365 X16.9096 Y-1.4717 Z0.647
N4370 X16.9049 Y-1.4705 Z0.6425
N4375 X16.8999 Y-1.4692 Z0.6386
N4380 X16.8945 Y-1.4678 Z0.635
N4385 X16.8889 Y-1.4664 Z0.632
N4390 X16.8831 Y-1.4649 Z0.6295
N4395 X16.877 Y-1.4634 Z0.6276
N4400 X16.8708 Y-1.4618 Z0.6261
N4405 X16.8645 Y-1.4602 Z0.6253
N4410 X16.8582 Y-1.4585 Z0.625
N4415 G3 X16.625 Y-1.425 I-0.2714 J-1.0595
N4420 G1 X16.5883
N4425 X16.5871 Y-1.4251
N4430 X16.5729 Y-1.436
N4435 X16.5565 Y-1.4507
N4440 X16.5382 Y-1.4702
N4445 X16.5196 Y-1.4933
N4450 X16.5024 Y-1.5176
N4455 X16.4833 Y-1.5403
N4460 X16.4624 Y-1.5615
N4465 X16.4402 Y-1.5812
N4470 X16.4169 Y-1.5996
N4475 X16.3926 Y-1.6167
N4480 X16.3675 Y-1.6326
N4485 X16.3417 Y-1.6474
N4490 X16.3153 Y-1.661
N4495 X16.2884 Y-1.6737
N4500 X16.2611 Y-1.6854
N4505 X16.2335 Y-1.6963
N4510 X16.2055 Y-1.7063
N4515 X16.1773 Y-1.7156
N4520 X16.1488 Y-1.7242
N4525 X16.1202 Y-1.7321
N4530 X16.0914 Y-1.7394
N4535 X16.0625 Y-1.7461
N4540 X16.0334 Y-1.7524
N4545 X16.0043 Y-1.7581
N4550 X15.975 Y-1.7634
N4555 X15.9457 Y-1.7683
N4560 X15.9163 Y-1.7728
N4565 X15.8869 Y-1.7769
N4570 X15.8575 Y-1.7808
N4575 X15.828 Y-1.7843
N4580 X15.7984 Y-1.7875
N4585 X15.7689 Y-1.7905
N4590 X15.7393 Y-1.7932
N4595 X15.7097 Y-1.7958
N4600 X15.68 Y-1.7981
N4605 X15.6504 Y-1.8002
N4610 X15.6208 Y-1.8022
N4615 X15.5911 Y-1.804
N4620 X15.5614 Y-1.8057
N4625 X15.5318 Y-1.8072
N4630 X15.5021 Y-1.8086
N4635 X15.4724 Y-1.8099
N4640 X15.4427 Y-1.8111
N4645 X15.413 Y-1.8122
N4650 X15.3833 Y-1.8133
N4655 X15.3536 Y-1.8142
N4660 X15.3239 Y-1.815
N4665 X15.2942 Y-1.8158
N4670 X15.2645 Y-1.8166
N4675 X15.2348 Y-1.8172
N4680 X15.2051 Y-1.8178
N4685 X15.1754 Y-1.8184
N4690 X15.1457 Y-1.8189
N4695 X15.116 Y-1.8194
N4700 X15.0863 Y-1.8198
N4705 X15.0566 Y-1.8202
N4710 X15.0269 Y-1.8206
N4715 X14.9971 Y-1.8209
N4720 X14.9674 Y-1.8212
N4725 X14.9377 Y-1.8215
N4730 X14.908 Y-1.8218
N4735 X14.8783 Y-1.822
N4740 X14.8486 Y-1.8223
N4745 X14.8189 Y-1.8225
N4750 X14.7892 Y-1.8227
N4755 X14.7594 Y-1.8228
N4760 X14.7297 Y-1.823
N4765 X14.7 Y-1.8231
N4770 X14.6703 Y-1.8233
N4775 X14.6406 Y-1.8234
N4780 X14.6109 Y-1.8235
N4785 X14.5812 Y-1.8236
N4790 X14.5217 Y-1.8238
N4795 X14.4623 Y-1.824
N4800 X14.4029 Y-1.8241
N4805 X14.3435 Y-1.8242
N4810 X14.2543 Y-1.8243
N4815 X14.1652 Y-1.8244
N4820 X14.0761 Y-1.8245
N4825 X13.9572 Y-1.8246
N4830 X13.8086 Y-1.8247
N4835 X13.6304
N4840 X13.3927 Y-1.8248
N4845 X13.0064
N4850 X12.739
N4855 X10.7482
N4860 X8.7575
N4865 X6.7667
N4870 X4.776 Y-1.8249
N4875 X2.7852
N4880 X0.7945
N4885 X0.7648
N4890 X0.7351 Y-1.8227
N4895 X0.7055 Y-1.8207
N4900 X0.6758 Y-1.8189
N4905 X0.6462 Y-1.8172
N4910 X0.6165 Y-1.8157
N4915 X0.5868 Y-1.8142
N4920 X0.5571 Y-1.8129
N4925 X0.5274 Y-1.8117
N4930 X0.4977 Y-1.8106
N4935 X0.468 Y-1.8096
N4940 X0.4383 Y-1.8087
N4945 X0.4086 Y-1.8078
N4950 X0.3789 Y-1.807
N4955 X0.3492 Y-1.8063
N4960 X0.3195 Y-1.8056
N4965 X0.2898 Y-1.805
N4970 X0.2601 Y-1.8044
N4975 X0.2304 Y-1.8039
N4980 X0.2007 Y-1.8034
N4985 X0.171 Y-1.803
N4990 X0.1413 Y-1.8026
N4995 X0.1116 Y-1.8022
N5000 X0.0969 Y-1.8001
N5005 X0.0824 Y-1.7966
N5010 X0.0543 Y-1.787
N5015 X0.0274 Y-1.7723
N5020 X0.0031 Y-1.7552
N5025 X-0.0196 Y-1.736
N5030 X-0.0407 Y-1.7151
N5035 X-0.0603 Y-1.6928
N5040 X-0.0784 Y-1.6693
N5045 X-0.0953 Y-1.6448
N5050 X-0.1109 Y-1.6195
N5055 X-0.1254 Y-1.5935
N5060 X-0.1387 Y-1.567
N5065 X-0.1511 Y-1.54
N5070 X-0.1625 Y-1.5126
N5075 X-0.1731 Y-1.4848
N5080 X-0.1828 Y-1.4567
N5085 X-0.1918 Y-1.4284
N5090 X-0.2001 Y-1.3999
N5095 X-0.2078 Y-1.3712
N5100 X-0.2149 Y-1.3423
N5105 X-0.219 Y-1.3239
N5110 X-0.2235 Y-1.31
N5115 X-0.2304 Y-1.2971
N5120 X-0.2394 Y-1.2856
N5125 X-0.2504 Y-1.2759
N5130 X-0.2629 Y-1.2683
N5135 X-0.2765 Y-1.263
N5140 X-0.2909 Y-1.2602
N5145 X-0.3055 Y-1.26
N5150 X-0.3199 Y-1.2625
N5155 X-0.3337 Y-1.2674
N5160 G3 X-0.3427 Y-1.3987 I0.0314 J-0.0681
N5165 G1 X-0.3381 Y-1.401 Z0.6252
N5170 X-0.3336 Y-1.4033 Z0.6257
N5175 X-0.329 Y-1.4056 Z0.6266
N5180 X-0.324 Y-1.407 Z0.6279
N5185 X-0.319 Y-1.4083 Z0.6295
N5190 X-0.3142 Y-1.4096 Z0.6316
N5195 X-0.3081 Y-1.4101 Z0.6347
N5200 X-0.3023 Y-1.4105 Z0.6383
N5205 X-0.2982 Y-1.4101 Z0.6414
N5210 X-0.2942 Y-1.4097 Z0.6448
N5215 X-0.2905 Y-1.4093 Z0.6485
N5220 X-0.2871 Y-1.4089 Z0.6525
N5225 X-0.2837 Y-1.4079 Z0.6572
N5230 X-0.2806 Y-1.4069 Z0.6622
N5235 X-0.278 Y-1.4061 Z0.6675
N5240 X-0.2757 Y-1.4053 Z0.673
N5245 X-0.2739 Y-1.4048 Z0.6786
N5250 X-0.2725 Y-1.4043 Z0.6844
N5255 X-0.2719 Y-1.404 Z0.6879
N5260 X-0.2714 Y-1.4038 Z0.6915
N5265 X-0.2711 Y-1.4037 Z0.6957
N5270 X-0.271 Y-1.4036 Z0.7
N5275 G0 Z1.45
N5280 X-0.2267 Y1.3739
N5285 Z0.775
N5290 G1 Z0.7 F30.
N5295 X-0.2266 Y1.3736 Z0.6935
N5300 X-0.2264 Y1.3728 Z0.687
N5305 X-0.226 Y1.3714 Z0.6806
N5310 X-0.2256 Y1.3695 Z0.6743
N5315 X-0.225 Y1.3671 Z0.6683
N5320 X-0.2243 Y1.3641 Z0.6625
N5325 X-0.2234 Y1.3607 Z0.657
N5330 X-0.2225 Y1.3569 Z0.6518
N5335 X-0.2214 Y1.3526 Z0.647
N5340 X-0.2203 Y1.3479 Z0.6425
N5345 X-0.219 Y1.3428 Z0.6386
N5350 X-0.2177 Y1.3375 Z0.635
N5355 X-0.2163 Y1.3319 Z0.632
N5360 X-0.2149 Y1.326 Z0.6295
N5365 X-0.2134 Y1.3199 Z0.6276
N5370 X-0.2119 Y1.3137 Z0.6261
N5375 X-0.2103 Y1.3074 Z0.6253
N5380 X-0.2088 Y1.3011 Z0.625
N5385 G3 X-0.1282 Y1.0796 I1.0621 J0.261
N5390 G1 X-0.1206 Y1.0655
N5395 X-0.1112 Y1.0459
N5400 X-0.11 Y1.0431
N5405 X-0.1011 Y1.0206
N5410 X-0.0935 Y0.9982
N5415 X-0.0887 Y0.9812
N5420 X-0.0874 Y0.9758
N5425 X-0.0825 Y0.9533
N5430 X-0.0823 Y0.9522
N5435 X-0.067 Y0.9301
N5440 X-0.0482 Y0.907
N5445 X-0.0277 Y0.8856
N5450 X-0.0057 Y0.8656
N5455 X0.0174 Y0.8469
N5460 X0.0416 Y0.8296
N5465 X0.0665 Y0.8135
N5470 X0.0922 Y0.7985
N5475 X0.1185 Y0.7846
N5480 X0.1452 Y0.7717
N5485 X0.1724 Y0.7598
N5490 X0.2 Y0.7487
N5495 X0.2279 Y0.7384
N5500 X0.256 Y0.7289
N5505 X0.2844 Y0.7201
N5510 X0.313 Y0.712
N5515 X0.3418 Y0.7045
N5520 X0.3706 Y0.6976
N5525 X0.3997 Y0.6912
N5530 X0.4288 Y0.6852
N5535 X0.458 Y0.6798
N5540 X0.4873 Y0.6748
N5545 X0.5166 Y0.6701
N5550 X0.546 Y0.6659
N5555 X0.5755 Y0.662
N5560 X0.605 Y0.6584
N5565 X0.6345 Y0.6551
N5570 X0.6641 Y0.652
N5575 X0.6936 Y0.6492
N5580 X0.7232 Y0.6467
N5585 X0.7529 Y0.6444
N5590 X0.7825 Y0.6422
N5595 X0.8122 Y0.6403
N5600 X0.8418 Y0.6385
N5605 X0.8715 Y0.6369
N5610 X0.9012 Y0.6354
N5615 X0.9308 Y0.6341
N5620 X0.9605 Y0.6328
N5625 X0.9902 Y0.6317
N5630 X1.0199 Y0.6307
N5635 X1.0496 Y0.6298
N5640 X1.0793 Y0.629
N5645 X1.109 Y0.6283
N5650 X1.1387 Y0.6276
N5655 X1.1684 Y0.627
N5660 X1.1981 Y0.6265
N5665 X1.2278 Y0.626
N5670 X1.2576 Y0.6256
N5675 X1.2873 Y0.6253
N5680 X1.317 Y0.6249
N5685 X1.3467 Y0.6246
N5690 X1.3764 Y0.6244
N5695 X1.4061 Y0.6242
N5700 X1.4358 Y0.624
N5705 X1.4655 Y0.6238
N5710 X1.4952 Y0.6237
N5715 X1.525 Y0.6236
N5720 X1.5547 Y0.6235
N5725 X1.5844 Y0.6234
N5730 X1.6141 Y0.6233
N5735 X1.6438
N5740 X1.6735 Y0.6232
N5745 X1.7032
N5750 X1.733
N5755 X1.7924
N5760 X1.8221
N5765 X1.8815
N5770 X1.9707 Y0.6233
N5775 X2.0895 Y0.6234
N5780 X2.4163 Y0.6239
N5785 X2.5649 Y0.6241
N5790 X2.7135 Y0.6242
N5795 X2.862 Y0.6243
N5800 X3.0106 Y0.6244
N5805 X3.1889 Y0.6245
N5810 X3.3969 Y0.6246
N5815 X3.6346 Y0.6247
N5820 X3.8128
N5825 X4.1991 Y0.6248
N5830 X4.7934
N5835 X5.8036
N5840 X7.7943
N5845 X9.7851
N5850 X11.7759
N5855 X13.7666
N5860 X13.9152
N5865 X14.0043
N5870 X14.0637 Y0.6247
N5875 X14.0934
N5880 X14.1232 Y0.6246
N5885 X14.1529
N5890 X14.1826 Y0.6245
N5895 X14.2123
N5900 X14.242 Y0.6244
N5905 X14.2717 Y0.6243
N5910 X14.3014 Y0.6241
N5915 X14.3311 Y0.624
N5920 X14.3609 Y0.6239
N5925 X14.3906 Y0.6237
N5930 X14.4203 Y0.6235
N5935 X14.45 Y0.6232
N5940 X14.4797 Y0.6228
N5945 X14.5094 Y0.6222
N5950 X14.5391 Y0.6214
N5955 X14.5688 Y0.6204
N5960 X14.5985 Y0.619
N5965 X14.6282 Y0.6173
N5970 X14.6578 Y0.6153
N5975 X14.6874 Y0.6128
N5980 X14.717 Y0.61
N5985 X14.7465 Y0.6067
N5990 X14.776 Y0.603
N5995 X14.8054 Y0.599
N6000 X14.8348 Y0.5945
N6005 X14.8641 Y0.5897
N6010 X14.8934 Y0.5845
N6015 X14.9226 Y0.579
N6020 X14.926 Y0.5783
N6025 X14.9448 Y0.576
N6030 X14.9637 Y0.5764
N6035 X14.9824 Y0.5796
N6040 X15.0004 Y0.5855
N6045 X15.0173 Y0.5939
N6050 X15.0329 Y0.6046
N6055 X15.0467 Y0.6175
N6060 X15.0537 Y0.6251
N6065 X15.0679 Y0.6393
N6070 X15.0762 Y0.6472
N6075 X15.0925 Y0.6617
N6080 X15.0987 Y0.6669
N6085 X15.1211 Y0.6842
N6090 X15.1212 Y0.6843
N6095 X15.1437 Y0.6996
N6100 X15.155 Y0.7066
N6105 X15.1662 Y0.7131
N6110 X15.1887 Y0.7248
N6115 X15.1975 Y0.729
N6120 X15.2112 Y0.7349
N6125 X15.2337 Y0.7435
N6130 X15.2562 Y0.7506
N6135 X15.2597 Y0.7515
N6140 X15.2787 Y0.7562
N6145 X15.3012 Y0.7606
N6150 X15.3237 Y0.7638
N6155 X15.3462 Y0.7658
N6160 X15.3687 Y0.7666
N6165 X15.3912 Y0.766
N6170 X15.4137 Y0.7643
N6175 X15.4362 Y0.7613
N6180 X15.4587 Y0.7571
N6185 X15.4812 Y0.7517
N6190 X15.482 Y0.7515
N6195 X15.5037 Y0.745
N6200 X15.5262 Y0.7375
N6205 X15.5487 Y0.7292
N6210 X15.5492 Y0.729
N6215 X15.5712 Y0.7201
N6220 X15.5937 Y0.71
N6225 X15.601 Y0.7066
N6230 X15.6162 Y0.6988
N6235 X15.6387 Y0.6865
N6240 X15.6427 Y0.6842
N6245 X15.6612 Y0.6724
N6250 X15.6769 Y0.6617
N6255 X15.6837 Y0.6568
N6260 X15.7058 Y0.6393
N6265 X15.7175 Y0.6292
N6270 X15.7287 Y0.6185
N6275 X15.7304 Y0.6169
N6280 X15.7414 Y0.6059
N6285 X15.7517 Y0.5944
N6290 X15.7702 Y0.572
N6295 X15.7844 Y0.5548
N6300 X15.786 Y0.5529
N6305 X15.7876 Y0.5511
N6310 X15.7891 Y0.5492
N6315 X15.7907 Y0.5474
N6320 X15.7923 Y0.5456
N6325 X15.7939 Y0.5439
N6330 X15.7955 Y0.5422
N6335 X15.7971 Y0.5405
N6340 X15.7986 Y0.5388
N6345 X15.8002 Y0.5371
N6350 X15.8018 Y0.5355
N6355 X15.8034 Y0.5338
N6360 X15.805 Y0.5322
N6365 X15.8066 Y0.5307
N6370 X15.8082 Y0.5291
N6375 X15.8098 Y0.5276
N6380 X15.8114 Y0.5261
N6385 X15.813 Y0.5246
N6390 X15.8146 Y0.5231
N6395 X15.8162 Y0.5217
N6400 X15.8178 Y0.5202
N6405 X15.8195 Y0.5188
N6410 X15.8211 Y0.5174
N6415 X15.8228 Y0.516
N6420 X15.8245 Y0.5145
N6425 X15.8262 Y0.5131
N6430 X15.8279 Y0.5117
N6435 X15.8297 Y0.5103
N6440 X15.8314 Y0.509
N6445 X15.8331 Y0.5076
N6450 X15.8348 Y0.5063
N6455 X15.8365 Y0.505
N6460 X15.8383 Y0.5037
N6465 X15.84 Y0.5025
N6470 X15.8417 Y0.5012
N6475 X15.8434 Y0.5
N6480 X15.8451 Y0.4988
N6485 X15.8469 Y0.4976
N6490 X15.8486 Y0.4965
N6495 X15.8503 Y0.4953
N6500 X15.852 Y0.4942
N6505 X15.8537 Y0.4931
N6510 X15.8554 Y0.492
N6515 X15.8571 Y0.491
N6520 X15.8588 Y0.4899
N6525 X15.8606 Y0.4889
N6530 X15.8623 Y0.4879
N6535 X15.864 Y0.4869
N6540 X15.8657 Y0.4859
N6545 X15.8675 Y0.4849
N6550 X15.8693 Y0.4839
N6555 X15.8711 Y0.4829
N6560 X15.8729 Y0.4819
N6565 X15.8747 Y0.4809
N6570 X15.8765 Y0.48
N6575 X15.8784 Y0.4791
N6580 X15.8802 Y0.4782
N6585 X15.882 Y0.4773
N6590 X15.8838 Y0.4764
N6595 X15.8855 Y0.4756
N6600 X15.8873 Y0.4748
N6605 X15.8891 Y0.4739
N6610 X15.8909 Y0.4732
N6615 X15.8927 Y0.4724
N6620 X15.8945 Y0.4716
N6625 X15.8962 Y0.4709
N6630 X15.898 Y0.4701
N6635 X15.8998 Y0.4694
N6640 X15.9015 Y0.4687
N6645 X15.9033 Y0.4681
N6650 X15.905 Y0.4674
N6655 X15.9068 Y0.4668
N6660 X15.9085 Y0.4661
N6665 X15.9103 Y0.4655
N6670 X15.912 Y0.4649
N6675 X15.9402 Y0.4555
N6680 X15.9667 Y0.442
N6685 X15.9914 Y0.4255
N6690 X15.9957 Y0.4221
N6695 X16.006 Y0.4157
N6700 X16.0176 Y0.412
N6705 X16.0297 Y0.4113
N6710 X16.0416 Y0.4137
N6715 X16.0526 Y0.4189
N6720 X16.0619 Y0.4267
N6725 X16.069 Y0.4365
N6730 X16.0735 Y0.4478
N6735 X16.075 Y0.4598
N6740 G3 X16.0513 Y0.512 I-0.075 J-0.0026
N6745 G1 X15.9222 Y0.6328
N6750 X15.8953 Y0.6579
N6755 X15.8834 Y0.6691
N6760 G3 X15.7702 Y0.572 I-0.0512 J-0.0548
N6765 G1 X15.7737 Y0.5672
N6770 X15.786 Y0.5496
N6775 X15.7962 Y0.5335
N6780 X15.7999 Y0.5271
N6785 X15.8116 Y0.5047
N6790 X15.8187 Y0.4896
N6795 X15.8218 Y0.4823
N6800 X15.8303 Y0.4598
N6805 X15.8373 Y0.4374
N6810 X15.8422 Y0.4218
N6815 X15.8427 Y0.4203
N6820 X15.8431 Y0.4189
N6825 X15.8436 Y0.4175
N6830 X15.8441 Y0.4161
N6835 X15.8446 Y0.4146
N6840 X15.8451 Y0.4132
N6845 X15.8456 Y0.4119
N6850 X15.8461 Y0.4105
N6855 X15.8466 Y0.4091
N6860 X15.8472 Y0.4078
N6865 X15.8477 Y0.4064
N6870 X15.8483 Y0.4051
N6875 X15.8488 Y0.4037
N6880 X15.8494 Y0.4024
N6885 X15.85 Y0.4011
N6890 X15.8506 Y0.3998
N6895 X15.8511 Y0.3985
N6900 X15.8517 Y0.3972
N6905 X15.8523 Y0.3959
N6910 X15.853 Y0.3947
N6915 X15.8536 Y0.3934
N6920 X15.8542 Y0.3921
N6925 X15.8548 Y0.3909
N6930 X15.8555 Y0.3897
N6935 X15.8561 Y0.3884
N6940 X15.8568 Y0.3872
N6945 X15.8574 Y0.386
N6950 X15.8581 Y0.3848
N6955 X15.8588 Y0.3836
N6960 X15.8595 Y0.3823
N6965 X15.8603 Y0.3811
N6970 X15.861 Y0.3798
N6975 X15.8618 Y0.3785
N6980 X15.8625 Y0.3773
N6985 X15.8633 Y0.3761
N6990 X15.8641 Y0.3748
N6995 X15.8649 Y0.3736
N7000 X15.8657 Y0.3724
N7005 X15.8665 Y0.3712
N7010 X15.8673 Y0.37
N7015 X15.8681 Y0.3689
N7020 X15.8689 Y0.3677
N7025 X15.8697 Y0.3665
N7030 X15.8705 Y0.3654
N7035 X15.8714 Y0.3643
N7040 X15.8722 Y0.3631
N7045 X15.873 Y0.362
N7050 X15.8739 Y0.3609
N7055 X15.8747 Y0.3598
N7060 X15.8756 Y0.3587
N7065 X15.8765 Y0.3577
N7070 X15.8773 Y0.3566
N7075 X15.8782 Y0.3555
N7080 X15.8791 Y0.3545
N7085 X15.8799 Y0.3535
N7090 X15.8808 Y0.3524
N7095 X15.8817 Y0.3514
N7100 X15.8826 Y0.3504
N7105 X15.8835 Y0.3494
N7110 X15.8844 Y0.3485
N7115 X15.8853 Y0.3475
N7120 X15.8863 Y0.3465
N7125 X15.8872 Y0.3454
N7130 X15.8882 Y0.3444
N7135 X15.8893 Y0.3434
N7140 X15.8903 Y0.3424
N7145 X15.8913 Y0.3414
N7150 X15.8923 Y0.3404
N7155 X15.8933 Y0.3394
N7160 X15.8943 Y0.3385
N7165 X15.8954 Y0.3375
N7170 X15.8964 Y0.3366
N7175 X15.8974 Y0.3356
N7180 X15.8985 Y0.3347
N7185 X15.8995 Y0.3338
N7190 X15.9006 Y0.3329
N7195 X15.9016 Y0.332
N7200 X15.9027 Y0.3311
N7205 X15.9037 Y0.3303
N7210 X15.9048 Y0.3294
N7215 X15.9058 Y0.3286
N7220 X15.9069 Y0.3277
N7225 X15.9079 Y0.3269
N7230 X15.909 Y0.3261
N7235 X15.9101 Y0.3253
N7240 X15.9111 Y0.3245
N7245 X15.9122 Y0.3237
N7250 X15.9133 Y0.3229
N7255 X15.9144 Y0.3222
N7260 X15.9154 Y0.3214
N7265 X15.9165 Y0.3207
N7270 X15.9176 Y0.32
N7275 X15.9187 Y0.3192
N7280 X15.9198 Y0.3185
N7285 X15.9209 Y0.3178
N7290 X15.9221 Y0.317
N7295 X15.9233 Y0.3163
N7300 X15.9245 Y0.3156
N7305 X15.9257 Y0.3149
N7310 X15.9269 Y0.3141
N7315 X15.9281 Y0.3134
N7320 X15.9293 Y0.3128
N7325 X15.9304 Y0.3121
N7330 X15.9316 Y0.3114
N7335 X15.9328 Y0.3108
N7340 X15.934 Y0.3101
N7345 X15.9352 Y0.3095
N7350 X15.9364 Y0.3089
N7355 X15.9376 Y0.3083
N7360 X15.9642 Y0.295
N7365 X15.9892 Y0.2788
N7370 X15.9998 Y0.2734
N7375 X16.0113 Y0.2704
N7380 X16.0232 Y0.2699
N7385 X16.0349 Y0.272
N7390 X16.0459 Y0.2765
N7395 X16.0557 Y0.2832
N7400 X16.0639 Y0.2919
N7405 X16.0699 Y0.3021
N7410 X16.0737 Y0.3134
N7415 X16.075 Y0.3253
N7420 G3 X15.849 Y0.4615 I-0.1574 J-0.0055
N7425 X15.8373 Y0.4374 I0.0094 J-0.0194
N7430 G1 X15.8412 Y0.4222
N7435 X15.8428 Y0.415
N7440 X15.8469 Y0.3926
N7445 X15.8498 Y0.3701
N7450 X15.8513 Y0.3477
N7455 X15.8517 Y0.3253
N7460 X15.8522 Y0.3153
N7465 X15.854 Y0.3014
N7470 X15.8568 Y0.2882
N7475 X15.8607 Y0.2752
N7480 X15.8657 Y0.2624
N7485 X15.8715 Y0.2505
N7490 X15.8785 Y0.2387
N7495 X15.8862 Y0.2276
N7500 X15.8946 Y0.2175
N7505 X15.9042 Y0.2077
N7510 X15.9142 Y0.199
N7515 X15.9249 Y0.1911
N7520 X15.9363 Y0.184
N7525 X15.9627 Y0.1704
N7530 X15.9839 Y0.1589
N7535 X15.9956 Y0.154
N7540 X16.0081 Y0.1516
N7545 X16.0209 Y0.1519
N7550 X16.0333 Y0.1547
N7555 X16.0448 Y0.1601
N7560 X16.0551 Y0.1677
N7565 X16.0635 Y0.1772
N7570 X16.0698 Y0.1883
N7575 X16.0737 Y0.2004
N7580 X16.075 Y0.2131
N7585 G3 X15.8805 Y0.3607 I-0.1574 J-0.0055
N7590 X15.8517 Y0.3253 I0.0089 J-0.0367
N7595 G1 Y0.2008
N7600 X15.8521 Y0.193
N7605 X15.8537 Y0.1804
N7610 X15.8565 Y0.1677
N7615 X15.8601 Y0.1556
N7620 X15.8648 Y0.1433
N7625 X15.8705 Y0.1316
N7630 X15.877 Y0.1207
N7635 X15.8847 Y0.1097
N7640 X15.8929 Y0.0998
N7645 X15.9021 Y0.0904
N7650 X15.9121 Y0.0816
N7655 X15.9224 Y0.074
N7660 X15.9339 Y0.0669
N7665 X15.9603 Y0.0532
N7670 X15.9792 Y0.0433
N7675 X15.9916 Y0.0382
N7680 X16.0048 Y0.0358
N7685 X16.0182 Y0.0362
N7690 X16.0312 Y0.0393
N7695 X16.0434 Y0.045
N7700 X16.0541 Y0.0531
N7705 X16.0629 Y0.0631
N7710 X16.0695 Y0.0748
N7715 X16.0736 Y0.0876
N7720 X16.075 Y0.1009
N7725 G3 X15.8984 Y0.2517 I-0.1574 J-0.0055
N7730 X15.8517 Y0.2008 I0.0065 J-0.0528
N7735 G1 Y0.0886
N7740 X15.8524 Y0.0751
N7745 X15.8539 Y0.063
N7750 X15.8566 Y0.0507
N7755 X15.8601 Y0.039
N7760 X15.8647 Y0.0271
N7765 X15.8702 Y0.0157
N7770 X15.8765 Y0.0051
N7775 X15.8841 Y-0.0057
N7780 X15.8922 Y-0.0155
N7785 X15.9012 Y-0.0247
N7790 X15.9111 Y-0.0334
N7795 X15.9213 Y-0.0409
N7800 X15.9327 Y-0.048
N7805 X15.9592 Y-0.0616
N7810 X15.9766 Y-0.0708
N7815 X15.9894 Y-0.0759
N7820 X16.003 Y-0.0783
N7825 X16.0167 Y-0.0778
N7830 X16.0301 Y-0.0746
N7835 X16.0426 Y-0.0687
N7840 X16.0536 Y-0.0604
N7845 X16.0626 Y-0.0501
N7850 X16.0694 Y-0.0381
N7855 X16.0736 Y-0.0249
N7860 X16.075 Y-0.0112
N7865 G3 X15.8984 Y0.1396 I-0.1574 J-0.0055
N7870 X15.8517 Y0.0886 I0.0065 J-0.0528
N7875 G1 Y-0.0236
N7880 X15.8525 Y-0.0401
N7885 X15.8526 Y-0.0413
N7890 X15.8527 Y-0.0425
N7895 Y-0.0436
N7900 X15.8528 Y-0.0448
N7905 X15.8529 Y-0.046
N7910 X15.8531 Y-0.0472
N7915 X15.8532 Y-0.0484
N7920 X15.8533 Y-0.0495
N7925 X15.8535 Y-0.0507
N7930 X15.8536 Y-0.0519
N7935 X15.8538 Y-0.053
N7940 X15.854 Y-0.0542
N7945 X15.8541 Y-0.0554
N7950 X15.8543 Y-0.0565
N7955 X15.8545 Y-0.0577
N7960 X15.8547 Y-0.0589
N7965 X15.855 Y-0.06
N7970 X15.8552 Y-0.0612
N7975 X15.8554 Y-0.0623
N7980 X15.8557 Y-0.0635
N7985 X15.8559 Y-0.0647
N7990 X15.8562 Y-0.0658
N7995 X15.8564 Y-0.067
N8000 X15.8567 Y-0.0681
N8005 X15.857 Y-0.0692
N8010 X15.8573 Y-0.0704
N8015 X15.8576 Y-0.0715
N8020 X15.8579 Y-0.0727
N8025 X15.8583 Y-0.0738
N8030 X15.8586 Y-0.0749
N8035 X15.8589 Y-0.0761
N8040 X15.8593 Y-0.0772
N8045 X15.8597 Y-0.0783
N8050 X15.86 Y-0.0794
N8055 X15.8604 Y-0.0806
N8060 X15.8608 Y-0.0817
N8065 X15.8612 Y-0.0828
N8070 X15.8616 Y-0.0839
N8075 X15.862 Y-0.085
N8080 X15.8624 Y-0.0861
N8085 X15.8629 Y-0.0872
N8090 X15.8633 Y-0.0883
N8095 X15.8638 Y-0.0894
N8100 X15.8642 Y-0.0905
N8105 X15.8647 Y-0.0916
N8110 X15.8651 Y-0.0927
N8115 X15.8656 Y-0.0937
N8120 X15.8661 Y-0.0948
N8125 X15.8666 Y-0.0959
N8130 X15.8671 Y-0.0969
N8135 X15.8676 Y-0.098
N8140 X15.8681 Y-0.0991
N8145 X15.8687 Y-0.1001
N8150 X15.8692 Y-0.1012
N8155 X15.8698 Y-0.1022
N8160 X15.8703 Y-0.1033
N8165 X15.8709 Y-0.1043
N8170 X15.8714 Y-0.1053
N8175 X15.872 Y-0.1064
N8180 X15.8726 Y-0.1074
N8185 X15.8732 Y-0.1084
N8190 X15.8738 Y-0.1094
N8195 X15.8744 Y-0.1105
N8200 X15.875 Y-0.1115
N8205 X15.8757 Y-0.1125
N8210 X15.8763 Y-0.1135
N8215 X15.877 Y-0.1145
N8220 X15.8776 Y-0.1155
N8225 X15.8783 Y-0.1165
N8230 X15.8789 Y-0.1175
N8235 X15.8796 Y-0.1185
N8240 X15.8803 Y-0.1194
N8245 X15.881 Y-0.1204
N8250 X15.8817 Y-0.1214
N8255 X15.8824 Y-0.1223
N8260 X15.8831 Y-0.1233
N8265 X15.8838 Y-0.1242
N8270 X15.8845 Y-0.1251
N8275 X15.8852 Y-0.1261
N8280 X15.8859 Y-0.127
N8285 X15.8867 Y-0.1279
N8290 X15.8874 Y-0.1288
N8295 X15.8882 Y-0.1298
N8300 X15.8889 Y-0.1307
N8305 X15.8897 Y-0.1316
N8310 X15.8905 Y-0.1324
N8315 X15.8913 Y-0.1333
N8320 X15.892 Y-0.1342
N8325 X15.8928 Y-0.1351
N8330 X15.8936 Y-0.136
N8335 X15.8945 Y-0.1368
N8340 X15.8953 Y-0.1377
N8345 X15.8962 Y-0.1386
N8350 X15.897 Y-0.1395
N8355 X15.8979 Y-0.1404
N8360 X15.8987 Y-0.1412
N8365 X15.8996 Y-0.1421
N8370 X15.9005 Y-0.1429
N8375 X15.9014 Y-0.1438
N8380 X15.9022 Y-0.1446
N8385 X15.9031 Y-0.1454
N8390 X15.904 Y-0.1462
N8395 X15.9049 Y-0.147
N8400 X15.9058 Y-0.1478
N8405 X15.9067 Y-0.1486
N8410 X15.9076 Y-0.1494
N8415 X15.9085 Y-0.1501
N8420 X15.9094 Y-0.1509
N8425 X15.9103 Y-0.1516
N8430 X15.9112 Y-0.1524
N8435 X15.9122 Y-0.1531
N8440 X15.9131 Y-0.1538
N8445 X15.914 Y-0.1546
N8450 X15.915 Y-0.1553
N8455 X15.9159 Y-0.156
N8460 X15.9169 Y-0.1567
N8465 X15.9178 Y-0.1574
N8470 X15.9188 Y-0.1581
N8475 X15.9198 Y-0.1588
N8480 X15.9208 Y-0.1595
N8485 X15.9218 Y-0.1602
N8490 X15.9229 Y-0.1609
N8495 X15.9239 Y-0.1616
N8500 X15.925 Y-0.1623
N8505 X15.926 Y-0.1629
N8510 X15.9271 Y-0.1636
N8515 X15.9281 Y-0.1642
N8520 X15.9292 Y-0.1649
N8525 X15.9302 Y-0.1655
N8530 X15.9313 Y-0.1661
N8535 X15.9324 Y-0.1668
N8540 X15.9334 Y-0.1674
N8545 X15.9345 Y-0.168
N8550 X15.9356 Y-0.1685
N8555 X15.9366 Y-0.1691
N8560 X15.9377 Y-0.1697
N8565 X15.9387 Y-0.1702
N8570 X15.9652 Y-0.1838
N8575 X15.99 Y-0.2001
N8580 X15.997 Y-0.2056
N8585 X16.0071 Y-0.2119
N8590 X16.0185 Y-0.2155
N8595 X16.0305 Y-0.2161
N8600 X16.0422 Y-0.2138
N8605 X16.053 Y-0.2086
N8610 X16.0621 Y-0.2009
N8615 X16.0691 Y-0.1912
N8620 X16.0735 Y-0.1801
N8625 X16.075 Y-0.1682
N8630 G3 X16.037 Y-0.0586 I-0.1967 J-0.0069
N8635 X15.9031 Y0.0202 I-0.1587 J-0.1165
N8640 X15.8517 Y-0.0236 I-0.0058 J-0.0453
N8645 G1 Y-0.1458
N8650 X15.8527 Y-0.1663
N8655 X15.8546 Y-0.1811
N8660 X15.8576 Y-0.1951
N8665 X15.8618 Y-0.2091
N8670 X15.8671 Y-0.2226
N8675 X15.8731 Y-0.235
N8680 X15.8804 Y-0.2473
N8685 X15.8885 Y-0.2588
N8690 X15.8971 Y-0.2692
N8695 X15.9068 Y-0.2792
N8700 X15.9172 Y-0.2882
N8705 X15.9278 Y-0.2961
N8710 X15.9393 Y-0.3033
N8715 X15.9657 Y-0.3169
N8720 X15.9702 Y-0.3194
N8725 X15.9837 Y-0.3252
N8730 X15.998 Y-0.3281
N8735 X16.0126 Y-0.3279
N8740 X16.0269 Y-0.3247
N8745 X16.0402 Y-0.3187
N8750 X16.052 Y-0.31
N8755 X16.0617 Y-0.2991
N8760 X16.069 Y-0.2864
N8765 X16.0735 Y-0.2725
N8770 X16.075 Y-0.258
N8775 G3 X16.0454 Y-0.1715 I-0.1574 J-0.0055
N8780 X15.8805 Y-0.1104 I-0.1278 J-0.092
N8785 X15.8517 Y-0.1458 I0.0089 J-0.0367
N8790 G1 Y-0.2804
N8795 X15.8522 Y-0.2914
N8800 X15.8523 Y-0.2926
N8805 X15.8524 Y-0.2937
N8810 X15.8525 Y-0.2949
N8815 X15.8526 Y-0.2961
N8820 X15.8527 Y-0.2973
N8825 X15.8528 Y-0.2984
N8830 X15.8529 Y-0.2996
N8835 X15.853 Y-0.3008
N8840 X15.8532 Y-0.302
N8845 X15.8533 Y-0.3031
N8850 X15.8535 Y-0.3043
N8855 X15.8537 Y-0.3055
N8860 X15.8539 Y-0.3066
N8865 X15.854 Y-0.3078
N8870 X15.8542 Y-0.309
N8875 X15.8545 Y-0.3101
N8880 X15.8547 Y-0.3113
N8885 X15.8549 Y-0.3124
N8890 X15.8551 Y-0.3136
N8895 X15.8554 Y-0.3148
N8900 X15.8556 Y-0.3159
N8905 X15.8559 Y-0.3171
N8910 X15.8562 Y-0.3182
N8915 X15.8565 Y-0.3194
N8920 X15.8568 Y-0.3205
N8925 X15.8571 Y-0.3216
N8930 X15.8574 Y-0.3228
N8935 X15.8577 Y-0.3239
N8940 X15.858 Y-0.325
N8945 X15.8584 Y-0.3262
N8950 X15.8587 Y-0.3273
N8955 X15.8591 Y-0.3284
N8960 X15.8595 Y-0.3296
N8965 X15.8598 Y-0.3307
N8970 X15.8602 Y-0.3318
N8975 X15.8606 Y-0.3329
N8980 X15.861 Y-0.334
N8985 X15.8614 Y-0.3351
N8990 X15.8619 Y-0.3362
N8995 X15.8623 Y-0.3373
N9000 X15.8627 Y-0.3384
N9005 X15.8632 Y-0.3395
N9010 X15.8636 Y-0.3406
N9015 X15.8641 Y-0.3417
N9020 X15.8646 Y-0.3428
N9025 X15.865 Y-0.3439
N9030 X15.8655 Y-0.3449
N9035 X15.866 Y-0.346
N9040 X15.8665 Y-0.3471
N9045 X15.867 Y-0.3481
N9050 X15.8676 Y-0.3492
N9055 X15.8681 Y-0.3502
N9060 X15.8686 Y-0.3513
N9065 X15.8692 Y-0.3523
N9070 X15.8697 Y-0.3534
N9075 X15.8703 Y-0.3544
N9080 X15.8709 Y-0.3555
N9085 X15.8715 Y-0.3565
N9090 X15.872 Y-0.3575
N9095 X15.8726 Y-0.3585
N9100 X15.8732 Y-0.3595
N9105 X15.8739 Y-0.3606
N9110 X15.8745 Y-0.3616
N9115 X15.8751 Y-0.3626
N9120 X15.8757 Y-0.3636
N9125 X15.8764 Y-0.3646
N9130 X15.877 Y-0.3655
N9135 X15.8777 Y-0.3665
N9140 X15.8783 Y-0.3675
N9145 X15.879 Y-0.3685
N9150 X15.8797 Y-0.3694
N9155 X15.8804 Y-0.3704
N9160 X15.8811 Y-0.3714
N9165 X15.8818 Y-0.3723
N9170 X15.8825 Y-0.3733
N9175 X15.8832 Y-0.3742
N9180 X15.8839 Y-0.3751
N9185 X15.8846 Y-0.3761
N9190 X15.8854 Y-0.377
N9195 X15.8861 Y-0.3779
N9200 X15.8869 Y-0.3788
N9205 X15.8876 Y-0.3797
N9210 X15.8884 Y-0.3806
N9215 X15.8891 Y-0.3815
N9220 X15.8899 Y-0.3824
N9225 X15.8907 Y-0.3833
N9230 X15.8915 Y-0.3842
N9235 X15.8923 Y-0.3851
N9240 X15.8932 Y-0.386
N9245 X15.894 Y-0.3869
N9250 X15.8948 Y-0.3878
N9255 X15.8957 Y-0.3886
N9260 X15.8965 Y-0.3895
N9265 X15.8974 Y-0.3903
N9270 X15.8982 Y-0.3912
N9275 X15.8991 Y-0.392
N9280 X15.8999 Y-0.3928
N9285 X15.9008 Y-0.3937
N9290 X15.9017 Y-0.3945
N9295 X15.9025 Y-0.3953
N9300 X15.9034 Y-0.3961
N9305 X15.9043 Y-0.3968
N9310 X15.9052 Y-0.3976
N9315 X15.9061 Y-0.3984
N9320 X15.907 Y-0.3992
N9325 X15.9079 Y-0.3999
N9330 X15.9088 Y-0.4007
N9335 X15.9097 Y-0.4014
N9340 X15.9106 Y-0.4021
N9345 X15.9116 Y-0.4029
N9350 X15.9125 Y-0.4036
N9355 X15.9134 Y-0.4043
N9360 X15.9144 Y-0.405
N9365 X15.9153 Y-0.4057
N9370 X15.9163 Y-0.4064
N9375 X15.9173 Y-0.4072
N9380 X15.9183 Y-0.4079
N9385 X15.9194 Y-0.4086
N9390 X15.9204 Y-0.4093
N9395 X15.9214 Y-0.41
N9400 X15.9225 Y-0.4107
N9405 X15.9235 Y-0.4114
N9410 X15.9245 Y-0.412
N9415 X15.9256 Y-0.4127
N9420 X15.9266 Y-0.4133
N9425 X15.9277 Y-0.414
N9430 X15.9287 Y-0.4146
N9435 X15.9298 Y-0.4152
N9440 X15.9308 Y-0.4158
N9445 X15.9319 Y-0.4164
N9450 X15.9329 Y-0.417
N9455 X15.934 Y-0.4176
N9460 X15.935 Y-0.4182
N9465 X15.9361 Y-0.4188
N9470 X15.9371 Y-0.4193
N9475 X15.9382 Y-0.4199
N9480 X15.9647 Y-0.4333
N9485 X15.9896 Y-0.4495
N9490 X15.9946 Y-0.4536
N9495 X16.0051 Y-0.46
N9500 X16.0169 Y-0.4637
N9505 X16.0292 Y-0.4643
N9510 X16.0412 Y-0.4619
N9515 X16.0523 Y-0.4565
N9520 X16.0618 Y-0.4486
N9525 X16.069 Y-0.4387
N9530 X16.0735 Y-0.4272
N9535 X16.075 Y-0.415
N9540 G3 X16.0542 Y-0.3421 I-0.1574 J-0.0055
N9545 X15.8545 Y-0.2762 I-0.1366 J-0.0784
N9550 X15.8517 Y-0.2804 I0.0019 J-0.0044
N9555 G1 Y-0.3253
N9560 X15.8513 Y-0.3477
N9565 X15.8498 Y-0.3701
N9570 X15.8482 Y-0.3825
N9575 X15.8477 Y-0.3895
N9580 X15.8478 Y-0.4043
N9585 X15.8491 Y-0.4198
N9590 X15.8515 Y-0.4345
N9595 X15.855 Y-0.4485
N9600 X15.8599 Y-0.4628
N9605 X15.8656 Y-0.476
N9610 X15.8721 Y-0.4884
N9615 X15.88 Y-0.5008
N9620 X15.8885 Y-0.512
N9625 X15.8976 Y-0.5222
N9630 X15.9079 Y-0.5321
N9635 X15.9186 Y-0.5408
N9640 X15.9296 Y-0.5483
N9645 X15.9418 Y-0.5553
N9650 X15.9687 Y-0.568
N9655 X15.9866 Y-0.5783
N9660 X15.9978 Y-0.5833
N9665 X16.0099 Y-0.5858
N9670 X16.0222
N9675 X16.0343 Y-0.5832
N9680 X16.0455 Y-0.5782
N9685 X16.0555 Y-0.571
N9690 X16.0638 Y-0.5618
N9695 X16.0699 Y-0.5511
N9700 X16.0737 Y-0.5394
N9705 X16.075 Y-0.5271
N9710 G3 X16.0364 Y-0.4168 I-0.1967 J-0.0069
N9715 X15.9072 Y-0.3393 I-0.1581 J-0.1172
N9720 X15.8482 Y-0.3825 I-0.0077 J-0.0515
N9725 G1 X15.8469 Y-0.3926
N9730 X15.8428 Y-0.415
N9735 X15.8412 Y-0.4222
N9740 X15.8373 Y-0.4374
N9745 X15.8303 Y-0.4598
N9750 X15.8257 Y-0.4722
N9755 X15.8237 Y-0.4784
N9760 X15.8233 Y-0.4795
N9765 X15.823 Y-0.4806
N9770 X15.8226 Y-0.4817
N9775 X15.8223 Y-0.4829
N9780 X15.822 Y-0.484
N9785 X15.8217 Y-0.4852
N9790 X15.8214 Y-0.4863
N9795 X15.8212 Y-0.4875
N9800 X15.8209 Y-0.4886
N9805 X15.8206 Y-0.4898
N9810 X15.8204 Y-0.4909
N9815 X15.8202 Y-0.4921
N9820 X15.82 Y-0.4932
N9825 X15.8198 Y-0.4944
N9830 X15.8196 Y-0.4956
N9835 X15.8194 Y-0.4967
N9840 X15.8192 Y-0.4979
N9845 X15.819 Y-0.4991
N9850 X15.8189 Y-0.5003
N9855 X15.8188 Y-0.5014
N9860 X15.8186 Y-0.5026
N9865 X15.8185 Y-0.5038
N9870 X15.8184 Y-0.5049
N9875 X15.8183 Y-0.5061
N9880 X15.8182 Y-0.5073
N9885 X15.8181 Y-0.5085
N9890 Y-0.5097
N9895 X15.818 Y-0.5108
N9900 Y-0.512
N9905 X15.8179 Y-0.5132
N9910 Y-0.5144
N9915 Y-0.5156
N9920 Y-0.5167
N9925 Y-0.5179
N9930 Y-0.5191
N9935 Y-0.5203
N9940 Y-0.5215
N9945 X15.818 Y-0.5226
N9950 Y-0.5238
N9955 X15.8181 Y-0.525
N9960 Y-0.5262
N9965 X15.8182 Y-0.5276
N9970 X15.8183 Y-0.5291
N9975 X15.8185 Y-0.5306
N9980 X15.8186 Y-0.5321
N9985 X15.8187 Y-0.5336
N9990 X15.8189 Y-0.5351
N9995 X15.819 Y-0.5366
N10000 X15.8192 Y-0.538
N10005 X15.8194 Y-0.5395
N10010 X15.8196 Y-0.5409
N10015 X15.8198 Y-0.5424
N10020 X15.82 Y-0.5438
N10025 X15.8202 Y-0.5453
N10030 X15.8205 Y-0.5467
N10035 X15.8207 Y-0.5481
N10040 X15.821 Y-0.5496
N10045 X15.8212 Y-0.5511
N10050 X15.8215 Y-0.5526
N10055 X15.8218 Y-0.5542
N10060 X15.8221 Y-0.5557
N10065 X15.8225 Y-0.5572
N10070 X15.8228 Y-0.5587
N10075 X15.8231 Y-0.5601
N10080 X15.8235 Y-0.5616
N10085 X15.8239 Y-0.5631
N10090 X15.8242 Y-0.5646
N10095 X15.8246 Y-0.566
N10100 X15.825 Y-0.5674
N10105 X15.8254 Y-0.5689
N10110 X15.8258 Y-0.5703
N10115 X15.8262 Y-0.5717
N10120 X15.8266 Y-0.5731
N10125 X15.8271 Y-0.5745
N10130 X15.8275 Y-0.5759
N10135 X15.828 Y-0.5773
N10140 X15.8284 Y-0.5787
N10145 X15.8289 Y-0.5801
N10150 X15.8294 Y-0.5814
N10155 X15.8299 Y-0.5828
N10160 X15.8303 Y-0.5841
N10165 X15.8308 Y-0.5855
N10170 X15.8314 Y-0.5868
N10175 X15.8319 Y-0.5881
N10180 X15.8324 Y-0.5895
N10185 X15.833 Y-0.5909
N10190 X15.8336 Y-0.5923
N10195 X15.8342 Y-0.5937
N10200 X15.8348 Y-0.5951
N10205 X15.8354 Y-0.5965
N10210 X15.836 Y-0.5979
N10215 X15.8366 Y-0.5992
N10220 X15.8373 Y-0.6006
N10225 X15.8379 Y-0.6019
N10230 X15.8386 Y-0.6032
N10235 X15.8392 Y-0.6046
N10240 X15.8399 Y-0.6059
N10245 X15.8406 Y-0.6072
N10250 X15.8412 Y-0.6085
N10255 X15.8419 Y-0.6097
N10260 X15.8426 Y-0.611
N10265 X15.8433 Y-0.6123
N10270 X15.844 Y-0.6135
N10275 X15.8447 Y-0.6148
N10280 X15.8455 Y-0.616
N10285 X15.8462 Y-0.6172
N10290 X15.8469 Y-0.6184
N10295 X15.8476 Y-0.6196
N10300 X15.8484 Y-0.6208
N10305 X15.8491 Y-0.622
N10310 X15.8499 Y-0.6232
N10315 X15.8507 Y-0.6244
N10320 X15.8515 Y-0.6256
N10325 X15.8523 Y-0.6269
N10330 X15.8532 Y-0.6281
N10335 X15.854 Y-0.6293
N10340 X15.8549 Y-0.6306
N10345 X15.8558 Y-0.6318
N10350 X15.8566 Y-0.633
N10355 X15.8575 Y-0.6341
N10360 X15.8584 Y-0.6353
N10365 X15.8593 Y-0.6365
N10370 X15.8602 Y-0.6376
N10375 X15.8611 Y-0.6388
N10380 X15.862 Y-0.6399
N10385 X15.8629 Y-0.641
N10390 X15.8638 Y-0.6421
N10395 X15.8647 Y-0.6432
N10400 X15.8656 Y-0.6443
N10405 X15.8666 Y-0.6454
N10410 X15.8675 Y-0.6465
N10415 X15.8684 Y-0.6475
N10420 X15.8694 Y-0.6486
N10425 X15.8703 Y-0.6496
N10430 X15.8713 Y-0.6506
N10435 X15.8722 Y-0.6516
N10440 X15.8732 Y-0.6526
N10445 X15.8741 Y-0.6536
N10450 X15.8751 Y-0.6546
N10455 X15.8761 Y-0.6556
N10460 X15.8771 Y-0.6567
N10465 X15.8782 Y-0.6577
N10470 X15.8793 Y-0.6587
N10475 X15.8803 Y-0.6597
N10480 X15.8814 Y-0.6607
N10485 X15.8825 Y-0.6617
N10490 X15.8836 Y-0.6627
N10495 X15.8847 Y-0.6637
N10500 X15.8858 Y-0.6646
N10505 X15.8869 Y-0.6656
N10510 X15.888 Y-0.6665
N10515 X15.889 Y-0.6674
N10520 X15.8901 Y-0.6683
N10525 X15.8913 Y-0.6692
N10530 X15.8924 Y-0.6701
N10535 X15.8935 Y-0.671
N10540 X15.8946 Y-0.6719
N10545 X15.8957 Y-0.6727
N10550 X15.8968 Y-0.6736
N10555 X15.8979 Y-0.6744
N10560 X15.899 Y-0.6752
N10565 X15.9002 Y-0.676
N10570 X15.9013 Y-0.6768
N10575 X15.9024 Y-0.6776
N10580 X15.9035 Y-0.6784
N10585 X15.9047 Y-0.6792
N10590 X15.9058 Y-0.6799
N10595 X15.907 Y-0.6807
N10600 X15.9082 Y-0.6815
N10605 X15.9094 Y-0.6823
N10610 X15.9107 Y-0.683
N10615 X15.9119 Y-0.6838
N10620 X15.9132 Y-0.6846
N10625 X15.9144 Y-0.6853
N10630 X15.9157 Y-0.686
N10635 X15.9169 Y-0.6868
N10640 X15.9181 Y-0.6875
N10645 X15.9194 Y-0.6882
N10650 X15.9206 Y-0.6888
N10655 X15.9219 Y-0.6895
N10660 X15.9231 Y-0.6902
N10665 X15.9244 Y-0.6908
N10670 X15.9256 Y-0.6915
N10675 X15.9269 Y-0.6921
N10680 X15.9281 Y-0.6927
N10685 X15.9294 Y-0.6933
N10690 X15.9306 Y-0.6939
N10695 X15.9576 Y-0.7064
N10700 X15.9829 Y-0.7219
N10705 X15.9892 Y-0.7267
N10710 X15.9994 Y-0.7328
N10715 X16.0106 Y-0.7365
N10720 X16.0224 Y-0.7376
N10725 X16.0342 Y-0.7361
N10730 X16.0453 Y-0.732
N10735 X16.0553 Y-0.7256
N10740 X16.0636 Y-0.7172
N10745 X16.0698 Y-0.7071
N10750 X16.0737 Y-0.6959
N10755 X16.075 Y-0.6842
N10760 G3 X16.0653 Y-0.6498 I-0.075 J-0.0026
N10765 G1 X15.9939 Y-0.5239
N10770 X15.96 Y-0.4642
N10775 G3 X15.8257 Y-0.4722 I-0.0652 J-0.037
N10780 G1 X15.8218 Y-0.4823
N10785 X15.8187 Y-0.4896
N10790 X15.8116 Y-0.5047
N10795 X15.7999 Y-0.5271
N10800 X15.7962 Y-0.5335
N10805 X15.786 Y-0.5496
N10810 X15.7834 Y-0.5539
N10815 X15.7827 Y-0.5549
N10820 X15.7821 Y-0.5559
N10825 X15.7815 Y-0.5569
N10830 X15.7809 Y-0.5579
N10835 X15.7804 Y-0.559
N10840 X15.7798 Y-0.56
N10845 X15.7792 Y-0.561
N10850 X15.7787 Y-0.5621
N10855 X15.7782 Y-0.5631
N10860 X15.7776 Y-0.5642
N10865 X15.7771 Y-0.5653
N10870 X15.7766 Y-0.5663
N10875 X15.7761 Y-0.5674
N10880 X15.7756 Y-0.5685
N10885 X15.7752 Y-0.5696
N10890 X15.7747 Y-0.5706
N10895 X15.7742 Y-0.5717
N10900 X15.7738 Y-0.5728
N10905 X15.7734 Y-0.5739
N10910 X15.7729 Y-0.575
N10915 X15.7725 Y-0.5761
N10920 X15.7721 Y-0.5772
N10925 X15.7717 Y-0.5784
N10930 X15.7713 Y-0.5795
N10935 X15.7709 Y-0.5806
N10940 X15.7706 Y-0.5817
N10945 X15.7702 Y-0.5828
N10950 X15.7699 Y-0.584
N10955 X15.7695 Y-0.5851
N10960 X15.7692 Y-0.5862
N10965 X15.7689 Y-0.5874
N10970 X15.7686 Y-0.5885
N10975 X15.7682 Y-0.5896
N10980 X15.7679 Y-0.5908
N10985 X15.7677 Y-0.5919
N10990 X15.7674 Y-0.5931
N10995 X15.7671 Y-0.5942
N11000 X15.7669 Y-0.5954
N11005 X15.7666 Y-0.5965
N11010 X15.7664 Y-0.5977
N11015 X15.7661 Y-0.5989
N11020 X15.7659 Y-0.6
N11025 X15.7657 Y-0.6012
N11030 X15.7655 Y-0.6023
N11035 X15.7653 Y-0.6035
N11040 X15.7651 Y-0.6047
N11045 X15.7649 Y-0.6058
N11050 X15.7647 Y-0.607
N11055 X15.7646 Y-0.6082
N11060 X15.7644 Y-0.6094
N11065 X15.7642 Y-0.6106
N11070 X15.7641 Y-0.6118
N11075 X15.764 Y-0.6131
N11080 X15.7638 Y-0.6143
N11085 X15.7637 Y-0.6155
N11090 X15.7636 Y-0.6168
N11095 X15.7635 Y-0.618
N11100 X15.7634 Y-0.6193
N11105 X15.7633 Y-0.6205
N11110 Y-0.6218
N11115 X15.7632 Y-0.6231
N11120 X15.7631 Y-0.6244
N11125 Y-0.6257
N11130 X15.763 Y-0.627
N11135 Y-0.6283
N11140 Y-0.6296
N11145 Y-0.6309
N11150 Y-0.6322
N11155 Y-0.6336
N11160 Y-0.6349
N11165 Y-0.6362
N11170 X15.7631 Y-0.6376
N11175 Y-0.639
N11180 X15.7632 Y-0.6403
N11185 X15.7633 Y-0.6417
N11190 Y-0.6431
N11195 X15.7634 Y-0.6444
N11200 X15.7635 Y-0.6458
N11205 X15.7636 Y-0.6472
N11210 X15.7638 Y-0.6486
N11215 X15.7639 Y-0.65
N11220 X15.764 Y-0.6514
N11225 X15.7642 Y-0.6528
N11230 X15.7644 Y-0.6543
N11235 X15.7645 Y-0.6557
N11240 X15.7647 Y-0.6571
N11245 X15.7649 Y-0.6585
N11250 X15.7651 Y-0.66
N11255 X15.7654 Y-0.6614
N11260 X15.7657 Y-0.6636
N11265 X15.7661 Y-0.6658
N11270 X15.7665 Y-0.6679
N11275 X15.7669 Y-0.6701
N11280 X15.7673 Y-0.6722
N11285 X15.7677 Y-0.6744
N11290 X15.7681 Y-0.6765
N11295 X15.7686 Y-0.6786
N11300 X15.7691 Y-0.6808
N11305 X15.7696 Y-0.683
N11310 X15.7701 Y-0.6852
N11315 X15.7707 Y-0.6874
N11320 X15.7712 Y-0.6896
N11325 X15.7718 Y-0.6917
N11330 X15.7724 Y-0.6939
N11335 X15.7729 Y-0.696
N11340 X15.7735 Y-0.6981
N11345 X15.7741 Y-0.7001
N11350 X15.7748 Y-0.7022
N11355 X15.7754 Y-0.7042
N11360 X15.776 Y-0.7063
N11365 X15.7767 Y-0.7083
N11370 X15.7774 Y-0.7103
N11375 X15.778 Y-0.7122
N11380 X15.7787 Y-0.7142
N11385 X15.7794 Y-0.7162
N11390 X15.7801 Y-0.7181
N11395 X15.7808 Y-0.72
N11400 X15.7816 Y-0.7219
N11405 X15.7823 Y-0.7238
N11410 X15.7831 Y-0.7256
N11415 X15.7838 Y-0.7275
N11420 X15.7846 Y-0.7294
N11425 X15.7854 Y-0.7312
N11430 X15.7862 Y-0.7332
N11435 X15.7871 Y-0.7351
N11440 X15.788 Y-0.737
N11445 X15.7888 Y-0.7389
N11450 X15.7897 Y-0.7408
N11455 X15.7906 Y-0.7426
N11460 X15.7915 Y-0.7445
N11465 X15.7924 Y-0.7463
N11470 X15.7933 Y-0.7481
N11475 X15.7942 Y-0.7499
N11480 X15.7952 Y-0.7517
N11485 X15.7961 Y-0.7534
N11490 X15.7971 Y-0.7552
N11495 X15.798 Y-0.7569
N11500 X15.799 Y-0.7586
N11505 X15.8 Y-0.7603
N11510 X15.8009 Y-0.762
N11515 X15.8019 Y-0.7636
N11520 X15.8029 Y-0.7653
N11525 X15.8039 Y-0.7669
N11530 X15.8049 Y-0.7685
N11535 X15.8059 Y-0.7701
N11540 X15.8069 Y-0.7717
N11545 X15.808 Y-0.7733
N11550 X15.809 Y-0.7748
N11555 X15.8101 Y-0.7764
N11560 X15.8112 Y-0.778
N11565 X15.8123 Y-0.7796
N11570 X15.8134 Y-0.7812
N11575 X15.8146 Y-0.7828
N11580 X15.8157 Y-0.7844
N11585 X15.8169 Y-0.786
N11590 X15.818 Y-0.7875
N11595 X15.8192 Y-0.789
N11600 X15.8204 Y-0.7906
N11605 X15.8216 Y-0.7921
N11610 X15.8227 Y-0.7935
N11615 X15.8239 Y-0.795
N11620 X15.8251 Y-0.7964
N11625 X15.8263 Y-0.7979
N11630 X15.8275 Y-0.7993
N11635 X15.8287 Y-0.8007
N11640 X15.8299 Y-0.8021
N11645 X15.8311 Y-0.8034
N11650 X15.8324 Y-0.8048
N11655 X15.8336 Y-0.8061
N11660 X15.8348 Y-0.8074
N11665 X15.836 Y-0.8088
N11670 X15.8373 Y-0.81
N11675 X15.8385 Y-0.8113
N11680 X15.8398 Y-0.8126
N11685 X15.841 Y-0.8138
N11690 X15.8423 Y-0.8151
N11695 X15.8436 Y-0.8164
N11700 X15.8449 Y-0.8177
N11705 X15.8463 Y-0.8189
N11710 X15.8477 Y-0.8202
N11715 X15.849 Y-0.8215
N11720 X15.8504 Y-0.8227
N11725 X15.8518 Y-0.8239
N11730 X15.8531 Y-0.8251
N11735 X15.8545 Y-0.8263
N11740 X15.8559 Y-0.8275
N11745 X15.8572 Y-0.8286
N11750 X15.8586 Y-0.8298
N11755 X15.86 Y-0.8309
N11760 X15.8614 Y-0.832
N11765 X15.8628 Y-0.8331
N11770 X15.8642 Y-0.8342
N11775 X15.8655 Y-0.8352
N11780 X15.8669 Y-0.8363
N11785 X15.8683 Y-0.8373
N11790 X15.8697 Y-0.8383
N11795 X15.8711 Y-0.8393
N11800 X15.8725 Y-0.8403
N11805 X15.8739 Y-0.8413
N11810 X15.8753 Y-0.8423
N11815 X15.8767 Y-0.8432
N11820 X15.8781 Y-0.8441
N11825 X15.8795 Y-0.8451
N11830 X15.8809 Y-0.846
N11835 X15.8824 Y-0.847
N11840 X15.8839 Y-0.8479
N11845 X15.8854 Y-0.8488
N11850 X15.887 Y-0.8497
N11855 X15.8885 Y-0.8506
N11860 X15.89 Y-0.8515
N11865 X15.8915 Y-0.8524
N11870 X15.893 Y-0.8533
N11875 X15.8945 Y-0.8541
N11880 X15.896 Y-0.8549
N11885 X15.8975 Y-0.8557
N11890 X15.899 Y-0.8565
N11895 X15.9006 Y-0.8573
N11900 X15.9021 Y-0.8581
N11905 X15.9036 Y-0.8588
N11910 X15.9051 Y-0.8596
N11915 X15.9066 Y-0.8603
N11920 X15.9081 Y-0.861
N11925 X15.9096 Y-0.8617
N11930 X15.9111 Y-0.8624
N11935 X15.9126 Y-0.8631
N11940 X15.9141 Y-0.8637
N11945 X15.9156 Y-0.8643
N11950 X15.9171 Y-0.865
N11955 X15.9186 Y-0.8656
N11960 X15.92 Y-0.8662
N11965 X15.9477 Y-0.8771
N11970 X15.9737 Y-0.8915
N11975 X15.998 Y-0.9086
N11980 X16.0206 Y-0.9279
N11985 X16.0311 Y-0.9384
N11990 X16.0406 Y-0.9498
N11995 X16.0489 Y-0.9621
N12000 X16.0561 Y-0.9751
N12005 X16.062 Y-0.9887
N12010 X16.0666 Y-1.0029
N12015 X16.0698 Y-1.0174
N12020 X16.0717 Y-1.0321
N12025 X16.0722 Y-1.047
N12030 X16.0712 Y-1.0618
N12035 X16.0689 Y-1.0765
N12040 X16.0652 Y-1.0908
N12045 X16.0601 Y-1.1048
N12050 X16.0475 Y-1.1317
N12055 X16.0306 Y-1.1561
N12060 X16.0119 Y-1.1792
N12065 X15.9916 Y-1.2009
N12070 X15.97 Y-1.2213
N12075 X15.9472 Y-1.2404
N12080 X15.9235 Y-1.2583
N12085 X15.899 Y-1.2751
N12090 X15.8737 Y-1.2908
N12095 X15.8479 Y-1.3054
N12100 X15.8215 Y-1.319
N12105 X15.7946 Y-1.3317
N12110 X15.7674 Y-1.3436
N12115 X15.7398 Y-1.3547
N12120 X15.7119 Y-1.3649
N12125 X15.6838 Y-1.3745
N12130 X15.6554 Y-1.3834
N12135 X15.6269 Y-1.3917
N12140 X15.5982 Y-1.3994
N12145 X15.5694 Y-1.4065
N12150 X15.5404 Y-1.4132
N12155 X15.5113 Y-1.4194
N12160 X15.4822 Y-1.4251
N12165 X15.4529 Y-1.4304
N12170 X15.4237 Y-1.4353
N12175 X15.3943 Y-1.4399
N12180 X15.3649 Y-1.4442
N12185 X15.3354 Y-1.4481
N12190 X15.3059 Y-1.4518
N12195 X15.2764 Y-1.4552
N12200 X15.2469 Y-1.4583
N12205 X15.2173 Y-1.4612
N12210 X15.1877 Y-1.4639
N12215 X15.1581 Y-1.4665
N12220 X15.1285 Y-1.4688
N12225 X15.0989 Y-1.4709
N12230 X15.0692 Y-1.4729
N12235 X15.0396 Y-1.4748
N12240 X15.0099 Y-1.4765
N12245 X14.9802 Y-1.4781
N12250 X14.9506 Y-1.4795
N12255 X14.9209 Y-1.4809
N12260 X14.8912 Y-1.4822
N12265 X14.8615 Y-1.4833
N12270 X14.832 Y-1.4866
N12275 X14.8024 Y-1.4896
N12280 X14.7728 Y-1.4923
N12285 X14.7432 Y-1.4949
N12290 X14.7136 Y-1.4972
N12295 X14.684 Y-1.4994
N12300 X14.6543 Y-1.5014
N12305 X14.6247 Y-1.5032
N12310 X14.595 Y-1.5049
N12315 X14.5653 Y-1.5065
N12320 X14.5356 Y-1.5079
N12325 X14.506 Y-1.5093
N12330 X14.4763 Y-1.5105
N12335 X14.4466 Y-1.5116
N12340 X14.4169 Y-1.5127
N12345 X14.3872 Y-1.5136
N12350 X14.3575 Y-1.5145
N12355 X14.3278 Y-1.5153
N12360 X14.2981 Y-1.5161
N12365 X14.2684 Y-1.5167
N12370 X14.2387 Y-1.5174
N12375 X14.209 Y-1.518
N12380 X14.1793 Y-1.5185
N12385 X14.1496 Y-1.519
N12390 X14.1198 Y-1.5195
N12395 X14.0901 Y-1.5199
N12400 X14.0604 Y-1.5203
N12405 X14.0307 Y-1.5206
N12410 X14.001 Y-1.521
N12415 X13.9713 Y-1.5213
N12420 X13.9416 Y-1.5215
N12425 X13.9119 Y-1.5218
N12430 X13.8822 Y-1.522
N12435 X13.8524 Y-1.5223
N12440 X13.8227 Y-1.5225
N12445 X13.793 Y-1.5226
N12450 X13.7633 Y-1.5228
N12455 X13.7336 Y-1.523
N12460 X13.7039 Y-1.5231
N12465 X13.6742 Y-1.5233
N12470 X13.6445 Y-1.5234
N12475 X13.6147 Y-1.5235
N12480 X13.585 Y-1.5236
N12485 X13.5256 Y-1.5238
N12490 X13.4662 Y-1.5239
N12495 X13.4068 Y-1.5241
N12500 X13.3473 Y-1.5242
N12505 X13.2582 Y-1.5243
N12510 X13.1691 Y-1.5244
N12515 X13.0799 Y-1.5245
N12520 X12.9611 Y-1.5246
N12525 X12.9016
N12530 X12.7531 Y-1.5247
N12535 X12.5451
N12540 X12.248 Y-1.5248
N12545 X11.7428
N12550 X10.9109
N12555 X8.9201
N12560 X6.9294
N12565 X4.9386 Y-1.5249
N12570 X2.9479
N12575 X1.1354
N12580 X1.1057 Y-1.5248
N12585 X1.076 Y-1.5246
N12590 X1.0463 Y-1.5243
N12595 X1.0166 Y-1.5238
N12600 X0.9868 Y-1.5232
N12605 X0.9571 Y-1.5226
N12610 X0.9274 Y-1.5219
N12615 X0.8977 Y-1.5212
N12620 X0.868 Y-1.5204
N12625 X0.8383 Y-1.5196
N12630 X0.8086 Y-1.5188
N12635 X0.7195 Y-1.5163
N12640 X0.6898 Y-1.5155
N12645 X0.6601 Y-1.5147
N12650 X0.6304 Y-1.5139
N12655 X0.6007 Y-1.5132
N12660 X0.571 Y-1.5124
N12665 X0.5413 Y-1.511
N12670 X0.512 Y-1.5066
N12675 X0.4832 Y-1.4992
N12680 X0.4552 Y-1.4892
N12685 X0.4282 Y-1.4767
N12690 X0.4023 Y-1.4622
N12695 X0.3774 Y-1.446
N12700 X0.3533 Y-1.4286
N12705 X0.33 Y-1.4102
N12710 X0.3073 Y-1.391
N12715 X0.2851 Y-1.3712
N12720 X0.2633 Y-1.3511
N12725 X0.2417 Y-1.3307
N12730 X0.2202 Y-1.3102
N12735 X0.1987 Y-1.2896
N12740 X0.1771 Y-1.2692
N12745 X0.1553 Y-1.249
N12750 X0.1332 Y-1.2292
N12755 X0.1107 Y-1.2098
N12760 X0.0877 Y-1.191
N12765 X0.0642 Y-1.1728
N12770 X0.04 Y-1.1555
N12775 X0.0152 Y-1.1392
N12780 X-0.0096 Y-1.1228
N12785 X-0.0289 Y-1.1074
N12790 X-0.0422 Y-1.0986
N12795 X-0.057 Y-1.0923
N12800 X-0.0726 Y-1.0888
N12805 X-0.0886 Y-1.0883
N12810 X-0.1045 Y-1.0906
N12815 X-0.1196 Y-1.0957
N12820 X-0.1336 Y-1.1035
N12825 X-0.1459 Y-1.1138
N12830 X-0.1562 Y-1.126
N12835 G3 X-0.032 Y-1.2102 I0.0622 J-0.0419
N12840 X-0.0318 Y-1.2098 I-0.062 J0.0423
N12845 G1 X-0.0281 Y-1.2043 Z0.6253
N12850 X-0.0245 Y-1.199 Z0.6261
N12855 X-0.0209 Y-1.1937 Z0.6276
N12860 X-0.0175 Y-1.1885 Z0.6295
N12865 X-0.0141 Y-1.1835 Z0.632
N12870 X-0.0108 Y-1.1786 Z0.635
N12875 X-0.0078 Y-1.1741 Z0.6386
N12880 X-0.0049 Y-1.1698 Z0.6425
N12885 X-0.0022 Y-1.1658 Z0.647
N12890 X0.0003 Y-1.1621 Z0.6518
N12895 X0.0025 Y-1.1588 Z0.657
N12900 X0.0045 Y-1.1559 Z0.6625
N12905 X0.0062 Y-1.1534 Z0.6683
N12910 X0.0076 Y-1.1513 Z0.6743
N12915 X0.0087 Y-1.1497 Z0.6806
N12920 X0.0095 Y-1.1485 Z0.687
N12925 X0.0099 Y-1.1478 Z0.6935
N12930 X0.0101 Y-1.1475 Z0.7
N12935 G0 Z1.45
N12940 X-0.0582 Y1.2235
N12945 Z0.775
N12950 G1 Z0.7 F30.
N12955 X-0.0583 Y1.2232 Z0.6935
N12960 X-0.0584 Y1.2224 Z0.687
N12965 X-0.0586 Y1.221 Z0.6806
N12970 X-0.0589 Y1.2191 Z0.6743
N12975 X-0.0592 Y1.2166 Z0.6683
N12980 X-0.0597 Y1.2136 Z0.6625
N12985 X-0.0602 Y1.2101 Z0.657
N12990 X-0.0607 Y1.2062 Z0.6518
N12995 X-0.0614 Y1.2018 Z0.647
N13000 X-0.062 Y1.197 Z0.6425
N13005 X-0.0628 Y1.1919 Z0.6386
N13010 X-0.0636 Y1.1864 Z0.635
N13015 X-0.0644 Y1.1807 Z0.632
N13020 X-0.0653 Y1.1747 Z0.6295
N13025 X-0.0661 Y1.1685 Z0.6276
N13030 X-0.067 Y1.1622 Z0.6261
N13035 X-0.068 Y1.1558 Z0.6253
N13040 X-0.0689 Y1.1493 Z0.625
N13045 G3 X-0.0771 Y0.9138 I1.0826 J-0.1554
N13050 G1 X-0.0765 Y0.9085
N13055 X-0.0752 Y0.886
N13060 X-0.075 Y0.8636
N13065 Y0.7515
N13070 X-0.0749 Y0.7503
N13075 X-0.0589 Y0.7253
N13080 X-0.0411 Y0.7014
N13085 X-0.0219 Y0.6788
N13090 X-0.0015 Y0.6572
N13095 X0.0201 Y0.6368
N13100 X0.0427 Y0.6175
N13105 X0.0661 Y0.5992
N13110 X0.0903 Y0.5819
N13115 X0.1151 Y0.5656
N13120 X0.1405 Y0.5502
N13125 X0.1664 Y0.5357
N13130 X0.1928 Y0.522
N13135 X0.2196 Y0.5091
N13140 X0.2467 Y0.4969
N13145 X0.2741 Y0.4855
N13150 X0.3018 Y0.4748
N13155 X0.3298 Y0.4647
N13160 X0.3579 Y0.4552
N13165 X0.3863 Y0.4463
N13170 X0.4148 Y0.4379
N13175 X0.4434 Y0.4301
N13180 X0.4722 Y0.4227
N13185 X0.5011 Y0.4158
N13190 X0.5301 Y0.4094
N13195 X0.5592 Y0.4033
N13200 X0.5884 Y0.3977
N13205 X0.6176 Y0.3924
N13210 X0.6469 Y0.3875
N13215 X0.6763 Y0.3828
N13220 X0.7057 Y0.3785
N13225 X0.7351 Y0.3745
N13230 X0.7646 Y0.3707
N13235 X0.7941 Y0.3672
N13240 X0.8236 Y0.364
N13245 X0.8532 Y0.3609
N13250 X0.8828 Y0.3581
N13255 X0.9124 Y0.3555
N13260 X0.942 Y0.353
N13265 X0.9716 Y0.3507
N13270 X1.0012 Y0.3486
N13275 X1.0309 Y0.3467
N13280 X1.0605 Y0.3448
N13285 X1.0902 Y0.3431
N13290 X1.1199 Y0.3416
N13295 X1.1496 Y0.3401
N13300 X1.1792 Y0.3388
N13305 X1.2089 Y0.3375
N13310 X1.2386 Y0.3364
N13315 X1.2683 Y0.3353
N13320 X1.298 Y0.3344
N13325 X1.3277 Y0.3335
N13330 X1.3574 Y0.3326
N13335 X1.3871 Y0.3319
N13340 X1.4168 Y0.3312
N13345 X1.4465 Y0.3305
N13350 X1.4762 Y0.3299
N13355 X1.5059 Y0.3294
N13360 X1.5356 Y0.3289
N13365 X1.5654 Y0.3284
N13370 X1.5951 Y0.328
N13375 X1.6248 Y0.3276
N13380 X1.6545 Y0.3273
N13385 X1.6842 Y0.3269
N13390 X1.7139 Y0.3267
N13395 X1.7436 Y0.3264
N13400 X1.7733 Y0.3262
N13405 X1.803 Y0.3259
N13410 X1.8328 Y0.3257
N13415 X1.8625 Y0.3256
N13420 X1.8922 Y0.3254
N13425 X1.9219 Y0.3253
N13430 X1.9516 Y0.3251
N13435 X1.9813 Y0.325
N13440 X2.011 Y0.3249
N13445 X2.0407 Y0.3248
N13450 X2.0705
N13455 X2.1002 Y0.3247
N13460 X2.1596 Y0.3246
N13465 X2.219 Y0.3245
N13470 X2.2784 Y0.3244
N13475 X2.3379
N13480 X2.427
N13485 X2.5161 Y0.3243
N13490 X2.635 Y0.3244
N13495 X2.8133
N13500 X3.3184 Y0.3246
N13505 X3.6155 Y0.3247
N13510 X3.7938
N13515 X4.1801
N13520 X4.7149 Y0.3248
N13525 X5.7845
N13530 X7.7753
N13535 X9.766
N13540 X11.7568
N13545 X13.6584
N13550 X13.7476
N13555 X13.8367 Y0.3247
N13560 X13.8961
N13565 X13.9555 Y0.3246
N13570 X13.9853
N13575 X14.015 Y0.3245
N13580 X14.0447
N13585 X14.0744 Y0.3244
N13590 X14.1041 Y0.3243
N13595 X14.1338 Y0.3242
N13600 X14.1635 Y0.324
N13605 X14.1932 Y0.3238
N13610 X14.223 Y0.3235
N13615 X14.2527 Y0.3232
N13620 X14.2824 Y0.3227
N13625 X14.3121 Y0.322
N13630 X14.3418 Y0.3212
N13635 X14.3715 Y0.3202
N13640 X14.4012 Y0.319
N13645 X14.4308 Y0.3175
N13650 X14.4605 Y0.3158
N13655 X14.4901 Y0.3138
N13660 X14.5198 Y0.3115
N13665 X14.5494 Y0.3091
N13670 X14.579 Y0.3065
N13675 X14.6086 Y0.304
N13680 X14.6382 Y0.3018
N13685 X14.6679 Y0.2998
N13690 X14.6976 Y0.2984
N13695 X14.7273 Y0.2976
N13700 X14.757
N13705 X14.7867 Y0.2983
N13710 X14.8163 Y0.3001
N13715 X14.8459 Y0.3029
N13720 X14.8631 Y0.3067
N13725 X14.8795 Y0.3132
N13730 X14.8947 Y0.3222
N13735 X14.9082 Y0.3335
N13740 X14.9197 Y0.3468
N13745 X14.929 Y0.3618
N13750 X14.9357 Y0.3781
N13755 X14.9398 Y0.3953
N13760 G3 X14.7909 Y0.4133 I-0.0745 J0.0088
N13765 X14.7908 Y0.4128 I0.0744 J-0.0092
N13770 G1 X14.79 Y0.4063 Z0.6253
N13775 X14.7893 Y0.3999 Z0.6261
N13780 X14.7885 Y0.3935 Z0.6276
N13785 X14.7878 Y0.3873 Z0.6295
N13790 X14.7871 Y0.3813 Z0.632
N13795 X14.7864 Y0.3756 Z0.635
N13800 X14.7858 Y0.3701 Z0.6386
N13805 X14.7852 Y0.3649 Z0.6425
N13810 X14.7846 Y0.3601 Z0.647
N13815 X14.7841 Y0.3557 Z0.6518
N13820 X14.7836 Y0.3518 Z0.657
N13825 X14.7832 Y0.3483 Z0.6625
N13830 X14.7829 Y0.3453 Z0.6683
N13835 X14.7826 Y0.3428 Z0.6743
N13840 X14.7823 Y0.3409 Z0.6806
N13845 X14.7822 Y0.3394 Z0.687
N13850 X14.7821 Y0.3386 Z0.6935
N13855 X14.782 Y0.3383 Z0.7
N13860 G0 Z1.45
N13865 X16.0038 Y-0.3285
N13870 Z0.775
N13875 G1 Z0.7 F30.
N13880 X16.0036 Y-0.3287 Z0.6935
N13885 X16.0029 Y-0.3292 Z0.687
N13890 X16.0018 Y-0.3302 Z0.6806
N13895 X16.0004 Y-0.3315 Z0.6743
N13900 X15.9985 Y-0.3331 Z0.6683
N13905 X15.9962 Y-0.3351 Z0.6625
N13910 X15.9935 Y-0.3374 Z0.657
N13915 X15.9905 Y-0.34 Z0.6518
N13920 X15.9871 Y-0.3428 Z0.647
N13925 X15.9835 Y-0.346 Z0.6425
N13930 X15.9795 Y-0.3494 Z0.6386
N13935 X15.9754 Y-0.353 Z0.635
N13940 X15.971 Y-0.3568 Z0.632
N13945 X15.9664 Y-0.3607 Z0.6295
N13950 X15.9617 Y-0.3648 Z0.6276
N13955 X15.9568 Y-0.369 Z0.6261
N13960 X15.9519 Y-0.3732 Z0.6253
N13965 X15.947 Y-0.3775 Z0.625
N13970 G3 X15.786 Y-0.5496 I0.7138 J-0.8286
N13975 G1 X15.7737 Y-0.5672
N13980 X15.7702 Y-0.572
N13985 X15.7517 Y-0.5944
N13990 X15.7414 Y-0.6059
N13995 X15.7304 Y-0.6169
N14000 X15.7221 Y-0.6258
N14005 X15.7153 Y-0.6345
N14010 X15.7086 Y-0.6447
N14015 X15.7022 Y-0.6563
N14020 X15.6963 Y-0.6694
N14025 X15.6911 Y-0.6838
N14030 X15.6834 Y-0.7125
N14035 X15.6741 Y-0.7408
N14040 X15.6622 Y-0.768
N14045 X15.648 Y-0.7941
N14050 X15.6318 Y-0.819
N14055 X15.6139 Y-0.8427
N14060 X15.5945 Y-0.8652
N14065 X15.5738 Y-0.8866
N14070 X15.552 Y-0.9067
N14075 X15.5291 Y-0.9257
N14080 X15.5054 Y-0.9436
N14085 X15.4809 Y-0.9604
N14090 X15.4558 Y-0.9762
N14095 X15.43 Y-0.9911
N14100 X15.4038 Y-1.005
N14105 X15.3771 Y-1.0181
N14110 X15.35 Y-1.0303
N14115 X15.3226 Y-1.0417
N14120 X15.2949 Y-1.0524
N14125 X15.2669 Y-1.0624
N14130 X15.2387 Y-1.0717
N14135 X15.2103 Y-1.0805
N14140 X15.1817 Y-1.0886
N14145 X15.153 Y-1.0964
N14150 X15.1242 Y-1.1037
N14155 X15.0954 Y-1.1108
N14160 X15.0664 Y-1.1175
N14165 X15.0374 Y-1.1238
N14170 X15.0083 Y-1.1299
N14175 X14.9791 Y-1.1356
N14180 X14.9499 Y-1.141
N14185 X14.9206 Y-1.1461
N14190 X14.8913 Y-1.151
N14195 X14.862 Y-1.1555
N14200 X14.8326 Y-1.1598
N14205 X14.8031 Y-1.1639
N14210 X14.7737 Y-1.1678
N14215 X14.7442 Y-1.1714
N14220 X14.7147 Y-1.1748
N14225 X14.6851 Y-1.178
N14230 X14.6556 Y-1.181
N14235 X14.626 Y-1.1838
N14240 X14.5964 Y-1.1865
N14245 X14.5668 Y-1.189
N14250 X14.5372 Y-1.1913
N14255 X14.5075 Y-1.1935
N14260 X14.4779 Y-1.1956
N14265 X14.4482 Y-1.1975
N14270 X14.4186 Y-1.1993
N14275 X14.3889 Y-1.201
N14280 X14.3593 Y-1.2026
N14285 X14.3296 Y-1.2041
N14290 X14.2999 Y-1.2055
N14295 X14.2702 Y-1.2068
N14300 X14.2405 Y-1.208
N14305 X14.2108 Y-1.2091
N14310 X14.1811 Y-1.2102
N14315 X14.1514 Y-1.2112
N14320 X14.1217 Y-1.2121
N14325 X14.092 Y-1.213
N14330 X14.0623 Y-1.2138
N14335 X14.0326 Y-1.2145
N14340 X14.0029 Y-1.2153
N14345 X13.9732 Y-1.2159
N14350 X13.9435 Y-1.2165
N14355 X13.9138 Y-1.2171
N14360 X13.8841 Y-1.2176
N14365 X13.8544 Y-1.2181
N14370 X13.8247 Y-1.2186
N14375 X13.795 Y-1.219
N14380 X13.7653 Y-1.2194
N14385 X13.7356 Y-1.2198
N14390 X13.7059 Y-1.2202
N14395 X13.6761 Y-1.2205
N14400 X13.6464 Y-1.2208
N14405 X13.6167 Y-1.2211
N14410 X13.587 Y-1.2213
N14415 X13.5573 Y-1.2216
N14420 X13.5276 Y-1.2218
N14425 X13.4979 Y-1.222
N14430 X13.4682 Y-1.2222
N14435 X13.4384 Y-1.2224
N14440 X13.4087 Y-1.2226
N14445 X13.379 Y-1.2227
N14450 X13.3493 Y-1.2229
N14455 X13.3196 Y-1.223
N14460 X13.2899 Y-1.2231
N14465 X13.2602 Y-1.2233
N14470 X13.2008 Y-1.2235
N14475 X13.1413 Y-1.2237
N14480 X13.0819 Y-1.2238
N14485 X13.0225 Y-1.224
N14490 X12.963 Y-1.2241
N14495 X12.8739 Y-1.2242
N14500 X12.7848 Y-1.2243
N14505 X12.6956 Y-1.2244
N14510 X12.5768 Y-1.2245
N14515 X12.4579 Y-1.2246
N14520 X12.3094 Y-1.2247
N14525 X12.1014
N14530 X11.9825 Y-1.2248
N14535 X11.6557
N14540 X11.0614
N14545 X9.9918
N14550 X8.001
N14555 X6.0103 Y-1.2249
N14560 X4.0195
N14565 X2.0288
N14570 X1.4642
N14575 X1.4345
N14580 X1.4048 Y-1.2248
N14585 X1.3751
N14590 X1.3454 Y-1.2247
N14595 X1.3157 Y-1.2245
N14600 X1.2859 Y-1.2244
N14605 X1.2562 Y-1.2241
N14610 X1.2265 Y-1.2239
N14615 X1.1968 Y-1.2236
N14620 X1.1671 Y-1.2232
N14625 X1.1374 Y-1.2228
N14630 X1.1077 Y-1.2224
N14635 X1.078 Y-1.2219
N14640 X1.0483 Y-1.2215
N14645 X1.0186 Y-1.221
N14650 X0.9888 Y-1.2204
N14655 X0.9591 Y-1.2199
N14660 X0.9294 Y-1.2193
N14665 X0.8998 Y-1.2173
N14670 X0.8703 Y-1.2138
N14675 X0.841 Y-1.2088
N14680 X0.812 Y-1.2025
N14685 X0.7832 Y-1.1949
N14690 X0.7548 Y-1.1861
N14695 X0.7268 Y-1.1764
N14700 X0.699 Y-1.1657
N14705 X0.6716 Y-1.1542
N14710 X0.6445 Y-1.1421
N14715 X0.6177 Y-1.1294
N14720 X0.5911 Y-1.1161
N14725 X0.5647 Y-1.1024
N14730 X0.5385 Y-1.0884
N14735 X0.5124 Y-1.0742
N14740 X0.4864 Y-1.0597
N14745 X0.4606 Y-1.0451
N14750 X0.4349 Y-1.0302
N14755 X0.4092 Y-1.0152
N14760 X0.3836 Y-1.0002
N14765 X0.3578 Y-0.9855
N14770 X0.3319 Y-0.971
N14775 X0.3057 Y-0.9569
N14780 X0.2792 Y-0.9434
N14785 X0.2524 Y-0.9307
N14790 X0.2252 Y-0.9187
N14795 X0.1976 Y-0.9077
N14800 X0.1695 Y-0.8979
N14805 X0.1411 Y-0.8893
N14810 X0.1123 Y-0.882
N14815 X0.0831 Y-0.8764
N14820 X0.0545 Y-0.8683
N14825 X0.0274 Y-0.8561
N14830 X0.0247 Y-0.8545
N14835 X0.0123 Y-0.8487
N14840 X-0.0011 Y-0.8456
N14845 X-0.0148 Y-0.8453
N14850 X-0.0283 Y-0.8477
N14855 X-0.0411 Y-0.8529
N14860 X-0.0524 Y-0.8606
N14865 X-0.062 Y-0.8705
N14870 X-0.0694 Y-0.8821
N14875 X-0.0742 Y-0.8949
N14880 X-0.0763 Y-0.9085
N14885 G3 X0.0346 Y-0.9793 I0.0748 J-0.0051
N14890 G1 X0.0388 Y-0.9764 Z0.6252
N14895 X0.0431 Y-0.9735 Z0.6257
N14900 X0.0472 Y-0.9706 Z0.6266
N14905 X0.0508 Y-0.9669 Z0.6279
N14910 X0.0544 Y-0.9632 Z0.6295
N14915 X0.0578 Y-0.9595 Z0.6316
N14920 X0.0606 Y-0.955 Z0.6342
N14925 X0.0633 Y-0.9507 Z0.6373
N14930 X0.0659 Y-0.9465 Z0.6408
N14935 X0.0674 Y-0.9425 Z0.6444
N14940 X0.0687 Y-0.9388 Z0.6483
N14945 X0.07 Y-0.9353 Z0.6525
N14950 X0.0712 Y-0.9322 Z0.6569
N14955 X0.0717 Y-0.9288 Z0.6622
N14960 X0.0722 Y-0.926 Z0.6677
N14965 X0.0726 Y-0.9236 Z0.6734
N14970 X0.0729 Y-0.9216 Z0.6793
N14975 X0.0731 Y-0.9202 Z0.6853
N14980 X0.0733 Y-0.9192 Z0.6915
N14985 Y-0.9189 Z0.6957
N14990 Y-0.9187 Z0.7
N14995 G0 Z1.45
N15000 X-0.0228 Y1.0137
N15005 Z0.775
N15010 G1 Z0.7 F30.
N15015 X-0.0229 Y1.0134 Z0.6935
N15020 X-0.0231 Y1.0126 Z0.687
N15025 X-0.0235 Y1.0112 Z0.6806
N15030 X-0.024 Y1.0093 Z0.6743
N15035 X-0.0246 Y1.0069 Z0.6683
N15040 X-0.0253 Y1.0039 Z0.6625
N15045 X-0.0262 Y1.0005 Z0.657
N15050 X-0.0272 Y0.9967 Z0.6518
N15055 X-0.0283 Y0.9924 Z0.647
N15060 X-0.0295 Y0.9877 Z0.6425
N15065 X-0.0308 Y0.9827 Z0.6386
N15070 X-0.0322 Y0.9773 Z0.635
N15075 X-0.0336 Y0.9717 Z0.632
N15080 X-0.0351 Y0.9659 Z0.6295
N15085 X-0.0366 Y0.9598 Z0.6276
N15090 X-0.0382 Y0.9536 Z0.6261
N15095 X-0.0398 Y0.9473 Z0.6253
N15100 X-0.0415 Y0.941 Z0.625
N15105 G3 X-0.075 Y0.7078 I1.0595 J-0.2714
N15110 G1 Y0.5271
N15115 X-0.0749 Y0.526
N15120 X-0.0734 Y0.5231
N15125 X-0.0719 Y0.5201
N15130 X-0.0704 Y0.5173
N15135 X-0.0688 Y0.5144
N15140 X-0.0673 Y0.5115
N15145 X-0.0656 Y0.5086
N15150 X-0.0639 Y0.5057
N15155 X-0.0622 Y0.5027
N15160 X-0.0604 Y0.4997
N15165 X-0.0586 Y0.4966
N15170 X-0.0567 Y0.4936
N15175 X-0.0549 Y0.4906
N15180 X-0.053 Y0.4876
N15185 X-0.051 Y0.4846
N15190 X-0.049 Y0.4815
N15195 X-0.047 Y0.4784
N15200 X-0.0448 Y0.4752
N15205 X-0.0427 Y0.4721
N15210 X-0.0405 Y0.4689
N15215 X-0.0383 Y0.4658
N15220 X-0.036 Y0.4627
N15225 X-0.0337 Y0.4595
N15230 X-0.0314 Y0.4563
N15235 X-0.029 Y0.4531
N15240 X-0.0265 Y0.4498
N15245 X-0.0239 Y0.4465
N15250 X-0.0213 Y0.4433
N15255 X-0.0188 Y0.44
N15260 X-0.0162 Y0.4368
N15265 X-0.0135 Y0.4335
N15270 X-0.0107 Y0.4302
N15275 X-0.0078 Y0.4268
N15280 X-0.0049 Y0.4234
N15285 X-0.002 Y0.4201
N15290 X0.001 Y0.4168
N15295 X0.004 Y0.4134
N15300 X0.007 Y0.41
N15305 X0.0102 Y0.4066
N15310 X0.0135 Y0.4031
N15315 X0.0168 Y0.3996
N15320 X0.0201 Y0.3962
N15325 X0.0234 Y0.3928
N15330 X0.0269 Y0.3894
N15335 X0.0304 Y0.3859
N15340 X0.034 Y0.3824
N15345 X0.0377 Y0.3788
N15350 X0.0414 Y0.3753
N15355 X0.0451 Y0.3718
N15360 X0.049 Y0.3683
N15365 X0.0529 Y0.3647
N15370 X0.0569 Y0.3611
N15375 X0.0611 Y0.3575
N15380 X0.0652 Y0.3539
N15385 X0.0693 Y0.3504
N15390 X0.0736 Y0.3468
N15395 X0.078 Y0.3432
N15400 X0.0825 Y0.3395
N15405 X0.087 Y0.3358
N15410 X0.0916 Y0.3322
N15415 X0.0962 Y0.3286
N15420 X0.101 Y0.3249
N15425 X0.1059 Y0.3212
N15430 X0.1109 Y0.3175
N15435 X0.1159 Y0.3139
N15440 X0.1209 Y0.3102
N15445 X0.1261 Y0.3065
N15450 X0.1315 Y0.3027
N15455 X0.137 Y0.2989
N15460 X0.1424 Y0.2953
N15465 X0.148 Y0.2915
N15470 X0.1537 Y0.2878
N15475 X0.1596 Y0.284
N15480 X0.1655 Y0.2802
N15485 X0.1714 Y0.2765
N15490 X0.1775 Y0.2727
N15495 X0.1838 Y0.2689
N15500 X0.1902 Y0.2651
N15505 X0.1966 Y0.2613
N15510 X0.2032 Y0.2575
N15515 X0.2099 Y0.2537
N15520 X0.2169 Y0.2498
N15525 X0.2238 Y0.2461
N15530 X0.2308 Y0.2422
N15535 X0.2381 Y0.2384
N15540 X0.2456 Y0.2345
N15545 X0.253 Y0.2307
N15550 X0.2606 Y0.2269
N15555 X0.2685 Y0.223
N15560 X0.2765 Y0.2192
N15565 X0.2846 Y0.2153
N15570 X0.2929 Y0.2115
N15575 X0.3014 Y0.2076
N15580 X0.31 Y0.2038
N15585 X0.3188 Y0.1999
N15590 X0.3279 Y0.196
N15595 X0.3369 Y0.1922
N15600 X0.3463 Y0.1883
N15605 X0.356 Y0.1844
N15610 X0.3657 Y0.1806
N15615 X0.3756 Y0.1767
N15620 X0.386 Y0.1728
N15625 X0.3963 Y0.169
N15630 X0.407 Y0.1651
N15635 X0.418 Y0.1612
N15640 X0.4291 Y0.1574
N15645 X0.4406 Y0.1535
N15650 X0.4523 Y0.1496
N15655 X0.4643 Y0.1458
N15660 X0.4767 Y0.1419
N15665 X0.4892 Y0.1381
N15670 X0.5023 Y0.1342
N15675 X0.5155 Y0.1304
N15680 X0.5292 Y0.1265
N15685 X0.5432 Y0.1227
N15690 X0.5576 Y0.1189
N15695 X0.5725 Y0.1151
N15700 X0.5878 Y0.1113
N15705 X0.6035 Y0.1075
N15710 X0.6198 Y0.1037
N15715 X0.6364 Y0.0999
N15720 X0.6538 Y0.0961
N15725 X0.6716 Y0.0923
N15730 X0.6901 Y0.0886
N15735 X0.7094 Y0.0848
N15740 X0.7292 Y0.0811
N15745 X0.7499 Y0.0773
N15750 X0.7714 Y0.0736
N15755 X0.7937 Y0.0699
N15760 X0.8171 Y0.0662
N15765 X0.8415 Y0.0626
N15770 X0.8671 Y0.0589
N15775 X0.8941 Y0.0553
N15780 X0.9224 Y0.0517
N15785 X0.9519 Y0.0481
N15790 X0.9814 Y0.0448
N15795 X1.011 Y0.0416
N15800 X1.0405 Y0.0387
N15805 X1.0701 Y0.0359
N15810 X1.0997 Y0.0333
N15815 X1.1293 Y0.0309
N15820 X1.1589 Y0.0286
N15825 X1.1886 Y0.0265
N15830 X1.2182 Y0.0245
N15835 X1.2479 Y0.0226
N15840 X1.2775 Y0.0208
N15845 X1.3072 Y0.0192
N15850 X1.3369 Y0.0177
N15855 X1.3666 Y0.0162
N15860 X1.3962 Y0.0149
N15865 X1.4259 Y0.0136
N15870 X1.4556 Y0.0124
N15875 X1.4853 Y0.0114
N15880 X1.515 Y0.0103
N15885 X1.5447 Y0.0094
N15890 X1.5744 Y0.0085
N15895 X1.6041 Y0.0077
N15900 X1.6338 Y0.0069
N15905 X1.6635 Y0.0062
N15910 X1.6932 Y0.0055
N15915 X1.7229 Y0.0049
N15920 X1.7526 Y0.0043
N15925 X1.7823 Y0.0038
N15930 X1.812 Y0.0055
N15935 X1.8417 Y0.007
N15940 X1.8713 Y0.0084
N15945 X1.901 Y0.0097
N15950 X1.9307 Y0.0109
N15955 X1.9604 Y0.012
N15960 X1.9901 Y0.013
N15965 X2.0198 Y0.0139
N15970 X2.0495 Y0.0147
N15975 X2.0792 Y0.0155
N15980 X2.1089 Y0.0162
N15985 X2.1386 Y0.0169
N15990 X2.1683 Y0.0175
N15995 X2.198 Y0.018
N16000 X2.2277 Y0.0185
N16005 X2.2575 Y0.019
N16010 X2.2872 Y0.0194
N16015 X2.3169 Y0.0198
N16020 X2.3466 Y0.0202
N16025 X2.3763 Y0.0205
N16030 X2.406 Y0.0209
N16035 X2.4357 Y0.0211
N16040 X2.4654 Y0.0214
N16045 X2.4951 Y0.0216
N16050 X2.5249 Y0.0219
N16055 X2.5546 Y0.0221
N16060 X2.5843 Y0.0223
N16065 X2.614 Y0.0224
N16070 X2.6437 Y0.0226
N16075 X2.6734 Y0.0228
N16080 X2.7031 Y0.0229
N16085 X2.7328 Y0.023
N16090 X2.7625 Y0.0231
N16095 X2.7923 Y0.0233
N16100 X2.8517 Y0.0235
N16105 X2.9111 Y0.0236
N16110 X2.9705 Y0.0238
N16115 X3.03 Y0.0239
N16120 X3.1191 Y0.0241
N16125 X3.2082 Y0.0242
N16130 X3.2974 Y0.0243
N16135 X3.4162 Y0.0244
N16140 X3.5351 Y0.0245
N16145 X3.6836 Y0.0246
N16150 X3.7431
N16155 X3.9511 Y0.0247
N16160 X4.2185
N16165 X4.6047 Y0.0248
N16170 X5.2287
N16175 X5.7338
N16180 X7.7246
N16185 X9.7153
N16190 X11.7061
N16195 X13.3997
N16200 X13.5483
N16205 X13.6374 Y0.0247
N16210 X13.6968
N16215 X13.7563 Y0.0246
N16220 X13.786
N16225 X13.8157
N16230 X13.8454 Y0.0245
N16235 X13.8751 Y0.0244
N16240 X13.9048 Y0.0243
N16245 X13.9345 Y0.0242
N16250 X13.9642 Y0.0241
N16255 X13.994 Y0.0238
N16260 X14.0237 Y0.0236
N16265 X14.0534 Y0.0232
N16270 X14.0831 Y0.0227
N16275 X14.1128 Y0.0222
N16280 X14.1425 Y0.0215
N16285 X14.1722 Y0.0206
N16290 X14.2019 Y0.0197
N16295 X14.2316 Y0.0186
N16300 X14.2613 Y0.0174
N16305 X14.291 Y0.0161
N16310 X14.3503 Y0.0135
N16315 X14.38 Y0.0122
N16320 X14.4097 Y0.011
N16325 X14.4394 Y0.01
N16330 X14.4691 Y0.0091
N16335 X14.4988 Y0.0084
N16340 X14.5285 Y0.0079
N16345 X14.5582 Y0.0078
N16350 X14.5879 Y0.0081
N16355 X14.6176 Y0.009
N16360 X14.6473 Y0.0105
N16365 X14.6769 Y0.0129
N16370 X14.7065 Y0.0162
N16375 X14.7358 Y0.0206
N16380 X14.765 Y0.0262
N16385 X14.7939 Y0.0331
N16390 X14.8225 Y0.0413
N16395 X14.8505 Y0.0511
N16400 X14.8588 Y0.0545
N16405 X14.8751 Y0.0626
N16410 X14.8899 Y0.073
N16415 X14.9031 Y0.0854
N16420 X14.9143 Y0.0997
N16425 X14.9233 Y0.1155
N16430 X14.9298 Y0.1324
N16435 X14.9338 Y0.1501
N16440 X14.9352 Y0.1682
N16445 Y0.3253
N16450 G3 X14.7852 Y0.3205 I-0.075 J-0.0026
N16455 X14.7853 Y0.32 I0.075 J0.0021
N16460 G1 X14.7855 Y0.3135 Z0.6253
N16465 X14.7857 Y0.307 Z0.6261
N16470 X14.7859 Y0.3006 Z0.6276
N16475 X14.7862 Y0.2944 Z0.6295
N16480 X14.7864 Y0.2884 Z0.632
N16485 X14.7866 Y0.2826 Z0.635
N16490 X14.7868 Y0.277 Z0.6386
N16495 X14.7869 Y0.2719 Z0.6425
N16500 X14.7871 Y0.267 Z0.647
N16505 X14.7873 Y0.2626 Z0.6518
N16510 X14.7874 Y0.2586 Z0.657
N16515 X14.7875 Y0.2551 Z0.6625
N16520 X14.7876 Y0.2521 Z0.6683
N16525 X14.7877 Y0.2496 Z0.6743
N16530 X14.7878 Y0.2476 Z0.6806
N16535 Y0.2462 Z0.687
N16540 X14.7879 Y0.2454 Z0.6935
N16545 Y0.2451 Z0.7
N16550 G0 Z1.45
N16555 X15.9853 Y-0.44
N16560 Z0.775
N16565 G1 Z0.7 F30.
N16570 X15.9851 Y-0.4401 Z0.6935
N16575 X15.9844 Y-0.4406 Z0.687
N16580 X15.9831 Y-0.4413 Z0.6806
N16585 X15.9814 Y-0.4422 Z0.6743
N16590 X15.9793 Y-0.4435 Z0.6683
N16595 X15.9766 Y-0.445 Z0.6625
N16600 X15.9736 Y-0.4468 Z0.657
N16605 X15.9702 Y-0.4488 Z0.6518
N16610 X15.9663 Y-0.451 Z0.647
N16615 X15.9622 Y-0.4534 Z0.6425
N16620 X15.9577 Y-0.456 Z0.6386
N16625 X15.9529 Y-0.4588 Z0.635
N16630 X15.9479 Y-0.4617 Z0.632
N16635 X15.9426 Y-0.4647 Z0.6295
N16640 X15.9372 Y-0.4678 Z0.6276
N16645 X15.9317 Y-0.471 Z0.6261
N16650 X15.9261 Y-0.4743 Z0.6253
N16655 X15.9204 Y-0.4776 Z0.625
N16660 G3 X15.7304 Y-0.6169 I0.5479 J-0.9466
N16665 G1 X15.7287 Y-0.6185
N16670 X15.7175 Y-0.6292
N16675 X15.7058 Y-0.6393
N16680 X15.6837 Y-0.6568
N16685 X15.6769 Y-0.6617
N16690 X15.6612 Y-0.6724
N16695 X15.6427 Y-0.6842
N16700 X15.6387 Y-0.6865
N16705 X15.6162 Y-0.6988
N16710 X15.601 Y-0.7066
N16715 X15.5937 Y-0.71
N16720 X15.5712 Y-0.7201
N16725 X15.5492 Y-0.729
N16730 X15.5487 Y-0.7292
N16735 X15.5262 Y-0.7375
N16740 X15.5037 Y-0.745
N16745 X15.482 Y-0.7515
N16750 X15.4812 Y-0.7517
N16755 X15.4587 Y-0.7571
N16760 X15.4362 Y-0.7613
N16765 X15.4137 Y-0.7643
N16770 X15.3843 Y-0.7681
N16775 X15.3549 Y-0.7723
N16780 X15.3255 Y-0.7767
N16785 X15.2961 Y-0.7812
N16790 X15.2668 Y-0.7859
N16795 X15.2374 Y-0.7906
N16800 X15.2081 Y-0.7954
N16805 X15.1788 Y-0.8002
N16810 X15.1494 Y-0.8049
N16815 X15.1201 Y-0.8097
N16820 X15.0908 Y-0.8143
N16825 X15.0614 Y-0.8189
N16830 X15.032 Y-0.8234
N16835 X15.0027 Y-0.8278
N16840 X14.9733 Y-0.8321
N16845 X14.9438 Y-0.8363
N16850 X14.9144 Y-0.8404
N16855 X14.885 Y-0.8443
N16860 X14.8555 Y-0.8482
N16865 X14.826 Y-0.8518
N16870 X14.7965 Y-0.8554
N16875 X14.767 Y-0.8588
N16880 X14.7375 Y-0.8621
N16885 X14.7079 Y-0.8653
N16890 X14.6784 Y-0.8684
N16895 X14.6488 Y-0.8713
N16900 X14.6192 Y-0.8741
N16905 X14.5896 Y-0.8767
N16910 X14.56 Y-0.8793
N16915 X14.5304 Y-0.8817
N16920 X14.5008 Y-0.8841
N16925 X14.4712 Y-0.8863
N16930 X14.4415 Y-0.8884
N16935 X14.4119 Y-0.8904
N16940 X14.3822 Y-0.8923
N16945 X14.3526 Y-0.8941
N16950 X14.3229 Y-0.8959
N16955 X14.2932 Y-0.8975
N16960 X14.2636 Y-0.8991
N16965 X14.2339 Y-0.9005
N16970 X14.2042 Y-0.9019
N16975 X14.1745 Y-0.9033
N16980 X14.1448 Y-0.9045
N16985 X14.1152 Y-0.9057
N16990 X14.0855 Y-0.9068
N16995 X14.0558 Y-0.9079
N17000 X14.0261 Y-0.9089
N17005 X13.9964 Y-0.9098
N17010 X13.9667 Y-0.9107
N17015 X13.937 Y-0.9116
N17020 X13.9073 Y-0.9124
N17025 X13.8776 Y-0.9131
N17030 X13.8479 Y-0.9139
N17035 X13.8182 Y-0.9145
N17040 X13.7885 Y-0.9151
N17045 X13.7587 Y-0.9157
N17050 X13.729 Y-0.9163
N17055 X13.6993 Y-0.9168
N17060 X13.6696 Y-0.9173
N17065 X13.6399 Y-0.9178
N17070 X13.6102 Y-0.9182
N17075 X13.5805 Y-0.9186
N17080 X13.5508 Y-0.919
N17085 X13.5211 Y-0.9194
N17090 X13.4914 Y-0.9197
N17095 X13.4617 Y-0.9201
N17100 X13.4319 Y-0.9204
N17105 X13.4022 Y-0.9206
N17110 X13.3725 Y-0.9209
N17115 X13.3428 Y-0.9212
N17120 X13.3131 Y-0.9214
N17125 X13.2834 Y-0.9216
N17130 X13.2537 Y-0.9218
N17135 X13.224 Y-0.922
N17140 X13.1942 Y-0.9222
N17145 X13.1645 Y-0.9224
N17150 X13.1348 Y-0.9225
N17155 X13.1051 Y-0.9227
N17160 X13.0754 Y-0.9228
N17165 X13.0457 Y-0.9229
N17170 X12.9863 Y-0.9232
N17175 X12.9268 Y-0.9234
N17180 X12.8674 Y-0.9236
N17185 X12.808 Y-0.9237
N17190 X12.7486 Y-0.9239
N17195 X12.6891 Y-0.924
N17200 X12.6 Y-0.9241
N17205 X12.5109 Y-0.9243
N17210 X12.4217 Y-0.9244
N17215 X12.3029 Y-0.9245
N17220 X12.184 Y-0.9246
N17225 X12.0355
N17230 X11.8572 Y-0.9247
N17235 X11.6195 Y-0.9248
N17240 X11.4412
N17245 X10.9955
N17250 X9.9258
N17255 X9.4504
N17260 X7.4597
N17265 X5.4689 Y-0.9249
N17270 X3.4782
N17275 X1.7548
N17280 X1.6954
N17285 X1.6657 Y-0.9248
N17290 X1.636
N17295 X1.6063
N17300 X1.5766 Y-0.9247
N17305 X1.5469 Y-0.9246
N17310 X1.5171 Y-0.9245
N17315 X1.4874 Y-0.9244
N17320 X1.4577 Y-0.9242
N17325 X1.4281 Y-0.9219
N17330 X1.3985 Y-0.9197
N17335 X1.3688 Y-0.9176
N17340 X1.3392 Y-0.9157
N17345 X1.3095 Y-0.9139
N17350 X1.2799 Y-0.9122
N17355 X1.2502 Y-0.9103
N17360 X1.2206 Y-0.9079
N17365 X1.191 Y-0.905
N17370 X1.1615 Y-0.9015
N17375 X1.1321 Y-0.8972
N17380 X1.1028 Y-0.8923
N17385 X1.0736 Y-0.8866
N17390 X1.0446 Y-0.8803
N17395 X1.0157 Y-0.8733
N17400 X0.987 Y-0.8657
N17405 X0.9584 Y-0.8576
N17410 X0.93 Y-0.8488
N17415 X0.9018 Y-0.8396
N17420 X0.8737 Y-0.8299
N17425 X0.8458 Y-0.8197
N17430 X0.818 Y-0.8092
N17435 X0.7903 Y-0.7985
N17440 X0.7627 Y-0.7875
N17445 X0.7352 Y-0.7763
N17450 X0.7077 Y-0.7649
N17455 X0.6528 Y-0.7422
N17460 X0.6253 Y-0.7309
N17465 X0.5978 Y-0.7196
N17470 X0.5703 Y-0.7086
N17475 X0.5564 Y-0.7031
N17480 X0.5362 Y-0.6953
N17485 X0.5181 Y-0.6885
N17490 X0.4903 Y-0.6782
N17495 X0.4624 Y-0.6678
N17500 X0.4346 Y-0.6574
N17505 X0.4139 Y-0.6499
N17510 X0.3973 Y-0.6439
N17515 X0.3839 Y-0.6392
N17520 X0.3725 Y-0.6353
N17525 X0.3623 Y-0.6319
N17530 X0.3529 Y-0.6289
N17535 X0.3442 Y-0.6261
N17540 X0.3353 Y-0.6234
N17545 X0.3267 Y-0.6208
N17550 X0.3186 Y-0.6184
N17555 X0.311 Y-0.6163
N17560 X0.3037 Y-0.6143
N17565 X0.2968 Y-0.6124
N17570 X0.2902 Y-0.6107
N17575 X0.2838 Y-0.609
N17580 X0.2776 Y-0.6075
N17585 X0.2716 Y-0.6061
N17590 X0.2658 Y-0.6048
N17595 X0.2598 Y-0.6034
N17600 X0.2538 Y-0.6021
N17605 X0.2479 Y-0.6009
N17610 X0.2423 Y-0.5998
N17615 X0.2367 Y-0.5987
N17620 X0.2313 Y-0.5977
N17625 X0.2261 Y-0.5968
N17630 X0.2209 Y-0.596
N17635 X0.2159 Y-0.5951
N17640 X0.211 Y-0.5944
N17645 X0.2062 Y-0.5937
N17650 X0.2015 Y-0.593
N17655 X0.1969 Y-0.5924
N17660 X0.1924 Y-0.5919
N17665 X0.1878 Y-0.5913
N17670 X0.1831 Y-0.5908
N17675 X0.1784 Y-0.5903
N17680 X0.1738 Y-0.5899
N17685 X0.1693 Y-0.5895
N17690 X0.1648 Y-0.5892
N17695 X0.1605 Y-0.5888
N17700 X0.1562 Y-0.5886
N17705 X0.152 Y-0.5883
N17710 X0.1478 Y-0.5881
N17715 X0.1437 Y-0.5879
N17720 X0.1397 Y-0.5878
N17725 X0.1358 Y-0.5877
N17730 X0.1319 Y-0.5876
N17735 X0.128
N17740 X0.1242 Y-0.5875
N17745 X0.1094 Y-0.5876
N17750 X0.0946 Y-0.5862
N17755 X0.08 Y-0.5834
N17760 X0.0657 Y-0.5793
N17765 X0.0519 Y-0.5738
N17770 X0.0254 Y-0.5604
N17775 X0.011 Y-0.5501
N17780 X0.0006 Y-0.5443
N17785 X-0.0108 Y-0.5409
N17790 X-0.0227 Y-0.5401
N17795 X-0.0344 Y-0.5418
N17800 X-0.0455 Y-0.5461
N17805 X-0.0554 Y-0.5526
N17810 X-0.0637 Y-0.5612
N17815 X-0.0699 Y-0.5714
N17820 X-0.0737 Y-0.5826
N17825 X-0.075 Y-0.5944
N17830 G3 X0.0427 Y-0.6535 I0.075 J0.0026
N17835 G1 X0.0466 Y-0.6501 Z0.6252
N17840 X0.0504 Y-0.6468 Z0.6257
N17845 X0.0543 Y-0.6435 Z0.6266
N17850 X0.0575 Y-0.6394 Z0.6279
N17855 X0.0606 Y-0.6353 Z0.6295
N17860 X0.0637 Y-0.6314 Z0.6316
N17865 X0.066 Y-0.6266 Z0.6342
N17870 X0.0683 Y-0.622 Z0.6373
N17875 X0.0704 Y-0.6176 Z0.6408
N17880 X0.0714 Y-0.6135 Z0.6444
N17885 X0.0724 Y-0.6096 Z0.6483
N17890 X0.0733 Y-0.606 Z0.6525
N17895 X0.0742 Y-0.6028 Z0.6569
N17900 X0.0744 Y-0.5993 Z0.6624
N17905 X0.0746 Y-0.5963 Z0.6682
N17910 X0.0748 Y-0.5938 Z0.6742
N17915 X0.075 Y-0.5918 Z0.6804
N17920 X0.0749 Y-0.5905 Z0.6859
N17925 Y-0.5897 Z0.6915
N17930 Y-0.5893 Z0.6957
N17935 Y-0.5892 Z0.7
N17940 G0 Z1.45
N17945 X-0.0228 Y0.7735
N17950 Z0.775
N17955 G1 Z0.7 F30.
N17960 X-0.0229 Y0.7732 Z0.6935
N17965 X-0.0231 Y0.7724 Z0.687
N17970 X-0.0235 Y0.771 Z0.6806
N17975 X-0.024 Y0.7691 Z0.6743
N17980 X-0.0246 Y0.7667 Z0.6683
N17985 X-0.0253 Y0.7638 Z0.6625
N17990 X-0.0262 Y0.7604 Z0.657
N17995 X-0.0272 Y0.7565 Z0.6518
N18000 X-0.0283 Y0.7522 Z0.647
N18005 X-0.0295 Y0.7475 Z0.6425
N18010 X-0.0308 Y0.7425 Z0.6386
N18015 X-0.0322 Y0.7372 Z0.635
N18020 X-0.0336 Y0.7315 Z0.632
N18025 X-0.0351 Y0.7257 Z0.6295
N18030 X-0.0366 Y0.7196 Z0.6276
N18035 X-0.0382 Y0.7135 Z0.6261
N18040 X-0.0398 Y0.7072 Z0.6253
N18045 X-0.0415 Y0.7008 Z0.625
N18050 G3 X-0.075 Y0.4676 I1.0595 J-0.2714
N18055 G1 Y0.258
N18060 X-0.0749 Y0.2568
N18065 X-0.0731 Y0.2535
N18070 X-0.0713 Y0.2502
N18075 X-0.0694 Y0.2468
N18080 X-0.0675 Y0.2435
N18085 X-0.0655 Y0.2401
N18090 X-0.0635 Y0.2367
N18095 X-0.0614 Y0.2333
N18100 X-0.0593 Y0.2299
N18105 X-0.0571 Y0.2264
N18110 X-0.0549 Y0.2229
N18115 X-0.0527 Y0.2195
N18120 X-0.0503 Y0.216
N18125 X-0.048 Y0.2125
N18130 X-0.0456 Y0.2089
N18135 X-0.0432 Y0.2054
N18140 X-0.0406 Y0.2018
N18145 X-0.0381 Y0.1982
N18150 X-0.0355 Y0.1946
N18155 X-0.0328 Y0.191
N18160 X-0.0301 Y0.1873
N18165 X-0.0274 Y0.1837
N18170 X-0.0245 Y0.18
N18175 X-0.0217 Y0.1763
N18180 X-0.0187 Y0.1726
N18185 X-0.0157 Y0.1689
N18190 X-0.0127 Y0.1652
N18195 X-0.0096 Y0.1614
N18200 X-0.0064 Y0.1577
N18205 X-0.0032 Y0.1539
N18210 X0.0001 Y0.1501
N18215 X0.0034 Y0.1463
N18220 X0.0068 Y0.1425
N18225 X0.0103 Y0.1386
N18230 X0.0139 Y0.1348
N18235 X0.0175 Y0.1309
N18240 X0.0212 Y0.127
N18245 X0.0249 Y0.1231
N18250 X0.0287 Y0.1192
N18255 X0.0326 Y0.1153
N18260 X0.0366 Y0.1113
N18265 X0.0406 Y0.1074
N18270 X0.0447 Y0.1034
N18275 X0.0489 Y0.0994
N18280 X0.0531 Y0.0954
N18285 X0.0575 Y0.0914
N18290 X0.0619 Y0.0874
N18295 X0.0664 Y0.0833
N18300 X0.071 Y0.0793
N18305 X0.0756 Y0.0752
N18310 X0.0803 Y0.0711
N18315 X0.0852 Y0.067
N18320 X0.0901 Y0.0629
N18325 X0.0951 Y0.0588
N18330 X0.1002 Y0.0547
N18335 X0.1054 Y0.0506
N18340 X0.1106 Y0.0464
N18345 X0.116 Y0.0423
N18350 X0.1214 Y0.0381
N18355 X0.127 Y0.0339
N18360 X0.1327 Y0.0297
N18365 X0.1385 Y0.0255
N18370 X0.1443 Y0.0213
N18375 X0.1503 Y0.0171
N18380 X0.1564 Y0.0129
N18385 X0.1626 Y0.0086
N18390 X0.1689 Y0.0044
N18395 X0.1753 Y0.0001
N18400 X0.1818 Y-0.0041
N18405 X0.1885 Y-0.0084
N18410 X0.1952 Y-0.0127
N18415 X0.2021 Y-0.017
N18420 X0.2092 Y-0.0213
N18425 X0.2163 Y-0.0256
N18430 X0.2236 Y-0.0299
N18435 X0.231 Y-0.0342
N18440 X0.2386 Y-0.0385
N18445 X0.2463 Y-0.0428
N18450 X0.2542 Y-0.0472
N18455 X0.2621 Y-0.0515
N18460 X0.2703 Y-0.0559
N18465 X0.2786 Y-0.0602
N18470 X0.2871 Y-0.0646
N18475 X0.2957 Y-0.0689
N18480 X0.3045 Y-0.0733
N18485 X0.3134 Y-0.0777
N18490 X0.3226 Y-0.0821
N18495 X0.3319 Y-0.0864
N18500 X0.3415 Y-0.0908
N18505 X0.3511 Y-0.0952
N18510 X0.3611 Y-0.0996
N18515 X0.3711 Y-0.1039
N18520 X0.3815 Y-0.1084
N18525 X0.392 Y-0.1127
N18530 X0.4028 Y-0.1171
N18535 X0.4137 Y-0.1215
N18540 X0.425 Y-0.1259
N18545 X0.4364 Y-0.1303
N18550 X0.4481 Y-0.1347
N18555 X0.4601 Y-0.1391
N18560 X0.4724 Y-0.1434
N18565 X0.4849 Y-0.1478
N18570 X0.4977 Y-0.1522
N18575 X0.5109 Y-0.1566
N18580 X0.5243 Y-0.1609
N18585 X0.5382 Y-0.1653
N18590 X0.5523 Y-0.1697
N18595 X0.5669 Y-0.1741
N18600 X0.5816 Y-0.1784
N18605 X0.597 Y-0.1828
N18610 X0.6126 Y-0.1871
N18615 X0.6287 Y-0.1914
N18620 X0.6452 Y-0.1957
N18625 X0.6622 Y-0.2
N18630 X0.6797 Y-0.2043
N18635 X0.6977 Y-0.2086
N18640 X0.7164 Y-0.2129
N18645 X0.7354 Y-0.2171
N18650 X0.7552 Y-0.2214
N18655 X0.7758 Y-0.2256
N18660 X0.7968 Y-0.2298
N18665 X0.8187 Y-0.234
N18670 X0.8415 Y-0.2382
N18675 X0.8652 Y-0.2424
N18680 X0.8897 Y-0.2465
N18685 X0.9153 Y-0.2506
N18690 X0.942 Y-0.2548
N18695 X0.97 Y-0.2588
N18700 X0.9993 Y-0.2629
N18705 X1.0288 Y-0.2668
N18710 X1.0583 Y-0.2705
N18715 X1.0878 Y-0.2739
N18720 X1.1173 Y-0.2772
N18725 X1.1469 Y-0.2803
N18730 X1.1764 Y-0.2832
N18735 X1.206 Y-0.286
N18740 X1.2356 Y-0.2886
N18745 X1.2652 Y-0.2911
N18750 X1.2948 Y-0.2934
N18755 X1.3245 Y-0.2956
N18760 X1.3541 Y-0.2977
N18765 X1.3838 Y-0.2997
N18770 X1.4134 Y-0.3015
N18775 X1.4431 Y-0.3033
N18780 X1.4728 Y-0.3048
N18785 X1.5024 Y-0.306
N18790 X1.5321 Y-0.3071
N18795 X1.5618 Y-0.3079
N18800 X1.5915 Y-0.3086
N18805 X1.6213 Y-0.3091
N18810 X1.651 Y-0.3095
N18815 X1.6807 Y-0.3098
N18820 X1.7104 Y-0.31
N18825 X1.7401 Y-0.3101
N18830 X1.7698 Y-0.3102
N18835 X1.7995
N18840 X1.8292 Y-0.3101
N18845 X1.859 Y-0.31
N18850 X1.8887 Y-0.3099
N18855 X1.9184 Y-0.3098
N18860 X1.9481 Y-0.3096
N18865 X1.9778 Y-0.3094
N18870 X2.0075 Y-0.3092
N18875 X2.0669 Y-0.3087
N18880 X2.2155 Y-0.3076
N18885 X2.2749 Y-0.3071
N18890 X2.3343 Y-0.3067
N18895 X2.3938 Y-0.3063
N18900 X2.4532 Y-0.3059
N18905 X2.5126 Y-0.3055
N18910 X2.572 Y-0.3052
N18915 X2.6315 Y-0.3049
N18920 X2.6909 Y-0.3046
N18925 X2.7503 Y-0.3044
N18930 X2.8097 Y-0.3042
N18935 X2.8692 Y-0.304
N18940 X2.9286 Y-0.3038
N18945 X2.988 Y-0.3036
N18950 X3.0474 Y-0.3035
N18955 X3.1366 Y-0.3033
N18960 X3.2257 Y-0.3031
N18965 X3.3149 Y-0.303
N18970 X3.404 Y-0.3028
N18975 X3.5228 Y-0.3027
N18980 X3.6417 Y-0.3026
N18985 X3.7308 Y-0.3025
N18990 X3.8794
N18995 X4.0577 Y-0.3024
N19000 X4.2954 Y-0.3023
N19005 X4.5925
N19010 X5.0382 Y-0.3022
N19015 X5.7216
N19020 X7.7123
N19025 X9.7031
N19030 X11.6938
N19035 X13.1795
N19040 X13.3578
N19045 X13.4469 Y-0.3023
N19050 X13.5063
N19055 X13.5657
N19060 X13.5955 Y-0.3024
N19065 X13.6252
N19070 X13.6549 Y-0.3025
N19075 X13.6846 Y-0.3026
N19080 X13.7143 Y-0.3027
N19085 X13.744 Y-0.3028
N19090 X13.7737 Y-0.303
N19095 X13.8034 Y-0.3032
N19100 X13.8332 Y-0.3035
N19105 X13.8629 Y-0.3038
N19110 X13.8926 Y-0.3042
N19115 X13.9223 Y-0.3047
N19120 X13.952 Y-0.3052
N19125 X13.9817 Y-0.3058
N19130 X14.0114 Y-0.3065
N19135 X14.0411 Y-0.3072
N19140 X14.0708 Y-0.3079
N19145 X14.1302 Y-0.3094
N19150 X14.1599 Y-0.3101
N19155 X14.1896 Y-0.3109
N19160 X14.2193 Y-0.3115
N19165 X14.249 Y-0.3121
N19170 X14.2788 Y-0.3126
N19175 X14.3085 Y-0.3129
N19180 X14.3382 Y-0.3131
N19185 X14.3679
N19190 X14.3976 Y-0.3128
N19195 X14.4273 Y-0.3122
N19200 X14.457 Y-0.3113
N19205 X14.4867 Y-0.31
N19210 X14.5164 Y-0.3083
N19215 X14.546 Y-0.3061
N19220 X14.5756 Y-0.3034
N19225 X14.6051 Y-0.3002
N19230 X14.6346 Y-0.2965
N19235 X14.6437 Y-0.2951
N19240 X14.6522 Y-0.2938
N19245 X14.6606 Y-0.2924
N19250 X14.6692 Y-0.2909
N19255 X14.6775 Y-0.2894
N19260 X14.6853 Y-0.288
N19265 X14.6927 Y-0.2865
N19270 X14.6998 Y-0.2851
N19275 X14.7065 Y-0.2837
N19280 X14.713 Y-0.2823
N19285 X14.7192 Y-0.2809
N19290 X14.7255 Y-0.2794
N19295 X14.732 Y-0.2778
N19300 X14.7384 Y-0.2763
N19305 X14.7445 Y-0.2747
N19310 X14.7504 Y-0.2731
N19315 X14.7562 Y-0.2715
N19320 X14.7617 Y-0.27
N19325 X14.7671 Y-0.2684
N19330 X14.7723 Y-0.2669
N19335 X14.7774 Y-0.2654
N19340 X14.7824 Y-0.2638
N19345 X14.7875 Y-0.2622
N19350 X14.7926 Y-0.2605
N19355 X14.7978 Y-0.2587
N19360 X14.8028 Y-0.257
N19365 X14.8077 Y-0.2553
N19370 X14.8125 Y-0.2536
N19375 X14.8171 Y-0.2518
N19380 X14.8216 Y-0.2501
N19385 X14.8261 Y-0.2484
N19390 X14.8304 Y-0.2467
N19395 X14.8346 Y-0.245
N19400 X14.8387 Y-0.2433
N19405 X14.843 Y-0.2415
N19410 X14.8472 Y-0.2397
N19415 X14.8516 Y-0.2378
N19420 X14.8558 Y-0.2359
N19425 X14.86 Y-0.234
N19430 X14.864 Y-0.2321
N19435 X14.8681 Y-0.2302
N19440 X14.8845 Y-0.2206
N19445 X14.8991 Y-0.2085
N19450 X14.9116 Y-0.1943
N19455 X14.9217 Y-0.1782
N19460 X14.9291 Y-0.1607
N19465 X14.9337 Y-0.1423
N19470 X14.9352 Y-0.1234
N19475 Y0.1458
N19480 G3 X14.7852 Y0.1411 I-0.075 J-0.0026
N19485 X14.7853 Y0.1406 I0.075 J0.0021
N19490 G1 X14.7855 Y0.134 Z0.6253
N19495 X14.7857 Y0.1276 Z0.6261
N19500 X14.7859 Y0.1212 Z0.6276
N19505 X14.7862 Y0.1149 Z0.6295
N19510 X14.7864 Y0.1089 Z0.632
N19515 X14.7866 Y0.1031 Z0.635
N19520 X14.7868 Y0.0976 Z0.6386
N19525 X14.7869 Y0.0924 Z0.6425
N19530 X14.7871 Y0.0876 Z0.647
N19535 X14.7873 Y0.0832 Z0.6518
N19540 X14.7874 Y0.0792 Z0.657
N19545 X14.7875 Y0.0757 Z0.6625
N19550 X14.7876 Y0.0726 Z0.6683
N19555 X14.7877 Y0.0701 Z0.6743
N19560 X14.7878 Y0.0682 Z0.6806
N19565 Y0.0668 Z0.687
N19570 X14.7879 Y0.0659 Z0.6935
N19575 Y0.0656 Z0.7
N19580 G0 Z1.45
N19585 X15.7227 Y-0.7925
N19590 Z0.775
N19595 G1 Z0.7 F30.
N19600 X15.7224 Y-0.7924 Z0.6935
N19605 X15.7216 Y-0.7923 Z0.687
N19610 X15.7202 Y-0.792 Z0.6806
N19615 X15.7183 Y-0.7917 Z0.6743
N19620 X15.7158 Y-0.7913 Z0.6683
N19625 X15.7128 Y-0.7908 Z0.6625
N19630 X15.7094 Y-0.7902 Z0.657
N19635 X15.7054 Y-0.7895 Z0.6518
N19640 X15.7011 Y-0.7887 Z0.647
N19645 X15.6963 Y-0.7879 Z0.6425
N19650 X15.6912 Y-0.787 Z0.6386
N19655 X15.6858 Y-0.786 Z0.635
N19660 X15.6801 Y-0.785 Z0.632
N19665 X15.6741 Y-0.784 Z0.6295
N19670 X15.668 Y-0.7829 Z0.6276
N19675 X15.6617 Y-0.7818 Z0.6261
N19680 X15.6553 Y-0.7807 Z0.6253
N19685 X15.6489 Y-0.7796 Z0.625
N19690 G3 X15.4137 Y-0.7643 I-0.1883 J-1.0774
N19695 G1 X15.3912 Y-0.766
N19700 X15.3687 Y-0.7666
N19705 X15.3462 Y-0.7658
N19710 X15.3237 Y-0.7638
N19715 X15.3012 Y-0.7606
N19720 X15.2787 Y-0.7562
N19725 X15.2597 Y-0.7515
N19730 X15.2562 Y-0.7506
N19735 X15.2337 Y-0.7435
N19740 X15.2112 Y-0.7349
N19745 X15.1975 Y-0.729
N19750 X15.1887 Y-0.7248
N19755 X15.1662 Y-0.7131
N19760 X15.155 Y-0.7066
N19765 X15.1437 Y-0.6996
N19770 X15.1212 Y-0.6843
N19775 X15.1211 Y-0.6842
N19780 X15.0987 Y-0.6669
N19785 X15.0925 Y-0.6617
N19790 X15.0762 Y-0.6472
N19795 X15.0679 Y-0.6393
N19800 X15.0537 Y-0.6251
N19805 X15.0461 Y-0.6169
N19810 X15.0312 Y-0.5993
N19815 X15.0271 Y-0.5944
N19820 X15.0104 Y-0.572
N19825 X15.0087 Y-0.5695
N19830 X14.996 Y-0.5496
N19835 X14.9862 Y-0.533
N19840 X14.9832 Y-0.5271
N19845 X14.9722 Y-0.5047
N19850 X14.9637 Y-0.4849
N19855 X14.9627 Y-0.4823
N19860 X14.9548 Y-0.4598
N19865 X14.9482 Y-0.4374
N19870 X14.9432 Y-0.415
N19875 X14.9412 Y-0.4049
N19880 X14.9393 Y-0.3926
N19885 X14.9368 Y-0.3701
N19890 X14.9354 Y-0.3477
N19895 X14.9352 Y-0.3253
N19900 Y-0.1458
N19905 G3 X14.7852 Y-0.1506 I-0.075 J-0.0026
N19910 X14.7853 Y-0.151 I0.075 J0.0021
N19915 G1 X14.7855 Y-0.1576 Z0.6253
N19920 X14.7857 Y-0.1641 Z0.6261
N19925 X14.7859 Y-0.1704 Z0.6276
N19930 X14.7862 Y-0.1767 Z0.6295
N19935 X14.7864 Y-0.1827 Z0.632
N19940 X14.7866 Y-0.1885 Z0.635
N19945 X14.7868 Y-0.194 Z0.6386
N19950 X14.7869 Y-0.1992 Z0.6425
N19955 X14.7871 Y-0.204 Z0.647
N19960 X14.7873 Y-0.2085 Z0.6518
N19965 X14.7874 Y-0.2124 Z0.657
N19970 X14.7875 Y-0.216 Z0.6625
N19975 X14.7876 Y-0.219 Z0.6683
N19980 X14.7877 Y-0.2215 Z0.6743
N19985 X14.7878 Y-0.2234 Z0.6806
N19990 Y-0.2249 Z0.687
N19995 X14.7879 Y-0.2257 Z0.6935
N20000 Y-0.226 Z0.7
N20005 G0 Z1.45
N20010 X-0.0228 Y0.5055
N20015 Z0.775
N20020 G1 Z0.7 F30.
N20025 X-0.0229 Y0.5052 Z0.6935
N20030 X-0.0231 Y0.5044 Z0.687
N20035 X-0.0235 Y0.503 Z0.6806
N20040 X-0.024 Y0.5011 Z0.6743
N20045 X-0.0246 Y0.4987 Z0.6683
N20050 X-0.0253 Y0.4957 Z0.6625
N20055 X-0.0262 Y0.4923 Z0.657
N20060 X-0.0272 Y0.4885 Z0.6518
N20065 X-0.0283 Y0.4842 Z0.647
N20070 X-0.0295 Y0.4795 Z0.6425
N20075 X-0.0308 Y0.4745 Z0.6386
N20080 X-0.0322 Y0.4691 Z0.635
N20085 X-0.0336 Y0.4635 Z0.632
N20090 X-0.0351 Y0.4577 Z0.6295
N20095 X-0.0366 Y0.4516 Z0.6276
N20100 X-0.0382 Y0.4454 Z0.6261
N20105 X-0.0398 Y0.4391 Z0.6253
N20110 X-0.0415 Y0.4328 Z0.625
N20115 G3 X-0.075 Y0.1996 I1.0595 J-0.2714
N20120 G1 Y0.1003
N20125 G3 X0.0427 Y0.0413 I0.075 J0.0026
N20130 G1 X0.0466 Y0.0446 Z0.6252
N20135 X0.0504 Y0.048 Z0.6257
N20140 X0.0543 Y0.0512 Z0.6266
N20145 X0.0575 Y0.0554 Z0.6279
N20150 X0.0606 Y0.0594 Z0.6295
N20155 X0.0637 Y0.0634 Z0.6316
N20160 X0.066 Y0.0682 Z0.6342
N20165 X0.0683 Y0.0728 Z0.6373
N20170 X0.0704 Y0.0771 Z0.6408
N20175 X0.0714 Y0.0813 Z0.6444
N20180 X0.0724 Y0.0852 Z0.6483
N20185 X0.0733 Y0.0887 Z0.6525
N20190 X0.0742 Y0.092 Z0.6569
N20195 X0.0744 Y0.0955 Z0.6624
N20200 X0.0746 Y0.0985 Z0.6682
N20205 X0.0748 Y0.101 Z0.6742
N20210 X0.075 Y0.1029 Z0.6804
N20215 X0.0749 Y0.1042 Z0.6859
N20220 Y0.1051 Z0.6915
N20225 Y0.1054 Z0.6957
N20230 Y0.1056 Z0.7
N20235 G0 Z1.45
N20240 X15.736 Y-0.9841
N20245 Z0.825
N20250 G1 Z0.75 F30.
N20255 X15.7359 Y-0.9838 Z0.7435
N20260 X15.7357 Y-0.983 Z0.737
N20265 X15.7353 Y-0.9816 Z0.7306
N20270 X15.7348 Y-0.9797 Z0.7243
N20275 X15.7341 Y-0.9773 Z0.7183
N20280 X15.7332 Y-0.9744 Z0.7125
N20285 X15.7322 Y-0.971 Z0.707
N20290 X15.7311 Y-0.9672 Z0.7018
N20295 X15.7299 Y-0.963 Z0.697
N20300 X15.7285 Y-0.9583 Z0.6925
N20305 X15.7271 Y-0.9534 Z0.6886
N20310 X15.7255 Y-0.9481 Z0.685
N20315 X15.7239 Y-0.9425 Z0.682
N20320 X15.7222 Y-0.9367 Z0.6795
N20325 X15.7205 Y-0.9307 Z0.6776
N20330 X15.7187 Y-0.9246 Z0.6761
N20335 X15.7169 Y-0.9183 Z0.6753
N20340 X15.715 Y-0.9121 Z0.675
N20345 G3 X15.6251 Y-0.6943 I-1.05 J-0.3061
N20350 G1 X15.6247 Y-0.6936
N20355 X15.624 Y-0.6926
N20360 X15.6232 Y-0.6917
N20365 X15.6225 Y-0.6908
N20370 X15.6217 Y-0.6899
N20375 X15.6209 Y-0.6891
N20380 X15.6201 Y-0.6882
N20385 X15.6193 Y-0.6873
N20390 X15.6185 Y-0.6865
N20395 X15.6176 Y-0.6856
N20400 X15.6168 Y-0.6848
N20405 X15.616 Y-0.684
N20410 X15.615 Y-0.683
N20415 X15.6139 Y-0.6819
N20420 X15.6125 Y-0.6806
N20425 X15.6108 Y-0.679
N20430 X15.6085 Y-0.6769
N20435 X15.6056 Y-0.6742
N20440 X15.6013 Y-0.6704
N20445 X15.5916 Y-0.6618
N20450 X15.5692 Y-0.6423
N20455 X15.5468 Y-0.6227
N20460 X15.5253 Y-0.6023
N20465 X15.5053 Y-0.5803
N20470 X15.4867 Y-0.5571
N20475 X15.4695 Y-0.5329
N20480 X15.4535 Y-0.5078
N20485 X15.4387 Y-0.4821
N20490 X15.4251 Y-0.4557
N20495 X15.4124 Y-0.4288
N20500 X15.4007 Y-0.4015
N20505 X15.3899 Y-0.3738
N20510 X15.3799 Y-0.3458
N20515 X15.3707 Y-0.3176
N20520 X15.3622 Y-0.2891
N20525 X15.3543 Y-0.2605
N20530 X15.3471 Y-0.2316
N20535 X15.3404 Y-0.2027
N20540 X15.3342 Y-0.1736
N20545 X15.3286 Y-0.1445
N20550 X15.3233 Y-0.1152
N20555 X15.3185 Y-0.0859
N20560 X15.314 Y-0.0565
N20565 X15.3099 Y-0.0271
N20570 X15.3063 Y0.0024
N20575 X15.3055 Y0.0172
N20580 X15.3056 Y0.0209
N20585 Y0.0228
N20590 G3 X15.1902 Y0.0861 I-0.075 J0.0001
N20595 G1 X15.1862 Y0.0829 Z0.6752
N20600 X15.1822 Y0.0797 Z0.6757
N20605 X15.1782 Y0.0766 Z0.6766
N20610 X15.1749 Y0.0725 Z0.6779
N20615 X15.1716 Y0.0686 Z0.6795
N20620 X15.1684 Y0.0648 Z0.6816
N20625 X15.1659 Y0.0601 Z0.6842
N20630 X15.1635 Y0.0556 Z0.6873
