%
(HELENA_WAND)
(HELENA WAND TOP)
(T1  D=0.25 CR=0. - ZMIN=0.0002 - FLAT END MILL)
N10 G90 G94 G17 G91.1
N15 G20
N20 G53 G0 Z0.
(ADAPTIVE2)
N25 M9
N30 T1 M6
N35 S2000 M3
N40 G54
N45 M9
N55 G0 X15.2929 Y-0.615
N60 G43 Z1.35 H1
N65 G0 Z0.675
N70 G1 Z0.65 F60.
N75 X15.293 Y-0.6147 Z0.6461
N80 X15.2932 Y-0.6138 Z0.6423
N85 X15.2936 Y-0.6124 Z0.6387
N90 X15.2941 Y-0.6104 Z0.6353
N95 X15.2947 Y-0.6079 Z0.6323
N100 X15.2954 Y-0.605 Z0.6298
N105 X15.2963 Y-0.6018 Z0.6277
N110 X15.2972 Y-0.5983 Z0.6262
N115 X15.2981 Y-0.5946 Z0.6253
N120 X15.2991 Y-0.5908 Z0.625
N125 G3 X15.3103 Y-0.513 I-0.3532 J0.0905
N130 G2 X15.3021 Y0.2964 I9.377 J0.4992
N135 X15.4411 Y0.2441 I0.0634 J-0.0423
N140 X15.4829 Y-0.2611 I-1.4137 J-0.3713
N145 G3 X15.5137 Y-0.2923 I0.0239 J-0.0072
N150 G1 X15.5164 Y-0.291 Z0.6252
N155 X15.519 Y-0.2897 Z0.6257
N160 X15.5216 Y-0.2885 Z0.6266
N165 X15.5238 Y-0.2862 Z0.6281
N170 X15.5258 Y-0.284 Z0.63
N175 X15.5276 Y-0.2821 Z0.6323
N180 X15.5286 Y-0.2801 Z0.6349
N185 X15.5295 Y-0.2784 Z0.6378
N190 X15.5301 Y-0.2771 Z0.6409
N195 X15.5305 Y-0.2762 Z0.6442
N200 X15.5307 Y-0.2757 Z0.6471
N205 Y-0.2755 Z0.65
N210 G0 Z0.9753
N215 X-0.2674 Y-0.5064
N220 Z0.4252
N225 G1 Z0.4003 F60.
N230 X-0.2673 Y-0.5061 Z0.3963
N235 X-0.2671 Y-0.5052 Z0.3925
N240 X-0.2667 Y-0.5037 Z0.3889
N245 X-0.2662 Y-0.5017 Z0.3856
N250 X-0.2655 Y-0.4993 Z0.3826
N255 X-0.2648 Y-0.4964 Z0.38
N260 X-0.264 Y-0.4931 Z0.378
N265 X-0.2631 Y-0.4896 Z0.3765
N270 X-0.2621 Y-0.4859 Z0.3756
N275 X-0.2612 Y-0.4822 Z0.3753
N280 G3 X-0.25 Y-0.4044 I-0.3532 J0.0905
N285 G2 X-0.2585 Y0.1908 I3.8508 J0.3529
N290 X0.126 Y0.2062 I0.2361 J-1.0902
N295 G3 X0.512 Y0.3373 I-0.0006 J0.6356
N300 G2 X2.4765 Y0.3817 I0.9902 J-0.3288
N305 G1 X2.4908 Y0.3688
N310 X2.5055 Y0.3563
N315 X2.5206 Y0.3443
N320 X2.5361 Y0.3328
N325 X2.552 Y0.3218
N330 X2.5681 Y0.3113
N335 X2.5846 Y0.3013
N340 X2.6014 Y0.2919
N345 X2.6185 Y0.2829
N350 X2.6359 Y0.2746
N355 X2.6535 Y0.2667
N360 X2.6714 Y0.2595
N365 X2.6895 Y0.2528
N370 X2.7078 Y0.2467
N375 X2.7263 Y0.2411
N380 X2.7449 Y0.2362
N385 X2.7637 Y0.2318
N390 X2.7826 Y0.2281
N395 X2.8016 Y0.2249
N400 X2.8208 Y0.2224
N405 X2.84 Y0.2204
N410 X2.8592 Y0.2191
N415 X2.8785 Y0.2184
N420 X2.8978 Y0.2183
N425 X2.917 Y0.2188
N430 X2.9363 Y0.2199
N435 X2.9555 Y0.2216
N440 X2.9746 Y0.2239
N445 X2.9937 Y0.2269
N450 X3.0127 Y0.2304
N455 G3 X3.5782 Y0.2194 I0.3524 J3.588
N460 G1 X14.6746 Y0.2193
N465 G3 X15.124 Y0.4062 I0.0711 J0.4628
N470 G2 X15.1835 Y0.5061 I0.1338 J-0.0121
N475 X15.3561 Y0.6022 I0.234 J-0.2174
N480 X15.4086 Y0.5972 I0.0146 J-0.1253
N485 G1 X15.9336 Y0.4347
N490 G3 X16.1636 Y0.4443 I0.1029 J0.2947
N495 G2 X16.258 Y0.1748 I-0.2495 J-0.2386
N500 X16.2592 Y-0.3821 I-5.3859 J-0.2909
N505 X16.0883 Y-0.3938 I-0.126 J0.5852
N510 G3 X16.031 Y-0.4046 I-0.0067 J-0.1218
N515 G1 X15.4085 Y-0.5972
N520 G2 X15.2933 Y-0.5765 I-0.0376 J0.1216
N525 X15.0923 Y-0.355 I0.116 J0.3072
N530 G3 X14.5401 Y-0.2185 I-0.4446 J-0.6138
N535 G1 X14.3791 Y-0.2176
N540 X14.218 Y-0.217
N545 X14.057 Y-0.2169
N550 X13.8959 Y-0.2173
N555 X2.9284 Y-0.2174
N560 G3 X2.4593 Y-0.4084 I-0.0761 J-0.4848
N565 G2 X0.5067 Y-0.3521 I-0.9655 J0.4041
N570 G3 X-0.0199 Y-0.231 I-0.3834 J-0.4616
N575 G2 X-0.1201 Y0.0258 I0.0949 J0.185
N580 X0.3144 Y0.1217 I0.511 J-1.2828
N585 G3 X0.5026 Y0.3526 I-0.0484 J0.2316
N590 G1 X0.5039 Y0.3549
N595 X0.5048 Y0.3575
N600 X0.5053 Y0.3602
N605 X0.5054 Y0.363
N610 X0.505 Y0.3659
N615 X0.5042 Y0.3687
N620 X0.5029 Y0.3714
N625 X0.5011 Y0.374
N630 X0.499 Y0.3762
N635 X0.4964 Y0.3782
N640 X0.4935 Y0.3797
N645 X0.4904 Y0.3808
N650 X0.4871 Y0.3814
N655 X0.4836
N660 X0.4802 Y0.381
N665 X0.4768 Y0.3799
N670 X0.4735 Y0.3783
N675 X0.4705 Y0.3762
N680 X0.4678 Y0.3736
N685 X0.4655 Y0.3706
N690 X0.4637 Y0.3672
N695 X0.4627 Y0.3637 Z0.3754
N700 X0.4617 Y0.3603 Z0.3761
N705 X0.4607 Y0.357 Z0.3773
N710 X0.4598 Y0.3539 Z0.379
N715 X0.459 Y0.3511 Z0.3811
N720 X0.4583 Y0.3486 Z0.3836
N725 X0.4576 Y0.3465 Z0.3865
N730 X0.4572 Y0.3448 Z0.3897
N735 X0.4568 Y0.3435 Z0.3931
N740 X0.4566 Y0.3428 Z0.3966
N745 X0.4565 Y0.3425 Z0.4003
N750 G0 Z0.9753
N755 X0.5448 Y-0.5142
N760 Z0.4252
N765 G1 Z0.4003 F60.
N770 Y-0.5139 Z0.3963
N775 X0.5449 Y-0.513 Z0.3925
N780 X0.545 Y-0.5115 Z0.3889
N785 X0.5452 Y-0.5095 Z0.3856
N790 X0.5454 Y-0.5069 Z0.3826
N795 X0.5456 Y-0.504 Z0.38
N800 X0.5459 Y-0.5006 Z0.378
N805 X0.5461 Y-0.497 Z0.3765
N810 X0.5464 Y-0.4932 Z0.3756
N815 X0.5468 Y-0.4893 Z0.3753
N820 G3 X0.5333 Y-0.4119 I-0.1578 J0.0124
N825 X0.1926 Y-0.1339 I-0.3154 J-0.0388
N830 X0.1069 Y-0.1155 I-0.0755 J-0.1425
N835 G1 X0.1034 Y-0.1146
N840 X0.0997 Y-0.1142
N845 X0.0961 Y-0.1144
N850 X0.0925 Y-0.1151
N855 X0.0891 Y-0.1164
N860 X0.0859 Y-0.1181
N865 X0.0829 Y-0.1204
N870 X0.0804 Y-0.123
N875 X0.0783 Y-0.1261
N880 X0.0766 Y-0.1294
N885 X0.0755 Y-0.1329
N890 X0.0749 Y-0.1366
N895 Y-0.1403
N900 X0.0754 Y-0.144
N905 X0.0765 Y-0.1476
N910 X0.0781 Y-0.151
N915 X0.0803 Y-0.1541
N920 X0.0828 Y-0.1568
N925 X0.0858 Y-0.1591
N930 X0.0891 Y-0.161
N935 X0.092 Y-0.1623
N940 X0.4399 Y-0.3202
N945 X0.4597 Y-0.3292
N950 G3 X0.4941 Y-0.2996 I0.0103 J0.0228
N955 X0.4374 Y-0.1667 I-1.1101 J-0.395
N960 X0.3974 Y-0.1955 I-0.0176 J-0.0178
N965 G1 X0.4009 Y-0.2025
N970 X0.4026 Y-0.2061
N975 G3 X0.4489 Y-0.1876 I0.0224 J0.011
N980 X0.3315 Y-0.0682 I-0.2817 J-0.1595
N985 G2 X0.3757 Y0.0318 I0.1085 J0.0118
N990 G1 X0.3767 Y0.0358
N995 X0.377 Y0.04
N1000 X0.3767 Y0.0441
N1005 X0.3758 Y0.0481
N1010 X0.3744 Y0.0519
N1015 X0.3724 Y0.0554
N1020 X0.37 Y0.0586
N1025 X0.3671 Y0.0614
N1030 X0.3638 Y0.0637
N1035 X0.3603 Y0.0655
N1040 X0.3566 Y0.0668
N1045 X0.3527 Y0.0675
N1050 X0.3488 Y0.0676
N1055 X0.345 Y0.0671
N1060 X0.3413 Y0.0661
N1065 X0.3378 Y0.0646
N1070 X0.3346 Y0.0626
N1075 X0.3317 Y0.0601
N1080 X0.3292 Y0.0573
N1085 X0.3272 Y0.0541
N1090 X0.3257 Y0.0507
N1095 X0.3247 Y0.0472
N1100 G3 X0.3248 Y0.0349 I0.0243 J-0.006
N1105 G1 X0.3778 Y-0.1681
N1110 X0.3788 Y-0.171
N1115 X0.3801 Y-0.1738
N1120 G3 X0.4239 Y-0.1498 I0.0219 J0.012
N1125 G2 X0.3794 Y-0.0524 I0.4403 J0.2602
N1130 G3 X0.334 Y-0.0734 I-0.0226 J-0.0108
N1135 G1 X0.3356 Y-0.0766 Z0.3754
N1140 X0.3371 Y-0.0799 Z0.3761
N1145 X0.3386 Y-0.0829 Z0.3773
N1150 X0.34 Y-0.0858 Z0.379
N1155 X0.3412 Y-0.0885 Z0.3811
N1160 X0.3423 Y-0.0908 Z0.3836
N1165 X0.3433 Y-0.0928 Z0.3865
N1170 X0.3441 Y-0.0944 Z0.3897
N1175 X0.3446 Y-0.0956 Z0.3931
N1180 X0.345 Y-0.0963 Z0.3966
N1185 X0.3451 Y-0.0965 Z0.4003
N1190 G0 Z0.9753
N1195 X0.3286 Y-0.0584
N1200 Z0.4252
N1205 G1 Z0.4003 F60.
N1210 X0.3287 Y-0.0582 Z0.3963
N1215 X0.3292 Y-0.0574 Z0.3925
N1220 X0.3299 Y-0.0561 Z0.3889
N1225 X0.331 Y-0.0543 Z0.3856
N1230 X0.3323 Y-0.0521 Z0.3826
N1235 X0.3338 Y-0.0495 Z0.38
N1240 X0.3354 Y-0.0466 Z0.378
N1245 X0.3373 Y-0.0435 Z0.3765
N1250 X0.3392 Y-0.0402 Z0.3756
N1255 X0.3412 Y-0.0368 Z0.3753
N1260 G3 X0.3731 Y0.0349 I-0.315 J0.1835
N1265 G2 X0.458 Y0.1994 I0.6215 J-0.2165
N1270 G1 X0.459 Y0.2034
N1275 X0.4594 Y0.2075
N1280 X0.4592 Y0.2115
N1285 X0.4585 Y0.2155
N1290 X0.4571 Y0.2193
N1295 X0.4553 Y0.2228
N1300 X0.453 Y0.2261
N1305 X0.4503 Y0.2289
N1310 X0.4472 Y0.2313
N1315 X0.4438 Y0.2333
N1320 X0.4402 Y0.2347
N1325 X0.4364 Y0.2356
N1330 X0.4326 Y0.2359
N1335 X0.4288 Y0.2357
N1340 X0.4252 Y0.2349
N1345 X0.4216 Y0.2337
N1350 X0.4183 Y0.2319
N1355 X0.4153 Y0.2297
N1360 X0.4127 Y0.2272
N1365 X0.4105 Y0.2243
N1370 X0.4087 Y0.2211
N1375 X0.4075 Y0.2178
N1380 X0.4063 Y0.2143 Z0.3754
N1385 X0.4052 Y0.2109 Z0.3761
N1390 X0.4042 Y0.2077 Z0.3773
N1395 X0.4032 Y0.2046 Z0.379
N1400 X0.4023 Y0.2018 Z0.3811
N1405 X0.4015 Y0.1993 Z0.3836
N1410 X0.4008 Y0.1972 Z0.3865
N1415 X0.4002 Y0.1955 Z0.3897
N1420 X0.3998 Y0.1943 Z0.3931
N1425 X0.3996 Y0.1936 Z0.3966
N1430 X0.3995 Y0.1933 Z0.4003
N1435 G0 Z0.9753
N1440 X2.4544 Y0.5141
N1445 Z0.4252
N1450 G1 Z0.4003 F60.
N1455 Y0.5138 Z0.3963
N1460 X2.4543 Y0.5129 Z0.3925
N1465 X2.4542 Y0.5114 Z0.3889
N1470 X2.4541 Y0.5094 Z0.3856
N1475 X2.4539 Y0.5068 Z0.3826
N1480 X2.4537 Y0.5039 Z0.38
N1485 X2.4534 Y0.5005 Z0.378
N1490 X2.4532 Y0.4969 Z0.3765
N1495 X2.4529 Y0.4931 Z0.3756
N1500 X2.4526 Y0.4892 Z0.3753
N1505 G3 X2.4667 Y0.4119 I0.1579 J-0.0112
N1510 X2.8296 Y0.1446 I0.3199 J0.0543
N1515 X3.7968 Y0.1194 I0.6457 J6.2194
N1520 G1 X14.5872 Y0.1193
N1525 G3 X15.116 Y0.2577 I0.078 J0.7817
N1530 X15.125 Y0.397 I-0.6389 J0.1113
N1535 X15.075 Y0.396 I-0.025 J-0.0008
N1540 G1 X15.0751 Y0.3923 Z0.3754
N1545 X15.0753 Y0.3888 Z0.3761
N1550 X15.0754 Y0.3854 Z0.3773
N1555 X15.0755 Y0.3821 Z0.379
N1560 X15.0756 Y0.3792 Z0.3811
N1565 X15.0757 Y0.3766 Z0.3836
N1570 Y0.3744 Z0.3865
N1575 X15.0758 Y0.3726 Z0.3897
N1580 Y0.3713 Z0.3931
N1585 X15.0759 Y0.3706 Z0.3966
N1590 Y0.3703 Z0.4003
N1595 G0 Z0.9753
N1600 X15.8513 Y0.4967
N1605 Z0.4252
N1610 G1 Z0.4003 F60.
N1615 X15.8515 Y0.4965 Z0.3963
N1620 X15.8521 Y0.4958 Z0.3925
N1625 X15.8532 Y0.4947 Z0.3889
N1630 X15.8545 Y0.4932 Z0.3856
N1635 X15.8562 Y0.4913 Z0.3826
N1640 X15.8582 Y0.4891 Z0.38
N1645 X15.8605 Y0.4866 Z0.378
N1650 X15.8629 Y0.4839 Z0.3765
N1655 X15.8655 Y0.4811 Z0.3756
N1660 X15.8681 Y0.4782 Z0.3753
N1665 G3 X15.9335 Y0.4348 I0.1175 J0.106
N1670 G2 X16.1001 Y0.3606 I-0.0232 J-0.2762
N1675 G1 X16.108 Y0.3351
N1680 X16.1154 Y0.3095
N1685 X16.1221 Y0.2837
N1690 X16.1283 Y0.2578
N1695 X16.1338 Y0.2317
N1700 X16.1388 Y0.2055
N1705 X16.1431 Y0.1792
N1710 X16.1468 Y0.1528
N1715 X16.1499 Y0.1263
N1720 X16.1524 Y0.0998
N1725 X16.1543 Y0.0732
N1730 X16.1556 Y0.0465
N1735 X16.1562 Y0.0199
N1740 X16.1563 Y-0.0068
N1745 X16.1557 Y-0.0334
N1750 X16.1545 Y-0.0601
N1755 X16.1527 Y-0.0867
N1760 X16.1502 Y-0.1132
N1765 X16.1472 Y-0.1397
N1770 X16.1435 Y-0.1661
N1775 X16.1392 Y-0.1924
N1780 X16.1343 Y-0.2186
N1785 X16.125 Y-0.2272
N1790 Y-0.2771
N1795 X16.1249 Y-0.2846
N1800 G3 X16.1749 Y-0.2841 I0.025 J0.0005
N1805 G1 X16.1748 Y-0.2805 Z0.3754
N1810 X16.1747 Y-0.2769 Z0.3761
N1815 Y-0.2735 Z0.3774
N1820 X16.1746 Y-0.2703 Z0.379
N1825 X16.1745 Y-0.2674 Z0.3812
N1830 Y-0.2648 Z0.3837
N1835 X16.1744 Y-0.2626 Z0.3866
N1840 Y-0.2609 Z0.3897
N1845 Y-0.2596 Z0.3931
N1850 Y-0.2588 Z0.3966
N1855 Y-0.2586 Z0.4003
N1860 G0 Z0.9753
N1865 X16.11 Y0.4174
N1870 Z0.4252
N1875 G1 Z0.4003 F60.
N1880 Y0.4171 Z0.3963
N1885 Y0.4162 Z0.3925
N1890 Y0.4147 Z0.3889
N1895 X16.1101 Y0.4126 Z0.3856
N1900 Y0.4101 Z0.3826
N1905 X16.1102 Y0.4071 Z0.38
N1910 X16.1103 Y0.4038 Z0.378
N1915 X16.1104 Y0.4001 Z0.3765
N1920 X16.1105 Y0.3963 Z0.3756
N1925 X16.1106 Y0.3924 Z0.3753
N1930 G3 X16.121 Y0.3146 I0.3645 J0.009
N1935 G2 X16.125 Y0.2771 I-0.1311 J-0.033
N1940 G1 Y-0.2172
N1945 G3 X16.175 Y-0.2161 I0.025 J0.0009
N1950 G1 X16.1749 Y-0.2125 Z0.3754
N1955 X16.1747 Y-0.209 Z0.3761
N1960 X16.1746 Y-0.2055 Z0.3773
N1965 X16.1745 Y-0.2023 Z0.379
N1970 X16.1744 Y-0.1994 Z0.3811
N1975 X16.1743 Y-0.1968 Z0.3836
N1980 X16.1742 Y-0.1946 Z0.3865
N1985 Y-0.1928 Z0.3897
N1990 X16.1741 Y-0.1915 Z0.3931
N1995 Y-0.1907 Z0.3966
N2000 Y-0.1905 Z0.4003
N2005 G0 Z0.9753
N2010 X15.1454 Y-0.5408
N2015 Z0.4252
N2020 G1 Z0.4003 F60.
N2025 X15.1453 Y-0.5405 Z0.3963
N2030 Y-0.5395 Z0.3925
N2035 X15.1452 Y-0.538 Z0.3889
N2040 X15.1451 Y-0.536 Z0.3856
N2045 X15.1449 Y-0.5335 Z0.3826
N2050 X15.1448 Y-0.5305 Z0.38
N2055 X15.1446 Y-0.5271 Z0.378
N2060 X15.1444 Y-0.5235 Z0.3765
N2065 X15.1442 Y-0.5197 Z0.3756
N2070 X15.144 Y-0.5158 Z0.3753
N2075 G3 X15.1312 Y-0.4383 I-0.364 J-0.0203
N2080 X14.8882 Y-0.1586 I-0.2529 J0.0258
N2085 X14.3008 Y-0.1177 I-0.3956 J-1.4446
N2090 X13.7843 Y-0.1083 I-0.3331 J-4.1113
N2095 G1 X3.0261 Y-0.1084
N2100 G3 X2.5471 Y-0.1886 I-0.0829 J-0.9752
N2105 X2.4793 Y-0.382 I1.329 J-0.5752
N2110 X2.5269 Y-0.397 I0.0239 J-0.0072
N2115 G1 X2.528 Y-0.3935 Z0.3754
N2120 X2.529 Y-0.3901 Z0.3761
N2125 X2.53 Y-0.3868 Z0.3773
N2130 X2.5309 Y-0.3838 Z0.379
N2135 X2.5318 Y-0.3809 Z0.3811
N2140 X2.5325 Y-0.3785 Z0.3836
N2145 X2.5332 Y-0.3763 Z0.3865
N2150 X2.5337 Y-0.3747 Z0.3897
N2155 X2.534 Y-0.3734 Z0.3931
N2160 X2.5343 Y-0.3727 Z0.3966
N2165 Y-0.3724 Z0.4003
N2170 G0 Z0.9753
N2175 X2.5064 Y0.41
N2180 Z0.4252
N2185 G1 Z0.4003 F60.
N2190 X2.5063 Y0.4097 Z0.3963
N2195 X2.5061 Y0.4088 Z0.3925
N2200 X2.5058 Y0.4073 Z0.3889
N2205 X2.5054 Y0.4053 Z0.3856
N2210 X2.5048 Y0.4028 Z0.3826
N2215 X2.5042 Y0.3999 Z0.38
N2220 X2.5034 Y0.3967 Z0.378
N2225 X2.5026 Y0.3931 Z0.3765
N2230 X2.5018 Y0.3894 Z0.3756
N2235 X2.501 Y0.3856 Z0.3753
N2240 G3 X2.5035 Y0.3071 I0.1545 J-0.0344
N2245 G1 X2.5059 Y0.294
N2250 X2.5089 Y0.281
N2255 X2.5124 Y0.2682
N2260 X2.5165 Y0.2555
N2265 X2.5212 Y0.243
N2270 X2.5264 Y0.2307
N2275 X2.5321 Y0.2187
N2280 X2.5384 Y0.207
N2285 X2.5451 Y0.1955
N2290 X2.5524 Y0.1843
N2295 X2.5602 Y0.1735
N2300 X2.5684 Y0.163
N2305 X2.577 Y0.1529
N2310 X2.5861 Y0.1432
N2315 X2.5957 Y0.1338
N2320 X2.6056 Y0.125
N2325 X2.6159 Y0.1165
N2330 X2.6265 Y0.1085
N2335 X2.6375 Y0.101
N2340 X2.6488 Y0.094
N2345 X2.6604 Y0.0875
N2350 X2.6723 Y0.0815
N2355 X2.6845 Y0.076
N2360 X2.6968 Y0.071
N2365 X2.7094 Y0.0666
N2370 X2.7131 Y0.0658
N2375 X2.7169 Y0.0655
N2380 X2.7207 Y0.0658
N2385 X2.7244 Y0.0666
N2390 X2.7279 Y0.068
N2395 X2.7312 Y0.0698
N2400 X2.7342 Y0.0722
N2405 X2.7367 Y0.0749
N2410 X2.7389 Y0.0781
N2415 X2.7405 Y0.0814
N2420 X2.7416 Y0.085
N2425 X2.7422 Y0.0888
N2430 Y0.0925
N2435 X2.7417 Y0.0962
N2440 X2.7406 Y0.0998
N2445 X2.739 Y0.1032
N2450 X2.7369 Y0.1063
N2455 X2.7343 Y0.1091
N2460 X2.7314 Y0.1114
N2465 X2.7253 Y0.1157
N2470 X2.6103 Y0.1956
N2475 X2.6009 Y0.2022
N2480 G3 X2.5647 Y0.1695 I-0.0143 J-0.0205
N2485 G2 X2.6298 Y-0.0225 I-0.1962 J-0.1735
N2490 X2.5382 Y-0.2139 I-0.9957 J0.3589
N2495 G1 X2.5373 Y-0.2179
N2500 X2.5371 Y-0.222
N2505 X2.5375 Y-0.226
N2510 X2.5384 Y-0.23
N2515 X2.54 Y-0.2337
N2520 X2.542 Y-0.2371
N2525 X2.5445 Y-0.2402
N2530 X2.5475 Y-0.2428
N2535 X2.5508 Y-0.245
N2540 X2.5544 Y-0.2467
N2545 X2.5581 Y-0.2478
N2550 X2.562 Y-0.2483
N2555 X2.5659 Y-0.2482
N2560 X2.5697 Y-0.2476
N2565 X2.5733 Y-0.2464
N2570 X2.5768 Y-0.2447
N2575 X2.5799 Y-0.2425
N2580 X2.5826 Y-0.2399
N2585 X2.5849 Y-0.2369
N2590 X2.5868 Y-0.2336
N2595 X2.5881 Y-0.2301
N2600 X2.5891 Y-0.2266 Z0.3754
N2605 X2.5901 Y-0.2232 Z0.3761
N2610 X2.5911 Y-0.2199 Z0.3773
N2615 X2.592 Y-0.2168 Z0.379
N2620 X2.5928 Y-0.214 Z0.3811
N2625 X2.5936 Y-0.2115 Z0.3836
N2630 X2.5942 Y-0.2094 Z0.3865
N2635 X2.5947 Y-0.2077 Z0.3897
N2640 X2.5951 Y-0.2064 Z0.3931
N2645 X2.5953 Y-0.2057 Z0.3966
N2650 X2.5954 Y-0.2054 Z0.4003
N2655 G0 Z0.9753
N2660 X15.0901 Y-0.4638
N2665 Z0.4252
N2670 G1 Z0.4003 F60.
N2675 X15.0902 Y-0.4636 Z0.3963
N2680 X15.0907 Y-0.4628 Z0.3925
N2685 X15.0915 Y-0.4615 Z0.3889
N2690 X15.0925 Y-0.4597 Z0.3856
N2695 X15.0938 Y-0.4575 Z0.3826
N2700 X15.0954 Y-0.455 Z0.38
N2705 X15.0971 Y-0.4521 Z0.378
N2710 X15.0989 Y-0.449 Z0.3765
N2715 X15.1009 Y-0.4457 Z0.3756
N2720 X15.1029 Y-0.4424 Z0.3753
N2725 G3 X15.125 Y-0.367 I-0.136 J0.0809
N2730 X14.8735 Y-0.0536 I-0.2951 J0.0208
N2735 G1 X14.8704 Y-0.0527
N2740 X14.8671 Y-0.0524
N2745 X14.8638 Y-0.0525
N2750 X14.8605 Y-0.0532
N2755 X14.8574 Y-0.0544
N2760 X14.8544 Y-0.056
N2765 X14.8517 Y-0.0582
N2770 X14.8493 Y-0.0607
N2775 X14.8473 Y-0.0636
N2780 X14.8458 Y-0.0669
N2785 X14.8448 Y-0.0703
N2790 X14.8443 Y-0.0739
N2795 X14.8444 Y-0.0776
N2800 X14.8451 Y-0.0812
N2805 X14.8464 Y-0.0848
N2810 X14.8481 Y-0.0881
N2815 X14.8504 Y-0.0911
N2820 X14.8532 Y-0.0938
N2825 X14.8609 Y-0.0994
N2830 X15.0405 Y-0.2303
N2835 X15.0522 Y-0.2388
N2840 G3 X15.0903 Y-0.2097 I0.0147 J0.0202
N2845 G1 X15.0808 Y-0.1962
N2850 X15.0719 Y-0.1823
N2855 X15.0634 Y-0.1682
N2860 X15.0555 Y-0.1537
N2865 X15.048 Y-0.1389
N2870 X15.0412 Y-0.1239
N2875 X15.0348 Y-0.1087
N2880 X15.0291 Y-0.0933
N2885 X15.0238 Y-0.0776
N2890 X15.0192 Y-0.0618
N2895 X15.0151 Y-0.0458
N2900 X15.0116 Y-0.0297
N2905 X15.0087 Y-0.0134
N2910 X15.0063 Y0.0029
N2915 X15.0046 Y0.0193
N2920 X15.0034 Y0.0358
N2925 X15.0029 Y0.0523
N2930 G3 X15.118 Y0.2864 I-0.5479 J0.4148
N2935 X15.0816 Y0.311 I-0.0249 J0.0024
N2940 G1 X15.0793 Y0.3092 Z0.3754
N2945 X15.0769 Y0.3074 Z0.376
N2950 X15.0746 Y0.3057 Z0.3769
N2955 X15.0729 Y0.303 Z0.3783
N2960 X15.0714 Y0.3005 Z0.3803
N2965 X15.0699 Y0.2982 Z0.3826
N2970 X15.0694 Y0.296 Z0.3852
N2975 X15.0689 Y0.2942 Z0.388
N2980 X15.0685 Y0.2928 Z0.3912
N2985 X15.0683 Y0.2918 Z0.3944
N2990 X15.0682 Y0.2913 Z0.3973
N2995 Y0.2911 Z0.4002
N3000 G0 Z0.9753
N3005 X16.1633 Y-0.1741
N3010 Z0.45
N3015 G1 Z0.425 F60.
N3020 X16.1631 Y-0.1744 Z0.4211
N3025 X16.1626 Y-0.1751 Z0.4173
N3030 X16.1618 Y-0.1764 Z0.4137
N3035 X16.1607 Y-0.1781 Z0.4103
N3040 X16.1593 Y-0.1802 Z0.4073
N3045 X16.1577 Y-0.1828 Z0.4048
N3050 X16.1559 Y-0.1856 Z0.4027
N3055 X16.1539 Y-0.1886 Z0.4012
N3060 X16.1519 Y-0.1918 Z0.4003
N3065 X16.1497 Y-0.1951 Z0.4
N3070 G3 X16.1249 Y-0.2696 I0.1331 J-0.0857
N3075 G2 X16.016 Y-0.3949 I-0.1296 J0.0027
N3080 G1 X15.4086 Y-0.5829
N3085 G2 X15.2963 Y-0.5642 I-0.0377 J0.1205
N3090 G1 X15.1837 Y-0.4916
N3095 G3 X15.1587 Y-0.4912 I-0.0128 J-0.0215
N3100 G2 X15.1251 Y-0.4822 I-0.0122 J0.0218
N3105 G1 X15.1179 Y-0.4703
N3110 X15.1029 Y-0.4451
N3115 G2 Y-0.4195 I0.0215 J0.0128
N3120 G3 X15.125 Y-0.3441 I-0.136 J0.0809
N3125 X15.0748 Y-0.0449 I-1.7882 J-0.1462
N3130 G2 X15.1249 Y0.3071 I2.6912 J-0.2037
N3135 G1 X15.125 Y0.3146
N3140 Y0.3295
N3145 G3 X15.0799 Y0.3436 I-0.025 J-0.0009
N3150 X15.0981 Y0.3301 I0.0091 J-0.0067
N3155 X15.0989 Y0.3423 I-0.0091 J0.0067
N3160 X15.0548 Y0.3188 I-0.0218 J-0.0122
N3165 X15.0976 Y0.3159 I0.0223 J0.0114
N3170 X15.1251 Y0.3895 I-0.1299 J0.0904
N3175 G2 X15.1837 Y0.4916 I0.1256 J-0.0042
N3180 X15.3561 Y0.5879 I0.2334 J-0.2155
N3185 X15.4086 Y0.5829 I0.0146 J-0.1253
N3190 G1 X16.031 Y0.3903
N3195 X16.0337 Y0.3895
N3200 G3 X16.0477 Y0.4375 I0.0067 J0.0241
N3205 G1 X16.0442 Y0.4384 Z0.4002
N3210 X16.0407 Y0.4394 Z0.4009
N3215 X16.0374 Y0.4403 Z0.402
N3220 X16.0343 Y0.4412 Z0.4037
N3225 X16.0315 Y0.4419 Z0.4059
N3230 X16.029 Y0.4426 Z0.4084
N3235 X16.0269 Y0.4432 Z0.4113
N3240 X16.0252 Y0.4437 Z0.4144
N3245 X16.0239 Y0.444 Z0.4178
N3250 X16.0232 Y0.4442 Z0.4214
N3255 X16.0229 Y0.4443 Z0.425
N3260 G0 Z0.9753
N3265 X0.4932 Y-0.5543
N3270 Z0.45
N3275 G1 Z0.425 F60.
N3280 X0.4935 Y-0.5542 Z0.4211
N3285 X0.4944 Y-0.554 Z0.4173
N3290 X0.4959 Y-0.5536 Z0.4137
N3295 X0.4979 Y-0.5531 Z0.4103
N3300 X0.5003 Y-0.5525 Z0.4073
N3305 X0.5032 Y-0.5518 Z0.4048
N3310 X0.5065 Y-0.551 Z0.4027
N3315 X0.51 Y-0.5502 Z0.4012
N3320 X0.5137 Y-0.5492 Z0.4003
N3325 X0.5175 Y-0.5483 Z0.4
N3330 G3 X0.5913 Y-0.5215 I-0.0867 J0.3541
N3335 G2 X0.4407 Y0.0974 I1.2195 J0.6246
N3340 X0.7732 Y0.7527 I1.4451 J-0.3212
N3345 X2.5344 Y-0.2039 I0.722 J-0.7702
N3350 G3 X2.455 Y-0.4201 I0.728 J-0.3901
N3355 G2 X0.5919 Y-0.5082 I-0.9537 J0.4253
N3360 G1 X0.5902 Y-0.5054
N3365 X0.5881 Y-0.5028
N3370 X0.5855 Y-0.5005
N3375 X0.5827 Y-0.4986
N3380 X0.5795 Y-0.4972
N3385 X0.5761 Y-0.4962
N3390 X0.5725 Y-0.4958
N3395 X0.569 Y-0.496
N3400 X0.5654 Y-0.4967
N3405 X0.5619 Y-0.4979
N3410 X0.5587 Y-0.4997
N3415 X0.5557 Y-0.5019
N3420 X0.5531 Y-0.5046
N3425 X0.5509 Y-0.5078
N3430 X0.5501 Y-0.5106 Z0.4002
N3435 X0.5492 Y-0.5134 Z0.4007
N3440 X0.5484 Y-0.5162 Z0.4016
N3445 X0.5482 Y-0.5192 Z0.403
N3450 X0.5486 Y-0.5217 Z0.4046
N3455 X0.549 Y-0.524 Z0.4065
N3460 X0.5494 Y-0.526 Z0.4086
N3465 X0.5497 Y-0.5278 Z0.411
N3470 X0.5503 Y-0.5292 Z0.4136
N3475 X0.5508 Y-0.5303 Z0.4163
N3480 X0.5512 Y-0.5311 Z0.4192
N3485 X0.5515 Y-0.5316 Z0.4221
N3490 Y-0.5317 Z0.425
N3495 G0 Z0.9753
N3500 X16.1642 Y-0.1595
N3505 Z0.475
N3510 G1 Z0.45 F60.
N3515 X16.1641 Y-0.1597 Z0.4461
N3520 X16.1636 Y-0.1605 Z0.4423
N3525 X16.1627 Y-0.1618 Z0.4387
N3530 X16.1616 Y-0.1635 Z0.4353
N3535 X16.1602 Y-0.1656 Z0.4323
N3540 X16.1586 Y-0.1681 Z0.4298
N3545 X16.1567 Y-0.1709 Z0.4277
N3550 X16.1547 Y-0.1739 Z0.4262
N3555 X16.1527 Y-0.1771 Z0.4253
N3560 X16.1505 Y-0.1804 Z0.425
N3565 G3 X16.125 Y-0.2546 I0.1322 J-0.0869
N3570 G2 X16.0235 Y-0.3782 I-0.1274 J0.0012
N3575 G1 X15.4086 Y-0.5684
N3580 G2 X15.2962 Y-0.5498 I-0.0378 J0.1205
N3585 G1 X15.187 Y-0.4793
N3590 X15.1837 Y-0.4771
N3595 G3 X15.1587 Y-0.4766 I-0.013 J-0.0214
N3600 G2 X15.1232 Y-0.4634 I-0.012 J0.0219
N3605 G1 X15.1199 Y-0.4546
N3610 X15.1009 Y-0.4036
N3615 G2 X15.1029 Y-0.3821 I0.0234 J0.0087
N3620 G3 X15.125 Y-0.3067 I-0.136 J0.0809
N3625 X15.0966 Y0.0449 I-8.7754 J-0.5308
N3630 X15.125 Y0.2996 I-1.4054 J0.2854
N3635 X15.081 Y0.3149 I-0.025 J-0.0009
N3640 X15.1034 Y0.295 I0.0114 J-0.0097
N3645 X15.098 Y0.3191 I-0.011 J0.0102
N3650 X15.0794 Y0.2727 I-0.0093 J-0.0232
N3655 X15.1128 Y0.2894 I0.0093 J0.0232
N3660 X15.125 Y0.367 I-0.352 J0.095
N3665 G2 X15.1871 Y0.4792 I0.1259 J0.0037
N3670 X15.3561 Y0.5734 I0.2408 J-0.2333
N3675 X15.4086 Y0.5684 I0.0146 J-0.1253
N3680 G1 X16.0235 Y0.3782
N3685 X16.0354 Y0.3745
N3690 G3 X16.0494 Y0.4225 I0.0067 J0.0241
N3695 G1 X16.0459 Y0.4235 Z0.4252
N3700 X16.0424 Y0.4244 Z0.4259
N3705 X16.0391 Y0.4253 Z0.4271
N3710 X16.036 Y0.4262 Z0.4287
N3715 X16.0332 Y0.427 Z0.4309
N3720 X16.0307 Y0.4277 Z0.4334
N3725 X16.0286 Y0.4282 Z0.4363
N3730 X16.0269 Y0.4287 Z0.4394
N3735 X16.0256 Y0.4291 Z0.4428
N3740 X16.0249 Y0.4293 Z0.4464
N3745 X16.0246 Z0.45
N3750 G0 Z0.9753
N3755 X0.4858 Y-0.5208
N3760 Z0.475
N3765 G1 Z0.45 F60.
N3770 X0.4861 Y-0.5207 Z0.4461
N3775 X0.487 Y-0.5205 Z0.4423
N3780 X0.4885 Y-0.5201 Z0.4387
N3785 X0.4904 Y-0.5195 Z0.4353
N3790 X0.4929 Y-0.5188 Z0.4323
N3795 X0.4958 Y-0.518 Z0.4298
N3800 X0.499 Y-0.5171 Z0.4277
N3805 X0.5025 Y-0.5161 Z0.4262
N3810 X0.5061 Y-0.5151 Z0.4253
N3815 X0.5099 Y-0.5141 Z0.425
N3820 G3 X0.5828 Y-0.4849 I-0.0982 J0.3511
N3825 G2 X0.4676 Y0.1202 I1.1473 J0.5319
N3830 X1.634 Y1.0229 I1.0471 J-0.148
N3835 X1.3655 Y-1.0194 I-0.1342 J-1.0211
N3840 X0.5899 Y-0.4807 I0.1342 J1.0211
N3845 G1 X0.588 Y-0.4779
N3850 X0.5857 Y-0.4753
N3855 X0.583 Y-0.4732
N3860 X0.58 Y-0.4714
N3865 X0.5767 Y-0.4701
N3870 X0.5733 Y-0.4693
N3875 X0.5697 Y-0.4691
N3880 X0.5661 Y-0.4694
N3885 X0.5626 Y-0.4702
N3890 X0.5592 Y-0.4716
N3895 X0.556 Y-0.4735
N3900 X0.5532 Y-0.4759
N3905 X0.5507 Y-0.4787
N3910 X0.5486 Y-0.4819
N3915 X0.5478 Y-0.4848 Z0.4252
N3920 X0.5471 Y-0.4876 Z0.4257
N3925 X0.5463 Y-0.4904 Z0.4266
N3930 X0.5462 Y-0.4926 Z0.4276
N3935 X0.5468 Y-0.4958 Z0.4295
N3940 X0.5473 Y-0.4987 Z0.432
N3945 X0.5478 Y-0.5012 Z0.4348
N3950 X0.5486 Y-0.503 Z0.4377
N3955 X0.5492 Y-0.5043 Z0.4409
N3960 X0.5497 Y-0.5052 Z0.4442
N3965 X0.5499 Y-0.5057 Z0.4471
N3970 X0.55 Y-0.5058 Z0.45
N3975 G0 Z0.9753
N3980 X15.0901 Y-0.3665
N3985 Z0.5
N3990 G1 Z0.475 F60.
N3995 X15.0902 Y-0.3662 Z0.4711
N4000 X15.0907 Y-0.3654 Z0.4673
N4005 X15.0915 Y-0.3641 Z0.4637
N4010 X15.0925 Y-0.3624 Z0.4603
N4015 X15.0938 Y-0.3602 Z0.4573
N4020 X15.0954 Y-0.3576 Z0.4548
N4025 X15.0971 Y-0.3547 Z0.4527
N4030 X15.0989 Y-0.3516 Z0.4512
N4035 X15.1009 Y-0.3483 Z0.4503
N4040 X15.1029 Y-0.345 Z0.45
N4045 G3 X15.125 Y-0.2696 I-0.136 J0.0809
N4050 G2 X15.1268 Y0.262 I3.318 J0.2546
N4055 G1 X15.1263 Y0.2659
N4060 X15.1253 Y0.2698
N4065 X15.1237 Y0.2734
N4070 X15.1215 Y0.2767
N4075 X15.1189 Y0.2796
N4080 X15.116 Y0.2822
N4085 X15.1127 Y0.2842
N4090 X15.1091 Y0.2858
N4095 X15.1053 Y0.2868
N4100 X15.1015 Y0.2872
N4105 X15.0977 Y0.287
N4110 X15.0939 Y0.2863
N4115 X15.0903 Y0.285
N4120 X15.0869 Y0.2833
N4125 X15.0838 Y0.281
N4130 X15.0812 Y0.2783
N4135 X15.0789 Y0.2753
N4140 X15.0771 Y0.272
N4145 X15.0759 Y0.2685
N4150 X15.0752 Y0.2648
N4155 X15.075 Y0.2611
N4160 X15.0751 Y0.2575 Z0.4502
N4165 X15.0753 Y0.2539 Z0.4509
N4170 X15.0754 Y0.2505 Z0.4521
N4175 X15.0755 Y0.2473 Z0.4537
N4180 X15.0756 Y0.2443 Z0.4559
N4185 X15.0757 Y0.2417 Z0.4584
N4190 X15.0758 Y0.2395 Z0.4613
N4195 Y0.2377 Z0.4644
N4200 X15.0759 Y0.2365 Z0.4678
N4205 Y0.2357 Z0.4714
N4210 Y0.2354 Z0.475
N4215 G0 Z0.9753
N4220 X15.0883 Y0.2562
N4225 Z0.5
N4230 G1 Z0.475 F60.
N4235 X15.0885 Y0.2565 Z0.4711
N4240 X15.089 Y0.2572 Z0.4673
N4245 X15.0898 Y0.2585 Z0.4637
N4250 X15.0908 Y0.2603 Z0.4603
N4255 X15.0922 Y0.2624 Z0.4573
N4260 X15.0937 Y0.265 Z0.4548
N4265 X15.0955 Y0.2678 Z0.4527
N4270 X15.0974 Y0.2709 Z0.4512
N4275 X15.0994 Y0.2741 Z0.4503
N4280 X15.1015 Y0.2775 Z0.45
N4285 G3 X15.125 Y0.3524 I-0.1345 J0.0834
N4290 G2 X15.1862 Y0.4643 I0.1259 J0.0039
N4295 X15.3561 Y0.559 I0.243 J-0.2362
N4300 X15.4079 Y0.5542 I0.0146 J-0.1252
N4305 G1 X15.9647 Y0.382
N4310 G2 X16.0616 Y0.2546 I-0.0294 J-0.123
N4315 G1 Y-0.2547
N4320 G2 X15.9635 Y-0.3823 I-0.1266 J-0.0042
N4325 G1 X15.4079 Y-0.5542
N4330 G2 X15.3019 Y-0.5393 I-0.037 J0.1205
N4335 G1 X15.1862 Y-0.4644
N4340 X15.1837 Y-0.4627
N4345 G3 X15.1571 Y-0.5051 I-0.013 J-0.0214
N4350 G1 X15.1602 Y-0.507 Z0.4502
N4355 X15.1633 Y-0.5088 Z0.4509
N4360 X15.1662 Y-0.5106 Z0.4521
N4365 X15.169 Y-0.5123 Z0.4537
N4370 X15.1715 Y-0.5138 Z0.4559
N4375 X15.1737 Y-0.5151 Z0.4584
N4380 X15.1756 Y-0.5163 Z0.4613
N4385 X15.1771 Y-0.5172 Z0.4644
N4390 X15.1782 Y-0.5179 Z0.4678
N4395 X15.1789 Y-0.5183 Z0.4714
N4400 X15.1791 Y-0.5184 Z0.475
N4405 G0 Z0.9753
N4410 X0.6768 Y-0.7721
N4415 Z0.5
N4420 G1 Z0.475 F60.
N4425 X0.677 Y-0.772 Z0.4711
N4430 X0.6778 Y-0.7716 Z0.4673
N4435 X0.6792 Y-0.7709 Z0.4637
N4440 X0.681 Y-0.7699 Z0.4603
N4445 X0.6832 Y-0.7687 Z0.4573
N4450 X0.6859 Y-0.7673 Z0.4548
N4455 X0.6888 Y-0.7658 Z0.4527
N4460 X0.6921 Y-0.7641 Z0.4512
N4465 X0.6954 Y-0.7623 Z0.4503
N4470 X0.6989 Y-0.7605 Z0.45
N4475 G3 X0.7642 Y-0.7168 I-0.1691 J0.323
N4480 G1 X0.7647 Y-0.7163
N4485 X0.7654 Y-0.7154
N4490 X0.7661 Y-0.7144
N4495 X0.7686 Y-0.7075
N4500 G2 X2.1548 Y0.7743 I0.7347 J0.702
N4505 X2.2324 Y-0.6965 I-0.6559 J-0.772
N4510 X0.7596 Y-0.6902 I-0.7335 J0.6988
N4515 G1 X0.7574 Y-0.6879
N4520 X0.755 Y-0.6859
N4525 X0.7522 Y-0.6843
N4530 X0.7491 Y-0.6831
N4535 X0.7458 Y-0.6824
N4540 X0.7424 Y-0.6822
N4545 X0.739 Y-0.6825
N4550 X0.7356 Y-0.6834
N4555 X0.7323 Y-0.6848
N4560 X0.7293 Y-0.6867
N4565 X0.7265 Y-0.6891
N4570 X0.7241 Y-0.6919
N4575 X0.7222 Y-0.6951
N4580 X0.7207 Y-0.6986
N4585 X0.7204 Y-0.7015 Z0.4502
N4590 X0.72 Y-0.7044 Z0.4507
N4595 X0.7206 Y-0.7074 Z0.4516
N4600 X0.7211 Y-0.7103 Z0.453
N4605 X0.7216 Y-0.713 Z0.4547
N4610 X0.723 Y-0.7154 Z0.4571
N4615 X0.7242 Y-0.7176 Z0.4599
N4620 X0.7253 Y-0.7193 Z0.463
N4625 X0.726 Y-0.7206 Z0.4664
N4630 X0.7266 Y-0.7212 Z0.4692
N4635 X0.7269 Y-0.7216 Z0.4721
N4640 X0.727 Y-0.7217 Z0.475
N4645 G0 Z0.9753
N4650 X15.0901 Y-0.3212
N4655 Z0.525
N4660 G1 Z0.5 F60.
N4665 X15.0902 Y-0.3209 Z0.4961
N4670 X15.0907 Y-0.3201 Z0.4923
N4675 X15.0915 Y-0.3188 Z0.4887
N4680 X15.0925 Y-0.3171 Z0.4853
N4685 X15.0938 Y-0.3149 Z0.4823
N4690 X15.0954 Y-0.3123 Z0.4798
N4695 X15.0971 Y-0.3094 Z0.4777
N4700 X15.0989 Y-0.3063 Z0.4762
N4705 X15.1009 Y-0.303 Z0.4753
N4710 X15.1029 Y-0.2997 Z0.475
N4715 G3 X15.125 Y-0.2243 I-0.136 J0.0809
N4720 G2 Y0.2097 I4.874 J0.217
N4725 G3 X15.1143 Y0.2293 I-0.025 J-0.0009
N4730 G1 X15.1075 Y0.2341
N4735 G2 X15.1016 Y0.2624 I0.0121 J0.0173
N4740 G3 X15.125 Y0.3374 I-0.1347 J0.0831
N4745 G2 X15.1854 Y0.4493 I0.1261 J0.0042
N4750 X15.3561 Y0.5446 I0.2455 J-0.2396
N4755 X15.4086 Y0.5396 I0.0146 J-0.1253
N4760 G1 X15.8696 Y0.3969
N4765 G2 X15.9683 Y0.2621 I-0.0287 J-0.1246
N4770 G1 Y-0.2622
N4775 G2 X15.866 Y-0.3981 I-0.1283 J-0.0099
N4780 G1 X15.4088 Y-0.5395
N4785 G2 X15.289 Y-0.5157 I-0.0379 J0.1226
N4790 G1 X15.1853 Y-0.4494
N4795 G3 X15.1591 Y-0.4919 I-0.0128 J-0.0215
N4800 G1 X15.1622 Y-0.4938 Z0.4752
N4805 X15.1652 Y-0.4956 Z0.4759
N4810 X15.1682 Y-0.4974 Z0.477
N4815 X15.1709 Y-0.499 Z0.4787
N4820 X15.1735 Y-0.5005 Z0.4809
N4825 X15.1757 Y-0.5019 Z0.4834
N4830 X15.1776 Y-0.503 Z0.4863
N4835 X15.1791 Y-0.5039 Z0.4894
N4840 X15.1802 Y-0.5046 Z0.4928
N4845 X15.1809 Y-0.505 Z0.4964
N4850 X15.1811 Y-0.5051 Z0.5
N4855 G0 Z0.9753
N4860 X0.4626 Y-0.1944
N4865 Z0.525
N4870 G1 Z0.5 F60.
N4875 X0.4627 Y-0.1941 Z0.4961
N4880 X0.4632 Y-0.1933 Z0.4923
N4885 X0.464 Y-0.192 Z0.4887
N4890 X0.465 Y-0.1903 Z0.4853
N4895 X0.4663 Y-0.1881 Z0.4823
N4900 X0.4678 Y-0.1855 Z0.4798
N4905 X0.4695 Y-0.1826 Z0.4777
N4910 X0.4714 Y-0.1795 Z0.4762
N4915 X0.4733 Y-0.1763 Z0.4753
N4920 X0.4753 Y-0.1729 Z0.475
N4925 G3 X0.4975 Y-0.0975 I-0.136 J0.0809
N4930 G1 X0.505 Y-0.0769
N4935 X0.5119 Y-0.0562
N4940 X0.5183 Y-0.0352
N4945 X0.5241 Y-0.0141
N4950 X0.5294 Y0.0072
N4955 X0.5342 Y0.0286
N4960 X0.5384 Y0.0501
N4965 X0.542 Y0.0717
N4970 X0.5451 Y0.0934
N4975 X0.5476 Y0.1151
N4980 X0.5495 Y0.137
N4985 X0.5508 Y0.1588
N4990 X0.5516 Y0.1807
N4995 X0.5518 Y0.2026
N5000 X0.5515 Y0.2245
N5005 X0.5575 Y0.2484
N5010 X0.5641 Y0.2722
N5015 X0.5713 Y0.2957
N5020 X0.579 Y0.3191
N5025 X0.5874 Y0.3423
N5030 X0.5964 Y0.3653
N5035 X0.6059 Y0.388
N5040 X0.616 Y0.4105
N5045 X0.6267 Y0.4327
N5050 X0.638 Y0.4546
N5055 X0.6498 Y0.4762
N5060 X0.6621 Y0.4976
N5065 X0.675 Y0.5186
N5070 X0.6884 Y0.5392
N5075 X0.7023 Y0.5596
N5080 X0.7168 Y0.5795
N5085 X0.7317 Y0.5991
N5090 X0.7471 Y0.6183
N5095 X0.7631 Y0.6372
N5100 X0.7794 Y0.6556
N5105 X0.7963 Y0.6735
N5110 X0.8136 Y0.6911
N5115 X0.8313 Y0.7082
N5120 X0.8495 Y0.7248
N5125 X0.8681 Y0.741
N5130 X0.8871 Y0.7567
N5135 X0.9065 Y0.7719
N5140 X0.9262 Y0.7867
N5145 X0.9464 Y0.8009
N5150 X0.9669 Y0.8146
N5155 X0.9877 Y0.8277
N5160 X1.0088 Y0.8404
N5165 X1.0303 Y0.8525
N5170 X1.0521 Y0.864
N5175 X1.0741 Y0.875
N5180 X1.0965 Y0.8854
N5185 X1.1191 Y0.8953
N5190 X1.1419 Y0.9046
N5195 X1.1649 Y0.9133
N5200 X1.1882 Y0.9214
N5205 X1.2117 Y0.9289
N5210 X1.2353 Y0.9358
N5215 X1.2591 Y0.9421
N5220 X1.2831 Y0.9479
N5225 X1.3072 Y0.953
N5230 X1.3315 Y0.9574
N5235 X1.3558 Y0.9613
N5240 X1.3802 Y0.9646
N5245 X1.4047 Y0.9672
N5250 X1.4293 Y0.9692
N5255 X1.4539 Y0.9706
N5260 X1.4785 Y0.9713
N5265 X1.5032 Y0.9715
N5270 X1.5278 Y0.971
N5275 X1.5524 Y0.9699
N5280 X1.577 Y0.9681
N5285 X1.6015 Y0.9658
N5290 X1.626 Y0.9628
N5295 X1.6504 Y0.9592
N5300 X1.6746 Y0.9549
N5305 X1.6988 Y0.9501
N5310 X1.7228 Y0.9447
N5315 X1.7467 Y0.9386
N5320 X1.7704 Y0.9319
N5325 X1.794 Y0.9247
N5330 X1.8173 Y0.9168
N5335 X1.8405 Y0.9084
N5340 X1.8634 Y0.8993
N5345 X1.8861 Y0.8897
N5350 X1.9085 Y0.8795
N5355 X1.9307 Y0.8688
N5360 X1.9526 Y0.8575
N5365 X1.9742 Y0.8456
N5370 X1.9955 Y0.8332
N5375 X2.0165 Y0.8202
N5380 X2.0371 Y0.8068
N5385 X2.0574 Y0.7928
N5390 X2.0773 Y0.7783
N5395 X2.0968 Y0.7633
N5400 X2.116 Y0.7478
N5405 X2.1348 Y0.7318
N5410 X2.1531 Y0.7153
N5415 X2.171 Y0.6984
N5420 X2.1885 Y0.6811
N5425 X2.2056 Y0.6633
N5430 X2.2222 Y0.6451
N5435 X2.2383 Y0.6264
N5440 X2.2539 Y0.6074
N5445 X2.2691 Y0.5879
N5450 X2.2837 Y0.5681
N5455 X2.2979 Y0.548
N5460 X2.3115 Y0.5274
N5465 X2.3246 Y0.5066
N5470 X2.3372 Y0.4854
N5475 X2.3492 Y0.4639
N5480 X2.3607 Y0.4421
N5485 X2.3716 Y0.42
N5490 X2.382 Y0.3976
N5495 X2.3917 Y0.375
N5500 X2.4009 Y0.3521
N5505 X2.4096 Y0.3291
N5510 X2.4176 Y0.3058
N5515 X2.4251 Y0.2823
N5520 X2.4319 Y0.2586
N5525 X2.4381 Y0.2348
N5530 X2.4438 Y0.2108
N5535 X2.4488 Y0.1867
N5540 X2.4532 Y0.1624
N5545 X2.457 Y0.1381
N5550 X2.4602 Y0.1136
N5555 X2.4627 Y0.0891
N5560 X2.4647 Y0.0646
N5565 X2.466 Y0.04
N5570 X2.4666 Y0.0153
N5575 X2.4667 Y-0.0093
N5580 X2.4661 Y-0.034
N5585 X2.4649 Y-0.0586
N5590 X2.4631 Y-0.0831
N5595 X2.4607 Y-0.1077
N5600 X2.4576 Y-0.1321
N5605 X2.4539 Y-0.1565
N5610 X2.4496 Y-0.1807
N5615 X2.4447 Y-0.2049
N5620 X2.4392 Y-0.2289
N5625 X2.433 Y-0.2528
N5630 X2.4263 Y-0.2765
N5635 X2.419 Y-0.3
N5640 X2.411 Y-0.3233
N5645 X2.4025 Y-0.3464
N5650 X2.3934 Y-0.3693
N5655 X2.3837 Y-0.392
N5660 X2.3735 Y-0.4144
N5665 X2.3626 Y-0.4365
N5670 X2.3512 Y-0.4584
N5675 X2.3393 Y-0.4799
N5680 X2.3268 Y-0.5012
N5685 X2.3138 Y-0.5221
N5690 X2.3003 Y-0.5427
N5695 X2.2862 Y-0.5629
N5700 X2.2717 Y-0.5828
N5705 X2.2566 Y-0.6023
N5710 X2.2411 Y-0.6214
N5715 X2.225 Y-0.6401
N5720 X2.2085 Y-0.6584
N5725 X2.1915 Y-0.6763
N5730 X2.1741 Y-0.6937
N5735 X2.1563 Y-0.7107
N5740 X2.138 Y-0.7272
N5745 X2.1193 Y-0.7433
N5750 X2.1002 Y-0.7589
N5755 X2.0808 Y-0.774
N5760 X2.0609 Y-0.7885
N5765 X2.0407 Y-0.8026
N5770 X2.0201 Y-0.8162
N5775 X1.9992 Y-0.8292
N5780 X1.978 Y-0.8417
N5785 X1.9564 Y-0.8537
N5790 X1.9346 Y-0.8651
N5795 X1.9125 Y-0.8759
N5800 X1.8901 Y-0.8862
N5805 X1.8674 Y-0.8959
N5810 X1.8445 Y-0.9051
N5815 X1.8214 Y-0.9136
N5820 X1.7981 Y-0.9216
N5825 X1.7746 Y-0.929
N5830 X1.7509 Y-0.9357
N5835 X1.7271 Y-0.9419
N5840 X1.7031 Y-0.9475
N5845 X1.6789 Y-0.9524
N5850 X1.6547 Y-0.9567
N5855 X1.6303 Y-0.9604
N5860 X1.6059 Y-0.9635
N5865 X1.5814 Y-0.966
N5870 X1.5568 Y-0.9679
N5875 X1.5322 Y-0.9691
N5880 X1.5075 Y-0.9697
N5885 X1.4829
N5890 X1.4583 Y-0.969
N5895 X1.4337 Y-0.9677
N5900 X1.4091 Y-0.9658
N5905 X1.3846 Y-0.9633
N5910 X1.3602 Y-0.9602
N5915 X1.3358 Y-0.9564
N5920 X1.3116 Y-0.952
N5925 X1.2874 Y-0.947
N5930 X1.2634 Y-0.9414
N5935 X1.2396 Y-0.9352
N5940 X1.2159 Y-0.9284
N5945 X1.1924 Y-0.921
N5950 X1.1691 Y-0.913
N5955 X1.146 Y-0.9044
N5960 X1.1232 Y-0.8952
N5965 X1.1005 Y-0.8855
N5970 X1.0782 Y-0.8751
N5975 X1.0561 Y-0.8642
N5980 X1.0343 Y-0.8528
N5985 X1.0127 Y-0.8408
N5990 X0.9915 Y-0.8283
N5995 X0.9706 Y-0.8152
N6000 X0.9501 Y-0.8016
N6005 X0.9299 Y-0.7875
N6010 X0.9101 Y-0.7728
N6015 X0.8906 Y-0.7577
N6020 X0.8716 Y-0.7421
N6025 X0.8529 Y-0.726
N6030 X0.8347 Y-0.7094
N6035 X0.8169 Y-0.6924
N6040 X0.7995 Y-0.6749
N6045 X0.7826 Y-0.657
N6050 X0.7661 Y-0.6387
N6055 X0.7501 Y-0.62
N6060 X0.7346 Y-0.6008
N6065 X0.7196 Y-0.5813
N6070 X0.705 Y-0.5614
N6075 X0.691 Y-0.5412
N6080 X0.6775 Y-0.5205
N6085 X0.6645 Y-0.4996
N6090 X0.6521 Y-0.4783
N6095 X0.6402 Y-0.4567
N6100 X0.6289 Y-0.4349
N6105 X0.6181 Y-0.4127
N6110 X0.6079 Y-0.3903
N6115 X0.5983 Y-0.3676
N6120 X0.5892 Y-0.3447
N6125 X0.5807 Y-0.3216
N6130 X0.5728 Y-0.2982
N6135 X0.5655 Y-0.2747
N6140 X0.5588 Y-0.251
N6145 X0.5528 Y-0.2271
N6150 X0.5473 Y-0.2031
N6155 X0.5424 Y-0.179
N6160 X0.5381 Y-0.1547
N6165 X0.5345 Y-0.1303
N6170 X0.5315 Y-0.1059
N6175 X0.5291 Y-0.0813
N6180 X0.5273 Y-0.0568
N6185 X0.5262 Y-0.0322
N6190 X0.5257 Y-0.0075
N6195 X0.5253 Y-0.0044
N6200 X0.5245 Y-0.0013
N6205 X0.5231 Y0.0017
N6210 X0.5213 Y0.0045
N6215 X0.5191 Y0.007
N6220 X0.5165 Y0.0092
N6225 X0.5136 Y0.0109
N6230 X0.5103 Y0.0123
N6235 X0.5069 Y0.0131
N6240 X0.5033 Y0.0134
N6245 X0.4997 Y0.0131
N6250 X0.4961 Y0.0123
N6255 X0.4927 Y0.011
N6260 X0.4894 Y0.0091
N6265 X0.4874 Y0.0068 Z0.4752
N6270 X0.4855 Y0.0046 Z0.4757
N6275 X0.4837 Y0.0024 Z0.4766
N6280 X0.4825 Y-0.0006 Z0.4781
N6285 X0.4815 Y-0.0033 Z0.48
N6290 X0.4806 Y-0.0058 Z0.4823
N6295 X0.4804 Y-0.0083 Z0.4852
N6300 X0.4802 Y-0.0103 Z0.4885
N6305 Y-0.0115 Z0.4913
N6310 X0.4803 Y-0.0124 Z0.4942
N6315 Y-0.0129 Z0.4971
N6320 Y-0.0131 Z0.5
N6325 G0 Z0.9753
N6330 X0.457 Y-0.2148
N6335 Z0.5502
N6340 G1 Z0.5252 F60.
N6345 X0.4573 Y-0.2149 Z0.5213
N6350 X0.4582 Y-0.2151 Z0.5175
N6355 X0.4597 Y-0.2155 Z0.5139
N6360 X0.4616 Y-0.216 Z0.5106
N6365 X0.4641 Y-0.2166 Z0.5076
N6370 X0.467 Y-0.2174 Z0.505
N6375 X0.4702 Y-0.2182 Z0.503
N6380 X0.4738 Y-0.2191 Z0.5015
N6385 X0.4774 Y-0.22 Z0.5006
N6390 X0.4812 Y-0.221 Z0.5003
N6395 G3 X0.559 Y-0.2322 I0.0905 J0.3532
N6400 X0.6202 Y-0.0435 I-0.1454 J0.1514
N6405 G2 X0.8685 Y0.5793 I1.2077 J-0.1207
N6410 G1 X0.8845 Y0.5962
N6415 X0.9009 Y0.6126
N6420 X0.9178 Y0.6286
N6425 X0.9351 Y0.6442
N6430 X0.9529 Y0.6592
N6435 X0.971 Y0.6738
N6440 X0.9895 Y0.6879
N6445 X1.0084 Y0.7014
N6450 X1.0276 Y0.7145
N6455 X1.0472 Y0.727
N6460 X1.0671 Y0.739
N6465 X1.0874 Y0.7504
N6470 X1.1079 Y0.7613
N6475 X1.1288 Y0.7717
N6480 X1.1499 Y0.7814
N6485 X1.1712 Y0.7906
N6490 X1.1928 Y0.7992
N6495 X1.2147 Y0.8073
N6500 X1.2367 Y0.8147
N6505 X1.2589 Y0.8215
N6510 X1.2813 Y0.8277
N6515 X1.3039 Y0.8334
N6520 X1.3266 Y0.8384
N6525 X1.3494 Y0.8428
N6530 X1.3724 Y0.8465
N6535 X1.3954 Y0.8497
N6540 X1.4186 Y0.8522
N6545 X1.4417 Y0.8541
N6550 X1.465 Y0.8553
N6555 X1.4882 Y0.856
N6560 X1.5115
N6565 X1.5347 Y0.8553
N6570 X1.5579 Y0.8541
N6575 X1.5811 Y0.8522
N6580 X1.6042 Y0.8497
N6585 X1.6273 Y0.8465
N6590 X1.6502 Y0.8428
N6595 X1.6731 Y0.8384
N6600 X1.6958 Y0.8334
N6605 X1.7183 Y0.8278
N6610 X1.7407 Y0.8216
N6615 X1.763 Y0.8148
N6620 X1.785 Y0.8073
N6625 X1.8068 Y0.7993
N6630 X1.8284 Y0.7907
N6635 X1.8498 Y0.7815
N6640 X1.8709 Y0.7718
N6645 X1.8918 Y0.7614
N6650 X1.9123 Y0.7506
N6655 X1.9325 Y0.7391
N6660 X1.9525 Y0.7271
N6665 X1.9721 Y0.7146
N6670 X1.9913 Y0.7016
N6675 X2.0102 Y0.688
N6680 X2.0287 Y0.6739
N6685 X2.0469 Y0.6594
N6690 X2.0646 Y0.6443
N6695 X2.0819 Y0.6288
N6700 X2.0988 Y0.6128
N6705 X2.1152 Y0.5963
N6710 X2.1312 Y0.5795
N6715 X2.1468 Y0.5622
N6720 X2.1618 Y0.5444
N6725 X2.1764 Y0.5263
N6730 X2.1905 Y0.5078
N6735 X2.204 Y0.4889
N6740 X2.2171 Y0.4697
N6745 X2.2296 Y0.4501
N6750 X2.2416 Y0.4302
N6755 X2.2531 Y0.4099
N6760 X2.2639 Y0.3894
N6765 X2.2743 Y0.3685
N6770 X2.2841 Y0.3474
N6775 X2.2932 Y0.3261
N6780 X2.3019 Y0.3045
N6785 X2.3099 Y0.2827
N6790 X2.3173 Y0.2606
N6795 X2.3241 Y0.2384
N6800 X2.3304 Y0.216
N6805 X2.336 Y0.1934
N6810 X2.341 Y0.1707
N6815 X2.3454 Y0.1479
N6820 X2.3491 Y0.1249
N6825 X2.3523 Y0.1019
N6830 X2.3548 Y0.0788
N6835 X2.3567 Y0.0556
N6840 X2.358 Y0.0324
N6845 X2.3586 Y0.0091
N6850 Y-0.0141
N6855 X2.358 Y-0.0374
N6860 X2.3567 Y-0.0606
N6865 X2.3548 Y-0.0838
N6870 X2.3523 Y-0.1069
N6875 X2.3492 Y-0.1299
N6880 X2.3454 Y-0.1529
N6885 X2.3411 Y-0.1757
N6890 X2.3361 Y-0.1984
N6895 X2.3305 Y-0.221
N6900 X2.3242 Y-0.2434
N6905 X2.3174 Y-0.2657
N6910 X2.31 Y-0.2877
N6915 X2.302 Y-0.3095
N6920 X2.2934 Y-0.3311
N6925 X2.2842 Y-0.3525
N6930 X2.2744 Y-0.3736
N6935 X2.2641 Y-0.3944
N6940 X2.2532 Y-0.415
N6945 X2.2418 Y-0.4352
N6950 X2.2298 Y-0.4552
N6955 X2.2173 Y-0.4748
N6960 X2.2042 Y-0.494
N6965 X2.1907 Y-0.5129
N6970 X2.1766 Y-0.5314
N6975 X2.162 Y-0.5495
N6980 X2.147 Y-0.5673
N6985 X2.1315 Y-0.5846
N6990 X2.1155 Y-0.6015
N6995 X2.099 Y-0.6179
N7000 X2.0822 Y-0.6339
N7005 X2.0649 Y-0.6494
N7010 X2.0471 Y-0.6645
N7015 X2.029 Y-0.6791
N7020 X2.0105 Y-0.6932
N7025 X1.9916 Y-0.7067
N7030 X1.9724 Y-0.7198
N7035 X1.9528 Y-0.7323
N7040 X1.9329 Y-0.7443
N7045 X1.9126 Y-0.7558
N7050 X1.8921 Y-0.7667
N7055 X1.8713 Y-0.777
N7060 X1.8502 Y-0.7868
N7065 X1.8288 Y-0.796
N7070 X1.8072 Y-0.8046
N7075 X1.7854 Y-0.8126
N7080 X1.7633 Y-0.82
N7085 X1.7411 Y-0.8269
N7090 X1.7187 Y-0.8331
N7095 X1.6961 Y-0.8387
N7100 X1.6734 Y-0.8437
N7105 X1.6506 Y-0.8481
N7110 X1.6277 Y-0.8519
N7115 X1.6046 Y-0.855
N7120 X1.5815 Y-0.8575
N7125 X1.5583 Y-0.8594
N7130 X1.5351 Y-0.8607
N7135 X1.5119 Y-0.8613
N7140 X1.4886
N7145 X1.4654 Y-0.8607
N7150 X1.4421 Y-0.8595
N7155 X1.419 Y-0.8576
N7160 X1.3958 Y-0.8551
N7165 X1.3728 Y-0.852
N7170 X1.3498 Y-0.8482
N7175 X1.327 Y-0.8438
N7180 X1.3043 Y-0.8388
N7185 X1.2817 Y-0.8332
N7190 X1.2593 Y-0.827
N7195 X1.2371 Y-0.8202
N7200 X1.215 Y-0.8128
N7205 X1.1932 Y-0.8048
N7210 X1.1716 Y-0.7962
N7215 X1.1502 Y-0.787
N7220 X1.1291 Y-0.7772
N7225 X1.1083 Y-0.7669
N7230 X1.0878 Y-0.756
N7235 X1.0675 Y-0.7446
N7240 X1.0476 Y-0.7326
N7245 X1.028 Y-0.7201
N7250 X1.0087 Y-0.707
N7255 X0.9898 Y-0.6935
N7260 X0.9713 Y-0.6794
N7265 X0.9532 Y-0.6648
N7270 X0.9355 Y-0.6498
N7275 X0.9181 Y-0.6343
N7280 X0.9013 Y-0.6183
N7285 X0.8848 Y-0.6019
N7290 X0.8688 Y-0.585
N7295 X0.8533 Y-0.5677
N7300 X0.8382 Y-0.55
N7305 X0.8236 Y-0.5318
N7310 X0.8096 Y-0.5133
N7315 X0.796 Y-0.4944
N7320 X0.7829 Y-0.4752
N7325 X0.7704 Y-0.4556
N7330 X0.7584 Y-0.4357
N7335 X0.747 Y-0.4155
N7340 X0.7361 Y-0.3949
N7345 X0.7257 Y-0.3741
N7350 X0.7159 Y-0.353
N7355 X0.7067 Y-0.3316
N7360 G2 X0.8746 Y0.4176 I1.6431 J0.0253
N7365 G1 X0.887 Y0.4354
N7370 X0.8999 Y0.4528
N7375 X0.9132 Y0.4698
N7380 X0.9271 Y0.4865
N7385 X0.9414 Y0.5027
N7390 X0.9562 Y0.5186
N7395 X0.9714 Y0.5339
N7400 X0.9871 Y0.5489
N7405 X1.0032 Y0.5634
N7410 X1.0197 Y0.5774
N7415 X1.0367 Y0.5909
N7420 X1.054 Y0.604
N7425 X1.0716 Y0.6165
N7430 X1.0896 Y0.6285
N7435 X1.108 Y0.64
N7440 X1.1267 Y0.651
N7445 X1.1457 Y0.6614
N7450 X1.165 Y0.6713
N7455 X1.1845 Y0.6806
N7460 X1.2043 Y0.6893
N7465 X1.2244 Y0.6975
N7470 X1.2447 Y0.705
N7475 X1.2652 Y0.712
N7480 X1.2859 Y0.7184
N7485 X1.3067 Y0.7242
N7490 X1.3278 Y0.7294
N7495 X1.3489 Y0.734
N7500 X1.3702 Y0.738
N7505 X1.3916 Y0.7414
N7510 X1.4131 Y0.7441
N7515 X1.4347 Y0.7462
N7520 X1.4563 Y0.7477
N7525 X1.4779 Y0.7486
N7530 X1.4996 Y0.7488
N7535 X1.5212 Y0.7485
N7540 X1.5429 Y0.7475
N7545 X1.5645 Y0.7458
N7550 X1.586 Y0.7436
N7555 X1.6075 Y0.7407
N7560 X1.6289 Y0.7372
N7565 X1.6501 Y0.7332
N7570 X1.6713 Y0.7284
N7575 X1.6923 Y0.7231
N7580 X1.7131 Y0.7172
N7585 X1.7338 Y0.7107
N7590 X1.7542 Y0.7036
N7595 X1.7745 Y0.6959
N7600 X1.7945 Y0.6876
N7605 X1.8143 Y0.6787
N7610 X1.8338 Y0.6693
N7615 X1.853 Y0.6593
N7620 X1.8719 Y0.6488
N7625 X1.8905 Y0.6377
N7630 X1.9088 Y0.6261
N7635 X1.9268 Y0.614
N7640 X1.9444 Y0.6014
N7645 X1.9616 Y0.5882
N7650 X1.9784 Y0.5746
N7655 X1.9949 Y0.5605
N7660 X2.0109 Y0.5459
N7665 X2.0265 Y0.5309
N7670 X2.0416 Y0.5154
N7675 X2.0563 Y0.4995
N7680 X2.0706 Y0.4832
N7685 X2.0843 Y0.4665
N7690 X2.0976 Y0.4493
N7695 X2.1104 Y0.4318
N7700 X2.1226 Y0.414
N7705 X2.1344 Y0.3958
N7710 X2.1456 Y0.3773
N7715 X2.1562 Y0.3584
N7720 X2.1664 Y0.3393
N7725 X2.1759 Y0.3198
N7730 X2.1849 Y0.3001
N7735 X2.1934 Y0.2802
N7740 X2.2012 Y0.26
N7745 X2.2085 Y0.2396
N7750 X2.2152 Y0.219
N7755 X2.2212 Y0.1982
N7760 X2.2267 Y0.1772
N7765 X2.2316 Y0.1561
N7770 X2.2359 Y0.1349
N7775 X2.2395 Y0.1135
N7780 X2.2425 Y0.0921
N7785 X2.2449 Y0.0706
N7790 X2.2467 Y0.049
N7795 X2.2479 Y0.0274
N7800 X2.2484 Y0.0057
N7805 Y-0.016
N7810 X2.2476 Y-0.0376
N7815 X2.2463 Y-0.0592
N7820 X2.2444 Y-0.0808
N7825 X2.2418 Y-0.1023
N7830 X2.2386 Y-0.1237
N7835 X2.2348 Y-0.145
N7840 X2.2304 Y-0.1662
N7845 X2.2253 Y-0.1873
N7850 X2.2197 Y-0.2082
N7855 X2.2134 Y-0.229
N7860 X2.2066 Y-0.2495
N7865 X2.1992 Y-0.2699
N7870 X2.1912 Y-0.29
N7875 X2.1826 Y-0.3099
N7880 X2.1734 Y-0.3295
N7885 X2.1637 Y-0.3489
N7890 X2.1534 Y-0.3679
N7895 X2.1426 Y-0.3867
N7900 X2.1313 Y-0.4051
N7905 X2.1194 Y-0.4232
N7910 X2.107 Y-0.441
N7915 X2.0941 Y-0.4584
N7920 X2.0807 Y-0.4754
N7925 X2.0668 Y-0.492
N7930 X2.0524 Y-0.5082
N7935 X2.0376 Y-0.524
N7940 X2.0223 Y-0.5394
N7945 X2.0066 Y-0.5543
N7950 X1.9905 Y-0.5688
N7955 X1.974 Y-0.5827
N7960 X1.957 Y-0.5962
N7965 X1.9397 Y-0.6092
N7970 X1.922 Y-0.6217
N7975 X1.904 Y-0.6337
N7980 X1.8856 Y-0.6452
N7985 X1.8669 Y-0.6561
N7990 X1.8479 Y-0.6665
N7995 X1.8286 Y-0.6763
N8000 X1.809 Y-0.6856
N8005 X1.7892 Y-0.6943
N8010 X1.7691 Y-0.7024
N8015 X1.7488 Y-0.71
N8020 X1.7283 Y-0.7169
N8025 X1.7076 Y-0.7233
N8030 X1.6867 Y-0.729
N8035 X1.6657 Y-0.7342
N8040 X1.6445 Y-0.7387
N8045 X1.6232 Y-0.7427
N8050 X1.6018 Y-0.746
N8055 X1.5803 Y-0.7487
N8060 X1.5587 Y-0.7508
N8065 X1.5371 Y-0.7522
N8070 X1.5155 Y-0.753
N8075 X1.4938 Y-0.7532
N8080 X1.4722 Y-0.7528
N8085 X1.4505 Y-0.7518
N8090 X1.4289 Y-0.7501
N8095 X1.4074 Y-0.7478
N8100 X1.3859 Y-0.7449
N8105 X1.3646 Y-0.7414
N8110 X1.3433 Y-0.7373
N8115 X1.3222 Y-0.7325
N8120 X1.3012 Y-0.7272
N8125 X1.2804 Y-0.7212
N8130 X1.2597 Y-0.7146
N8135 X1.2393 Y-0.7075
N8140 X1.2191 Y-0.6998
N8145 X1.1991 Y-0.6914
N8150 X1.1793 Y-0.6825
N8155 X1.1598 Y-0.6731
N8160 X1.1406 Y-0.6631
N8165 X1.1217 Y-0.6525
N8170 X1.1031 Y-0.6414
N8175 X1.0848 Y-0.6298
N8180 X1.0669 Y-0.6176
N8185 X1.0494 Y-0.6049
N8190 X1.0322 Y-0.5918
N8195 X1.0154 Y-0.5781
N8200 X0.999 Y-0.564
N8205 X0.983 Y-0.5494
N8210 X0.9674 Y-0.5343
N8215 X0.9523 Y-0.5188
N8220 X0.9376 Y-0.5029
N8225 X0.9234 Y-0.4865
N8230 X0.9097 Y-0.4697
N8235 X0.8965 Y-0.4526
N8240 X0.8837 Y-0.4351
N8245 X0.8715 Y-0.4172
N8250 X0.8598 Y-0.399
N8255 X0.8486 Y-0.3804
N8260 G2 X1.0961 Y0.4982 I0.9284 J0.2126
N8265 G1 X1.1119 Y0.5105
N8270 X1.128 Y0.5222
N8275 X1.1445 Y0.5335
N8280 X1.1613 Y0.5442
N8285 X1.1785 Y0.5544
N8290 X1.1959 Y0.5641
N8295 X1.2137 Y0.5732
N8300 X1.2317 Y0.5818
N8305 X1.25 Y0.5898
N8310 X1.2685 Y0.5972
N8315 X1.2873 Y0.6041
N8320 X1.3062 Y0.6103
N8325 X1.3254 Y0.616
N8330 X1.3447 Y0.621
N8335 X1.3641 Y0.6255
N8340 X1.3837 Y0.6294
N8345 X1.4034 Y0.6326
N8350 X1.4232 Y0.6352
N8355 X1.443 Y0.6372
N8360 X1.463 Y0.6386
N8365 X1.4829 Y0.6394
N8370 X1.5029 Y0.6395
N8375 X1.5228 Y0.6391
N8380 X1.5427 Y0.638
N8385 X1.5626 Y0.6363
N8390 X1.5825 Y0.6339
N8395 X1.6022 Y0.631
N8400 X1.6218 Y0.6274
N8405 X1.6414 Y0.6232
N8410 X1.6607 Y0.6185
N8415 X1.6799 Y0.6131
N8420 X1.699 Y0.6071
N8425 X1.7178 Y0.6005
N8430 X1.7365 Y0.5934
N8435 X1.7549 Y0.5857
N8440 X1.773 Y0.5774
N8445 X1.7909 Y0.5685
N8450 X1.8085 Y0.5591
N8455 X1.8258 Y0.5491
N8460 X1.8428 Y0.5386
N8465 X1.8594 Y0.5276
N8470 X1.8757 Y0.5161
N8475 X1.8917 Y0.5041
N8480 X1.9072 Y0.4916
N8485 X1.9224 Y0.4786
N8490 X1.9371 Y0.4651
N8495 X1.9514 Y0.4512
N8500 X1.9653 Y0.4368
N8505 X1.9787 Y0.4221
N8510 X1.9916 Y0.4069
N8515 X2.0041 Y0.3913
N8520 X2.0161 Y0.3753
N8525 X2.0276 Y0.359
N8530 X2.0385 Y0.3423
N8535 X2.049 Y0.3253
N8540 X2.0589 Y0.308
N8545 X2.0682 Y0.2903
N8550 X2.077 Y0.2724
N8555 X2.0853 Y0.2542
N8560 X2.0929 Y0.2358
N8565 X2.1 Y0.2172
N8570 X2.1065 Y0.1983
N8575 X2.1125 Y0.1792
N8580 X2.1178 Y0.16
N8585 X2.1225 Y0.1406
N8590 X2.1266 Y0.1211
N8595 X2.1301 Y0.1014
N8600 X2.133 Y0.0817
N8605 X2.1353 Y0.0618
N8610 X2.1369 Y0.0419
N8615 X2.138 Y0.022
N8620 X2.1384 Y0.0021
N8625 X2.1382 Y-0.0179
N8630 X2.1373 Y-0.0378
N8635 X2.1359 Y-0.0577
N8640 X2.1338 Y-0.0776
N8645 X2.1311 Y-0.0974
N8650 X2.1278 Y-0.1171
N8655 X2.1239 Y-0.1366
N8660 X2.1194 Y-0.1561
N8665 X2.1143 Y-0.1754
N8670 X2.1085 Y-0.1945
N8675 X2.1022 Y-0.2134
N8680 X2.0953 Y-0.2321
N8685 X2.0878 Y-0.2506
N8690 X2.0798 Y-0.2689
N8695 X2.0711 Y-0.2869
N8700 X2.062 Y-0.3046
N8705 X2.0522 Y-0.3221
N8710 X2.042 Y-0.3392
N8715 X2.0312 Y-0.356
N8720 X2.0199 Y-0.3724
N8725 X2.0081 Y-0.3885
N8730 X1.9958 Y-0.4042
N8735 X1.983 Y-0.4195
N8740 X1.9697 Y-0.4344
N8745 X1.956 Y-0.4489
N8750 X1.9418 Y-0.463
N8755 X1.9272 Y-0.4766
N8760 X1.9122 Y-0.4897
N8765 X1.8968 Y-0.5024
N8770 X1.881 Y-0.5146
N8775 X1.8648 Y-0.5263
N8780 X1.8483 Y-0.5375
N8785 X1.8314 Y-0.5481
N8790 X1.8142 Y-0.5583
N8795 X1.7967 Y-0.5679
N8800 X1.7789 Y-0.5769
N8805 X1.7608 Y-0.5854
N8810 X1.7425 Y-0.5933
N8815 X1.7239 Y-0.6006
N8820 X1.7052 Y-0.6074
N8825 X1.6862 Y-0.6136
N8830 X1.667 Y-0.6191
N8835 X1.6477 Y-0.6241
N8840 X1.6282 Y-0.6285
N8845 X1.6086 Y-0.6322
N8850 X1.5889 Y-0.6354
N8855 X1.5691 Y-0.6379
N8860 X1.5492 Y-0.6398
N8865 X1.5293 Y-0.6411
N8870 X1.5094 Y-0.6418
N8875 X1.4894 Y-0.6419
N8880 X1.4695 Y-0.6413
N8885 X1.4496 Y-0.6401
N8890 X1.4297 Y-0.6383
N8895 X1.4099 Y-0.6359
N8900 X1.3901 Y-0.6328
N8905 X1.3705 Y-0.6292
N8910 X1.351 Y-0.6249
N8915 X1.3317 Y-0.62
N8920 X1.3125 Y-0.6146
N8925 X1.2935 Y-0.6085
N8930 X1.2746 Y-0.6019
N8935 X1.256 Y-0.5946
N8940 X1.2377 Y-0.5868
N8945 X1.2196 Y-0.5784
N8950 X1.2017 Y-0.5695
N8955 X1.1842 Y-0.56
N8960 X1.1669 Y-0.55
N8965 X1.15 Y-0.5394
N8970 X1.1334 Y-0.5283
N8975 X1.1172 Y-0.5167
N8980 X1.1013 Y-0.5046
N8985 X1.0858 Y-0.492
N8990 X1.0707 Y-0.4789
N8995 X1.056 Y-0.4654
N9000 X1.0418 Y-0.4514
N9005 X1.028 Y-0.437
N9010 X1.0146 Y-0.4222
N9015 X1.0018 Y-0.4069
N9020 X0.9894 Y-0.3913
N9025 X0.9775 Y-0.3753
N9030 G2 X1.2389 Y0.4591 I0.6923 J0.2413
N9035 G1 X1.2548 Y0.4677
N9040 X1.2711 Y0.4758
N9045 X1.2876 Y0.4833
N9050 X1.3044 Y0.4903
N9055 X1.3214 Y0.4966
N9060 X1.3386 Y0.5024
N9065 X1.356 Y0.5076
N9070 X1.3736 Y0.5122
N9075 X1.3913 Y0.5161
N9080 X1.4091 Y0.5195
N9085 X1.4271 Y0.5222
N9090 X1.4451 Y0.5244
N9095 X1.4632 Y0.5259
N9100 X1.4813 Y0.5268
N9105 X1.4995 Y0.527
N9110 X1.5176 Y0.5266
N9115 X1.5357 Y0.5257
N9120 X1.5538 Y0.524
N9125 X1.5718 Y0.5218
N9130 X1.5898 Y0.519
N9135 X1.6076 Y0.5155
N9140 X1.6253 Y0.5114
N9145 X1.6428 Y0.5067
N9150 X1.6602 Y0.5015
N9155 X1.6774 Y0.4956
N9160 X1.6943 Y0.4891
N9165 X1.711 Y0.4821
N9170 X1.7275 Y0.4745
N9175 X1.7437 Y0.4663
N9180 X1.7596 Y0.4576
N9185 X1.7753 Y0.4483
N9190 X1.7905 Y0.4385
N9195 X1.8055 Y0.4282
N9200 X1.82 Y0.4173
N9205 X1.8342 Y0.406
N9210 X1.848 Y0.3942
N9215 X1.8614 Y0.3819
N9220 X1.8743 Y0.3692
N9225 X1.8868 Y0.3561
N9230 X1.8989 Y0.3425
N9235 X1.9104 Y0.3285
N9240 X1.9215 Y0.3141
N9245 X1.9321 Y0.2994
N9250 X1.9422 Y0.2842
N9255 X1.9517 Y0.2688
N9260 X1.9607 Y0.253
N9265 X1.9692 Y0.237
N9270 X1.9771 Y0.2206
N9275 X1.9844 Y0.204
N9280 X1.9912 Y0.1872
N9285 X1.9973 Y0.1701
N9290 X2.0029 Y0.1528
N9295 X2.0079 Y0.1354
N9300 X2.0123 Y0.1178
N9305 X2.0161 Y0.1
N9310 X2.0192 Y0.0821
N9315 X2.0218 Y0.0642
N9320 X2.0237 Y0.0461
N9325 X2.025 Y0.028
N9330 X2.0257 Y0.0099
N9335 X2.0258 Y-0.0083
N9340 X2.0252 Y-0.0264
N9345 X2.024 Y-0.0445
N9350 X2.0222 Y-0.0626
N9355 X2.0198 Y-0.0806
N9360 X2.0167 Y-0.0985
N9365 X2.013 Y-0.1162
N9370 X2.0088 Y-0.1339
N9375 X2.0039 Y-0.1514
N9380 X1.9984 Y-0.1687
N9385 X1.9924 Y-0.1858
N9390 X1.9857 Y-0.2027
N9395 X1.9785 Y-0.2193
N9400 X1.9707 Y-0.2357
N9405 X1.9623 Y-0.2518
N9410 X1.9534 Y-0.2677
N9415 X1.944 Y-0.2832
N9420 X1.934 Y-0.2983
N9425 X1.9235 Y-0.3131
N9430 X1.9126 Y-0.3276
N9435 X1.9011 Y-0.3417
N9440 X1.8891 Y-0.3553
N9445 X1.8767 Y-0.3686
N9450 X1.8638 Y-0.3814
N9455 X1.8506 Y-0.3937
N9460 X1.8368 Y-0.4056
N9465 X1.8227 Y-0.417
N9470 X1.8082 Y-0.4279
N9475 X1.7934 Y-0.4384
N9480 X1.7781 Y-0.4483
N9485 X1.7626 Y-0.4576
N9490 X1.7467 Y-0.4665
N9495 X1.7306 Y-0.4747
N9500 X1.7142 Y-0.4825
N9505 X1.6975 Y-0.4896
N9510 X1.6806 Y-0.4962
N9515 X1.6634 Y-0.5022
N9520 X1.6461 Y-0.5076
N9525 X1.6286 Y-0.5123
N9530 X1.6109 Y-0.5165
N9535 X1.5931 Y-0.5201
N9540 X1.5752 Y-0.5231
N9545 X1.5572 Y-0.5254
N9550 X1.5392 Y-0.5272
N9555 X1.521 Y-0.5283
N9560 X1.5029 Y-0.5287
N9565 X1.4847 Y-0.5286
N9570 X1.4666 Y-0.5278
N9575 X1.4485 Y-0.5265
N9580 X1.4305 Y-0.5244
N9585 X1.4125 Y-0.5218
N9590 X1.3946 Y-0.5186
N9595 X1.3769 Y-0.5147
N9600 X1.3593 Y-0.5102
N9605 X1.3419 Y-0.5052
N9610 X1.3246 Y-0.4995
N9615 X1.3076 Y-0.4933
N9620 X1.2908 Y-0.4864
N9625 X1.2742 Y-0.479
N9630 X1.2579 Y-0.471
N9635 X1.2419 Y-0.4625
N9640 X1.2262 Y-0.4534
N9645 X1.2108 Y-0.4438
N9650 X1.1957 Y-0.4337
N9655 X1.181 Y-0.4231
N9660 X1.1667 Y-0.4119
N9665 X1.1528 Y-0.4003
N9670 X1.1392 Y-0.3882
N9675 X1.1261 Y-0.3756
N9680 X1.1135 Y-0.3626
N9685 G2 X1.3846 Y0.3952 I0.4838 J0.2543
N9690 X1.6118 Y-0.3957 I0.1136 J-0.3954
N9695 X1.2437 Y-0.3235 I-0.1136 J0.3954
N9700 X1.478 Y0.2887 I0.3171 J0.2296
N9705 X1.516 Y-0.2872 I0.019 J-0.2879
N9710 X1.3886 Y-0.2667 I-0.019 J0.2879
N9715 X1.5169 Y0.1405 I0.1415 J0.1792
N9720 X1.5376 Y-0.1237 I-0.0263 J-0.135
N9725 G1 X1.5267 Y-0.1133
N9730 X1.5229 Y-0.1118
N9735 X1.522 Y-0.1114
N9740 G3 X1.5016 Y-0.1571 I-0.0099 J-0.023
N9745 G1 X1.5049 Y-0.1585 Z0.5004
N9750 X1.5082 Y-0.1599 Z0.5011
N9755 X1.5114 Y-0.1612 Z0.5023
N9760 X1.5143 Y-0.1625 Z0.504
N9765 X1.517 Y-0.1637 Z0.5061
N9770 X1.5194 Y-0.1647 Z0.5086
N9775 X1.5214 Y-0.1656 Z0.5115
N9780 X1.5231 Y-0.1663 Z0.5147
N9785 X1.5242 Y-0.1668 Z0.5181
N9790 X1.525 Y-0.1671 Z0.5216
N9795 X1.5252 Y-0.1672 Z0.5252
N9800 G0 Z0.9753
N9805 X15.1076 Y-0.5215
N9810 Z0.5502
N9815 G1 Z0.5252 F60.
N9820 X15.1079 Y-0.5213 Z0.5213
N9825 X15.1085 Y-0.5207 Z0.5175
N9830 X15.1096 Y-0.5197 Z0.5139
N9835 X15.1111 Y-0.5183 Z0.5106
N9840 X15.113 Y-0.5166 Z0.5076
N9845 X15.1152 Y-0.5146 Z0.505
N9850 X15.1177 Y-0.5123 Z0.503
N9855 X15.1203 Y-0.5098 Z0.5015
N9860 X15.1231 Y-0.5072 Z0.5006
N9865 X15.126 Y-0.5046 Z0.5003
N9870 G3 X15.1776 Y-0.4454 I-0.2474 J0.2678
N9875 G1 X15.1781 Y-0.4446
N9880 X15.1794 Y-0.4383
N9885 X15.1778 Y-0.432
N9890 X15.1738 Y-0.4268
N9895 G3 X15.1491 Y-0.4235 I-0.0153 J-0.0198
N9900 G2 X15.1147 Y-0.4027 I-0.0095 J0.0231
N9905 G1 X15.1141 Y-0.3971
N9910 X15.0995 Y-0.2403
N9915 G2 X15.1029 Y-0.2252 I0.0249 J0.0023
N9920 G3 X15.125 Y-0.1498 I-0.136 J0.0809
N9925 G1 Y0.1423
N9930 G3 X15.1118 Y0.1635 I-0.025 J-0.0009
N9935 G2 X15.0985 Y0.1857 I0.0117 J0.0221
N9940 G1 X15.0986 Y0.2109
N9945 X15.0988 Y0.2341
N9950 G2 X15.1024 Y0.2469 I0.025 J-0.0001
N9955 G3 X15.125 Y0.3221 I-0.1355 J0.0818
N9960 G2 X15.1837 Y0.4337 I0.1263 J0.0049
N9965 X15.3561 Y0.53 I0.2482 J-0.2422
N9970 X15.4086 Y0.525 I0.0146 J-0.1253
N9975 G1 X15.7836 Y0.409
N9980 G2 X15.8741 Y0.2771 I-0.0359 J-0.1216
N9985 G1 Y-0.2771
N9990 G2 X15.7836 Y-0.409 I-0.1264 J-0.0103
N9995 G1 X15.4088 Y-0.5249
N10000 G2 X15.289 Y-0.5012 I-0.0379 J0.1226
N10005 G1 X15.1847 Y-0.4344
N10010 G3 X15.1469 Y-0.4566 I-0.0128 J-0.0215
N10015 G1 X15.1475 Y-0.4596 Z0.5004
N10020 X15.1481 Y-0.4624 Z0.501
N10025 X15.1487 Y-0.4652 Z0.5019
N10030 X15.1504 Y-0.4679 Z0.5033
N10035 X15.152 Y-0.4704 Z0.5053
N10040 X15.1534 Y-0.4727 Z0.5076
N10045 X15.1551 Y-0.4741 Z0.5102
N10050 X15.1565 Y-0.4753 Z0.513
N10055 X15.1577 Y-0.4763 Z0.5162
N10060 X15.1584 Y-0.4769 Z0.5194
N10065 X15.1589 Y-0.4772 Z0.5223
N10070 X15.159 Y-0.4773 Z0.5252
N10075 G0 Z0.9753
N10080 X15.0852 Y0.2196
N10085 Z0.575
N10090 G1 Z0.55 F60.
N10095 X15.0854 Y0.2199 Z0.5461
N10100 X15.0859 Y0.2207 Z0.5423
N10105 X15.0867 Y0.2219 Z0.5387
N10110 X15.0879 Y0.2236 Z0.5353
N10115 X15.0893 Y0.2257 Z0.5323
N10120 X15.0909 Y0.2282 Z0.5298
N10125 X15.0928 Y0.231 Z0.5277
N10130 X15.0948 Y0.234 Z0.5262
N10135 X15.0969 Y0.2372 Z0.5253
N10140 X15.0991 Y0.2404 Z0.525
N10145 G3 X15.125 Y0.3146 I-0.1317 J0.0877
N10150 G2 X15.1837 Y0.4194 I0.1257 J-0.0014
N10155 X15.3636 Y0.5163 I0.2356 J-0.2222
N10160 X15.4086 Y0.5107 I0.0075 J-0.1239
N10165 G1 X15.6861 Y0.4249
N10170 G2 X15.7817 Y0.2846 I-0.0326 J-0.1249
N10175 G1 Y-0.2921
N10180 G2 X15.6861 Y-0.4249 I-0.1269 J-0.0094
N10185 G1 X15.4086 Y-0.5107
N10190 G2 X15.2749 Y-0.4764 I-0.0375 J0.1314
N10195 G1 X15.1837 Y-0.4194
N10200 G3 X15.1458 Y-0.4417 I-0.0128 J-0.0215
N10205 G1 X15.1465 Y-0.4446 Z0.5252
N10210 X15.1471 Y-0.4475 Z0.5257
N10215 X15.1477 Y-0.4503 Z0.5266
N10220 X15.1494 Y-0.453 Z0.5281
N10225 X15.1509 Y-0.4555 Z0.53
N10230 X15.1523 Y-0.4577 Z0.5323
N10235 X15.1541 Y-0.4592 Z0.5349
N10240 X15.1555 Y-0.4604 Z0.5378
N10245 X15.1566 Y-0.4613 Z0.5409
N10250 X15.1574 Y-0.462 Z0.5442
N10255 X15.1578 Y-0.4622 Z0.5471
N10260 X15.158 Y-0.4623 Z0.55
N10265 G0 Z0.9753
N10270 X15.7786 Y0.4784
N10275 Z0.6
N10280 G1 Z0.575 F60.
N10285 X15.7783 Y0.4783 Z0.5711
N10290 X15.7775 Y0.4779 Z0.5673
N10295 X15.7761 Y0.4772 Z0.5637
N10300 X15.7743 Y0.4762 Z0.5603
N10305 X15.772 Y0.4751 Z0.5573
N10310 X15.7694 Y0.4737 Z0.5548
N10315 X15.7664 Y0.4722 Z0.5527
N10320 X15.7632 Y0.4706 Z0.5512
N10325 X15.7598 Y0.4688 Z0.5503
N10330 X15.7563 Y0.4671 Z0.55
N10335 G3 X15.6906 Y0.424 I0.1657 J-0.3247
N10340 X15.6884 Y0.3146 I0.2382 J-0.0595
N10345 G1 Y-0.3146
N10350 G2 X15.5961 Y-0.4382 I-0.1255 J-0.0026
N10355 X15.3711 Y-0.502 I-0.2651 J0.5061
N10360 X15.1567 Y-0.3445 I0.021 J0.2533
N10365 X15.1536 Y-0.3146 I0.1492 J0.0304
N10370 G1 Y0.3137
N10375 G2 X15.3043 Y0.4793 I0.1898 J-0.0214
N10380 X15.4086 Y0.4963 I0.0678 J-0.0877
N10385 G1 X15.5961 Y0.4383
N10390 G3 X15.6265 Y0.4699 I0.0066 J0.0241
N10395 G1 X15.6251 Y0.4726 Z0.5502
N10400 X15.6237 Y0.4752 Z0.5507
N10405 X15.6224 Y0.4777 Z0.5516
N10410 X15.6201 Y0.4798 Z0.5531
N10415 X15.6179 Y0.4818 Z0.555
N10420 X15.6159 Y0.4836 Z0.5573
N10425 X15.6138 Y0.4845 Z0.5599
N10430 X15.6121 Y0.4853 Z0.5628
N10435 X15.6108 Y0.4859 Z0.5659
N10440 X15.6099 Y0.4863 Z0.5692
N10445 X15.6094 Y0.4865 Z0.5721
N10450 X15.6092 Z0.575
N10455 G0 Z0.9753
N10460 X15.1242 Y-0.4778
N10465 Z0.625
N10470 G1 Z0.6 F60.
N10475 X15.1244 Y-0.4777 Z0.5961
N10480 X15.1252 Y-0.4773 Z0.5923
N10485 X15.1266 Y-0.4766 Z0.5887
N10490 X15.1284 Y-0.4757 Z0.5853
N10495 X15.1307 Y-0.4745 Z0.5823
N10500 X15.1334 Y-0.4732 Z0.5798
N10505 X15.1364 Y-0.4717 Z0.5777
N10510 X15.1396 Y-0.4701 Z0.5762
N10515 X15.143 Y-0.4684 Z0.5753
N10520 X15.1465 Y-0.4667 Z0.575
N10525 G3 X15.2127 Y-0.4244 I-0.1621 J0.3266
N10530 G1 X15.1982 Y-0.3221
N10535 Y0.322
N10540 G2 X15.5087 Y0.4436 I0.1869 J-0.02
N10545 X15.5951 Y0.3221 I-0.0246 J-0.1089
N10550 G1 Y-0.3199
N10555 G2 X15.4098 Y-0.4742 I-0.1607 J0.0046
N10560 X15.2583 Y-0.434 I-0.0511 J0.1133
N10565 G1 X15.2546 Y-0.4321
N10570 X15.2506 Y-0.4307
N10575 X15.2465 Y-0.4299
N10580 X15.2424 Y-0.4297
N10585 X15.2384 Y-0.4302
N10590 X15.2345 Y-0.4312
N10595 X15.2308 Y-0.4327
N10600 X15.2274 Y-0.4347
N10605 X15.2244 Y-0.4372
N10610 X15.2218 Y-0.4401
N10615 X15.2197 Y-0.4433
N10620 X15.2181 Y-0.4468
N10625 X15.217 Y-0.4504
N10630 X15.2165 Y-0.454
N10635 Y-0.4577
N10640 X15.217 Y-0.4607 Z0.5752
N10645 X15.2176 Y-0.4636 Z0.5757
N10650 X15.2181 Y-0.4664 Z0.5766
N10655 X15.2197 Y-0.4691 Z0.5781
N10660 X15.2212 Y-0.4717 Z0.58
N10665 X15.2226 Y-0.4739 Z0.5823
N10670 X15.2242 Y-0.4754 Z0.5849
N10675 X15.2257 Y-0.4767 Z0.5878
N10680 X15.2267 Y-0.4777 Z0.5909
N10685 X15.2275 Y-0.4783 Z0.5942
N10690 X15.2279 Y-0.4786 Z0.5971
N10695 X15.2281 Y-0.4787 Z0.6
N10700 G0 Z0.9753
N10705 X15.2008 Y-0.5015
N10710 Z0.65
N10715 G1 Z0.625 F60.
N10720 X15.2009 Y-0.5012 Z0.6211
N10725 X15.2011 Y-0.5003 Z0.6173
N10730 X15.2015 Y-0.4989 Z0.6137
N10735 X15.202 Y-0.4969 Z0.6103
N10740 X15.2026 Y-0.4944 Z0.6073
N10745 X15.2033 Y-0.4915 Z0.6048
N10750 X15.2042 Y-0.4883 Z0.6027
N10755 X15.2051 Y-0.4848 Z0.6012
N10760 X15.206 Y-0.4811 Z0.6003
N10765 X15.207 Y-0.4773 Z0.6
N10770 G3 X15.2182 Y-0.3996 I-0.3532 J0.0905
N10775 G2 X15.2428 Y-0.3225 I0.238 J-0.0338
N10780 G1 Y0.337
N10785 G2 X15.3723 Y0.4734 I0.1295 J0.0068
N10790 X15.5018 Y0.337 I0. J-0.1297
N10795 G1 Y-0.337
N10800 G2 X15.3936 Y-0.4707 I-0.1267 J-0.0081
N10805 G1 X15.39 Y-0.472
N10810 X15.3867 Y-0.4738
N10815 X15.3836 Y-0.476
N10820 X15.381 Y-0.4787
N10825 X15.3788 Y-0.4817
N10830 X15.377 Y-0.485
N10835 X15.3758 Y-0.4886
N10840 G2 X15.3339 Y-0.4994 I-0.0241 J0.0067
N10845 G1 X15.1544 Y-0.3104
N10850 G2 X15.1906 Y-0.2759 I0.0181 J0.0172
N10855 X15.1942 Y-0.2807 I-0.0181 J-0.0173
N10860 G3 X15.2405 Y-0.3441 I0.3158 J0.1821
N10865 G1 X15.2411 Y-0.3447
N10870 X15.242 Y-0.3443
N10875 X15.2427 Y-0.3435
N10880 X15.2429 Y-0.3425
N10885 G3 X15.2035 Y-0.3231 I-0.025 J-0.001
N10890 G1 X15.2014 Y-0.3252 Z0.6002
N10895 X15.1994 Y-0.3273 Z0.6007
N10900 X15.1973 Y-0.3293 Z0.6016
N10905 X15.196 Y-0.3322 Z0.6031
N10910 X15.1948 Y-0.3349 Z0.605
N10915 X15.1937 Y-0.3373 Z0.6073
N10920 X15.1934 Y-0.3394 Z0.6097
N10925 X15.1932 Y-0.3411 Z0.6122
N10930 X15.193 Y-0.3425 Z0.615
N10935 X15.1929 Y-0.3436 Z0.6179
N10940 Y-0.3439 Z0.6192
N10945 Y-0.3444 Z0.6221
N10950 Y-0.3446 Z0.625
N10955 G0 Z0.9753
N10960 X-0.2672 Y-0.72
N10965 Z0.175
N10970 G1 Z0.15 F60.
N10975 X-0.2671 Y-0.7197 Z0.1461
N10980 X-0.2669 Y-0.7188 Z0.1423
N10985 X-0.2665 Y-0.7173 Z0.1387
N10990 X-0.266 Y-0.7154 Z0.1353
N10995 X-0.2654 Y-0.7129 Z0.1323
N11000 X-0.2646 Y-0.71 Z0.1298
N11005 X-0.2638 Y-0.7068 Z0.1277
N11010 X-0.2629 Y-0.7032 Z0.1262
N11015 X-0.262 Y-0.6996 Z0.1253
N11020 X-0.261 Y-0.6958 Z0.125
N11025 G3 X-0.2498 Y-0.618 I-0.3532 J0.0905
N11030 G2 X-0.2658 Y0.0915 I6.914 J0.5104
N11035 G1 Y0.3733
N11040 G2 X-0.1176 Y0.4244 I0.0956 J-0.0369
N11045 X0.0065 Y0.477 I0.1307 J-0.1358
N11050 G1 X0.3514
N11055 G3 X0.5324 Y0.5452 I-0.0111 J0.304
N11060 G1 X0.5341 Y0.5488
N11065 X0.5352 Y0.5525
N11070 X0.5358 Y0.5564
N11075 Y0.5603
N11080 X0.5352 Y0.5642
N11085 X0.5341 Y0.5679
N11090 X0.5325 Y0.5714
N11095 X0.5304 Y0.5746
N11100 X0.5279 Y0.5774
N11105 X0.525 Y0.5798
N11110 X0.5218 Y0.5818
N11115 X0.5184 Y0.5833
N11120 X0.5148 Y0.5843
N11125 X0.5111 Y0.5847
N11130 X0.5074 Y0.5846
N11135 X0.5038 Y0.584
N11140 X0.5004 Y0.5828
N11145 X0.4837 Y0.5767
N11150 X0.3528 Y0.5288
N11155 X0.3437 Y0.5255
N11160 G3 X0.3514 Y0.477 I0.0086 J-0.0235
N11165 X0.4939 Y0.4856 I0.0603 J0.1844
N11170 G2 X2.4751 Y0.5409 I1.0052 J-0.4952
N11175 G3 X2.6098 Y0.477 I0.2369 J0.3254
N11180 X2.6237 Y0.5221 I-0.0009 J0.025
N11185 G1 X2.6102 Y0.532
N11190 X2.4809 Y0.6272
N11195 X2.4725 Y0.6334
N11200 G3 X2.436 Y0.6008 I-0.0148 J-0.0201
N11205 X2.511 Y0.4832 I0.2713 J0.0902
N11210 X2.5335 Y0.477 I0.0292 J0.0622
N11215 G1 X14.9134
N11220 G3 X15.1339 Y0.5805 I-0.0067 J0.3009
N11225 G1 X15.1348 Y0.5845
N11230 X15.135 Y0.5886
N11235 X15.1347 Y0.5926
N11240 X15.1338 Y0.5966
N11245 X15.1323 Y0.6003
N11250 X15.1304 Y0.6037
N11255 X15.1279 Y0.6068
N11260 X15.1251 Y0.6095
N11265 X15.1219 Y0.6117
N11270 X15.1185 Y0.6134
N11275 X15.1149 Y0.6146
N11280 X15.1111 Y0.6153
N11285 X15.1074 Y0.6154
N11290 X15.1037 Y0.615
N11295 X15.1001 Y0.614
N11300 X15.0968 Y0.6125
N11305 X15.0771 Y0.6036
N11310 X14.9147 Y0.5295
N11315 X14.9042 Y0.5247
N11320 G3 X14.9137 Y0.477 I0.0104 J-0.0227
N11325 G1 X15.0637
N11330 G3 X15.1252 Y0.5307 I0.0063 J0.0548
N11335 G1 X15.1247 Y0.5346
N11340 X15.1236 Y0.5384
N11345 X15.122 Y0.542
N11350 X15.1198 Y0.5453
N11355 X15.1171 Y0.5482
N11360 X15.114 Y0.5507
N11365 X15.1106 Y0.5526
N11370 X15.1069 Y0.554
N11375 X15.103 Y0.5547
N11380 X15.0991 Y0.5549
N11385 X15.0952 Y0.5544
N11390 X15.0914 Y0.5533
N11395 X15.0878 Y0.5517
N11400 X15.0846 Y0.5495
N11405 X15.0661 Y0.535
N11410 X15.0629 Y0.5325
N11415 X15.0491 Y0.5216
N11420 G3 X15.0637 Y0.477 I0.0154 J-0.0197
N11425 G1 X15.0937
N11430 X15.1012 Y0.4771
N11435 X15.1049 Y0.4777
N11440 X15.1087 Y0.4788
N11445 X15.1098 Y0.4793
N11450 X15.113 Y0.4811
N11455 X15.1162 Y0.4836
N11460 G3 X15.125 Y0.5393 I-0.0393 J0.0348
N11465 X15.0886 Y0.5607 I-0.025 J-0.0008
N11470 G1 X15.064 Y0.548
N11475 G3 X15.0862 Y0.5032 I0.0114 J-0.0222
N11480 X15.0965 Y0.5124 I-0.0108 J0.0226
N11485 X15.1312 Y0.5829 I-0.3079 J0.1952
N11490 G2 X15.1837 Y0.6503 I0.1191 J-0.0386
N11495 X15.3561 Y0.7466 I0.2481 J-0.2416
N11500 X15.4086 Y0.7416 I0.0146 J-0.1253
N11505 G1 X15.8802 Y0.5957
N11510 G3 X16.1764 Y0.596 I0.1475 J0.6091
N11515 G2 X16.2638 Y0.1625 I-0.6625 J-0.3592
N11520 X16.2587 Y-0.5382 I-13.5216 J-0.2503
N11525 X16.0232 Y-0.5562 I-0.177 J0.7671
N11530 G1 X15.9858 Y-0.5631
N11535 X15.4086 Y-0.7417
N11540 G2 X15.2962 Y-0.723 I-0.0377 J0.1205
N11545 G1 X15.2714 Y-0.7062
N11550 X15.2468 Y-0.6889
N11555 X15.2226 Y-0.6712
N11560 X15.1987 Y-0.653
N11565 X15.1752 Y-0.6344
N11570 X15.152 Y-0.6153
N11575 X15.1291 Y-0.5959
N11580 X15.1067 Y-0.5759
N11585 X15.0846 Y-0.5556
N11590 X15.0629 Y-0.5349
N11595 X15.0416 Y-0.5137
N11600 X15.0206 Y-0.4922
N11605 G3 X14.9586 Y-0.477 I-0.1456 J-0.4599
N11610 X14.9444 Y-0.522 I0.0009 J-0.025
N11615 G1 X14.958 Y-0.5322
N11620 X15.1016 Y-0.6403
N11625 X15.1096 Y-0.6463
N11630 G3 X15.1462 Y-0.6137 I0.015 J0.02
N11635 G1 X15.1401 Y-0.594
N11640 X15.1335 Y-0.5745
N11645 X15.1262 Y-0.5552
N11650 X15.1185 Y-0.5361
N11655 X15.1101 Y-0.5173
N11660 X15.1012 Y-0.4987
N11665 X15.0918 Y-0.4804
N11670 X15.0745 Y-0.4785
N11675 X15.0614 Y-0.477
N11680 G3 X15.0425 Y-0.5174 I0.0009 J-0.025
N11685 G1 X15.057 Y-0.536
N11690 X15.0708 Y-0.5536
N11695 X15.0806 Y-0.5661
N11700 G3 X15.1253 Y-0.5501 I0.0197 J0.0154
N11705 G1 X15.1251 Y-0.5467
N11710 X15.125 Y-0.5393
N11715 Y-0.5318
N11720 Y-0.5018
N11725 X15.1246 Y-0.4982
N11730 X15.1237 Y-0.4946
N11735 X15.1236 Y-0.4943
N11740 X15.1219 Y-0.4906
N11745 X15.1208 Y-0.4887
N11750 X15.1194 Y-0.4868
N11755 X15.1179 Y-0.4852
N11760 X15.1162 Y-0.4836
N11765 X15.113 Y-0.4811
N11770 X15.1098 Y-0.4793
N11775 X15.1087 Y-0.4788
N11780 X15.1049 Y-0.4777
N11785 X15.1012 Y-0.4771
N11790 X15.0937 Y-0.477
N11795 X2.661
N11800 G3 X2.4648 Y-0.5485 I0.0018 J-0.3102
N11805 G1 X2.4631 Y-0.5521
N11810 X2.462 Y-0.5558
N11815 X2.4614 Y-0.5597
N11820 Y-0.5636
N11825 X2.462 Y-0.5674
N11830 X2.463 Y-0.5711
N11835 X2.4646 Y-0.5745
N11840 X2.4667 Y-0.5777
N11845 X2.4692 Y-0.5806
N11850 X2.4721 Y-0.583
N11855 X2.4752 Y-0.585
N11860 X2.4786 Y-0.5865
N11865 X2.4822 Y-0.5875
N11870 X2.4858 Y-0.588
N11875 X2.4895 Y-0.5879
N11880 X2.4931 Y-0.5873
N11885 X2.4965 Y-0.5862
N11890 X2.5135 Y-0.5802
N11895 X2.6596 Y-0.5287
N11900 X2.6684 Y-0.5256
N11905 G3 X2.661 Y-0.477 I-0.0083 J0.0236
N11910 X2.5185 Y-0.4802 I-0.0661 J-0.2292
N11915 G2 X1.7093 Y-1.0956 I-1.0745 J0.5732
N11920 X0.5198 Y-0.5337 I-0.1997 J1.1174
N11925 G3 X0.3949 Y-0.4745 I-0.4766 J-0.8434
N11930 G1 X0.3909 Y-0.4749
N11935 X0.3871 Y-0.4759
N11940 X0.3834 Y-0.4774
N11945 X0.38 Y-0.4795
N11950 X0.377 Y-0.482
N11955 X0.3744 Y-0.4849
N11960 X0.3722 Y-0.4881
N11965 X0.3706 Y-0.4916
N11970 X0.3695 Y-0.4953
N11975 X0.3689 Y-0.4991
N11980 Y-0.5029
N11985 X0.3695 Y-0.5066
N11990 X0.3706 Y-0.5102
N11995 X0.3722 Y-0.5136
N12000 X0.3742 Y-0.5167
N12005 X0.3767 Y-0.5194
N12010 X0.3795 Y-0.5218
N12015 X0.3932 Y-0.5324
N12020 X0.5227 Y-0.6325
N12025 X0.5306 Y-0.6387
N12030 G3 X0.5677 Y-0.6067 I0.0153 J0.0198
N12035 X0.4872 Y-0.4817 I-0.5424 J-0.261
N12040 X0.4639 Y-0.477 I-0.0238 J-0.058
N12045 G1 X0.0064
N12050 G2 X-0.1332 Y-0.282 I0.0078 J0.1531
N12055 X-0.1396 Y0.2458 I1.5896 J0.2834
N12060 G3 X-0.125 Y0.3486 I-0.0735 J0.0629
N12065 X-0.175 Y0.3476 I-0.025 J-0.0009
N12070 G1 X-0.1749 Y0.344 Z0.1252
N12075 X-0.1747 Y0.3404 Z0.1259
N12080 X-0.1746 Y0.337 Z0.1271
N12085 X-0.1745 Y0.3338 Z0.1287
N12090 X-0.1744 Y0.3309 Z0.1309
N12095 X-0.1743 Y0.3283 Z0.1334
N12100 X-0.1742 Y0.3261 Z0.1363
N12105 Y0.3243 Z0.1394
N12110 X-0.1741 Y0.323 Z0.1428
N12115 Y0.3222 Z0.1464
N12120 Y0.322 Z0.15
N12125 G0 Z0.9753
N12130 X-0.0911 Y-0.5053
N12135 Z0.175
N12140 G1 Z0.15 F60.
N12145 X-0.0912 Y-0.505 Z0.1461
N12150 X-0.0913 Y-0.5041 Z0.1423
N12155 X-0.0915 Y-0.5026 Z0.1387
N12160 X-0.0918 Y-0.5006 Z0.1353
N12165 X-0.0921 Y-0.4981 Z0.1323
N12170 X-0.0925 Y-0.4951 Z0.1298
N12175 X-0.093 Y-0.4918 Z0.1277
N12180 X-0.0935 Y-0.4882 Z0.1262
N12185 X-0.094 Y-0.4844 Z0.1253
N12190 X-0.0945 Y-0.4805 Z0.125
N12195 G3 X-0.1135 Y-0.4043 I-0.3612 J-0.0495
N12200 G2 X-0.125 Y-0.3295 I0.135 J0.059
N12205 G1 Y0.2688
N12210 G3 X-0.175 Y0.2677 I-0.025 J-0.0009
N12215 G1 X-0.1749 Y0.2641 Z0.1252
N12220 X-0.1747 Y0.2605 Z0.1259
N12225 X-0.1746 Y0.2571 Z0.1271
N12230 X-0.1745 Y0.2539 Z0.1287
N12235 X-0.1744 Y0.2509 Z0.1309
N12240 X-0.1743 Y0.2483 Z0.1334
N12245 X-0.1742 Y0.2461 Z0.1363
N12250 Y0.2444 Z0.1394
N12255 X-0.1741 Y0.2431 Z0.1428
N12260 Y0.2423 Z0.1464
N12265 Y0.242 Z0.15
N12270 G0 Z0.9753
N12275 X15.7988 Y0.6575
N12280 Z0.175
N12285 G1 Z0.15 F60.
N12290 X15.799 Y0.6572 Z0.1461
N12295 X15.7997 Y0.6565 Z0.1423
N12300 X15.8007 Y0.6554 Z0.1387
N12305 X15.802 Y0.6539 Z0.1353
N12310 X15.8037 Y0.652 Z0.1323
N12315 X15.8057 Y0.6498 Z0.1298
N12320 X15.808 Y0.6473 Z0.1277
N12325 X15.8104 Y0.6446 Z0.1262
N12330 X15.813 Y0.6418 Z0.1253
N12335 X15.8156 Y0.6389 Z0.125
N12340 G3 X15.881 Y0.5955 I0.1175 J0.106
N12345 G2 X16.0794 Y0.5243 I-0.0295 J-0.3941
N12350 G1 X16.088 Y0.5101
N12355 X16.0961 Y0.4955
N12360 X16.1036 Y0.4808
N12365 X16.1107 Y0.4657
N12370 X16.1172 Y0.4504
N12375 X16.1232 Y0.4349
N12380 X16.1286 Y0.4193
N12385 X16.1335 Y0.4034
N12390 X16.1379 Y0.3874
N12395 X16.1416 Y0.3712
N12400 X16.1448 Y0.3549
N12405 X16.1475 Y0.3385
N12410 X16.1496 Y0.322
N12415 X16.1511 Y0.3055
N12420 X16.152 Y0.2889
N12425 X16.1523 Y0.2723
N12430 X16.1521 Y0.2557
N12435 X16.1513 Y0.2391
N12440 X16.1499 Y0.2226
N12445 X16.1479 Y0.2061
N12450 X16.1454 Y0.1897
N12455 X16.1423 Y0.1733
N12460 G2 X16.1466 Y-0.356 I-2.4762 J-0.285
N12465 G3 X16.1241 Y-0.4419 I0.1338 J-0.081
N12470 X16.174 Y-0.4451 I0.025 J-0.0013
N12475 G1 X16.1742 Y-0.4415 Z0.1252
N12480 X16.1743 Y-0.4379 Z0.1259
N12485 X16.1745 Y-0.4345 Z0.1271
N12490 X16.1747 Y-0.4313 Z0.1287
N12495 X16.1748 Y-0.4284 Z0.1309
N12500 X16.175 Y-0.4258 Z0.1334
N12505 X16.1751 Y-0.4236 Z0.1363
N12510 X16.1752 Y-0.4218 Z0.1394
N12515 Y-0.4205 Z0.1428
N12520 X16.1753 Y-0.4197 Z0.1464
N12525 Y-0.4195 Z0.15
N12530 G0 Z0.9753
N12535 X16.1772 Y-0.4322
N12540 Z0.175
N12545 G1 Z0.15 F60.
N12550 X16.177 Y-0.4324 Z0.1461
N12555 X16.1763 Y-0.433 Z0.1423
N12560 X16.1751 Y-0.4339 Z0.1387
N12565 X16.1735 Y-0.4351 Z0.1353
N12570 X16.1714 Y-0.4367 Z0.1323
N12575 X16.1691 Y-0.4385 Z0.1298
N12580 X16.1664 Y-0.4406 Z0.1277
N12585 X16.1636 Y-0.4428 Z0.1262
N12590 X16.1605 Y-0.4451 Z0.1253
N12595 X16.1574 Y-0.4475 Z0.125
N12600 G3 X16.1007 Y-0.5018 I0.2224 J-0.2889
N12605 G2 X15.9858 Y-0.5631 I-0.1294 J0.1043
N12610 G3 X16.0016 Y-0.6105 I0.0082 J-0.0236
N12615 G1 X16.005 Y-0.6093 Z0.1252
N12620 X16.0084 Y-0.6081 Z0.1259
N12625 X16.0117 Y-0.607 Z0.127
N12630 X16.0147 Y-0.606 Z0.1287
N12635 X16.0175 Y-0.605 Z0.1309
N12640 X16.0199 Y-0.6041 Z0.1334
N12645 X16.022 Y-0.6034 Z0.1363
N12650 X16.0237 Y-0.6028 Z0.1394
N12655 X16.0249 Y-0.6024 Z0.1428
N12660 X16.0256 Y-0.6021 Z0.1464
N12665 X16.0259 Z0.15
N12670 G0 Z0.9753
N12675 X16.1119 Y0.5619
N12680 Z0.175
N12685 G1 Z0.15 F60.
N12690 Y0.5616 Z0.1461
N12695 Y0.5607 Z0.1423
N12700 Y0.5592 Z0.1387
N12705 Y0.5572 Z0.1353
N12710 X16.112 Y0.5546 Z0.1323
N12715 Y0.5516 Z0.1298
N12720 Y0.5483 Z0.1277
N12725 Y0.5447 Z0.1262
N12730 Y0.5409 Z0.1253
N12735 X16.1121 Y0.5369 Z0.125
N12740 G3 X16.121 Y0.4589 I0.3646 J0.0022
N12745 G2 X16.125 Y0.4194 I-0.1398 J-0.0341
N12750 G1 Y-0.3904
N12755 G3 X16.1642 Y-0.4101 I0.025 J0.0009
N12760 G1 X16.1663 Y-0.408 Z0.1252
N12765 X16.1684 Y-0.4059 Z0.1257
N12770 X16.1705 Y-0.4039 Z0.1266
N12775 X16.1718 Y-0.401 Z0.1281
N12780 X16.173 Y-0.3983 Z0.13
N12785 X16.1742 Y-0.3959 Z0.1323
N12790 X16.1744 Y-0.3938 Z0.1348
N12795 X16.1747 Y-0.392 Z0.1375
N12800 X16.1748 Y-0.3906 Z0.1404
N12805 X16.175 Y-0.3895 Z0.1435
N12810 Y-0.3889 Z0.1467
N12815 Y-0.3887 Z0.15
N12820 G0 Z0.9753
N12825 X16.1633 Y-0.3164
N12830 Z0.2
N12835 G1 Z0.175 F60.
N12840 X16.1631 Y-0.3166 Z0.1711
N12845 X16.1627 Y-0.3174 Z0.1673
N12850 X16.1618 Y-0.3187 Z0.1637
N12855 X16.1607 Y-0.3204 Z0.1603
N12860 X16.1594 Y-0.3225 Z0.1573
N12865 X16.1577 Y-0.3251 Z0.1548
N12870 X16.1559 Y-0.3279 Z0.1527
N12875 X16.154 Y-0.3309 Z0.1512
N12880 X16.1519 Y-0.3341 Z0.1503
N12885 X16.1498 Y-0.3374 Z0.15
N12890 G3 X16.125 Y-0.4119 I0.1331 J-0.0857
N12895 G2 X16.0235 Y-0.537 I-0.1274 J-0.0003
N12900 G1 X15.4084 Y-0.7273
N12905 G2 X15.2963 Y-0.7086 I-0.0375 J0.1205
N12910 G1 X15.1847 Y-0.6366
N12915 G3 X15.1597 Y-0.6362 I-0.0128 J-0.0215
N12920 G2 X15.1247 Y-0.6245 I-0.0122 J0.0218
N12925 G1 X15.1203 Y-0.6146
N12930 X15.1152 Y-0.603
N12935 G2 X15.1138 Y-0.5867 I0.0229 J0.0101
N12940 G3 X15.125 Y-0.5089 I-0.3532 J0.0905
N12945 G1 Y-0.4906
N12950 X15.1246 Y-0.4868
N12955 X15.1237 Y-0.4833
N12960 X15.122 Y-0.4793
N12965 X15.1196 Y-0.4758
N12970 X15.1162 Y-0.4722
N12975 X15.1158 Y-0.4719
N12980 X15.114 Y-0.4704
N12985 X15.1122 Y-0.4692
N12990 X15.1087 Y-0.4675
N12995 X15.1049 Y-0.466
N13000 X15.1012 Y-0.4649
N13005 X15.0977 Y-0.4644
N13010 X15.0937 Y-0.4643
N13015 X2.5416
N13020 G3 X2.4824 Y-0.5245 I0.0049 J-0.064
N13025 G2 X0.4878 Y-0.4645 I-0.9822 J0.5337
N13030 G1 X0.4564 Y-0.4643
N13035 X0.0065
N13040 X-0.001 Y-0.4642
N13045 G3 X0.0002 Y-0.5142 I0.0006 J-0.025
N13050 G1 X0.0041 Y-0.5141 Z0.1503
N13055 X0.0079 Y-0.514 Z0.1512
N13060 X0.0116 Y-0.5139 Z0.1527
N13065 X0.0149 Y-0.5138 Z0.1548
N13070 X0.0179 Y-0.5137 Z0.1573
N13075 X0.0204 Z0.1603
N13080 X0.0225 Y-0.5136 Z0.1637
N13085 X0.024 Z0.1673
N13090 X0.0249 Z0.1711
N13095 X0.0252 Z0.175
N13100 G0 Z0.9753
N13105 X-0.1627 Y0.2412
N13110 Z0.2
N13115 G1 Z0.175 F60.
N13120 X-0.1625 Y0.2415 Z0.1711
N13125 X-0.162 Y0.2423 Z0.1673
N13130 X-0.1612 Y0.2435 Z0.1637
N13135 X-0.1601 Y0.2453 Z0.1603
N13140 X-0.1587 Y0.2474 Z0.1573
N13145 X-0.1571 Y0.2499 Z0.1548
N13150 X-0.1553 Y0.2528 Z0.1527
N13155 X-0.1534 Y0.2558 Z0.1512
N13160 X-0.1514 Y0.259 Z0.1503
N13165 X-0.1493 Y0.2623 Z0.15
N13170 G3 X-0.125 Y0.337 I-0.1337 J0.0847
N13175 G2 X0.0065 Y0.4643 I0.1255 J0.0018
N13180 G1 X0.456
N13185 G3 X0.5174 Y0.5244 I-0.0009 J0.0623
N13190 G2 X2.5109 Y0.4651 I0.9818 J-0.5328
N13195 G1 X2.541 Y0.4643
N13200 X15.0937
N13205 X15.0977 Y0.4644
N13210 X15.1012 Y0.4649
N13215 X15.1049 Y0.466
N13220 X15.1087 Y0.4675
N13225 X15.1122 Y0.4692
N13230 X15.114 Y0.4704
N13235 X15.1158 Y0.4719
N13240 X15.1162 Y0.4722
N13245 X15.1196 Y0.4758
N13250 X15.122 Y0.4793
N13255 X15.1237 Y0.4833
N13260 X15.1246 Y0.4868
N13265 X15.125 Y0.4906
N13270 Y0.4943
N13275 G3 X15.075 Y0.4933 I-0.025 J-0.0009
N13280 G1 X15.0751 Y0.4896 Z0.1502
N13285 X15.0753 Y0.4861 Z0.1509
N13290 X15.0754 Y0.4826 Z0.1521
N13295 X15.0755 Y0.4794 Z0.1537
N13300 X15.0756 Y0.4765 Z0.1559
N13305 X15.0757 Y0.4739 Z0.1584
N13310 X15.0758 Y0.4717 Z0.1613
N13315 Y0.4699 Z0.1644
N13320 X15.0759 Y0.4686 Z0.1678
N13325 Y0.4679 Z0.1714
N13330 Y0.4676 Z0.175
N13335 G0 Z0.9753
N13340 X15.1077 Y0.468
N13345 Z0.2537
N13350 G1 Z0.15 F60.
N13355 G3 X15.125 Y0.5243 I-0.1013 J0.0619
N13360 G2 X15.1847 Y0.6366 I0.1262 J0.005
N13365 X15.3636 Y0.7328 I0.2329 J-0.2187
N13370 X15.4086 Y0.7272 I0.0075 J-0.1239
N13375 G1 X16.0235 Y0.537
N13380 X16.0351 Y0.5333
N13385 G3 X16.0657 Y0.5649 I0.0067 J0.0241
N13390 G1 X16.0643 Y0.5675 Z0.1502
N13395 X16.0629 Y0.5701 Z0.1507
N13400 X16.0616 Y0.5727 Z0.1516
N13405 X16.0593 Y0.5748 Z0.1531
N13410 X16.0571 Y0.5768 Z0.155
N13415 X16.0551 Y0.5786 Z0.1573
N13420 X16.0531 Y0.5795 Z0.1599
N13425 X16.0514 Y0.5803 Z0.1628
N13430 X16.05 Y0.5809 Z0.1659
N13435 X16.0491 Y0.5813 Z0.1692
N13440 X16.0486 Y0.5815 Z0.1721
N13445 X16.0484 Z0.175
N13450 G0 Z0.9753
N13455 X16.1624 Y-0.3011
N13460 Z0.225
N13465 G1 Z0.2 F60.
N13470 X16.1623 Y-0.3013 Z0.1961
N13475 X16.1618 Y-0.3021 Z0.1923
N13480 X16.161 Y-0.3034 Z0.1887
N13485 X16.1599 Y-0.3051 Z0.1853
N13490 X16.1585 Y-0.3073 Z0.1823
N13495 X16.1569 Y-0.3098 Z0.1798
N13500 X16.1551 Y-0.3126 Z0.1777
N13505 X16.1532 Y-0.3157 Z0.1762
N13510 X16.1512 Y-0.3189 Z0.1753
N13515 X16.1491 Y-0.3222 Z0.175
N13520 G3 X16.125 Y-0.397 I0.1339 J-0.0844
N13525 G2 X16.0235 Y-0.5225 I-0.1274 J-0.0009
N13530 G1 X15.4086 Y-0.7128
N13535 G2 X15.2997 Y-0.6965 I-0.0377 J0.1202
N13540 G1 X15.1912 Y-0.6264
N13545 X15.1839 Y-0.6216
N13550 X15.1795 Y-0.6186
N13555 G3 X15.1546 Y-0.6173 I-0.0136 J-0.021
N13560 G2 X15.1193 Y-0.6023 I-0.0113 J0.0223
N13565 G1 X15.1168 Y-0.594
N13570 X15.1141 Y-0.5851
N13575 G2 X15.1138 Y-0.5717 I0.0239 J0.0073
N13580 G3 X15.125 Y-0.4939 I-0.3532 J0.0905
N13585 G1 Y-0.4793
N13590 X15.1245 Y-0.4756
N13595 X15.1237 Y-0.4719
N13600 Y-0.4716
N13605 X15.1224 Y-0.468
N13610 X15.1204 Y-0.4644
N13615 X15.1186 Y-0.4619
N13620 X15.1162 Y-0.4595
N13625 X15.1127 Y-0.4569
N13630 X15.1107 Y-0.4557
N13635 X15.1087 Y-0.4547
N13640 X15.1049 Y-0.4532
N13645 X15.1012 Y-0.4522
N13650 X15.0974 Y-0.4516
N13655 X15.0937 Y-0.4515
N13660 X2.541
N13665 X2.5335 Y-0.4516
N13670 X2.5298 Y-0.4522
N13675 G3 X2.4491 Y-0.5771 I0.0782 J-0.139
N13680 G2 X0.4864 Y-0.4525 I-0.9482 J0.585
N13685 G1 X0.4564 Y-0.4515
N13690 X0.0065
N13695 X-0.001 Y-0.4514
N13700 G3 X0.0002 Y-0.5014 I0.0006 J-0.025
N13705 G1 X0.0041 Y-0.5013 Z0.1753
N13710 X0.0079 Y-0.5012 Z0.1762
N13715 X0.0116 Z0.1777
N13720 X0.0149 Y-0.5011 Z0.1798
N13725 X0.0179 Y-0.501 Z0.1823
N13730 X0.0204 Y-0.5009 Z0.1853
N13735 X0.0225 Z0.1887
N13740 X0.024 Y-0.5008 Z0.1923
N13745 X0.0249 Z0.1961
N13750 X0.0252 Z0.2
N13755 G0 Z0.9753
N13760 X-0.1609 Y0.2256
N13765 Z0.225
N13770 G1 Z0.2 F60.
N13775 X-0.1607 Y0.2258 Z0.1961
N13780 X-0.1602 Y0.2266 Z0.1923
N13785 X-0.1594 Y0.2279 Z0.1887
N13790 X-0.1584 Y0.2296 Z0.1853
N13795 X-0.1571 Y0.2318 Z0.1823
N13800 X-0.1555 Y0.2344 Z0.1798
N13805 X-0.1538 Y0.2372 Z0.1777
N13810 X-0.1519 Y0.2403 Z0.1762
N13815 X-0.1499 Y0.2436 Z0.1753
N13820 X-0.1479 Y0.2469 Z0.175
N13825 G3 X-0.125 Y0.3221 I-0.1352 J0.0822
N13830 G2 X0.0065 Y0.4515 I0.1256 J0.0039
N13835 G1 X0.4564
N13840 G3 X0.5314 Y0.5376 I-0.0257 J0.098
N13845 G2 X2.5142 Y0.4511 I0.9697 J-0.5418
N13850 X2.541 Y0.4515 I0.0152 J-0.1039
N13855 G1 X15.0937
N13860 X15.0974 Y0.4516
N13865 X15.1012 Y0.4522
N13870 X15.1049 Y0.4532
N13875 X15.1087 Y0.4547
N13880 X15.1107 Y0.4557
N13885 X15.1126 Y0.4569
N13890 X15.1144 Y0.4582
N13895 X15.1162 Y0.4597
N13900 X15.1183 Y0.462
N13905 X15.1201 Y0.4644
N13910 X15.1222 Y0.4681
N13915 X15.1235 Y0.4719
N13920 X15.1237 Y0.4725
N13925 X15.1249 Y0.4793
N13930 X15.125 Y0.4868
N13935 G3 X15.075 Y0.486 I-0.025 J-0.0009
N13940 X15.1058 Y0.4847 I0.0154 J0.
N13945 X15.0835 Y0.4998 I-0.0154 J0.0013
N13950 X15.106 Y0.4551 I0.0113 J-0.0223
N13955 X15.1189 Y0.4709 I-0.0113 J0.0223
N13960 X15.125 Y0.5097 I-0.1759 J0.0477
N13965 G2 X15.1913 Y0.6262 I0.1269 J0.0049
N13970 X15.3636 Y0.7184 I0.2131 J-0.1911
N13975 X15.4086 Y0.7128 I0.0075 J-0.1239
N13980 G1 X16.0235 Y0.5225
N13985 X16.0351 Y0.5189
N13990 G3 X16.0593 Y0.5252 I0.0067 J0.0241
N13995 G2 X16.0622 Y0.5276 I0.0175 J-0.0178
N14000 G1 X16.1015 Y0.5562
N14005 X16.1145 Y0.5656
N14010 G2 X16.1444 Y0.5256 I0.0147 J-0.0202
N14015 X16.1286 Y0.5204 I-0.0153 J0.0198
N14020 G3 X16.0504 Y0.5137 I-0.0079 J-0.3645
N14025 G1 X16.0496 Y0.5135
N14030 G3 X16.0834 Y0.5415 I0.0092 J0.0232
N14035 G1 X16.0823 Y0.5443 Z0.1752
N14040 X16.0812 Y0.5471 Z0.1757
N14045 X16.0802 Y0.5497 Z0.1766
N14050 X16.0781 Y0.5521 Z0.1781
N14055 X16.0761 Y0.5543 Z0.18
N14060 X16.0744 Y0.5563 Z0.1823
N14065 X16.0724 Y0.5575 Z0.1849
N14070 X16.0708 Y0.5584 Z0.1878
N14075 X16.0696 Y0.5592 Z0.1909
N14080 X16.0687 Y0.5597 Z0.1942
N14085 X16.0682 Y0.5599 Z0.1971
N14090 X16.068 Y0.56 Z0.2
N14095 G0 Z0.9753
N14100 X16.161 Y-0.2855
N14105 Z0.25
N14110 G1 Z0.225 F60.
N14115 X16.1609 Y-0.2858 Z0.2211
N14120 X16.1604 Y-0.2866 Z0.2173
N14125 X16.1596 Y-0.2879 Z0.2137
N14130 X16.1585 Y-0.2896 Z0.2103
N14135 X16.1572 Y-0.2918 Z0.2073
N14140 X16.1556 Y-0.2943 Z0.2048
N14145 X16.1539 Y-0.2972 Z0.2027
N14150 X16.152 Y-0.3003 Z0.2012
N14155 X16.15 Y-0.3035 Z0.2003
N14160 X16.148 Y-0.3069 Z0.2
N14165 G3 X16.125 Y-0.382 I0.1351 J-0.0825
N14170 G2 X16.0196 Y-0.5093 I-0.1285 J-0.001
N14175 G1 X15.4089 Y-0.6983
N14180 G2 X15.2877 Y-0.6735 I-0.0381 J0.123
N14185 G1 X15.1912 Y-0.6119
N14190 X15.1837 Y-0.6071
N14195 G3 X15.1587 Y-0.6066 I-0.0129 J-0.0214
N14200 G2 X15.125 Y-0.5975 I-0.0121 J0.0219
N14205 G1 X15.118 Y-0.5857
N14210 X15.1165 Y-0.5831
N14215 G2 X15.1138 Y-0.5642 I0.0215 J0.0127
N14220 G3 X15.125 Y-0.4865 I-0.3532 J0.0905
N14225 G1 Y-0.4719
N14230 X15.1249 Y-0.4681
N14235 X15.1245 Y-0.4644
N14240 X15.1237 Y-0.4606
N14245 X15.1227 Y-0.4569
N14250 X15.121 Y-0.4531
N14255 X15.1198 Y-0.4513
N14260 X15.1184 Y-0.4494
N14265 X15.1162 Y-0.447
N14270 X15.1124 Y-0.444
N14275 X15.1087 Y-0.4419
N14280 X15.1049 Y-0.4405
N14285 X15.1012 Y-0.4394
N14290 X15.0974 Y-0.4389
N14295 X15.0937 Y-0.4388
N14300 X2.541
N14305 X2.5335 Y-0.4389
N14310 X2.5298 Y-0.4394
N14315 X2.526 Y-0.4405
N14320 X2.5223 Y-0.4419
N14325 X2.5185 Y-0.4434
N14330 G3 X2.4986 Y-0.4644 I0.0284 J-0.0469
N14335 G2 X0.4873 Y-0.4394 I-1.0001 J0.4622
N14340 G1 X0.4564 Y-0.4388
N14345 X0.0065
N14350 X-0.001 Y-0.4387
N14355 G3 X0.0003 Y-0.4887 I0.0006 J-0.025
N14360 G1 X0.0042 Y-0.4886 Z0.2003
N14365 X0.008 Y-0.4885 Z0.2012
N14370 X0.0116 Y-0.4884 Z0.2027
N14375 X0.015 Y-0.4883 Z0.2048
N14380 X0.0179 Y-0.4882 Z0.2073
N14385 X0.0205 Z0.2103
N14390 X0.0225 Y-0.4881 Z0.2137
N14395 X0.024 Z0.2173
N14400 X0.025 Z0.2211
N14405 X0.0253 Z0.225
N14410 G0 Z0.9753
N14415 X-0.1646 Y0.2196
N14420 Z0.25
N14425 G1 Z0.225 F60.
N14430 X-0.1644 Y0.2198 Z0.2211
N14435 X-0.1639 Y0.2206 Z0.2173
N14440 X-0.1631 Y0.2218 Z0.2137
N14445 X-0.162 Y0.2235 Z0.2103
N14450 X-0.1606 Y0.2257 Z0.2073
N14455 X-0.1589 Y0.2281 Z0.2048
N14460 X-0.1571 Y0.2309 Z0.2027
N14465 X-0.1551 Y0.234 Z0.2012
N14470 X-0.1529 Y0.2371 Z0.2003
N14475 X-0.1508 Y0.2404 Z0.2
N14480 G3 X-0.125 Y0.3146 I-0.1319 J0.0875
N14485 G2 X0.0065 Y0.4388 I0.1255 J-0.0012
N14490 G1 X0.4564
N14495 G3 X0.5239 Y0.5154 I-0.0042 J0.0717
N14500 G2 X2.5168 Y0.4365 I0.9775 J-0.519
N14505 G1 X2.5298 Y0.4394
N14510 X2.5335 Y0.4389
N14515 X2.541 Y0.4388
N14520 X15.0932
N14525 G3 X15.1212 Y0.5199 I-0.0143 J0.0503
N14530 G2 X15.1946 Y0.6142 I0.152 J-0.0426
N14535 X15.365 Y0.704 I0.2073 J-0.1865
N14540 X15.4086 Y0.6983 I0.0059 J-0.1251
N14545 G1 X16.0235 Y0.5081
N14550 X16.0351 Y0.5045
N14555 G3 X16.0657 Y0.536 I0.0067 J0.0241
N14560 G1 X16.0643 Y0.5386 Z0.2002
N14565 X16.0629 Y0.5413 Z0.2007
N14570 X16.0616 Y0.5438 Z0.2016
N14575 X16.0593 Y0.546 Z0.2031
N14580 X16.0571 Y0.5479 Z0.205
N14585 X16.0551 Y0.5497 Z0.2073
N14590 X16.0531 Y0.5507 Z0.2099
N14595 X16.0514 Y0.5514 Z0.2128
N14600 X16.05 Y0.5521 Z0.2159
N14605 X16.0491 Y0.5525 Z0.2192
N14610 X16.0486 Y0.5526 Z0.2221
N14615 X16.0484 Y0.5527 Z0.225
N14620 G0 Z0.9753
N14625 X16.1616 Y-0.2708
N14630 Z0.275
N14635 G1 Z0.25 F60.
N14640 X16.1614 Y-0.271 Z0.2461
N14645 X16.1609 Y-0.2718 Z0.2423
N14650 X16.1601 Y-0.2731 Z0.2387
N14655 X16.159 Y-0.2748 Z0.2353
N14660 X16.1577 Y-0.277 Z0.2323
N14665 X16.1561 Y-0.2795 Z0.2298
N14670 X16.1544 Y-0.2824 Z0.2277
N14675 X16.1525 Y-0.2855 Z0.2262
N14680 X16.1505 Y-0.2887 Z0.2253
N14685 X16.1484 Y-0.292 Z0.225
N14690 G3 X16.125 Y-0.367 I0.1346 J-0.0832
N14695 G2 X16.0214 Y-0.4943 I-0.128 J-0.0017
N14700 G1 X15.4091 Y-0.6838
N14705 G2 X15.2869 Y-0.6585 I-0.0382 J0.1233
N14710 G1 X15.1837 Y-0.5926
N14715 G3 X15.1587 Y-0.5922 I-0.0128 J-0.0214
N14720 G2 X15.1248 Y-0.5827 I-0.0122 J0.0218
N14725 G1 X15.1182 Y-0.5712
N14730 X15.1163 Y-0.5677
N14735 G2 X15.1138 Y-0.5492 I0.0218 J0.0123
N14740 G3 X15.125 Y-0.4715 I-0.3532 J0.0905
N14745 G1 Y-0.4644
N14750 X15.1249 Y-0.4569
N14755 X15.1237 Y-0.4498
N14760 X15.1219 Y-0.4419
N14765 X15.1203 Y-0.4381
N14770 X15.1193 Y-0.4363
N14775 X15.118 Y-0.4344
N14780 X15.1162 Y-0.4322
N14785 X15.1128 Y-0.4291
N14790 X15.1093 Y-0.4269
N14795 X15.1087 Y-0.4266
N14800 X15.1049 Y-0.4251
N14805 X15.1012 Y-0.4242
N14810 X15.0937 Y-0.4238
N14815 X2.541
N14820 G3 X2.4683 Y-0.5093 I0.0176 J-0.0887
N14825 G2 X0.4863 Y-0.4232 I-0.9707 J0.51
N14830 G1 X0.4714 Y-0.4248
N14835 X0.4676 Y-0.4241
N14840 X0.4639 Y-0.4238
N14845 X0.0065
N14850 X-0.001 Y-0.4237
N14855 G3 X0.0002 Y-0.4737 I0.0006 J-0.025
N14860 G1 X0.0041 Y-0.4736 Z0.2253
N14865 X0.0079 Y-0.4735 Z0.2262
N14870 X0.0116 Y-0.4734 Z0.2277
N14875 X0.0149 Y-0.4733 Z0.2298
N14880 X0.0179 Z0.2323
N14885 X0.0204 Y-0.4732 Z0.2353
N14890 X0.0225 Z0.2387
N14895 X0.024 Y-0.4731 Z0.2423
N14900 X0.0249 Z0.2461
N14905 X0.0252 Z0.25
N14910 G0 Z0.9753
N14915 X-0.1639 Y0.2043
N14920 Z0.275
N14925 G1 Z0.25 F60.
N14930 X-0.1637 Y0.2045 Z0.2461
N14935 X-0.1632 Y0.2053 Z0.2423
N14940 X-0.1624 Y0.2066 Z0.2387
N14945 X-0.1613 Y0.2083 Z0.2353
N14950 X-0.1599 Y0.2104 Z0.2323
N14955 X-0.1582 Y0.2129 Z0.2298
N14960 X-0.1564 Y0.2157 Z0.2277
N14965 X-0.1544 Y0.2188 Z0.2262
N14970 X-0.1523 Y0.2219 Z0.2253
N14975 X-0.1502 Y0.2252 Z0.225
N14980 G3 X-0.1249 Y0.2996 I-0.1325 J0.0865
N14985 G2 X0.0065 Y0.4238 I0.1254 J-0.0011
N14990 G1 X0.4639
N14995 G3 X0.5864 Y0.6067 I-0.2793 J0.3196
N15000 G2 X2.5132 Y0.4234 I0.9141 J-0.6097
N15005 X2.541 Y0.4238 I0.016 J-0.1372
N15010 G1 X15.0937
N15015 X15.1012 Y0.4242
N15020 X15.1049 Y0.4251
N15025 X15.1087 Y0.4265
N15030 X15.1095 Y0.4269
N15035 X15.1128 Y0.429
N15040 X15.1162 Y0.4319
N15045 X15.1184 Y0.4344
N15050 G3 X15.125 Y0.4644 I-0.0475 J0.0262
N15055 X15.075 Y0.4633 I-0.025 J-0.0009
N15060 G1 X15.0751 Y0.4597 Z0.2252
N15065 X15.0753 Y0.4561 Z0.2259
N15070 X15.0754 Y0.4527 Z0.2271
N15075 X15.0755 Y0.4495 Z0.2287
N15080 X15.0756 Y0.4465 Z0.2309
N15085 X15.0757 Y0.4439 Z0.2334
N15090 X15.0758 Y0.4417 Z0.2363
N15095 Y0.44 Z0.2394
N15100 X15.0759 Y0.4387 Z0.2428
N15105 Y0.4379 Z0.2464
N15110 Y0.4376 Z0.25
N15115 G0 Z0.9753
N15120 X15.1058 Y0.4311
N15125 Z0.3287
N15130 G1 Z0.225 F60.
N15135 G3 X15.125 Y0.4868 I-0.0991 J0.0653
N15140 G2 X15.1837 Y0.5926 I0.1257 J-0.0005
N15145 X15.3636 Y0.6895 I0.2356 J-0.2221
N15150 X15.4086 Y0.6839 I0.0075 J-0.124
N15155 G1 X16.0235 Y0.4937
N15160 X16.0351 Y0.49
N15165 G3 X16.0657 Y0.5216 I0.0066 J0.0241
N15170 G1 X16.0643 Y0.5242 Z0.2252
N15175 X16.0629 Y0.5268 Z0.2257
N15180 X16.0616 Y0.5294 Z0.2266
N15185 X16.0592 Y0.5315 Z0.2281
N15190 X16.0571 Y0.5335 Z0.23
N15195 X16.0551 Y0.5353 Z0.2323
N15200 X16.0531 Y0.5362 Z0.2349
N15205 X16.0514 Y0.537 Z0.2378
N15210 X16.05 Y0.5376 Z0.2409
N15215 X16.0491 Y0.5381 Z0.2442
N15220 X16.0486 Y0.5382 Z0.2471
N15225 X16.0484 Z0.25
N15230 G0 Z0.9753
N15235 X16.1622 Y-0.2564
N15240 Z0.3001
N15245 G1 Z0.2751 F60.
N15250 X16.162 Y-0.2567 Z0.2711
N15255 X16.1615 Y-0.2574 Z0.2673
N15260 X16.1607 Y-0.2587 Z0.2637
N15265 X16.1596 Y-0.2604 Z0.2604
N15270 X16.1583 Y-0.2626 Z0.2574
N15275 X16.1567 Y-0.2651 Z0.2548
N15280 X16.1549 Y-0.268 Z0.2528
N15285 X16.153 Y-0.271 Z0.2513
N15290 X16.151 Y-0.2743 Z0.2504
N15295 X16.1489 Y-0.2776 Z0.2501
N15300 G3 X16.125 Y-0.3524 I0.1341 J-0.0841
N15305 G2 X16.031 Y-0.4769 I-0.1258 J-0.0027
N15310 G1 X15.4087 Y-0.6694
N15315 G2 X15.282 Y-0.6403 I-0.0378 J0.1257
N15320 G1 X15.1837 Y-0.5782
N15325 G3 X15.1587 Y-0.5778 I-0.0128 J-0.0215
N15330 G2 X15.1297 Y-0.5745 I-0.0122 J0.0218
N15335 G1 X15.1213 Y-0.5668
N15340 X15.119 Y-0.5645
N15345 X15.117 Y-0.5618
N15350 X15.1155 Y-0.5589
N15355 G2 X15.1139 Y-0.5421 I0.0226 J0.0106
N15360 G3 X15.125 Y-0.4644 I-0.3532 J0.0903
N15365 X15.0974 Y-0.3996 I-0.0512 J0.0165
N15370 X15.072 Y-0.4077 I-0.0045 J-0.0299
N15375 X15.1129 Y-0.4503 I0.0204 J-0.0213
N15380 X15.1217 Y-0.4249 I-0.0204 J0.0213
N15385 G1 X15.1214 Y-0.4232
N15390 X15.1203 Y-0.4194
N15395 X15.1186 Y-0.4158
N15400 X15.1162 Y-0.4123
N15405 X15.1159 Y-0.4119
N15410 X15.113 Y-0.4083
N15415 X15.1108 Y-0.4063
N15420 X15.1087 Y-0.4047
N15425 X15.1083 Y-0.4044
N15430 X15.1048 Y-0.4025
N15435 X15.1012 Y-0.4009
N15440 X15.0974 Y-0.3996
N15445 X15.0937 Y-0.3989
N15450 X15.0862 Y-0.3987
N15455 X2.5485
N15460 G3 X2.4995 Y-0.4423 I0.0025 J-0.0522
N15465 G2 X0.4828 Y-0.4014 I-0.9996 J0.4521
N15470 G1 X0.4564 Y-0.3987
N15475 X0.0065
N15480 X-0.001
N15485 G3 X0.0002 Y-0.4487 I0.0006 J-0.025
N15490 G1 X0.0041 Y-0.4486 Z0.2504
N15495 X0.0079 Y-0.4485 Z0.2513
N15500 X0.0116 Y-0.4484 Z0.2528
N15505 X0.0149 Y-0.4483 Z0.2548
N15510 X0.0179 Y-0.4482 Z0.2574
N15515 X0.0204 Z0.2604
N15520 X0.0225 Y-0.4481 Z0.2637
N15525 X0.024 Z0.2673
N15530 X0.0249 Y-0.448 Z0.2711
N15535 X0.0252 Z0.2751
N15540 G0 Z0.9753
N15545 X-0.1611 Y0.1732
N15550 Z0.3001
N15555 G1 Z0.2751 F60.
N15560 X-0.1609 Y0.1735 Z0.2711
N15565 X-0.1605 Y0.1743 Z0.2673
N15570 X-0.1597 Y0.1755 Z0.2637
N15575 X-0.1586 Y0.1773 Z0.2604
N15580 X-0.1573 Y0.1795 Z0.2574
N15585 X-0.1557 Y0.182 Z0.2548
N15590 X-0.154 Y0.1849 Z0.2528
N15595 X-0.1521 Y0.188 Z0.2513
N15600 X-0.1501 Y0.1912 Z0.2504
N15605 X-0.148 Y0.1946 Z0.2501
N15610 G3 X-0.125 Y0.2696 I-0.135 J0.0826
N15615 G2 X0.0065 Y0.3987 I0.1256 J0.0036
N15620 G1 X0.4564
N15625 G3 X0.5119 Y0.4569 I-0.0112 J0.0663
N15630 G1 X0.5232 Y0.4805
N15635 X0.5351 Y0.5038
N15640 X0.5475 Y0.5268
N15645 X0.5604 Y0.5495
N15650 X0.5739 Y0.5719
N15655 X0.588 Y0.594
N15660 X0.6025 Y0.6157
N15665 X0.6176 Y0.637
N15670 X0.6332 Y0.658
N15675 X0.6493 Y0.6787
N15680 X0.6658 Y0.6989
N15685 X0.6829 Y0.7187
N15690 X0.7004 Y0.7381
N15695 X0.7184 Y0.7571
N15700 X0.7368 Y0.7756
N15705 X0.7557 Y0.7937
N15710 X0.775 Y0.8114
N15715 X0.7947 Y0.8286
N15720 X0.8148 Y0.8453
N15725 X0.8354 Y0.8615
N15730 X0.8563 Y0.8772
N15735 X0.8775 Y0.8924
N15740 X0.8992 Y0.9071
N15745 X0.9211 Y0.9212
N15750 X0.9435 Y0.9349
N15755 X0.9661 Y0.948
N15760 X0.989 Y0.9605
N15765 X1.0123 Y0.9725
N15770 X1.0358 Y0.984
N15775 X1.0596 Y0.9948
N15780 X1.0836 Y1.0051
N15785 X1.1079 Y1.0148
N15790 X1.1324 Y1.024
N15795 X1.1571 Y1.0325
N15800 X1.182 Y1.0405
N15805 X1.2071 Y1.0478
N15810 X1.2324 Y1.0546
N15815 X1.2578 Y1.0607
N15820 X1.2833 Y1.0662
N15825 X1.309 Y1.0711
N15830 X1.3348 Y1.0754
N15835 X1.3607 Y1.0791
N15840 X1.3867 Y1.0821
N15845 X1.4127 Y1.0846
N15850 X1.4388 Y1.0864
N15855 X1.4649 Y1.0875
N15860 X1.4911 Y1.0881
N15865 X1.5172 Y1.088
N15870 X1.5433 Y1.0873
N15875 X1.5695 Y1.086
N15880 X1.5955 Y1.084
N15885 X1.6216 Y1.0814
N15890 X1.6475 Y1.0782
N15895 X1.6734 Y1.0744
N15900 X1.6991 Y1.0699
N15905 X1.7248 Y1.0649
N15910 X1.7503 Y1.0592
N15915 X1.7757 Y1.0529
N15920 X1.8009 Y1.046
N15925 X1.826 Y1.0385
N15930 X1.8508 Y1.0304
N15935 X1.8755 Y1.0217
N15940 X1.8999 Y1.0124
N15945 X1.9242 Y1.0026
N15950 X1.9481 Y0.9921
N15955 X1.9718 Y0.9811
N15960 X1.9953 Y0.9695
N15965 X2.0184 Y0.9574
N15970 X2.0413 Y0.9447
N15975 X2.0639 Y0.9315
N15980 X2.0861 Y0.9177
N15985 X2.108 Y0.9034
N15990 X2.1295 Y0.8886
N15995 X2.1507 Y0.8732
N16000 X2.1715 Y0.8574
N16005 X2.1919 Y0.8411
N16010 X2.2119 Y0.8242
N16015 X2.2316 Y0.8069
N16020 X2.2508 Y0.7892
N16025 X2.2695 Y0.771
N16030 X2.2878 Y0.7523
N16035 X2.3057 Y0.7332
N16040 X2.3231 Y0.7137
N16045 X2.34 Y0.6938
N16050 X2.3565 Y0.6735
N16055 X2.3724 Y0.6527
N16060 X2.3879 Y0.6316
N16065 X2.4028 Y0.6102
N16070 X2.4173 Y0.5884
N16075 X2.4311 Y0.5662
N16080 X2.4445 Y0.5438
N16085 X2.4573 Y0.521
N16090 X2.4696 Y0.4979
N16095 X2.4813 Y0.4745
N16100 X2.4925 Y0.4508
N16105 X2.503 Y0.4269
N16110 X2.513 Y0.4028
N16115 G3 X2.5485 Y0.3987 I0.0582 J0.3551
N16120 G1 X15.0862
N16125 X15.0937 Y0.3989
N16130 X15.0974 Y0.3996
N16135 X15.1012 Y0.4009
N16140 X15.1048 Y0.4025
N16145 X15.1083 Y0.4044
N16150 X15.1087 Y0.4047
N16155 X15.1108 Y0.4063
N16160 G3 X15.125 Y0.4494 I-0.0373 J0.0361
N16165 X15.0803 Y0.4639 I-0.025 J-0.0009
N16170 G1 X15.0695 Y0.4502
N16175 X15.0656 Y0.4451
N16180 G3 X15.0707 Y0.4093 I0.0197 J-0.0154
N16185 X15.1062 Y0.416 I0.0145 J0.0203
N16190 X15.125 Y0.4719 I-0.0995 J0.0647
N16195 G2 X15.1837 Y0.5782 I0.1257 J0.
N16200 X15.3561 Y0.6744 I0.2354 J-0.219
N16205 X15.4086 Y0.6694 I0.0146 J-0.1253
N16210 G1 X16.031 Y0.4769
N16215 X16.0351 Y0.4756
N16220 G3 X16.0657 Y0.5071 I0.0067 J0.0241
N16225 G1 X16.0643 Y0.5097 Z0.2502
N16230 X16.063 Y0.5124 Z0.2508
N16235 X16.0616 Y0.5149 Z0.2517
N16240 X16.0593 Y0.517 Z0.2532
N16245 X16.0571 Y0.519 Z0.2551
N16250 X16.0551 Y0.5208 Z0.2574
N16255 X16.0531 Y0.5218 Z0.26
N16260 X16.0514 Y0.5225 Z0.2629
N16265 X16.0501 Y0.5232 Z0.266
N16270 X16.0491 Y0.5236 Z0.2692
N16275 X16.0486 Y0.5237 Z0.2721
N16280 X16.0485 Y0.5238 Z0.2751
N16285 G0 Z0.9753
N16290 X16.1619 Y-0.2409
N16295 Z0.325
N16300 G1 Z0.3 F60.
N16305 X16.1617 Y-0.2412 Z0.2961
N16310 X16.1612 Y-0.242 Z0.2923
N16315 X16.1604 Y-0.2432 Z0.2887
N16320 X16.1593 Y-0.245 Z0.2853
N16325 X16.158 Y-0.2471 Z0.2823
N16330 X16.1564 Y-0.2497 Z0.2798
N16335 X16.1547 Y-0.2525 Z0.2777
N16340 X16.1527 Y-0.2556 Z0.2762
N16345 X16.1507 Y-0.2588 Z0.2753
N16350 X16.1487 Y-0.2621 Z0.275
N16355 G3 X16.125 Y-0.337 I0.1344 J-0.0836
N16360 G2 X16.0235 Y-0.4648 I-0.1274 J-0.003
N16365 G1 X15.4086 Y-0.6551
N16370 G2 X15.2963 Y-0.6364 I-0.0377 J0.1205
N16375 G1 X15.1912 Y-0.5686
N16380 X15.1837 Y-0.5637
N16385 G3 X15.1587 Y-0.5633 I-0.0129 J-0.0214
N16390 G2 X15.1294 Y-0.5596 I-0.0121 J0.0219
N16395 G1 X15.1208 Y-0.5515
N16400 X15.1188 Y-0.5493
N16405 X15.117 Y-0.5469
N16410 X15.1156 Y-0.5443
N16415 G2 X15.1138 Y-0.5271 I0.0225 J0.0109
N16420 G3 X15.125 Y-0.4494 I-0.3532 J0.0905
N16425 X15.1012 Y-0.3769 I-0.0743 J0.0158
N16430 X15.0695 Y-0.3824 I-0.0115 J-0.0275
N16435 X15.0684 Y-0.4223 I0.0188 J-0.0205
N16440 G1 X15.0695 Y-0.4234
N16445 G3 X15.1127 Y-0.3895 I0.0189 J0.0205
N16450 G1 X15.1087 Y-0.3831
N16455 X15.1077 Y-0.382
N16460 X15.1061 Y-0.3803
N16465 X15.1044 Y-0.379
N16470 X15.1012 Y-0.3769
N16475 X15.0981 Y-0.3754
N16480 X15.095 Y-0.3745
N16485 X15.0937 Y-0.3742
N16490 X15.0899 Y-0.3738
N16495 X15.0862
N16500 X2.5485
N16505 G3 X2.4761 Y-0.4644 I0.0446 J-0.1099
N16510 G2 X0.483 Y-0.3761 I-0.9778 J0.468
N16515 G1 X0.4564 Y-0.3738
N16520 X0.0065
N16525 X-0.001 Y-0.3737
N16530 G3 X0.0002 Y-0.4237 I0.0006 J-0.025
N16535 G1 X0.0041 Y-0.4236 Z0.2753
N16540 X0.0079 Y-0.4235 Z0.2762
N16545 X0.0116 Y-0.4234 Z0.2777
N16550 X0.0149 Y-0.4233 Z0.2798
N16555 X0.0179 Z0.2823
N16560 X0.0204 Y-0.4232 Z0.2853
N16565 X0.0225 Z0.2887
N16570 X0.024 Y-0.4231 Z0.2923
N16575 X0.0249 Z0.2961
N16580 X0.0252 Z0.3
N16585 G0 Z0.9753
N16590 X-0.1613 Y0.1508
N16595 Z0.325
N16600 G1 Z0.3 F60.
N16605 X-0.1611 Y0.1511 Z0.2961
N16610 X-0.1606 Y0.1519 Z0.2923
N16615 X-0.1598 Y0.1532 Z0.2887
N16620 X-0.1588 Y0.1549 Z0.2853
N16625 X-0.1574 Y0.1571 Z0.2823
N16630 X-0.1559 Y0.1596 Z0.2798
N16635 X-0.1541 Y0.1625 Z0.2777
N16640 X-0.1522 Y0.1656 Z0.2762
N16645 X-0.1502 Y0.1688 Z0.2753
N16650 X-0.1482 Y0.1721 Z0.275
N16655 G3 X-0.1249 Y0.2472 I-0.1348 J0.0829
N16660 G2 X0.0065 Y0.3738 I0.1254 J0.0014
N16665 G1 X0.4564
N16670 G3 X0.5056 Y0.4269 I-0.0184 J0.0664
N16675 G2 X2.5149 Y0.3785 I0.9949 J-0.4307
N16680 G1 X2.5485 Y0.3738
N16685 X15.0862
N16690 X15.0899
N16695 X15.0937 Y0.3742
N16700 G3 X15.125 Y0.4344 I-0.0257 J0.0516
N16705 X15.075 Y0.4333 I-0.025 J-0.0009
N16710 G1 X15.0751 Y0.4297 Z0.2752
N16715 X15.0753 Y0.4262 Z0.2759
N16720 X15.0754 Y0.4227 Z0.2771
N16725 X15.0755 Y0.4195 Z0.2787
N16730 X15.0756 Y0.4166 Z0.2809
N16735 X15.0757 Y0.414 Z0.2834
N16740 X15.0758 Y0.4118 Z0.2863
N16745 Y0.41 Z0.2894
N16750 X15.0759 Y0.4087 Z0.2928
N16755 Y0.4079 Z0.2964
N16760 Y0.4077 Z0.3
N16765 G0 Z0.9753
N16770 X15.1009 Y0.3821
N16775 Z0.3787
N16780 G1 Z0.275 F60.
N16785 G3 X15.125 Y0.4569 I-0.1338 J0.0846
N16790 G2 X15.1923 Y0.5689 I0.1262 J0.0005
N16795 X15.3636 Y0.6606 I0.2153 J-0.1962
N16800 X15.4086 Y0.655 I0.0069 J-0.1288
N16805 G1 X16.0249 Y0.4644
N16810 X16.0351 Y0.4612
N16815 G3 X16.0593 Y0.4675 I0.0067 J0.0241
N16820 G2 X16.0623 Y0.47 I0.0175 J-0.0178
N16825 G1 X16.1017 Y0.4982
N16830 X16.1147 Y0.5076
N16835 G2 X16.1439 Y0.467 I0.0146 J-0.0203
N16840 X16.1286 Y0.4623 I-0.0146 J0.0203
N16845 G3 X16.0504 Y0.4559 I-0.0097 J-0.3644
N16850 G1 X16.0497 Y0.4558
N16855 G3 X16.0832 Y0.4841 I0.009 J0.0233
N16860 G1 X16.0821 Y0.4869 Z0.2752
N16865 X16.081 Y0.4897 Z0.2757
N16870 X16.0799 Y0.4923 Z0.2766
N16875 X16.0778 Y0.4947 Z0.2781
N16880 X16.0758 Y0.4969 Z0.28
N16885 X16.074 Y0.4988 Z0.2823
N16890 X16.0721 Y0.5 Z0.2849
N16895 X16.0705 Y0.5009 Z0.2878
N16900 X16.0692 Y0.5017 Z0.2909
N16905 X16.0683 Y0.5022 Z0.2942
N16910 X16.0679 Y0.5024 Z0.2971
N16915 X16.0677 Z0.3
N16920 G0 Z0.9753
N16925 X16.1608 Y-0.2255
N16930 Z0.35
N16935 G1 Z0.325 F60.
N16940 X16.1606 Y-0.2258 Z0.3211
N16945 X16.1602 Y-0.2266 Z0.3173
N16950 X16.1594 Y-0.2279 Z0.3137
N16955 X16.1583 Y-0.2296 Z0.3103
N16960 X16.157 Y-0.2318 Z0.3073
N16965 X16.1554 Y-0.2343 Z0.3048
N16970 X16.1537 Y-0.2372 Z0.3027
N16975 X16.1518 Y-0.2403 Z0.3012
N16980 X16.1498 Y-0.2436 Z0.3003
N16985 X16.1478 Y-0.2469 Z0.3
N16990 G3 X16.125 Y-0.3221 I0.1353 J-0.0821
N16995 G2 X16.0267 Y-0.4494 I-0.1267 J-0.0038
N17000 G1 X15.4082 Y-0.6407
N17005 G2 X15.2956 Y-0.6215 I-0.0373 J0.1206
N17010 G1 X15.1912 Y-0.5542
N17015 X15.1837 Y-0.5493
N17020 G3 X15.1587 Y-0.5489 I-0.0129 J-0.0214
N17025 G2 X15.1284 Y-0.5442 I-0.0121 J0.0219
N17030 G1 X15.1199 Y-0.5351
N17035 X15.1177 Y-0.5325
N17040 X15.1158 Y-0.5295
N17045 G2 X15.1138 Y-0.5118 I0.0222 J0.0115
N17050 G3 X15.125 Y-0.434 I-0.3532 J0.0905
N17055 X15.1055 Y-0.3541 I-0.0827 J0.0222
N17060 X15.0761 Y-0.3561 I-0.0133 J-0.0216
N17065 X15.107 Y-0.3937 I0.0154 J-0.0188
N17070 X15.1127 Y-0.3629 I-0.0154 J0.0188
N17075 G1 X15.1106 Y-0.3595
N17080 X15.1087 Y-0.3571
N17085 X15.1055 Y-0.3541
N17090 X15.1024 Y-0.352
N17095 X15.1012 Y-0.3514
N17100 X15.0974 Y-0.3499
N17105 X15.0937 Y-0.3491
N17110 X15.0862 Y-0.3488
N17115 X2.5488
N17120 G3 X2.4933 Y-0.4238 I0.0165 J-0.0703
N17125 G2 X0.4787 Y-0.3487 I-0.9924 J0.4362
N17130 X0.4564 Y-0.3488 I-0.0113 J0.0579
N17135 G1 X0.0065
N17140 X-0.001 Y-0.3487
N17145 G3 X0.0002 Y-0.3987 I0.0006 J-0.025
N17150 G1 X0.0041 Y-0.3986 Z0.3003
N17155 X0.0079 Y-0.3985 Z0.3012
N17160 X0.0116 Y-0.3984 Z0.3027
N17165 X0.0149 Y-0.3983 Z0.3048
N17170 X0.0179 Z0.3073
N17175 X0.0204 Y-0.3982 Z0.3103
N17180 X0.0225 Z0.3137
N17185 X0.024 Y-0.3981 Z0.3173
N17190 X0.0249 Z0.3211
N17195 X0.0252 Z0.325
N17200 G0 Z0.9753
N17205 X-0.1611 Y0.1212
N17210 Z0.35
N17215 G1 Z0.325 F60.
N17220 X-0.1609 Y0.1214 Z0.3211
N17225 X-0.1605 Y0.1222 Z0.3173
N17230 X-0.1597 Y0.1235 Z0.3137
N17235 X-0.1586 Y0.1252 Z0.3103
N17240 X-0.1573 Y0.1274 Z0.3073
N17245 X-0.1557 Y0.13 Z0.3048
N17250 X-0.154 Y0.1328 Z0.3027
N17255 X-0.1521 Y0.1359 Z0.3012
N17260 X-0.1501 Y0.1392 Z0.3003
N17265 X-0.1481 Y0.1425 Z0.3
N17270 G3 X-0.125 Y0.2176 I-0.135 J0.0825
N17275 G2 X0.0065 Y0.3488 I0.1256 J0.0056
N17280 G1 X0.4564
N17285 G3 X0.4994 Y0.397 I-0.0088 J0.0511
N17290 G2 X2.5198 Y0.3507 I1.0015 J-0.4051
N17295 G1 X2.5237 Y0.3486
N17300 X2.5277 Y0.3471
N17305 X2.5318 Y0.3461
N17310 X2.5359 Y0.3457
N17315 X2.5399 Y0.3459
N17320 X2.5437 Y0.3465
N17325 X2.5474 Y0.3477
N17330 X2.5508 Y0.3493
N17335 X2.5539 Y0.3512
N17340 X2.5566 Y0.3536
N17345 X2.5589 Y0.3561
N17350 G3 X2.5268 Y0.3944 I-0.016 J0.0191
N17355 X2.5212 Y0.3629 I0.016 J-0.0191
N17360 G1 X2.5233 Y0.3595
N17365 X2.526 Y0.3563
N17370 X2.5288 Y0.3538
N17375 X2.5316 Y0.352
N17380 X2.5335 Y0.351
N17385 X2.5373 Y0.3497
N17390 X2.541 Y0.349
N17395 X2.5485 Y0.3488
N17400 X15.0862
N17405 X15.0937 Y0.3491
N17410 G3 X15.1227 Y0.4187 I-0.0263 J0.0518
N17415 G1 X15.1225 Y0.4222
N17420 X15.1218 Y0.4258
N17425 X15.1206 Y0.4291
N17430 X15.1188 Y0.4323
N17435 X15.1165 Y0.4351
N17440 X15.1138 Y0.4376
N17445 X15.1107 Y0.4397
N17450 X15.1073 Y0.4412
N17455 X15.1037 Y0.4422
N17460 X15.1 Y0.4426
N17465 X15.0962 Y0.4424
N17470 X15.0925 Y0.4417
N17475 X15.0889 Y0.4403
N17480 X15.0855 Y0.4384
N17485 X15.0825 Y0.436
N17490 X15.0799 Y0.4332
N17495 X15.0777 Y0.4299
N17500 X15.072 Y0.4186
N17505 X15.0581 Y0.3914
N17510 G3 X15.1017 Y0.3669 I0.0223 J-0.0114
N17515 X15.1251 Y0.4419 I-0.1346 J0.0832
N17520 G2 X15.1914 Y0.5539 I0.1259 J0.0011
N17525 X15.3636 Y0.6462 I0.218 J-0.2
N17530 X15.4086 Y0.6406 I0.0075 J-0.1231
N17535 G1 X16.0267 Y0.4494
N17540 X16.0351 Y0.4467
N17545 G3 X16.0657 Y0.4783 I0.0067 J0.0241
N17550 G1 X16.0643 Y0.4809 Z0.3002
N17555 X16.0629 Y0.4835 Z0.3007
N17560 X16.0616 Y0.4861 Z0.3016
N17565 X16.0593 Y0.4882 Z0.3031
N17570 X16.0571 Y0.4902 Z0.305
N17575 X16.0551 Y0.492 Z0.3073
N17580 X16.0531 Y0.4929 Z0.3099
N17585 X16.0514 Y0.4937 Z0.3128
N17590 X16.05 Y0.4943 Z0.3159
N17595 X16.0491 Y0.4947 Z0.3192
N17600 X16.0486 Y0.4949 Z0.3221
N17605 X16.0484 Z0.325
N17610 G0 Z0.9753
N17615 X16.1655 Y-0.2199
N17620 Z0.375
N17625 G1 Z0.35 F60.
N17630 X16.1653 Y-0.2202 Z0.3461
N17635 X16.1648 Y-0.221 Z0.3423
N17640 X16.1639 Y-0.2222 Z0.3387
N17645 X16.1628 Y-0.2239 Z0.3353
N17650 X16.1614 Y-0.226 Z0.3323
N17655 X16.1597 Y-0.2285 Z0.3298
N17660 X16.1578 Y-0.2312 Z0.3277
N17665 X16.1558 Y-0.2342 Z0.3262
N17670 X16.1536 Y-0.2374 Z0.3253
N17675 X16.1515 Y-0.2406 Z0.325
N17680 G3 X16.1249 Y-0.3146 I0.131 J-0.0887
N17685 G2 X16.0285 Y-0.4344 I-0.1261 J0.0028
N17690 G1 X15.4086 Y-0.6262
N17695 G2 X15.2947 Y-0.6065 I-0.0377 J0.1208
N17700 G1 X15.1904 Y-0.5393
N17705 X15.1837 Y-0.5349
N17710 G3 X15.1587 Y-0.5345 I-0.0129 J-0.0214
N17715 G2 X15.1243 Y-0.5239 I-0.0121 J0.0219
N17720 G1 X15.1187 Y-0.513
N17725 X15.1158 Y-0.5072
N17730 G2 X15.1138 Y-0.4897 I0.0223 J0.0114
N17735 G3 X15.125 Y-0.4119 I-0.3532 J0.0905
N17740 X15.0556 Y-0.303 I-0.0811 J0.0249
N17745 X15.0013 Y-0.351 I0.002 J-0.0569
N17750 X15.0118 Y-0.3938 I0.0563 J-0.0089
N17755 X15.1193 Y-0.352 I0.0481 J0.0356
N17760 X15.0712 Y-0.303 I-0.05 J-0.001
N17765 G1 X2.5635
N17770 G3 X2.4777 Y-0.4269 I0.084 J-0.1499
N17775 G2 X0.4831 Y-0.3281 I-0.9784 J0.4307
N17780 G3 X0.4232 Y-0.3039 I-0.0755 J-0.1004
N17785 X0.4107 Y-0.3498 I0.0012 J-0.025
N17790 G1 X0.4238 Y-0.3584
N17795 X0.4363 Y-0.3666
N17800 X0.4466 Y-0.3733
N17805 G3 X0.4822 Y-0.3404 I0.0137 J0.0209
N17810 X0.3889 Y-0.3043 I-0.0604 J-0.0175
N17815 G1 X0.1115
N17820 X0.104 Y-0.3042
N17825 X0.0065 Y-0.3031
N17830 X-0.001 Y-0.3029
N17835 G3 X-0.0256 Y-0.3283 I0.0004 J-0.025
N17840 X-0.0003 Y-0.3529 I0.025 J0.0004
N17845 G1 X0.0036 Z0.3253
N17850 X0.0075 Y-0.3528 Z0.3262
N17855 X0.0111 Z0.3277
N17860 X0.0144 Y-0.3527 Z0.3298
N17865 X0.0174 Z0.3323
N17870 X0.02 Y-0.3526 Z0.3353
N17875 X0.022 Z0.3387
N17880 X0.0235 Z0.3423
N17885 X0.0244 Z0.3461
N17890 X0.0247 Y-0.3525 Z0.35
N17895 G0 Z0.9753
N17900 X-0.1635 Y0.0843
N17905 Z0.375
N17910 G1 Z0.35 F60.
N17915 X-0.1634 Y0.0846 Z0.3461
N17920 X-0.1629 Y0.0853 Z0.3423
N17925 X-0.1621 Y0.0866 Z0.3387
N17930 X-0.161 Y0.0883 Z0.3353
N17935 X-0.1596 Y0.0905 Z0.3323
N17940 X-0.1579 Y0.093 Z0.3298
N17945 X-0.1561 Y0.0958 Z0.3277
N17950 X-0.1542 Y0.0988 Z0.3262
N17955 X-0.1521 Y0.102 Z0.3253
N17960 X-0.15 Y0.1053 Z0.325
N17965 G3 X-0.1249 Y0.1798 I-0.1328 J0.0861
N17970 G2 X0.0065 Y0.3028 I0.1251 J-0.0019
N17975 G1 X0.104 Y0.3042
N17980 X0.1115 Y0.3043
N17985 X0.3889
N17990 G3 X0.503 Y0.3966 I0.0252 J0.0855
N17995 G2 X2.5206 Y0.3221 I0.9951 J-0.408
N18000 G3 X2.5752 Y0.303 I0.0726 J0.1201
N18005 X2.5883 Y0.3487 I-0.0009 J0.025
N18010 G1 X2.5753 Y0.3574
N18015 X2.5614 Y0.3667
N18020 X2.5516 Y0.3733
N18025 G3 X2.5158 Y0.3404 I-0.0139 J-0.0208
N18030 X2.5635 Y0.303 I0.0524 J0.0177
N18035 G1 X15.0712
N18040 G3 X15.125 Y0.4044 I-0.0124 J0.0716
N18045 X15.078 Y0.4154 I-0.025 J-0.0009
N18050 G1 X15.0718 Y0.4038
N18055 X15.0576 Y0.3774
N18060 G3 X15.1008 Y0.3522 I0.022 J-0.0118
N18065 X15.125 Y0.4269 I-0.1337 J0.0846
N18070 G2 X15.1913 Y0.5395 I0.1262 J0.0015
N18075 X15.3636 Y0.6318 I0.2129 J-0.1907
N18080 X15.4086 Y0.6262 I0.0067 J-0.1301
N18085 G1 X16.0285 Y0.4344
N18090 X16.0351 Y0.4323
N18095 G3 X16.0657 Y0.4638 I0.0067 J0.0241
N18100 G1 X16.0643 Y0.4665 Z0.3252
N18105 X16.0629 Y0.4691 Z0.3257
N18110 X16.0616 Y0.4716 Z0.3266
N18115 X16.0593 Y0.4738 Z0.3281
N18120 X16.0571 Y0.4758 Z0.33
N18125 X16.0551 Y0.4776 Z0.3323
N18130 X16.0531 Y0.4785 Z0.3349
N18135 X16.0514 Y0.4793 Z0.3378
N18140 X16.05 Y0.4799 Z0.3409
N18145 X16.0491 Y0.4803 Z0.3442
N18150 X16.0486 Y0.4805 Z0.3471
N18155 X16.0484 Z0.35
N18160 G0 Z0.9753
N18165 X16.1611 Y-0.1961
N18170 Z0.4
N18175 G1 Z0.375 F60.
N18180 X16.1609 Y-0.1963 Z0.3711
N18185 X16.1605 Y-0.1971 Z0.3673
N18190 X16.1597 Y-0.1984 Z0.3637
N18195 X16.1586 Y-0.2001 Z0.3603
N18200 X16.1573 Y-0.2023 Z0.3573
N18205 X16.1557 Y-0.2049 Z0.3548
N18210 X16.154 Y-0.2077 Z0.3527
N18215 X16.1521 Y-0.2108 Z0.3512
N18220 X16.1501 Y-0.2141 Z0.3503
N18225 X16.1481 Y-0.2174 Z0.35
N18230 G3 X16.125 Y-0.2925 I0.135 J-0.0826
N18235 G2 X16.016 Y-0.4238 I-0.1299 J-0.0031
N18240 G1 X15.4086 Y-0.6118
N18245 G2 X15.2939 Y-0.5915 I-0.0377 J0.1214
N18250 G1 X15.1895 Y-0.5243
N18255 X15.1837 Y-0.5205
N18260 G3 X15.1587 Y-0.5201 I-0.0129 J-0.0214
N18265 G2 X15.1228 Y-0.5062 I-0.0121 J0.0219
N18270 G1 X15.1201 Y-0.4981
