%
(HELENA_WAND)
(HELENA WAND TOP)
(T5  D=0.75 CR=0. - ZMIN=0.0734 - FLAT END MILL)
N10 G90 G94 G17 G91.1
N15 G20
N20 G53 G0 Z0.
(ADAPTIVE4)
N25 M9
N30 T5 M6
N35 S1800 M3
N40 G54
N45 M9
N55 G0 X-0.302 Y-2.4311
N60 G43 Z1.35 H5
N65 G0 Z0.95
N70 Z0.65
N75 G1 Z0.575 F30.
N80 Y-2.4309 Z0.5685
N85 X-0.3018 Y-2.43 Z0.562
N90 X-0.3014 Y-2.4287 Z0.5556
N95 X-0.3009 Y-2.4268 Z0.5493
N100 X-0.3003 Y-2.4243 Z0.5433
N105 X-0.2996 Y-2.4214 Z0.5375
N110 X-0.2987 Y-2.418 Z0.532
N115 X-0.2977 Y-2.4142 Z0.5268
N120 X-0.2966 Y-2.4099 Z0.522
N125 X-0.2954 Y-2.4052 Z0.5175
N130 X-0.2941 Y-2.4002 Z0.5136
N135 X-0.2927 Y-2.3948 Z0.51
N140 X-0.2913 Y-2.3892 Z0.507
N145 X-0.2898 Y-2.3833 Z0.5045
N150 X-0.2883 Y-2.3773 Z0.5026
N155 X-0.2867 Y-2.3711 Z0.5011
N160 X-0.2851 Y-2.3648 Z0.5003
N165 X-0.2834 Y-2.3585 Z0.5
N170 G3 X-0.2499 Y-2.1253 I-1.0595 J0.2714
N175 G1 Y-2.1245
N180 X-0.2537 Y-2.095
N185 X-0.2572 Y-2.0655
N190 X-0.2604 Y-2.036
N195 X-0.2634 Y-2.0064
N200 X-0.2661 Y-1.9768
N205 X-0.2686 Y-1.9472
N210 X-0.2709 Y-1.9176
N215 X-0.2731 Y-1.888
N220 X-0.275 Y-1.8583
N225 X-0.2769 Y-1.8287
N230 X-0.2785 Y-1.799
N235 X-0.2801 Y-1.7693
N240 X-0.2815 Y-1.7396
N245 X-0.2828 Y-1.71
N250 X-0.284 Y-1.6803
N255 X-0.2851 Y-1.6506
N260 X-0.2861 Y-1.6209
N265 X-0.287 Y-1.5912
N270 X-0.2879 Y-1.5615
N275 X-0.2887 Y-1.5318
N280 X-0.2894 Y-1.5021
N285 X-0.2901 Y-1.4724
N290 X-0.2907 Y-1.4427
N295 X-0.2913 Y-1.413
N300 X-0.2918 Y-1.3833
N305 X-0.2923 Y-1.3535
N310 X-0.2927 Y-1.3238
N315 X-0.2931 Y-1.2941
N320 X-0.2935 Y-1.2644
N325 X-0.2938 Y-1.2347
N330 X-0.2942 Y-1.205
N335 X-0.2944 Y-1.1753
N340 X-0.2947 Y-1.1456
N345 X-0.295 Y-1.1159
N350 X-0.2952 Y-1.0861
N355 X-0.2954 Y-1.0564
N360 X-0.2956 Y-1.0267
N365 X-0.2958 Y-0.997
N370 X-0.2959 Y-0.9673
N375 X-0.2961 Y-0.9376
N380 X-0.2962 Y-0.9079
N385 X-0.2964 Y-0.8782
N390 X-0.2965 Y-0.8484
N395 X-0.2966 Y-0.8187
N400 X-0.2967 Y-0.789
N405 X-0.2969 Y-0.7296
N410 X-0.297 Y-0.6702
N415 X-0.2971 Y-0.6107
N420 X-0.2972 Y-0.5513
N425 X-0.2974 Y-0.4622
N430 X-0.2975 Y-0.373
N435 X-0.2976 Y-0.2839
N440 Y-0.1651
N445 X-0.2977 Y-0.1353
N450 Y0.0132
N455 X-0.2978 Y0.2212
N460 Y0.5183
N465 X-0.2979 Y1.0235
N470 Y1.38
N475 X-0.2973 Y1.3949
N480 X-0.2953 Y1.4096
N485 X-0.292 Y1.4241
N490 X-0.2873 Y1.4381
N495 X-0.2753 Y1.4653
N500 X-0.259 Y1.4902
N505 X-0.2403 Y1.5133
N510 X-0.2199 Y1.5348
N515 X-0.1979 Y1.5548
N520 X-0.1747 Y1.5734
N525 X-0.1505 Y1.5906
N530 X-0.1254 Y1.6066
N535 X-0.0996 Y1.6213
N540 X-0.0732 Y1.635
N545 X-0.0464 Y1.6477
N550 X-0.019 Y1.6593
N555 X0.0086 Y1.6701
N560 X0.0366 Y1.6801
N565 X0.0649 Y1.6893
N570 X0.0927 Y1.6999
N575 X0.1207 Y1.7096
N580 X0.149 Y1.7187
N585 X0.1775 Y1.727
N590 X0.2062 Y1.7347
N595 X0.2351 Y1.7418
N600 X0.2641 Y1.7484
N605 X0.2932 Y1.7544
N610 X0.3223 Y1.76
N615 X0.3516 Y1.7652
N620 X0.3809 Y1.7699
N625 X0.4103 Y1.7743
N630 X0.4398 Y1.7783
N635 X0.4692 Y1.782
N640 X0.4988 Y1.7854
N645 X0.5283 Y1.7886
N650 X0.5579 Y1.7915
N655 X0.5875 Y1.7942
N660 X0.6171 Y1.7966
N665 X0.6467 Y1.7989
N670 X0.6763 Y1.801
N675 X0.706 Y1.8029
N680 X0.7357 Y1.8046
N685 X0.7653 Y1.8062
N690 X0.795 Y1.8077
N695 X0.8247 Y1.8091
N700 X0.8544 Y1.8104
N705 X0.8841 Y1.8115
N710 X0.9138 Y1.8126
N715 X0.9435 Y1.8136
N720 X0.9732 Y1.8145
N725 X1.0029 Y1.8153
N730 X1.0326 Y1.8161
N735 X1.0623 Y1.8168
N740 X1.092 Y1.8174
N745 X1.1217 Y1.818
N750 X1.1514 Y1.8186
N755 X1.1811 Y1.8191
N760 X1.2108 Y1.8195
N765 X1.2405 Y1.82
N770 X1.2702 Y1.8203
N775 X1.2999 Y1.8207
N780 X1.3296 Y1.821
N785 X1.3593 Y1.8213
N790 X1.3891 Y1.8216
N795 X1.4188 Y1.8219
N800 X1.4485 Y1.8221
N805 X1.4782 Y1.8223
N810 X1.5079 Y1.8225
N815 X1.5376 Y1.8227
N820 X1.5673 Y1.8229
N825 X1.597 Y1.823
N830 X1.6268 Y1.8232
N835 X1.6565 Y1.8233
N840 X1.6862 Y1.8234
N845 X1.7159 Y1.8235
N850 X1.7456 Y1.8236
N855 X1.805 Y1.8238
N860 X1.8645 Y1.824
N865 X1.9239 Y1.8241
N870 X1.9833 Y1.8242
N875 X2.013
N880 X2.1022 Y1.8244
N885 X2.1913 Y1.8245
N890 X2.3101 Y1.8246
N895 X2.429
N900 X2.5776 Y1.8247
N905 X2.7856
N910 X3.0827 Y1.8248
N915 X3.6175
N920 X4.0038
N925 X5.9945
N930 X7.9853
N935 X9.976
N940 X11.9668
N945 X13.9575
N950 X15.8889
N955 X15.9037 Y1.8237
N960 X15.9183 Y1.8212
N965 X15.947 Y1.8135
N970 X15.9605 Y1.8073
N975 X15.9863 Y1.7925
N980 X16.0097 Y1.7742
N985 X16.0315 Y1.754
N990 X16.0517 Y1.7322
N995 X16.0705 Y1.7092
N1000 X16.0879 Y1.6851
N1005 X16.1041 Y1.6602
N1010 X16.119 Y1.6345
N1015 X16.1329 Y1.6082
N1020 X16.1457 Y1.5814
N1025 X16.1575 Y1.5542
N1030 X16.1685 Y1.5265
N1035 X16.1786 Y1.4986
N1040 X16.1879 Y1.4704
N1045 X16.1965 Y1.442
N1050 X16.2045 Y1.4133
N1055 X16.2118 Y1.3845
N1060 X16.2186 Y1.3556
N1065 X16.2248 Y1.3266
N1070 X16.2306 Y1.2974
N1075 X16.2359 Y1.2682
N1080 X16.2408 Y1.2389
N1085 X16.2453 Y1.2095
N1090 X16.2495 Y1.1801
N1095 X16.2533 Y1.1506
N1100 X16.2568 Y1.1211
N1105 X16.2601 Y1.0916
N1110 X16.2631 Y1.062
N1115 X16.2658 Y1.0324
N1120 X16.2684 Y1.0028
N1125 X16.2707 Y0.9732
N1130 X16.2729 Y0.9436
N1135 X16.2749 Y0.9139
N1140 X16.2767 Y0.8843
N1145 X16.2784 Y0.8546
N1150 X16.2799 Y0.8249
N1155 X16.2813 Y0.7953
N1160 X16.2827 Y0.7656
N1165 X16.2839 Y0.7359
N1170 X16.285 Y0.7062
N1175 X16.286 Y0.6765
N1180 X16.2869 Y0.6468
N1185 X16.2878 Y0.6171
N1190 X16.2886 Y0.5874
N1195 X16.2893 Y0.5577
N1200 X16.29 Y0.528
N1205 X16.2906 Y0.4983
N1210 X16.2912 Y0.4686
N1215 X16.2917 Y0.4389
N1220 X16.292 Y0.4206
N1225 X16.2929 Y0.4076
N1230 X16.2951 Y0.3948
N1235 X16.2985 Y0.3822
N1240 X16.3025 Y0.3701
N1245 X16.3082 Y0.3477
N1250 X16.3098 Y0.3406
N1255 X16.3127 Y0.3253
N1260 X16.3158 Y0.3028
N1265 X16.3176 Y0.2804
N1270 X16.3182 Y0.258
N1275 Y0.2355
N1280 X16.3197 Y0.2059
N1285 X16.3184 Y0.1845
N1290 X16.3183 Y0.182
N1295 X16.3182 Y0.1794
N1300 Y0.1768
N1305 Y0.1682
N1310 X16.3197 Y0.1386
N1315 X16.3184 Y0.1172
N1320 X16.3183 Y0.1147
N1325 X16.3182 Y0.1121
N1330 Y0.1096
N1335 Y0.1009
N1340 X16.3197 Y0.0713
N1345 X16.3184 Y0.0499
N1350 X16.3183 Y0.0474
N1355 X16.3182 Y0.0448
N1360 Y0.0423
N1365 Y0.0336
N1370 X16.3197 Y0.004
N1375 X16.3184 Y-0.0174
N1380 X16.3183 Y-0.0199
N1385 X16.3182 Y-0.0225
N1390 Y-0.025
N1395 Y-0.0336
N1400 X16.3197 Y-0.0633
N1405 X16.3184 Y-0.0847
N1410 X16.3183 Y-0.0872
N1415 X16.3182 Y-0.0898
N1420 Y-0.0923
N1425 Y-0.1009
N1430 X16.3197 Y-0.1306
N1435 X16.3184 Y-0.152
N1440 X16.3183 Y-0.1545
N1445 X16.3182 Y-0.1571
N1450 Y-0.1596
N1455 Y-0.1682
N1460 X16.3197 Y-0.1979
N1465 X16.3184 Y-0.2193
N1470 X16.3183 Y-0.2218
N1475 X16.3182 Y-0.2244
N1480 Y-0.2269
N1485 Y-0.2355
N1490 X16.3197 Y-0.2652
N1495 X16.3179 Y-0.2949
N1500 X16.3163 Y-0.3245
N1505 X16.3148 Y-0.3542
N1510 X16.3135 Y-0.3839
N1515 X16.3122 Y-0.4136
N1520 X16.3111 Y-0.4433
N1525 X16.31 Y-0.473
N1530 X16.309 Y-0.5027
N1535 X16.3081 Y-0.5324
N1540 X16.3073 Y-0.5621
N1545 X16.3066 Y-0.5918
N1550 X16.3059 Y-0.6215
N1555 X16.3052 Y-0.6512
N1560 X16.3046 Y-0.6809
N1565 X16.3041 Y-0.7106
N1570 X16.3036 Y-0.7403
N1575 X16.3031 Y-0.77
N1580 X16.3027 Y-0.7997
N1585 X16.3023 Y-0.8294
N1590 X16.302 Y-0.8591
N1595 X16.3017 Y-0.8889
N1600 X16.3013 Y-0.9186
N1605 X16.3011 Y-0.9483
N1610 X16.3008 Y-0.978
N1615 X16.3006 Y-1.0077
N1620 X16.3004 Y-1.0374
N1625 X16.3002 Y-1.0671
N1630 X16.3 Y-1.0968
N1635 X16.2998 Y-1.1265
N1640 X16.2997 Y-1.1563
N1645 X16.2995 Y-1.186
N1650 X16.2994 Y-1.2157
N1655 X16.2993 Y-1.2454
N1660 X16.2992 Y-1.2751
N1665 X16.2991 Y-1.3048
N1670 X16.2989 Y-1.3642
N1675 X16.2988 Y-1.3791
N1680 X16.2985 Y-1.394
N1685 X16.2967 Y-1.4087
N1690 X16.2936 Y-1.4232
N1695 X16.2891 Y-1.4374
N1700 X16.2775 Y-1.4648
N1705 X16.2607 Y-1.4903
N1710 X16.242 Y-1.5135
N1715 X16.2216 Y-1.535
N1720 X16.1996 Y-1.555
N1725 X16.1764 Y-1.5736
N1730 X16.1522 Y-1.5908
N1735 X16.1271 Y-1.6067
N1740 X16.1013 Y-1.6215
N1745 X16.0749 Y-1.6351
N1750 X16.048 Y-1.6478
N1755 X16.0207 Y-1.6594
N1760 X15.993 Y-1.6702
N1765 X15.965 Y-1.6802
N1770 X15.9368 Y-1.6894
N1775 X15.9083 Y-1.6979
N1780 X15.8796 Y-1.7057
N1785 X15.8508 Y-1.713
N1790 X15.8219 Y-1.7197
N1795 X15.7928 Y-1.7258
N1800 X15.7636 Y-1.7315
N1805 X15.7344 Y-1.7367
N1810 X15.7051 Y-1.7416
N1815 X15.6757 Y-1.746
N1820 X15.6463 Y-1.7501
N1825 X15.6168 Y-1.7539
N1830 X15.5873 Y-1.7574
N1835 X15.5581 Y-1.7627
N1840 X15.5288 Y-1.7677
N1845 X15.4994 Y-1.7722
N1850 X15.47 Y-1.7764
N1855 X15.4405 Y-1.7803
N1860 X15.411 Y-1.7838
N1865 X15.3815 Y-1.7871
N1870 X15.3519 Y-1.7901
N1875 X15.3223 Y-1.7929
N1880 X15.2927 Y-1.7955
N1885 X15.2631 Y-1.7978
N1890 X15.2335 Y-1.8
N1895 X15.2038 Y-1.802
N1900 X15.1742 Y-1.8038
N1905 X15.1445 Y-1.8055
N1910 X15.1149 Y-1.807
N1915 X15.0852 Y-1.8085
N1920 X15.0555 Y-1.8098
N1925 X15.0258 Y-1.811
N1930 X14.9961 Y-1.8121
N1935 X14.9664 Y-1.8131
N1940 X14.9367 Y-1.8141
N1945 X14.907 Y-1.8149
N1950 X14.8773 Y-1.8157
N1955 X14.8476 Y-1.8165
N1960 X14.8179 Y-1.8171
N1965 X14.7882 Y-1.8178
N1970 X14.7585 Y-1.8183
N1975 X14.7288 Y-1.8188
N1980 X14.6991 Y-1.8193
N1985 X14.6694 Y-1.8198
N1990 X14.6397 Y-1.8202
N1995 X14.6099 Y-1.8205
N2000 X14.5802 Y-1.8209
N2005 X14.5505 Y-1.8212
N2010 X14.5208 Y-1.8215
N2015 X14.4911 Y-1.8218
N2020 X14.4614 Y-1.822
N2025 X14.4317 Y-1.8222
N2030 X14.402 Y-1.8224
N2035 X14.3723 Y-1.8226
N2040 X14.3425 Y-1.8228
N2045 X14.3128 Y-1.823
N2050 X14.2831 Y-1.8231
N2055 X14.2534 Y-1.8233
N2060 X14.2237 Y-1.8234
N2065 X14.194 Y-1.8235
N2070 X14.1643 Y-1.8236
N2075 X14.1048 Y-1.8238
N2080 X14.0454 Y-1.8239
N2085 X13.986 Y-1.8241
N2090 X13.9266 Y-1.8242
N2095 X13.8374 Y-1.8243
N2100 X13.7483 Y-1.8244
N2105 X13.6592 Y-1.8245
N2110 X13.6294
N2115 X13.5106 Y-1.8246
N2120 X13.362 Y-1.8247
N2125 X13.1837
N2130 X12.9163 Y-1.8248
N2135 X12.4706
N2140 X11.6387
N2145 X9.6479
N2150 X7.6572
N2155 X5.6664 Y-1.8249
N2160 X3.6757
N2165 X1.6849
N2170 X1.6552
N2175 X1.6256 Y-1.8227
N2180 X1.5959 Y-1.8207
N2185 X1.5663 Y-1.8189
N2190 X1.5366 Y-1.8172
N2195 X1.5069 Y-1.8157
N2200 X1.4773 Y-1.8142
N2205 X1.4476 Y-1.8129
N2210 X1.4179 Y-1.8117
N2215 X1.3882 Y-1.8106
N2220 X1.3585 Y-1.8096
N2225 X1.3288 Y-1.8087
N2230 X1.2991 Y-1.8078
N2235 X1.2694 Y-1.807
N2240 X1.2397 Y-1.8063
N2245 X1.21 Y-1.8056
N2250 X1.1803 Y-1.805
N2255 X1.1506 Y-1.8044
N2260 X1.1209 Y-1.8039
N2265 X1.0912 Y-1.8034
N2270 X1.0614 Y-1.803
N2275 X1.0317 Y-1.8026
N2280 X1.002 Y-1.8022
N2285 X0.9723 Y-1.8018
N2290 X0.9426 Y-1.8015
N2295 X0.9129 Y-1.8012
N2300 X0.8832 Y-1.801
N2305 X0.8535 Y-1.8007
N2310 X0.8238 Y-1.8005
N2315 X0.794 Y-1.8003
N2320 X0.7643 Y-1.8001
N2325 X0.7346 Y-1.7999
N2330 X0.7049 Y-1.7998
N2335 X0.6752 Y-1.7996
N2340 X0.6455 Y-1.7995
N2345 X0.6158 Y-1.7993
N2350 X0.5861 Y-1.7992
N2355 X0.5563 Y-1.7991
N2360 X0.5266 Y-1.799
N2365 X0.4672 Y-1.7988
N2370 X0.4524
N2375 X0.4376 Y-1.7974
N2380 X0.423 Y-1.7945
N2385 X0.4087 Y-1.7904
N2390 X0.3811 Y-1.7793
N2395 X0.3549 Y-1.7635
N2400 X0.3311 Y-1.7457
N2405 X0.3089 Y-1.726
N2410 X0.2882 Y-1.7047
N2415 X0.2689 Y-1.6821
N2420 X0.251 Y-1.6584
N2425 X0.2343 Y-1.6338
N2430 X0.2189 Y-1.6084
N2435 X0.2045 Y-1.5824
N2440 X0.1912 Y-1.5558
N2445 X0.1789 Y-1.5287
N2450 X0.1675 Y-1.5013
N2455 X0.157 Y-1.4735
N2460 X0.1472 Y-1.4455
N2465 X0.1382 Y-1.4172
N2470 X0.1298 Y-1.3887
N2475 X0.1221 Y-1.36
N2480 X0.1149 Y-1.3311
N2485 X0.1083 Y-1.3022
N2490 X0.1022 Y-1.2731
N2495 X0.0966 Y-1.2439
N2500 X0.0914 Y-1.2147
N2505 X0.0865 Y-1.1853
N2510 X0.0821 Y-1.156
N2515 X0.0759 Y-1.1269
N2520 X0.0701 Y-1.0978
N2525 X0.0648 Y-1.0685
N2530 X0.0599 Y-1.0392
N2535 X0.0553 Y-1.0099
N2540 X0.0512 Y-0.9804
N2545 X0.0473 Y-0.951
N2550 X0.0438 Y-0.9215
N2555 X0.0405 Y-0.8919
N2560 X0.0375 Y-0.8624
N2565 X0.0347 Y-0.8328
N2570 X0.0321 Y-0.8032
N2575 X0.0297 Y-0.7736
N2580 X0.0276 Y-0.744
N2585 X0.0255 Y-0.7143
N2590 X0.0237 Y-0.6847
N2595 X0.022 Y-0.655
N2600 X0.0204 Y-0.6253
N2605 X0.019 Y-0.5956
N2610 X0.0176 Y-0.566
N2615 X0.0164 Y-0.5363
N2620 X0.0153 Y-0.5066
N2625 X0.0142 Y-0.4769
N2630 X0.0133 Y-0.4472
N2635 X0.0124 Y-0.4175
N2640 X0.0116 Y-0.3878
N2645 X0.0108 Y-0.3581
N2650 X0.0101 Y-0.3284
N2655 X0.0095 Y-0.2987
N2660 X0.0089 Y-0.269
N2665 X0.0084 Y-0.2393
N2670 X0.0079 Y-0.2095
N2675 X0.0074 Y-0.1798
N2680 X0.007 Y-0.1501
N2685 X0.0066 Y-0.1204
N2690 X0.0063 Y-0.0907
N2695 X0.0059 Y-0.061
N2700 X0.0056 Y-0.0313
N2705 X0.0054 Y-0.0016
N2710 X0.0051 Y0.0281
N2715 X0.0049 Y0.0578
N2720 X0.0046 Y0.0876
N2725 X0.0044 Y0.1173
N2730 X0.0043 Y0.147
N2735 X0.0041 Y0.1767
N2740 X0.0039 Y0.2064
N2745 X0.0038 Y0.2361
N2750 X0.0037 Y0.2658
N2755 X0.0035 Y0.2955
N2760 X0.0034 Y0.3253
N2765 X0.0033 Y0.355
N2770 X0.0031 Y0.4144
N2775 X0.003 Y0.4738
N2780 X0.0029 Y0.5332
N2785 X0.0027 Y0.5927
N2790 X0.0026 Y0.6818
N2795 X0.0025 Y0.7709
N2800 Y0.8007
N2805 X0.0024 Y0.8898
N2810 Y0.9492
N2815 X0.0052 Y0.9788
N2820 X0.0112 Y1.0079
N2825 X0.02 Y1.0363
N2830 X0.0311 Y1.0639
N2835 X0.0442 Y1.0905
N2840 X0.0592 Y1.1162
N2845 X0.0759 Y1.1408
N2850 X0.0941 Y1.1643
N2855 X0.1136 Y1.1866
N2860 X0.1344 Y1.2079
N2865 X0.1562 Y1.228
N2870 X0.179 Y1.2471
N2875 X0.2026 Y1.2651
N2880 X0.227 Y1.2821
N2885 X0.2521 Y1.2981
N2890 X0.2777 Y1.3131
N2895 X0.3038 Y1.3272
N2900 X0.3304 Y1.3405
N2905 X0.3574 Y1.353
N2910 X0.3847 Y1.3646
N2915 X0.4124 Y1.3756
N2920 X0.4402 Y1.3858
N2925 X0.4684 Y1.3954
N2930 X0.4967 Y1.4043
N2935 X0.5252 Y1.4127
N2940 X0.5539 Y1.4205
N2945 X0.5827 Y1.4278
N2950 X0.6116 Y1.4346
N2955 X0.6406 Y1.4409
N2960 X0.6698 Y1.4468
N2965 X0.699 Y1.4523
N2970 X0.7282 Y1.4575
N2975 X0.7576 Y1.4622
N2980 X0.7869 Y1.4667
N2985 X0.8164 Y1.4708
N2990 X0.8458 Y1.4747
N2995 X0.8753 Y1.4783
N3000 X0.9048 Y1.4816
N3005 X0.9344 Y1.4847
N3010 X0.964 Y1.4876
N3015 X0.9936 Y1.4903
N3020 X1.0232 Y1.4928
N3025 X1.0528 Y1.4951
N3030 X1.0824 Y1.4973
N3035 X1.1121 Y1.4993
N3040 X1.1417 Y1.5011
N3045 X1.1714 Y1.5028
N3050 X1.201 Y1.5044
N3055 X1.2307 Y1.5059
N3060 X1.2604 Y1.5073
N3065 X1.2901 Y1.5086
N3070 X1.3198 Y1.5098
N3075 X1.3495 Y1.5109
N3080 X1.3792 Y1.5119
N3085 X1.4089 Y1.5128
N3090 X1.4386 Y1.5137
N3095 X1.4683 Y1.5145
N3100 X1.498 Y1.5153
N3105 X1.5277 Y1.516
N3110 X1.5574 Y1.5166
N3115 X1.5871 Y1.5172
N3120 X1.6168 Y1.5178
N3125 X1.6465 Y1.5183
N3130 X1.6762 Y1.5188
N3135 X1.7059 Y1.5192
N3140 X1.7356 Y1.5196
N3145 X1.7653 Y1.52
N3150 X1.795 Y1.5204
N3155 X1.8248 Y1.5207
N3160 X1.8545 Y1.521
N3165 X1.8842 Y1.5213
N3170 X1.9139 Y1.5216
N3175 X1.9436 Y1.5218
N3180 X1.9733 Y1.522
N3185 X2.003 Y1.5222
N3190 X2.0327 Y1.5224
N3195 X2.0625 Y1.5226
N3200 X2.0922 Y1.5228
N3205 X2.1219 Y1.5229
N3210 X2.1516 Y1.5231
N3215 X2.1813 Y1.5232
N3220 X2.211 Y1.5233
N3225 X2.2407 Y1.5234
N3230 X2.3002 Y1.5236
N3235 X2.3596 Y1.5238
N3240 X2.419 Y1.5239
N3245 X2.4784 Y1.5241
N3250 X2.5379 Y1.5242
N3255 X2.627 Y1.5243
N3260 X2.7161 Y1.5244
N3265 X2.8053 Y1.5245
N3270 X2.9241 Y1.5246
N3275 X3.0727
N3280 X3.251 Y1.5247
N3285 X3.4887
N3290 X3.6075 Y1.5248
N3295 X4.0532
N3300 X5.2714
N3305 X5.5983
N3310 X7.589
N3315 X9.5798
N3320 X11.5705
N3325 X13.5613
N3330 X15.4332
N3335 X15.4629 Y1.5239
N3340 X15.4923 Y1.5197
N3345 X15.5211 Y1.5125
N3350 X15.5491 Y1.5025
N3355 X15.5761 Y1.49
N3360 X15.6019 Y1.4753
N3365 X15.6266 Y1.4588
N3370 X15.6501 Y1.4406
N3375 X15.6724 Y1.421
N3380 X15.6935 Y1.4001
N3385 X15.7134 Y1.378
N3390 X15.7322 Y1.355
N3395 X15.7499 Y1.3312
N3400 X15.7666 Y1.3065
N3405 X15.7822 Y1.2813
N3410 X15.7968 Y1.2554
N3415 X15.8106 Y1.2291
N3420 X15.8235 Y1.2023
N3425 X15.8355 Y1.1751
N3430 X15.8468 Y1.1476
N3435 X15.8573 Y1.1199
N3440 X15.8671 Y1.0918
N3445 X15.8763 Y1.0636
N3450 X15.8848 Y1.0351
N3455 X15.8928 Y1.0065
N3460 X15.9003 Y0.9777
N3465 X15.9072 Y0.9488
N3470 X15.9137 Y0.9198
N3475 X15.9197 Y0.8907
N3480 X15.9253 Y0.8615
N3485 X15.9305 Y0.8323
N3490 X15.9353 Y0.803
N3495 X15.9398 Y0.7736
N3500 X15.9434 Y0.7483
N3505 X15.9473 Y0.731
N3510 X15.9537 Y0.7145
N3515 X15.9625 Y0.6992
N3520 X15.9736 Y0.6854
N3525 X15.9867 Y0.6735
N3530 X16.0014 Y0.6636
N3535 X16.0174 Y0.6562
N3540 X16.0399 Y0.647
N3545 X16.0573 Y0.6393
N3550 X16.0624 Y0.6369
N3555 X16.0849 Y0.6255
N3560 X16.1007 Y0.6169
N3565 X16.1074 Y0.613
N3570 X16.1299 Y0.599
N3575 X16.1364 Y0.5944
N3580 X16.1523 Y0.5831
N3585 X16.1525 Y0.583
N3590 G2 X16.3376 Y0.4409 I-0.213 J-0.469
N3595 X16.383 Y0.376 I-0.3981 J-0.3268
N3600 X16.3919 Y0.3528 I-0.0646 J-0.0382
N3605 G1 X16.4492 Y0.0705
N3610 G2 X16.45 Y0.0456 I-0.0735 J-0.0149
N3615 X16.4334 Y-0.0323 I-0.5105 J0.0684
N3620 X16.3185 Y-0.2348 I-0.4938 J0.1464
N3625 G1 X16.3182 Y-0.2355
N3630 Y-0.258
N3635 X16.3176 Y-0.2804
N3640 X16.3158 Y-0.3028
N3645 X16.3127 Y-0.3253
N3650 X16.3098 Y-0.3406
N3655 X16.3082 Y-0.3477
N3660 X16.3025 Y-0.3701
N3665 X16.2951 Y-0.3926
N3670 X16.2873 Y-0.4128
N3675 X16.2864 Y-0.415
N3680 X16.2757 Y-0.4374
N3685 X16.2648 Y-0.4578
N3690 X16.2636 Y-0.4598
N3695 X16.2493 Y-0.4823
N3700 X16.2423 Y-0.4921
N3705 X16.233 Y-0.5047
N3710 X16.2198 Y-0.5205
N3715 X16.2012 Y-0.5437
N3720 X16.1841 Y-0.568
N3725 X16.1684 Y-0.5932
N3730 X16.1542 Y-0.6193
N3735 X16.1412 Y-0.6461
N3740 X16.1294 Y-0.6733
N3745 X16.1186 Y-0.701
N3750 X16.1087 Y-0.729
N3755 X16.0996 Y-0.7573
N3760 X16.0913 Y-0.7858
N3765 X16.0837 Y-0.8146
N3770 X16.0768 Y-0.8434
N3775 X16.0704 Y-0.8725
N3780 X16.0645 Y-0.9016
N3785 X16.0591 Y-0.9308
N3790 X16.0542 Y-0.9601
N3795 X16.0477 Y-0.9891
N3800 X16.0388 Y-1.0175
N3805 X16.0276 Y-1.045
N3810 X16.0143 Y-1.0715
N3815 X15.9991 Y-1.0971
N3820 X15.9822 Y-1.1215
N3825 X15.9637 Y-1.1448
N3830 X15.9439 Y-1.1669
N3835 X15.9229 Y-1.1879
N3840 X15.9008 Y-1.2078
N3845 X15.8778 Y-1.2266
N3850 X15.8539 Y-1.2443
N3855 X15.8294 Y-1.2611
N3860 X15.8044 Y-1.2771
N3865 X15.7789 Y-1.2923
N3870 X15.7529 Y-1.3067
N3875 X15.7264 Y-1.3203
N3880 X15.6997 Y-1.3332
N3885 X15.6726 Y-1.3453
N3890 X15.6451 Y-1.3568
N3895 X15.6175 Y-1.3676
N3900 X15.5895 Y-1.3778
N3905 X15.5614 Y-1.3873
N3910 X15.5331 Y-1.3963
N3915 X15.5046 Y-1.4048
N3920 X15.476 Y-1.4127
N3925 X15.4472 Y-1.4202
N3930 X15.4183 Y-1.4272
N3935 X15.3894 Y-1.4337
N3940 X15.3603 Y-1.4398
N3945 X15.3311 Y-1.4456
N3950 X15.3019 Y-1.451
N3955 X15.2726 Y-1.456
N3960 X15.2433 Y-1.4607
N3965 X15.2139 Y-1.4651
N3970 X15.1845 Y-1.4692
N3975 X15.155 Y-1.473
N3980 X15.1255 Y-1.4766
N3985 X15.096 Y-1.4799
N3990 X15.0664 Y-1.483
N3995 X15.0369 Y-1.486
N4000 X15.0073 Y-1.4887
N4005 X14.9777 Y-1.4912
N4010 X14.9481 Y-1.4936
N4015 X14.9184 Y-1.4957
N4020 X14.8888 Y-1.4978
N4025 X14.8591 Y-1.4997
N4030 X14.8295 Y-1.5015
N4035 X14.7998 Y-1.5031
N4040 X14.7701 Y-1.5047
N4045 X14.7405 Y-1.5061
N4050 X14.7108 Y-1.5074
N4055 X14.6811 Y-1.5087
N4060 X14.6514 Y-1.5098
N4065 X14.6217 Y-1.5109
N4070 X14.592 Y-1.5119
N4075 X14.5623 Y-1.5128
N4080 X14.5326 Y-1.5137
N4085 X14.5029 Y-1.5145
N4090 X14.4732 Y-1.5152
N4095 X14.4435 Y-1.5159
N4100 X14.4138 Y-1.5166
N4105 X14.3841 Y-1.5172
N4110 X14.3544 Y-1.5177
N4115 X14.3247 Y-1.5182
N4120 X14.295 Y-1.5187
N4125 X14.2652 Y-1.5191
N4130 X14.2355 Y-1.5196
N4135 X14.2058 Y-1.5199
N4140 X14.1761 Y-1.5203
N4145 X14.1464 Y-1.5206
N4150 X14.1167 Y-1.5209
N4155 X14.087 Y-1.5212
N4160 X14.0573 Y-1.5215
N4165 X14.0276 Y-1.5217
N4170 X13.9978 Y-1.5219
N4175 X13.9681 Y-1.5222
N4180 X13.9384 Y-1.5223
N4185 X13.9087 Y-1.5225
N4190 X13.879 Y-1.5227
N4195 X13.8493 Y-1.5229
N4200 X13.8196 Y-1.523
N4205 X13.7899 Y-1.5231
N4210 X13.7602 Y-1.5233
N4215 X13.7304 Y-1.5234
N4220 X13.671 Y-1.5236
N4225 X13.6116 Y-1.5237
N4230 X13.5522 Y-1.5239
N4235 X13.4927 Y-1.524
N4240 X13.4333 Y-1.5241
N4245 X13.3442 Y-1.5243
N4250 X13.255 Y-1.5244
N4255 X13.1659 Y-1.5245
N4260 X13.047 Y-1.5246
N4265 X12.8985
N4270 X12.7499 Y-1.5247
N4275 X12.5419
N4280 X12.2448 Y-1.5248
N4285 X11.71
N4290 X10.7592
N4295 X8.7684
N4300 X6.7777
N4305 X4.7869 Y-1.5249
N4310 X2.7962
N4315 X2.0236
N4320 X1.9939 Y-1.5248
N4325 X1.9642 Y-1.5246
N4330 X1.9345 Y-1.5242
N4335 X1.9048 Y-1.5237
N4340 X1.8751 Y-1.5232
N4345 X1.8454 Y-1.5225
N4350 X1.8157 Y-1.5219
N4355 X1.786 Y-1.5211
N4360 X1.7563 Y-1.5203
N4365 X1.7266 Y-1.5195
N4370 X1.6969 Y-1.5187
N4375 X1.6077 Y-1.5163
N4380 X1.578 Y-1.5154
N4385 X1.5483 Y-1.5146
N4390 X1.5186 Y-1.5139
N4395 X1.4889 Y-1.5131
N4400 X1.4592 Y-1.5123
N4405 X1.4295 Y-1.5116
N4410 X1.3998 Y-1.5109
N4415 X1.3701 Y-1.5102
N4420 X1.3404 Y-1.5096
N4425 X1.3107 Y-1.509
N4430 X1.281 Y-1.5084
N4435 X1.2513 Y-1.5078
N4440 X1.2216 Y-1.5072
N4445 X1.1919 Y-1.5067
N4450 X1.1622 Y-1.5062
N4455 X1.1325 Y-1.5057
N4460 X1.1028 Y-1.5053
N4465 X1.073 Y-1.5048
N4470 X1.0433 Y-1.5044
N4475 X1.0136 Y-1.504
N4480 X0.9839 Y-1.5037
N4485 X0.9542 Y-1.5033
N4490 X0.9245 Y-1.503
N4495 X0.8948 Y-1.5027
N4500 X0.8651 Y-1.5006
N4505 X0.8359 Y-1.4954
N4510 X0.8073 Y-1.4874
N4515 X0.7795 Y-1.4769
N4520 X0.7527 Y-1.464
N4525 X0.7271 Y-1.449
N4530 X0.7025 Y-1.4322
N4535 X0.6792 Y-1.4139
N4540 X0.657 Y-1.3941
N4545 X0.636 Y-1.3731
N4550 X0.6159 Y-1.3512
N4555 X0.5968 Y-1.3284
N4560 X0.5787 Y-1.3049
N4565 X0.5615 Y-1.2806
N4570 X0.5452 Y-1.2558
N4575 X0.5298 Y-1.2304
N4580 X0.5153 Y-1.2044
N4585 X0.5016 Y-1.1781
N4590 X0.4887 Y-1.1513
N4595 X0.4766 Y-1.1242
N4600 X0.4652 Y-1.0968
N4605 X0.4544 Y-1.0691
N4610 X0.4443 Y-1.0411
N4615 X0.4349 Y-1.0129
N4620 X0.426 Y-0.9846
N4625 X0.4177 Y-0.9561
N4630 X0.4099 Y-0.9274
N4635 X0.4026 Y-0.8986
N4640 X0.3958 Y-0.8697
N4645 X0.3894 Y-0.8406
N4650 X0.3834 Y-0.8115
N4655 X0.3778 Y-0.7823
N4660 X0.3726 Y-0.7531
N4665 X0.3678 Y-0.7238
N4670 X0.3632 Y-0.6944
N4675 X0.359 Y-0.665
N4680 X0.355 Y-0.6356
N4685 X0.3513 Y-0.6061
N4690 X0.3479 Y-0.5766
N4695 X0.3459 Y-0.5582
N4700 X0.3435 Y-0.5439
N4705 X0.3396 Y-0.5299
N4710 X0.3341 Y-0.5165
N4715 X0.3285 Y-0.5047
N4720 X0.3199 Y-0.4846
N4725 X0.319 Y-0.4823
N4730 X0.3108 Y-0.4598
N4735 X0.3029 Y-0.4374
N4740 X0.2974 Y-0.4214
N4745 X0.28 Y-0.3701
N4750 X0.2749 Y-0.3549
N4755 X0.2726 Y-0.3477
N4760 X0.2665 Y-0.3253
N4765 X0.2614 Y-0.3028
N4770 X0.2568 Y-0.2804
N4775 X0.2531 Y-0.258
N4780 X0.25 Y-0.2355
N4785 X0.2463 Y-0.2131
N4790 X0.2418 Y-0.1907
N4795 X0.2374 Y-0.1682
N4800 X0.2339 Y-0.1458
N4805 X0.2315 Y-0.1234
N4810 X0.23 Y-0.1027
N4815 X0.2254 Y-0.0336
N4820 X0.2243 Y-0.0112
N4825 Y0.0112
N4830 X0.2254 Y0.0336
N4835 X0.23 Y0.1027
N4840 X0.2313 Y0.1234
N4845 X0.233 Y0.1458
N4850 X0.2354 Y0.1682
N4855 X0.239 Y0.1907
N4860 X0.2433 Y0.2131
N4865 X0.2476 Y0.2425
N4870 X0.2522 Y0.2719
N4875 X0.2563 Y0.3013
N4880 X0.2601 Y0.3308
N4885 X0.2636 Y0.3603
N4890 X0.2668 Y0.3898
N4895 X0.2697 Y0.4194
N4900 X0.2724 Y0.449
N4905 X0.2748 Y0.4786
N4910 X0.2771 Y0.5082
N4915 X0.2791 Y0.5378
N4920 X0.281 Y0.5675
N4925 X0.2834 Y0.5971
N4930 X0.2876 Y0.6265
N4935 X0.2937 Y0.6556
N4940 X0.3018 Y0.6842
N4945 X0.3118 Y0.7122
N4950 X0.3238 Y0.7393
N4955 X0.3376 Y0.7657
N4960 X0.3529 Y0.7911
N4965 X0.3698 Y0.8155
N4970 X0.3881 Y0.839
N4975 X0.4076 Y0.8614
N4980 X0.4283 Y0.8828
N4985 X0.4499 Y0.9031
N4990 X0.4725 Y0.9225
N4995 X0.4958 Y0.9408
N5000 X0.5199 Y0.9582
N5005 X0.5446 Y0.9747
N5010 X0.57 Y0.9902
N5015 X0.5958 Y1.0049
N5020 X0.6221 Y1.0188
N5025 X0.6488 Y1.0318
N5030 X0.6758 Y1.0441
N5035 X0.7032 Y1.0557
N5040 X0.7308 Y1.0666
N5045 X0.7587 Y1.0768
N5050 X0.7868 Y1.0864
N5055 X0.8151 Y1.0954
N5060 X0.8436 Y1.1039
N5065 X0.8643 Y1.1097
N5070 X0.8728 Y1.1123
N5075 X0.8811 Y1.1156
N5080 X0.8891 Y1.1194
N5085 X0.9046 Y1.1273
N5090 X0.9271 Y1.1384
N5095 X0.9612 Y1.1552
N5100 X0.9721 Y1.1606
N5105 X0.9946 Y1.1711
N5110 X1.01 Y1.1777
N5115 X1.0171 Y1.1805
N5120 X1.0396 Y1.1893
N5125 X1.0621 Y1.1972
N5130 X1.1295 Y1.2201
N5135 X1.1371 Y1.2225
N5140 X1.152 Y1.2273
N5145 X1.1745 Y1.2333
N5150 X1.197 Y1.2388
N5155 X1.2195 Y1.2435
N5160 X1.287 Y1.257
N5165 X1.3095 Y1.2613
N5170 X1.3319 Y1.2644
N5175 X1.3544 Y1.267
N5180 X1.3585 Y1.2674
N5185 X1.3769 Y1.2689
N5190 X1.3994 Y1.2705
N5195 X1.4444 Y1.2734
N5200 X1.4669 Y1.2749
N5205 X1.4894 Y1.2757
N5210 X1.5119 Y1.2754
N5215 X1.5343 Y1.2746
N5220 X1.5568 Y1.2733
N5225 X1.6018 Y1.2703
N5230 X1.6243 Y1.2689
N5235 X1.6442 Y1.2674
N5240 X1.6468 Y1.2671
N5245 X1.6693 Y1.2644
N5250 X1.6988 Y1.261
N5255 X1.7283 Y1.2579
N5260 X1.7579 Y1.255
N5265 X1.7875 Y1.2524
N5270 X1.8171 Y1.25
N5275 X1.8468 Y1.2478
N5280 X1.8764 Y1.2458
N5285 X1.9061 Y1.244
N5290 X1.9357 Y1.2423
N5295 X1.9654 Y1.2408
N5300 X1.9951 Y1.2394
N5305 X2.0248 Y1.2381
N5310 X2.0545 Y1.237
N5315 X2.0842 Y1.2359
N5320 X2.1139 Y1.2349
N5325 X2.1436 Y1.2341
N5330 X2.1733 Y1.2333
N5335 X2.203 Y1.2325
N5340 X2.2327 Y1.2318
N5345 X2.2624 Y1.2312
N5350 X2.2921 Y1.2307
N5355 X2.3218 Y1.2302
N5360 X2.3515 Y1.2297
N5365 X2.3812 Y1.2293
N5370 X2.4109 Y1.2289
N5375 X2.4406 Y1.2285
N5380 X2.4703 Y1.2282
N5385 X2.5001 Y1.2279
N5390 X2.5298 Y1.2276
N5395 X2.5595 Y1.2274
N5400 X2.5892 Y1.2271
N5405 X2.6189 Y1.2269
N5410 X2.6486 Y1.2267
N5415 X2.6783 Y1.2266
N5420 X2.708 Y1.2264
N5425 X2.7377 Y1.2263
N5430 X2.7675 Y1.2261
N5435 X2.7972 Y1.226
N5440 X2.8269 Y1.2259
N5445 X2.8566 Y1.2258
N5450 X2.8863 Y1.2257
N5455 X2.9457 Y1.2256
N5460 X3.0052 Y1.2254
N5465 X3.0646 Y1.2253
N5470 X3.124 Y1.2252
N5475 X3.2131 Y1.2251
N5480 X3.3023 Y1.225
N5485 X3.4211
N5490 X3.5697 Y1.2249
N5495 X3.6588
N5500 X3.8668 Y1.2248
N5505 X4.1937
N5510 X4.9959
N5515 X5.6496
N5520 X7.6403
N5525 X9.6311
N5530 X11.6219
N5535 X13.6126
N5540 X15.0685
N5545 X15.0982 Y1.2232
N5550 X15.1277 Y1.2193
N5555 X15.1567 Y1.2131
N5560 X15.1852 Y1.2046
N5565 X15.2129 Y1.1939
N5570 X15.2397 Y1.1811
N5575 X15.2656 Y1.1666
N5580 X15.2905 Y1.1503
N5585 X15.3143 Y1.1326
N5590 X15.3371 Y1.1135
N5595 X15.3588 Y1.0931
N5600 X15.3794 Y1.0717
N5605 X15.3989 Y1.0494
N5610 X15.4174 Y1.0261
N5615 X15.435 Y1.0021
N5620 X15.4517 Y0.9776
N5625 X15.4677 Y0.9526
N5630 X15.4833 Y0.9272
N5635 X15.4984 Y0.9017
N5640 X15.5134 Y0.876
N5645 X15.5283 Y0.8503
N5650 X15.5317 Y0.8445
N5655 X15.5426 Y0.8286
N5660 X15.5557 Y0.8144
N5665 X15.5709 Y0.8024
N5670 X15.5876 Y0.7927
N5675 X15.6056 Y0.7857
N5680 X15.9499 Y0.6791
N5685 X15.9724 Y0.6721
N5690 G3 X16.0126 Y0.8166 I0.0198 J0.0723
N5695 X16.0121 Y0.8168 I-0.0203 J-0.0722
N5700 G1 X16.0058 Y0.8185 Z0.5003
N5705 X15.9995 Y0.8202 Z0.5011
N5710 X15.9934 Y0.8219 Z0.5026
N5715 X15.9874 Y0.8235 Z0.5045
N5720 X15.9815 Y0.8251 Z0.507
N5725 X15.9759 Y0.8267 Z0.51
N5730 X15.9706 Y0.8281 Z0.5136
N5735 X15.9656 Y0.8295 Z0.5175
N5740 X15.9609 Y0.8308 Z0.522
N5745 X15.9567 Y0.832 Z0.5268
N5750 X15.9528 Y0.833 Z0.532
N5755 X15.9495 Y0.8339 Z0.5375
N5760 X15.9465 Y0.8347 Z0.5433
N5765 X15.9441 Y0.8354 Z0.5493
N5770 X15.9422 Y0.8359 Z0.5556
N5775 X15.9409 Y0.8363 Z0.562
N5780 X15.94 Y0.8365 Z0.5685
N5785 X15.9398 Y0.8366 Z0.575
N5790 G0 Z0.95
N5795 X16.4619 Y-0.3264
N5800 Z0.65
N5805 G1 Z0.575 F30.
N5810 X16.4617 Y-0.3266 Z0.5685
N5815 X16.4609 Y-0.3271 Z0.562
N5820 X16.4598 Y-0.3279 Z0.5556
N5825 X16.4581 Y-0.329 Z0.5493
N5830 X16.4561 Y-0.3304 Z0.5433
N5835 X16.4536 Y-0.332 Z0.5375
N5840 X16.4506 Y-0.334 Z0.532
N5845 X16.4473 Y-0.3362 Z0.5268
N5850 X16.4437 Y-0.3387 Z0.522
N5855 X16.4397 Y-0.3414 Z0.5175
N5860 X16.4354 Y-0.3443 Z0.5136
N5865 X16.4308 Y-0.3474 Z0.51
N5870 X16.426 Y-0.3507 Z0.507
N5875 X16.421 Y-0.354 Z0.5045
N5880 X16.4158 Y-0.3575 Z0.5026
N5885 X16.4105 Y-0.3611 Z0.5011
N5890 X16.4052 Y-0.3647 Z0.5003
N5895 X16.3997 Y-0.3684 Z0.5
N5900 G3 X16.2198 Y-0.5205 I0.6121 J-0.9064
N5905 G1 X16.214 Y-0.5271
N5910 X16.1973 Y-0.5444
N5915 X16.192 Y-0.5496
N5920 X16.1748 Y-0.5651
N5925 X16.1664 Y-0.572
N5930 X16.1523 Y-0.5831
N5935 X16.1364 Y-0.5944
N5940 X16.1299 Y-0.599
N5945 X16.1074 Y-0.613
N5950 X16.1007 Y-0.6169
N5955 X16.0849 Y-0.6255
N5960 X16.0736 Y-0.6312
N5965 X16.0506 Y-0.6443
N5970 X16.0294 Y-0.6587
N5975 X16.0064 Y-0.6773
N5980 X15.9849 Y-0.6977
N5985 X15.964 Y-0.7189
N5990 X15.9431 Y-0.7399
N5995 X15.9219 Y-0.7608
N6000 X15.9004 Y-0.7813
N6005 X15.8785 Y-0.8014
N6010 X15.8562 Y-0.821
N6015 X15.8334 Y-0.8401
N6020 X15.8102 Y-0.8586
N6025 X15.7866 Y-0.8766
N6030 X15.7625 Y-0.894
N6035 X15.7379 Y-0.9108
N6040 X15.713 Y-0.927
N6045 X15.6877 Y-0.9425
N6050 X15.662 Y-0.9574
N6055 X15.6359 Y-0.9717
N6060 X15.6096 Y-0.9854
N6065 X15.5829 Y-0.9985
N6070 X15.5559 Y-1.011
N6075 X15.5287 Y-1.0229
N6080 X15.5013 Y-1.0342
N6085 X15.4736 Y-1.045
N6090 X15.4457 Y-1.0553
N6095 X15.4176 Y-1.0651
N6100 X15.3894 Y-1.0743
N6105 X15.361 Y-1.0831
N6110 X15.3325 Y-1.0914
N6115 X15.3038 Y-1.0993
N6120 X15.2751 Y-1.1067
N6125 X15.2462 Y-1.1138
N6130 X15.2172 Y-1.1204
N6135 X15.1882 Y-1.1267
N6140 X15.1591 Y-1.1327
N6145 X15.1299 Y-1.1383
N6150 X15.1007 Y-1.1436
N6155 X15.0714 Y-1.1486
N6160 X15.042 Y-1.1533
N6165 X15.0127 Y-1.1577
N6170 X14.9832 Y-1.1619
N6175 X14.9538 Y-1.1658
N6180 X14.9243 Y-1.1695
N6185 X14.8948 Y-1.173
N6190 X14.8653 Y-1.1763
N6195 X14.8357 Y-1.1793
N6200 X14.8061 Y-1.1822
N6205 X14.7766 Y-1.1849
N6210 X14.747 Y-1.1875
N6215 X14.7173 Y-1.1899
N6220 X14.6877 Y-1.1921
N6225 X14.6581 Y-1.1942
N6230 X14.6284 Y-1.1962
N6235 X14.5988 Y-1.198
N6240 X14.5691 Y-1.1998
N6245 X14.5394 Y-1.2014
N6250 X14.5098 Y-1.2029
N6255 X14.4801 Y-1.2043
N6260 X14.4504 Y-1.2057
N6265 X14.4207 Y-1.2069
N6270 X14.391 Y-1.2081
N6275 X14.3613 Y-1.2092
N6280 X14.3316 Y-1.2102
N6285 X14.3019 Y-1.2112
N6290 X14.2722 Y-1.2121
N6295 X14.2425 Y-1.2129
N6300 X14.2128 Y-1.2137
N6305 X14.1831 Y-1.2145
N6310 X14.1534 Y-1.2152
N6315 X14.1237 Y-1.2158
N6320 X14.094 Y-1.2164
N6325 X14.0643 Y-1.217
N6330 X14.0346 Y-1.2175
N6335 X14.0049 Y-1.218
N6340 X13.9752 Y-1.2184
N6345 X13.9455 Y-1.2189
N6350 X13.9158 Y-1.2193
N6355 X13.8861 Y-1.2197
N6360 X13.8563 Y-1.22
N6365 X13.8266 Y-1.2203
N6370 X13.7969 Y-1.2206
N6375 X13.7672 Y-1.2209
N6380 X13.7375 Y-1.2212
N6385 X13.7078 Y-1.2214
N6390 X13.6781 Y-1.2217
N6395 X13.6484 Y-1.2219
N6400 X13.6187 Y-1.2221
N6405 X13.5889 Y-1.2223
N6410 X13.5592 Y-1.2224
N6415 X13.5295 Y-1.2226
N6420 X13.4998 Y-1.2228
N6425 X13.4701 Y-1.2229
N6430 X13.4404 Y-1.223
N6435 X13.4107 Y-1.2231
N6440 X13.3512 Y-1.2234
N6445 X13.2918 Y-1.2236
N6450 X13.2324 Y-1.2237
N6455 X13.173 Y-1.2239
N6460 X13.1135 Y-1.224
N6465 X13.0244 Y-1.2242
N6470 X12.9353 Y-1.2243
N6475 X12.8461 Y-1.2244
N6480 X12.7273 Y-1.2245
N6485 X12.6084 Y-1.2246
N6490 X12.4599 Y-1.2247
N6495 X12.2816
N6500 X12.2519
N6505 X11.9845 Y-1.2248
N6510 X11.5982
N6515 X10.796
N6520 X10.2611
N6525 X8.2704
N6530 X6.2796 Y-1.2249
N6535 X4.2889
N6540 X2.3575
N6545 X2.3278
N6550 X2.2981 Y-1.2248
N6555 X2.2684
N6560 X2.2387 Y-1.2247
N6565 X2.209 Y-1.2245
N6570 X2.1793 Y-1.2244
N6575 X2.1495 Y-1.2242
N6580 X2.1198 Y-1.2239
N6585 X2.0901 Y-1.2236
N6590 X2.0604 Y-1.2232
N6595 X2.0307 Y-1.2229
N6600 X2.001 Y-1.2224
N6605 X1.9713 Y-1.222
N6610 X1.9416 Y-1.2215
N6615 X1.9119 Y-1.221
N6620 X1.8897 Y-1.2206
N6625 X1.876 Y-1.2211
N6630 X1.8624 Y-1.2231
N6635 X1.8492 Y-1.2266
N6640 X1.8267 Y-1.2333
N6645 X1.8042 Y-1.2386
N6650 X1.7817 Y-1.2431
N6655 X1.7367 Y-1.2521
N6660 X1.7143 Y-1.2565
N6665 X1.6918 Y-1.2607
N6670 X1.6693 Y-1.2644
N6675 X1.6468 Y-1.2671
N6680 X1.6442 Y-1.2674
N6685 X1.6243 Y-1.2689
N6690 X1.6018 Y-1.2703
N6695 X1.5568 Y-1.2733
N6700 X1.5343 Y-1.2746
N6705 X1.5119 Y-1.2754
N6710 X1.4894 Y-1.2757
N6715 X1.4669 Y-1.2749
N6720 X1.4444 Y-1.2734
N6725 X1.3994 Y-1.2705
N6730 X1.3769 Y-1.2689
N6735 X1.3585 Y-1.2674
N6740 X1.3544 Y-1.267
N6745 X1.3319 Y-1.2644
N6750 X1.3095 Y-1.2613
N6755 X1.287 Y-1.257
N6760 X1.2195 Y-1.2435
N6765 X1.197 Y-1.2388
N6770 X1.1745 Y-1.2333
N6775 X1.152 Y-1.2273
N6780 X1.1371 Y-1.2225
N6785 X1.1295 Y-1.2201
N6790 X1.0621 Y-1.1972
N6795 X1.0396 Y-1.1893
N6800 X1.0171 Y-1.1805
N6805 X1.01 Y-1.1777
N6810 X0.9946 Y-1.1711
N6815 X0.9721 Y-1.1606
N6820 X0.9612 Y-1.1552
N6825 X0.9157 Y-1.1328
N6830 X0.9046 Y-1.1273
N6835 X0.8822 Y-1.1158
N6840 X0.8723 Y-1.1104
N6845 X0.8597 Y-1.1031
N6850 X0.8372 Y-1.0897
N6855 X0.8344 Y-1.0879
N6860 X0.8147 Y-1.0748
N6865 X0.7672 Y-1.0431
N6870 X0.7472 Y-1.0296
N6875 X0.735 Y-1.0206
N6880 X0.7247 Y-1.0129
N6885 X0.7061 Y-0.9982
N6890 X0.7022 Y-0.9951
N6895 X0.691 Y-0.9856
N6900 X0.6287 Y-0.9309
N6905 X0.6123 Y-0.9161
N6910 X0.6045 Y-0.9085
N6915 X0.5898 Y-0.8934
N6920 X0.5827 Y-0.886
N6925 X0.5673 Y-0.8692
N6930 X0.5223 Y-0.818
N6935 X0.5036 Y-0.7963
N6940 X0.4998 Y-0.7918
N6945 X0.486 Y-0.7739
N6950 X0.4773 Y-0.762
N6955 X0.4698 Y-0.7515
N6960 X0.4549 Y-0.7296
N6965 X0.4245 Y-0.6842
N6970 X0.4099 Y-0.6621
N6975 X0.4096 Y-0.6617
N6980 X0.3961 Y-0.6393
N6985 X0.3874 Y-0.6234
N6990 X0.3839 Y-0.6169
N6995 X0.3724 Y-0.5944
N7000 X0.3649 Y-0.5793
N7005 X0.3424 Y-0.5337
N7010 X0.3419 Y-0.5332
N7015 G2 X0.1889 Y-0.4126 I0.1955 J0.4054
N7020 X0.1726 Y-0.375 I0.0581 J0.0475
N7025 G1 X0.1208 Y0.0156
N7030 G2 X0.1267 Y0.0561 I0.0743 J0.0099
N7035 X0.2429 Y0.2125 I0.4107 J-0.184
N7040 G1 X0.2433 Y0.2131
N7045 X0.2525 Y0.2591
N7050 X0.2567 Y0.2804
N7055 X0.2614 Y0.3028
N7060 X0.2665 Y0.3253
N7065 X0.2726 Y0.3477
N7070 X0.2749 Y0.3549
N7075 X0.28 Y0.3701
N7080 X0.2974 Y0.4214
N7085 X0.3029 Y0.4374
N7090 X0.3108 Y0.4598
N7095 X0.319 Y0.4823
N7100 X0.3199 Y0.4846
N7105 X0.3285 Y0.5047
N7110 X0.3392 Y0.5271
N7115 X0.3649 Y0.5793
N7120 X0.3724 Y0.5944
N7125 X0.3839 Y0.6169
N7130 X0.3874 Y0.6234
N7135 X0.3961 Y0.6393
N7140 X0.4096 Y0.6617
N7145 X0.4099 Y0.6621
N7150 X0.4245 Y0.6842
N7155 X0.4549 Y0.7296
N7160 X0.4698 Y0.7515
N7165 X0.4773 Y0.762
N7170 X0.486 Y0.7739
N7175 X0.4998 Y0.7918
N7180 X0.5036 Y0.7963
N7185 X0.5223 Y0.818
N7190 X0.5673 Y0.8692
N7195 X0.5827 Y0.886
N7200 X0.5898 Y0.8934
N7205 X0.6045 Y0.9085
N7210 X0.6123 Y0.9161
N7215 X0.6287 Y0.9309
N7220 X0.691 Y0.9856
N7225 X0.7022 Y0.9951
N7230 X0.7061 Y0.9982
N7235 X0.7247 Y1.0129
N7240 X0.735 Y1.0206
N7245 X0.7472 Y1.0296
N7250 X0.7672 Y1.0431
N7255 X0.8147 Y1.0748
N7260 X0.8344 Y1.0879
N7265 X0.8349 Y1.0885
N7270 G2 X0.9446 Y1.2719 I0.4684 J-0.1558
N7275 X0.9836 Y1.2937 I0.0545 J-0.0515
N7280 G1 X1.4496 Y1.3922
N7285 G2 X1.4753 Y1.3931 I0.0155 J-0.0734
N7290 X1.4941 Y1.388 I-0.0102 J-0.0743
N7295 X1.6687 Y1.2647 I-0.1908 J-0.4553
N7300 G1 X1.6693 Y1.2644
N7305 X1.6918 Y1.2607
N7310 X1.7143 Y1.2565
N7315 X1.7367 Y1.2521
N7320 X1.7817 Y1.2431
N7325 X1.8042 Y1.2386
N7330 X1.8267 Y1.2333
N7335 X1.8492 Y1.2266
N7340 X1.8717 Y1.2193
N7345 X1.8942 Y1.2117
N7350 X1.9391 Y1.1965
N7355 X1.9616 Y1.1888
N7360 X1.9841 Y1.1804
N7365 X1.9907 Y1.1777
N7370 X2.0066 Y1.1704
N7375 X2.0291 Y1.1596
N7380 X2.038 Y1.1552
N7385 X2.0966 Y1.1263
N7390 X2.1191 Y1.1151
N7395 X2.1282 Y1.1104
N7400 X2.1416 Y1.1027
N7405 X2.1528 Y1.0956
N7410 X2.1787 Y1.0811
N7415 X2.2054 Y1.0681
N7420 X2.2327 Y1.0563
N7425 X2.2604 Y1.0454
N7430 X2.2884 Y1.0355
N7435 X2.3167 Y1.0264
N7440 X2.3452 Y1.0181
N7445 X2.3739 Y1.0105
N7450 X2.4028 Y1.0036
N7455 X2.4318 Y0.9972
N7460 X2.4609 Y0.9913
N7465 X2.4902 Y0.9859
N7470 X2.5195 Y0.981
N7475 X2.5488 Y0.9764
N7480 X2.5782 Y0.9723
N7485 X2.6077 Y0.9684
N7490 X2.6372 Y0.9649
N7495 X2.6668 Y0.9617
N7500 X2.6963 Y0.9587
N7505 X2.7259 Y0.956
N7510 X2.7555 Y0.9535
N7515 X2.7851 Y0.9512
N7520 X2.8148 Y0.9491
N7525 X2.8444 Y0.9471
N7530 X2.8741 Y0.9453
N7535 X2.9037 Y0.9437
N7540 X2.9334 Y0.9422
N7545 X2.9631 Y0.9408
N7550 X2.9928 Y0.9395
N7555 X3.0225 Y0.9383
N7560 X3.0522 Y0.9372
N7565 X3.0819 Y0.9362
N7570 X3.1116 Y0.9353
N7575 X3.1413 Y0.9345
N7580 X3.171 Y0.9337
N7585 X3.2007 Y0.933
N7590 X3.2304 Y0.9323
N7595 X3.2601 Y0.9317
N7600 X3.2898 Y0.9312
N7605 X3.3195 Y0.9307
N7610 X3.3492 Y0.9302
N7615 X3.3789 Y0.9298
N7620 X3.4086 Y0.9294
N7625 X3.4383 Y0.929
N7630 X3.468 Y0.9287
N7635 X3.4978 Y0.9284
N7640 X3.5275 Y0.9281
N7645 X3.5572 Y0.9278
N7650 X3.5869 Y0.9276
N7655 X3.6166 Y0.9273
N7660 X3.6463 Y0.9271
N7665 X3.676 Y0.927
N7670 X3.7057 Y0.9268
N7675 X3.7355 Y0.9266
N7680 X3.7652 Y0.9265
N7685 X3.7949 Y0.9263
N7690 X3.8246 Y0.9262
N7695 X3.8543 Y0.9261
N7700 X3.884 Y0.926
N7705 X3.9434 Y0.9258
N7710 X4.0029 Y0.9257
N7715 X4.0623 Y0.9255
N7720 X4.1217 Y0.9254
N7725 X4.2109 Y0.9253
N7730 X4.3 Y0.9252
N7735 X4.3891 Y0.9251
N7740 X4.508 Y0.925
N7745 X4.6565 Y0.9249
N7750 X4.8348
N7755 X5.0725 Y0.9248
N7760 X5.4588
N7765 X6.1125
N7770 X8.1032
N7775 X10.094
N7780 X12.0847
N7785 X14.0755
N7790 X14.6994
N7795 X14.7292 Y0.9247
N7800 X14.7588 Y0.923
N7805 X14.7883 Y0.9194
N7810 X14.8175 Y0.9138
N7815 X14.8462 Y0.9062
N7820 X14.8744 Y0.8968
N7825 X14.902 Y0.8858
N7830 X14.9289 Y0.8732
N7835 X14.9553 Y0.8595
N7840 X14.981 Y0.8447
N7845 X15.0063 Y0.8291
N7850 X15.0313 Y0.813
N7855 X15.0492 Y0.801
N7860 X15.0644 Y0.7921
N7865 X15.0807 Y0.7855
N7870 X15.0978 Y0.781
N7875 X15.1152 Y0.779
N7880 X15.1329 Y0.7793
N7885 X15.1503 Y0.782
N7890 X15.1671 Y0.787
N7895 X15.1832 Y0.7943
N7900 X15.1853 Y0.7954
N7905 X15.1871 Y0.7963
N7910 X15.2078 Y0.8056
N7915 X15.2303 Y0.8144
N7920 X15.2434 Y0.8188
N7925 X15.2528 Y0.8217
N7930 X15.2753 Y0.8276
N7935 X15.2978 Y0.8322
N7940 X15.3202 Y0.8356
N7945 X15.3427 Y0.8377
N7950 X15.3652 Y0.8387
N7955 X15.3877 Y0.8383
N7960 X15.4102 Y0.8368
N7965 X15.4327 Y0.8341
N7970 X15.4552 Y0.83
N7975 X15.4777 Y0.8248
N7980 X15.4985 Y0.8188
N7985 X15.5002 Y0.8183
N7990 X15.5227 Y0.8113
N7995 X15.5901 Y0.7905
N8000 G3 X15.6299 Y0.9351 I0.0197 J0.0724
N8005 X15.6294 Y0.9352 I-0.0201 J-0.0722
N8010 G1 X15.6231 Y0.9369 Z0.5003
N8015 X15.6169 Y0.9386 Z0.5011
N8020 X15.6107 Y0.9403 Z0.5026
N8025 X15.6047 Y0.9419 Z0.5045
N8030 X15.5988 Y0.9435 Z0.507
N8035 X15.5932 Y0.945 Z0.51
N8040 X15.5879 Y0.9465 Z0.5136
N8045 X15.5829 Y0.9478 Z0.5175
N8050 X15.5782 Y0.9491 Z0.522
N8055 X15.574 Y0.9503 Z0.5268
N8060 X15.5701 Y0.9513 Z0.532
N8065 X15.5667 Y0.9522 Z0.5375
N8070 X15.5638 Y0.953 Z0.5433
N8075 X15.5614 Y0.9537 Z0.5493
N8080 X15.5595 Y0.9542 Z0.5556
N8085 X15.5581 Y0.9546 Z0.562
N8090 X15.5573 Y0.9548 Z0.5685
N8095 X15.557 Y0.9549 Z0.575
N8100 G0 Z0.95
N8105 X16.3702 Y-0.5399
N8110 Z0.65
N8115 G1 Z0.575 F30.
N8120 X16.3699 Z0.5685
N8125 X16.3691 Y-0.5401 Z0.562
N8130 X16.3677 Y-0.5404 Z0.5556
N8135 X16.3658 Y-0.5408 Z0.5493
N8140 X16.3633 Y-0.5414 Z0.5433
N8145 X16.3604 Y-0.542 Z0.5375
N8150 X16.3569 Y-0.5428 Z0.532
N8155 X16.3531 Y-0.5436 Z0.5268
N8160 X16.3487 Y-0.5446 Z0.522
N8165 X16.344 Y-0.5456 Z0.5175
N8170 X16.339 Y-0.5467 Z0.5136
N8175 X16.3336 Y-0.5479 Z0.51
N8180 X16.3279 Y-0.5492 Z0.507
N8185 X16.322 Y-0.5505 Z0.5045
N8190 X16.3159 Y-0.5518 Z0.5026
N8195 X16.3097 Y-0.5532 Z0.5011
N8200 X16.3033 Y-0.5546 Z0.5003
N8205 X16.2969 Y-0.556 Z0.5
N8210 G3 X16.0736 Y-0.6312 I0.2353 J-1.0681
N8215 G1 X16.0624 Y-0.6369
N8220 X16.0573 Y-0.6393
N8225 X16.0399 Y-0.647
N8230 X16.0174 Y-0.6562
N8235 X16.0026 Y-0.6617
N8240 X15.9949 Y-0.6645
N8245 X15.9724 Y-0.6721
N8250 X15.9499 Y-0.6791
N8255 X15.5227 Y-0.8113
N8260 X15.5002 Y-0.8183
N8265 X15.4985 Y-0.8188
N8270 X15.4777 Y-0.8248
N8275 X15.4552 Y-0.83
N8280 X15.4327 Y-0.8341
N8285 X15.4102 Y-0.8368
N8290 X15.3877 Y-0.8383
N8295 X15.3652 Y-0.8387
N8300 X15.3355 Y-0.8391
N8305 X15.3059 Y-0.8409
N8310 X15.2762 Y-0.8428
N8315 X15.2466 Y-0.8449
N8320 X15.2169 Y-0.8472
N8325 X15.1873 Y-0.8495
N8330 X15.1577 Y-0.8519
N8335 X15.1281 Y-0.8543
N8340 X15.0985 Y-0.8568
N8345 X15.0393 Y-0.8618
N8350 X15.0097 Y-0.8643
N8355 X14.98 Y-0.8667
N8360 X14.9504 Y-0.8691
N8365 X14.9208 Y-0.8715
N8370 X14.8912 Y-0.8738
N8375 X14.8616 Y-0.8761
N8380 X14.8319 Y-0.8783
N8385 X14.8023 Y-0.8804
N8390 X14.7727 Y-0.8825
N8395 X14.743 Y-0.8845
N8400 X14.7134 Y-0.8864
N8405 X14.6837 Y-0.8883
N8410 X14.654 Y-0.8901
N8415 X14.6244 Y-0.8918
N8420 X14.5947 Y-0.8935
N8425 X14.565 Y-0.8951
N8430 X14.5354 Y-0.8966
N8435 X14.5057 Y-0.8981
N8440 X14.476 Y-0.8995
N8445 X14.4463 Y-0.9008
N8450 X14.4167 Y-0.9021
N8455 X14.387 Y-0.9033
N8460 X14.3573 Y-0.9045
N8465 X14.3276 Y-0.9056
N8470 X14.2979 Y-0.9066
N8475 X14.2682 Y-0.9076
N8480 X14.2385 Y-0.9086
N8485 X14.2088 Y-0.9095
N8490 X14.1791 Y-0.9103
N8495 X14.1494 Y-0.9112
N8500 X14.1197 Y-0.9119
N8505 X14.09 Y-0.9127
N8510 X14.0603 Y-0.9134
N8515 X14.0306 Y-0.914
N8520 X14.0009 Y-0.9147
N8525 X13.9712 Y-0.9152
N8530 X13.9415 Y-0.9158
N8535 X13.9117 Y-0.9163
N8540 X13.882 Y-0.9168
N8545 X13.8523 Y-0.9173
N8550 X13.8226 Y-0.9178
N8555 X13.7929 Y-0.9182
N8560 X13.7632 Y-0.9186
N8565 X13.7335 Y-0.9189
N8570 X13.7038 Y-0.9193
N8575 X13.6741 Y-0.9196
N8580 X13.6444 Y-0.9199
N8585 X13.6146 Y-0.9202
N8590 X13.5849 Y-0.9205
N8595 X13.5552 Y-0.9208
N8600 X13.5255 Y-0.921
N8605 X13.4958 Y-0.9213
N8610 X13.4661 Y-0.9215
N8615 X13.4364 Y-0.9217
N8620 X13.4067 Y-0.9219
N8625 X13.377 Y-0.9221
N8630 X13.3472 Y-0.9222
N8635 X13.3175 Y-0.9224
N8640 X13.2878 Y-0.9225
N8645 X13.2581 Y-0.9227
N8650 X13.2284 Y-0.9228
N8655 X13.169 Y-0.9231
N8660 X13.1095 Y-0.9233
N8665 X13.0501 Y-0.9235
N8670 X12.9907 Y-0.9236
N8675 X12.9313 Y-0.9238
N8680 X12.8718 Y-0.9239
N8685 X12.7827 Y-0.9241
N8690 X12.6936 Y-0.9242
N8695 X12.6044 Y-0.9243
N8700 X12.4856 Y-0.9244
N8705 X12.3667 Y-0.9245
N8710 X12.2182 Y-0.9246
N8715 X12.0399 Y-0.9247
N8720 X11.8022
N8725 X11.4753 Y-0.9248
N8730 X11.3862
N8735 X10.792
N8740 X9.3955
N8745 X7.4047
N8750 X5.4139 Y-0.9249
N8755 X3.4232
N8760 X2.6507
N8765 X2.5912
N8770 X2.5615 Y-0.9248
N8775 X2.5318
N8780 X2.5021
N8785 X2.4724 Y-0.9247
N8790 X2.4427 Y-0.9246
N8795 X2.4275
N8800 X2.4087 Y-0.9259
N8805 X2.3904 Y-0.9298
N8810 X2.3728 Y-0.9364
N8815 X2.3563 Y-0.9455
N8820 X2.3414 Y-0.9568
N8825 X2.3197 Y-0.9758
N8830 X2.299 Y-0.994
N8835 X2.2941 Y-0.9982
N8840 X2.2765 Y-1.0124
N8845 X2.2649 Y-1.0206
N8850 X2.254 Y-1.0283
N8855 X2.2315 Y-1.0435
N8860 X2.164 Y-1.0886
N8865 X2.1416 Y-1.1027
N8870 X2.1282 Y-1.1104
N8875 X2.1191 Y-1.1151
N8880 X2.0966 Y-1.1263
N8885 X2.038 Y-1.1552
N8890 X2.0291 Y-1.1596
N8895 X2.0066 Y-1.1704
N8900 X1.9907 Y-1.1777
N8905 X1.9841 Y-1.1804
N8910 X1.9616 Y-1.1888
N8915 X1.9391 Y-1.1965
N8920 X1.8942 Y-1.2117
N8925 X1.8717 Y-1.2193
N8930 G3 X1.9242 Y-1.3598 I0.0265 J-0.0702
N8935 X1.9247 Y-1.3597 I-0.026 J0.0703
N8940 G1 X1.9308 Y-1.3574 Z0.5003
N8945 X1.9369 Y-1.3551 Z0.5011
N8950 X1.9428 Y-1.3528 Z0.5026
N8955 X1.9487 Y-1.3506 Z0.5045
N8960 X1.9543 Y-1.3485 Z0.507
N8965 X1.9597 Y-1.3464 Z0.51
N8970 X1.9649 Y-1.3445 Z0.5136
N8975 X1.9698 Y-1.3426 Z0.5175
N8980 X1.9743 Y-1.3409 Z0.522
N8985 X1.9784 Y-1.3394 Z0.5268
N8990 X1.9821 Y-1.338 Z0.532
N8995 X1.9854 Y-1.3367 Z0.5375
N9000 X1.9883 Y-1.3357 Z0.5433
N9005 X1.9906 Y-1.3348 Z0.5493
N9010 X1.9924 Y-1.3341 Z0.5556
N9015 X1.9938 Y-1.3336 Z0.562
N9020 X1.9946 Y-1.3333 Z0.5685
N9025 X1.9948 Y-1.3332 Z0.575
N9030 G0 Z0.95
N9035 X15.6686 Y-0.9038
N9040 Z0.65
N9045 G1 Z0.575 F30.
N9050 X15.6683 Y-0.9037 Z0.5685
N9055 X15.6675 Y-0.9035 Z0.562
N9060 X15.6662 Y-0.9031 Z0.5556
N9065 X15.6643 Y-0.9025 Z0.5493
N9070 X15.6619 Y-0.9018 Z0.5433
N9075 X15.659 Y-0.9009 Z0.5375
N9080 X15.6556 Y-0.8999 Z0.532
N9085 X15.6518 Y-0.8988 Z0.5268
N9090 X15.6476 Y-0.8975 Z0.522
N9095 X15.643 Y-0.8961 Z0.5175
N9100 X15.638 Y-0.8946 Z0.5136
N9105 X15.6327 Y-0.893 Z0.51
N9110 X15.6271 Y-0.8913 Z0.507
N9115 X15.6214 Y-0.8896 Z0.5045
N9120 X15.6154 Y-0.8877 Z0.5026
N9125 X15.6093 Y-0.8859 Z0.5011
N9130 X15.6031 Y-0.884 Z0.5003
N9135 X15.5968 Y-0.8821 Z0.5
N9140 G3 X15.3652 Y-0.8387 I-0.3163 J-1.047
N9145 G1 X15.3427 Y-0.8377
N9150 X15.3202 Y-0.8356
N9155 X15.2978 Y-0.8322
N9160 X15.2753 Y-0.8276
N9165 X15.2528 Y-0.8217
N9170 X15.2434 Y-0.8188
N9175 X15.2303 Y-0.8144
N9180 X15.2078 Y-0.8056
N9185 X15.1871 Y-0.7963
N9190 X15.1853 Y-0.7954
N9195 X15.1628 Y-0.7834
N9200 X15.1469 Y-0.7739
N9205 X15.1403 Y-0.7697
N9210 X15.1178 Y-0.7552
N9215 X15.0921 Y-0.7403
N9220 X15.0657 Y-0.7267
N9225 X15.0387 Y-0.7145
N9230 X15.011 Y-0.7036
N9235 X14.9829 Y-0.6938
N9240 X14.9545 Y-0.6851
N9245 X14.9259 Y-0.6773
N9250 X14.897 Y-0.6704
N9255 X14.8679 Y-0.6641
N9260 X14.8387 Y-0.6586
N9265 X14.8094 Y-0.6536
N9270 X14.7801 Y-0.6492
N9275 X14.7506 Y-0.6453
N9280 X14.7211 Y-0.6418
N9285 X14.6915 Y-0.6387
N9290 X14.662 Y-0.636
N9295 X14.6323 Y-0.6335
N9300 X14.6027 Y-0.6314
N9305 X14.5731 Y-0.6295
N9310 X14.5434 Y-0.6279
N9315 X14.5137 Y-0.6264
N9320 X14.484 Y-0.6252
N9325 X14.4543 Y-0.6241
N9330 X14.4246 Y-0.6232
N9335 X14.3949 Y-0.6224
N9340 X14.3652 Y-0.6217
N9345 X14.3355 Y-0.6211
N9350 X14.3058 Y-0.6206
N9355 X14.2761 Y-0.6202
N9360 X14.2464 Y-0.6199
N9365 X14.2167 Y-0.6197
N9370 X14.187 Y-0.6195
N9375 X14.1573 Y-0.6193
N9380 X14.1275 Y-0.6192
N9385 X14.0978
N9390 X14.0681
N9395 X14.0384
N9400 X14.0087
N9405 X13.979 Y-0.6193
N9410 X13.9493 Y-0.6194
N9415 X13.9196 Y-0.6195
N9420 X13.8898 Y-0.6196
N9425 X13.8601 Y-0.6197
N9430 X13.8007 Y-0.6199
N9435 X13.7116 Y-0.6204
N9440 X13.5333 Y-0.6213
N9445 X13.4442 Y-0.6217
N9450 X13.355 Y-0.6221
N9455 X13.2956 Y-0.6223
N9460 X13.2362 Y-0.6226
N9465 X13.1767 Y-0.6228
N9470 X13.147 Y-0.6229
N9475 X13.0579 Y-0.6232
N9480 X12.9688 Y-0.6234
N9485 X12.8796 Y-0.6236
N9490 X12.7905 Y-0.6238
N9495 X12.7013 Y-0.624
N9500 X12.6122 Y-0.6241
N9505 X12.5231 Y-0.6242
N9510 X12.4042 Y-0.6243
N9515 X12.2854 Y-0.6244
N9520 X12.1368 Y-0.6245
N9525 X11.9585 Y-0.6246
N9530 X11.7505 Y-0.6247
N9535 X11.4831 Y-0.6248
N9540 X11.1563
N9545 X10.562
N9550 X9.1655
N9555 X7.1748
N9560 X5.184 Y-0.6249
N9565 X3.1933
N9570 X2.8961
N9575 X2.8367
N9580 X2.7773 Y-0.6248
N9585 X2.7476
N9590 X2.7179 Y-0.625
N9595 X2.6882 Y-0.6255
N9600 X2.6794 Y-0.6257
N9605 X2.6618 Y-0.6275
N9610 X2.6446 Y-0.6316
N9615 X2.6281 Y-0.6381
N9620 X2.6127 Y-0.6468
N9625 X2.5986 Y-0.6575
N9630 X2.5861 Y-0.67
N9635 X2.5754 Y-0.6842
N9640 X2.5688 Y-0.694
N9645 X2.5304 Y-0.7515
N9650 X2.5239 Y-0.7607
N9655 X2.5143 Y-0.7739
N9660 X2.5014 Y-0.7898
N9665 X2.4959 Y-0.7963
N9670 X2.4789 Y-0.8163
N9675 X2.4339 Y-0.8676
N9680 X2.4176 Y-0.886
N9685 X2.4114 Y-0.8927
N9690 X2.3956 Y-0.9085
N9695 X2.3889 Y-0.9146
N9700 X2.3707 Y-0.9309
N9705 X2.3664 Y-0.9347
N9710 G3 X2.4698 Y-1.0434 I0.0519 J-0.0542
N9715 X2.4702 Y-1.0431 I-0.0515 J0.0545
N9720 G1 X2.4749 Y-1.0386 Z0.5003
N9725 X2.4796 Y-1.0341 Z0.5011
N9730 X2.4842 Y-1.0297 Z0.5026
N9735 X2.4887 Y-1.0254 Z0.5045
N9740 X2.4931 Y-1.0212 Z0.507
N9745 X2.4973 Y-1.0172 Z0.51
N9750 X2.5013 Y-1.0133 Z0.5136
N9755 X2.505 Y-1.0098 Z0.5175
N9760 X2.5085 Y-1.0064 Z0.522
N9765 X2.5117 Y-1.0034 Z0.5268
N9770 X2.5146 Y-1.0006 Z0.532
N9775 X2.5171 Y-0.9982 Z0.5375
N9780 X2.5193 Y-0.9961 Z0.5433
N9785 X2.5211 Y-0.9944 Z0.5493
N9790 X2.5225 Y-0.993 Z0.5556
N9795 X2.5235 Y-0.992 Z0.562
N9800 X2.5241 Y-0.9914 Z0.5685
N9805 X2.5244 Y-0.9912 Z0.575
N9810 G0 Z0.95
N9815 X15.3463 Y-0.9652
N9820 Z0.65
N9825 G1 Z0.575 F30.
N9830 X15.3461 Y-0.9649 Z0.5685
N9835 X15.3456 Y-0.9643 Z0.562
N9840 X15.3446 Y-0.9633 Z0.5556
N9845 X15.3433 Y-0.9618 Z0.5493
N9850 X15.3416 Y-0.96 Z0.5433
N9855 X15.3395 Y-0.9578 Z0.5375
N9860 X15.3371 Y-0.9552 Z0.532
N9865 X15.3344 Y-0.9523 Z0.5268
N9870 X15.3314 Y-0.949 Z0.522
N9875 X15.3282 Y-0.9455 Z0.5175
N9880 X15.3246 Y-0.9417 Z0.5136
N9885 X15.3209 Y-0.9376 Z0.51
N9890 X15.3169 Y-0.9333 Z0.507
N9895 X15.3128 Y-0.9289 Z0.5045
N9900 X15.3086 Y-0.9243 Z0.5026
N9905 X15.3043 Y-0.9196 Z0.5011
N9910 X15.2999 Y-0.9149 Z0.5003
N9915 X15.2954 Y-0.9101 Z0.5
N9920 G3 X15.1178 Y-0.7552 I-0.8034 J-0.7421
N9925 G1 X15.0279 Y-0.697
N9930 X15.0087 Y-0.6842
N9935 X15.0054 Y-0.6819
N9940 X14.9829 Y-0.6645
N9945 X14.9797 Y-0.6617
N9950 X14.9604 Y-0.6447
N9955 X14.9548 Y-0.6393
N9960 X14.9379 Y-0.6218
N9965 X14.9335 Y-0.6169
N9970 X14.9154 Y-0.5949
N9975 X14.8957 Y-0.5727
N9980 X14.8745 Y-0.5519
N9985 X14.8517 Y-0.5328
N9990 X14.8277 Y-0.5152
N9995 X14.8028 Y-0.4991
N10000 X14.777 Y-0.4844
N10005 X14.7505 Y-0.4708
N10010 X14.7236 Y-0.4584
N10015 X14.6961 Y-0.4469
N10020 X14.6683 Y-0.4364
N10025 X14.6402 Y-0.4268
N10030 X14.6119 Y-0.4179
N10035 X14.5833 Y-0.4098
N10040 X14.5545 Y-0.4023
N10045 X14.5256 Y-0.3955
N10050 X14.4966 Y-0.3892
N10055 X14.4674 Y-0.3834
N10060 X14.4382 Y-0.3781
N10065 X14.4089 Y-0.3733
N10070 X14.3795 Y-0.3688
N10075 X14.3501 Y-0.3648
N10080 X14.3206 Y-0.361
N10085 X14.2911 Y-0.3576
N10090 X14.2615 Y-0.3545
N10095 X14.232 Y-0.3516
N10100 X14.2024 Y-0.349
N10105 X14.1727 Y-0.3466
N10110 X14.1431 Y-0.3445
N10115 X14.1135 Y-0.3425
N10120 X14.0838 Y-0.3407
N10125 X14.0541 Y-0.339
N10130 X14.0245 Y-0.3375
N10135 X13.9948 Y-0.3361
N10140 X13.9651 Y-0.3349
N10145 X13.9354 Y-0.3338
N10150 X13.9057 Y-0.3327
N10155 X13.876 Y-0.3318
N10160 X13.8463 Y-0.331
N10165 X13.8166 Y-0.3302
N10170 X13.7869 Y-0.3295
N10175 X13.7572 Y-0.3289
N10180 X13.7275 Y-0.3283
N10185 X13.6978 Y-0.3278
N10190 X13.6681 Y-0.3274
N10195 X13.6384 Y-0.3269
N10200 X13.6087 Y-0.3266
N10205 X13.5789 Y-0.3263
N10210 X13.5492 Y-0.326
N10215 X13.5195 Y-0.3257
N10220 X13.4898 Y-0.3255
N10225 X13.4601 Y-0.3253
N10230 X13.4304 Y-0.3251
N10235 X13.4007 Y-0.3249
N10240 X13.371 Y-0.3248
N10245 X13.3412 Y-0.3247
N10250 X13.3115 Y-0.3246
N10255 X13.2818 Y-0.3245
N10260 X13.2521 Y-0.3244
N10265 X13.2224 Y-0.3243
N10270 X13.1927
N10275 X13.163 Y-0.3242
N10280 X13.1035
N10285 X13.0441 Y-0.3241
N10290 X12.9847
N10295 X12.8956
N10300 X12.7767 Y-0.3242
N10305 X12.5984 Y-0.3243
N10310 X12.2716 Y-0.3245
N10315 X12.0339 Y-0.3246
N10320 X11.7962 Y-0.3247
N10325 X11.5288
N10330 X11.2019 Y-0.3248
N10335 X10.9939
N10340 X10.37
N10345 X9.0032
N10350 X7.0124
N10355 X5.0217 Y-0.3249
N10360 X3.1795
N10365 X3.0904
N10370 X3.0606
N10375 X3.0309
N10380 X3.0012 Y-0.325
N10385 X2.9715 Y-0.3253
N10390 X2.9418 Y-0.3258
N10395 X2.9121 Y-0.3268
N10400 X2.8824 Y-0.3284
N10405 X2.8528 Y-0.3307
N10410 X2.8232 Y-0.3337
N10415 X2.7998 Y-0.3369
N10420 X2.7817 Y-0.3408
N10425 X2.7645 Y-0.3475
N10430 X2.7486 Y-0.3568
N10435 X2.7343 Y-0.3686
N10440 X2.7221 Y-0.3824
N10445 X2.7122 Y-0.398
N10450 X2.7049 Y-0.415
N10455 X2.6973 Y-0.4374
N10460 X2.6896 Y-0.4598
N10465 X2.6813 Y-0.4817
N10470 X2.681 Y-0.4823
N10475 X2.6712 Y-0.5047
N10480 X2.6608 Y-0.5271
N10485 X2.6588 Y-0.5314
N10490 X2.6277 Y-0.5944
N10495 X2.6165 Y-0.6169
N10500 G3 X2.7527 Y-0.6797 I0.0682 J-0.0312
N10505 X2.7529 Y-0.6793 I-0.068 J0.0316
N10510 G1 X2.7556 Y-0.6733 Z0.5003
N10515 X2.7583 Y-0.6674 Z0.5011
N10520 X2.761 Y-0.6616 Z0.5026
N10525 X2.7636 Y-0.6559 Z0.5045
N10530 X2.7661 Y-0.6504 Z0.507
N10535 X2.7685 Y-0.6452 Z0.51
N10540 X2.7708 Y-0.6401 Z0.5136
N10545 X2.7729 Y-0.6354 Z0.5175
N10550 X2.775 Y-0.631 Z0.522
N10555 X2.7768 Y-0.627 Z0.5268
N10560 X2.7785 Y-0.6234 Z0.532
N10565 X2.7799 Y-0.6202 Z0.5375
N10570 X2.7812 Y-0.6175 Z0.5433
N10575 X2.7822 Y-0.6152 Z0.5493
N10580 X2.783 Y-0.6134 Z0.5556
N10585 X2.7836 Y-0.6121 Z0.562
N10590 X2.784 Y-0.6113 Z0.5685
N10595 X2.7841 Y-0.6111 Z0.575
N10600 G0 Z0.95
N10605 X15.0664 Y-0.866
N10610 Z0.65
N10615 G1 Z0.575 F30.
N10620 X15.0663 Y-0.8657 Z0.5685
N10625 X15.0659 Y-0.8649 Z0.562
N10630 X15.0653 Y-0.8636 Z0.5556
N10635 X15.0645 Y-0.8618 Z0.5493
N10640 X15.0635 Y-0.8596 Z0.5433
N10645 X15.0622 Y-0.8568 Z0.5375
N10650 X15.0608 Y-0.8536 Z0.532
N10655 X15.0591 Y-0.85 Z0.5268
N10660 X15.0573 Y-0.846 Z0.522
N10665 X15.0553 Y-0.8416 Z0.5175
N10670 X15.0532 Y-0.8368 Z0.5136
N10675 X15.0509 Y-0.8318 Z0.51
N10680 X15.0485 Y-0.8265 Z0.507
N10685 X15.046 Y-0.821 Z0.5045
N10690 X15.0434 Y-0.8154 Z0.5026
N10695 X15.0408 Y-0.8095 Z0.5011
N10700 X15.0381 Y-0.8036 Z0.5003
N10705 X15.0354 Y-0.7977 Z0.5
N10710 G3 X14.9154 Y-0.5949 I-0.9959 J-0.4521
N10715 G1 X14.9151 Y-0.5944
N10720 X14.899 Y-0.572
N10725 X14.893 Y-0.5626
N10730 X14.885 Y-0.5496
N10735 X14.8727 Y-0.5271
N10740 X14.8705 Y-0.5228
N10745 X14.8622 Y-0.5047
N10750 X14.853 Y-0.4823
N10755 X14.848 Y-0.468
N10760 X14.8452 Y-0.4598
N10765 X14.8433 Y-0.4531
N10770 X14.8388 Y-0.4396
N10775 X14.8306 Y-0.4205
N10780 X14.8194 Y-0.3994
N10785 X14.8049 Y-0.3765
N10790 X14.787 Y-0.3528
N10795 X14.7673 Y-0.3306
N10800 X14.7462 Y-0.3097
N10805 X14.7238 Y-0.2902
N10810 X14.7004 Y-0.2719
N10815 X14.6761 Y-0.2548
N10820 X14.651 Y-0.2388
N10825 X14.6253 Y-0.2239
N10830 X14.5991 Y-0.21
N10835 X14.5724 Y-0.1969
N10840 X14.5452 Y-0.1848
N10845 X14.5178 Y-0.1735
N10850 X14.49 Y-0.1629
N10855 X14.462 Y-0.1531
N10860 X14.4337 Y-0.1439
N10865 X14.4053 Y-0.1353
N10870 X14.3766 Y-0.1273
N10875 X14.3479 Y-0.1199
N10880 X14.319 Y-0.113
N10885 X14.29 Y-0.1065
N10890 X14.2609 Y-0.1005
N10895 X14.2317 Y-0.0949
N10900 X14.2024 Y-0.0897
N10905 X14.1731 Y-0.0849
N10910 X14.1437 Y-0.0804
N10915 X14.1143 Y-0.0762
N10920 X14.0849 Y-0.0724
N10925 X14.0554 Y-0.0687
N10930 X14.0259 Y-0.0654
N10935 X13.9963 Y-0.0623
N10940 X13.9667 Y-0.0594
N10945 X13.9371 Y-0.0567
N10950 X13.9075 Y-0.0542
N10955 X13.8779 Y-0.0519
N10960 X13.8483 Y-0.0498
N10965 X13.8186 Y-0.0478
N10970 X13.789 Y-0.046
N10975 X13.7593 Y-0.0443
N10980 X13.7296 Y-0.0427
N10985 X13.7 Y-0.0412
N10990 X13.6703 Y-0.0399
N10995 X13.6406 Y-0.0386
N11000 X13.6109 Y-0.0375
N11005 X13.5812 Y-0.0364
N11010 X13.5515 Y-0.0354
N11015 X13.5218 Y-0.0345
N11020 X13.4921 Y-0.0337
N11025 X13.4624 Y-0.0329
N11030 X13.4327 Y-0.0322
N11035 X13.403 Y-0.0316
N11040 X13.3733 Y-0.031
N11045 X13.3436 Y-0.0304
N11050 X13.3139 Y-0.0299
N11055 X13.2842 Y-0.0294
N11060 X13.2545 Y-0.029
N11065 X13.2248 Y-0.0286
N11070 X13.195 Y-0.0282
N11075 X13.1653 Y-0.0279
N11080 X13.1356 Y-0.0276
N11085 X13.1059 Y-0.0273
N11090 X13.0762 Y-0.0271
N11095 X13.0465 Y-0.0268
N11100 X13.0168 Y-0.0266
N11105 X12.9871 Y-0.0264
N11110 X12.9573 Y-0.0263
N11115 X12.9276 Y-0.0261
N11120 X12.8979 Y-0.026
N11125 X12.8682 Y-0.0258
N11130 X12.8385 Y-0.0257
N11135 X12.8088 Y-0.0256
N11140 X12.7791 Y-0.0255
N11145 X12.7494 Y-0.0254
N11150 X12.7196 Y-0.0253
N11155 X12.6602 Y-0.0252
N11160 X12.6008 Y-0.0251
N11165 X12.5414 Y-0.025
N11170 X12.4819 Y-0.0249
N11175 X12.3928 Y-0.0248
N11180 X12.3037
N11185 X12.1848 Y-0.0247
N11190 X12.0363
N11195 X11.7986
N11200 X10.9963 Y-0.0248
N11205 X10.2832
N11210 X9.0056
N11215 X7.0148
N11220 X5.024 Y-0.0249
N11225 X3.3898
N11230 X3.3601
N11235 X3.3304
N11240 X3.3007
N11245 X3.271 Y-0.025
N11250 X3.2413 Y-0.0252
N11255 X3.2116 Y-0.0254
N11260 X3.1819 Y-0.0258
N11265 X3.1522 Y-0.0264
N11270 X3.1225 Y-0.0271
N11275 X3.0928 Y-0.0282
N11280 X3.0631 Y-0.0295
N11285 X3.0334 Y-0.0313
N11290 X3.0038 Y-0.0337
N11295 X2.9742 Y-0.0367
N11300 X2.9448 Y-0.0406
N11305 X2.9155 Y-0.0455
N11310 X2.8864 Y-0.0514
N11315 X2.8575 Y-0.0585
N11320 X2.8569 Y-0.0586
N11325 X2.8393 Y-0.0652
N11330 X2.8227 Y-0.0743
N11335 X2.8077 Y-0.0857
N11340 X2.7944 Y-0.0991
N11345 X2.7833 Y-0.1143
N11350 X2.7745 Y-0.131
N11355 X2.7681 Y-0.1488
N11360 X2.7645 Y-0.1673
N11365 X2.7643 Y-0.1682
N11370 X2.761 Y-0.1907
N11375 X2.757 Y-0.2131
N11380 X2.7525 Y-0.2355
N11385 X2.7436 Y-0.2804
N11390 X2.739 Y-0.3028
N11395 X2.7334 Y-0.3253
N11400 X2.7271 Y-0.3477
N11405 X2.7263 Y-0.3504
N11410 X2.7201 Y-0.3701
N11415 X2.7049 Y-0.415
N11420 G3 X2.8484 Y-0.4587 I0.0718 J-0.0216
N11425 X2.8486 Y-0.4582 I-0.0717 J0.0221
N11430 G1 X2.8504 Y-0.452 Z0.5003
N11435 X2.8523 Y-0.4457 Z0.5011
N11440 X2.8542 Y-0.4396 Z0.5026
N11445 X2.856 Y-0.4336 Z0.5045
N11450 X2.8577 Y-0.4279 Z0.507
N11455 X2.8594 Y-0.4223 Z0.51
N11460 X2.861 Y-0.417 Z0.5136
N11465 X2.8625 Y-0.412 Z0.5175
N11470 X2.8638 Y-0.4074 Z0.522
N11475 X2.8651 Y-0.4032 Z0.5268
N11480 X2.8663 Y-0.3994 Z0.532
N11485 X2.8673 Y-0.396 Z0.5375
N11490 X2.8681 Y-0.3931 Z0.5433
N11495 X2.8689 Y-0.3907 Z0.5493
N11500 X2.8694 Y-0.3888 Z0.5556
N11505 X2.8698 Y-0.3875 Z0.562
N11510 X2.8701 Y-0.3867 Z0.5685
N11515 X2.8702 Y-0.3864 Z0.575
N11520 G0 Z0.95
N11525 X14.8761 Y-0.7616
N11530 Z0.65
N11535 G1 Z0.575 F30.
N11540 Y-0.7613 Z0.5685
N11545 Y-0.7605 Z0.562
N11550 Y-0.7591 Z0.5556
N11555 X14.876 Y-0.7571 Z0.5493
N11560 Y-0.7546 Z0.5433
N11565 X14.8759 Y-0.7516 Z0.5375
N11570 X14.8758 Y-0.748 Z0.532
N11575 X14.8757 Y-0.7441 Z0.5268
N11580 X14.8756 Y-0.7396 Z0.522
N11585 X14.8755 Y-0.7348 Z0.5175
N11590 X14.8754 Y-0.7296 Z0.5136
N11595 X14.8752 Y-0.7241 Z0.51
N11600 X14.8751 Y-0.7183 Z0.507
N11605 X14.8749 Y-0.7123 Z0.5045
N11610 X14.8748 Y-0.706 Z0.5026
N11615 X14.8746 Y-0.6997 Z0.5011
N11620 X14.8745 Y-0.6932 Z0.5003
N11625 X14.8743 Y-0.6866 Z0.5
N11630 G3 X14.8433 Y-0.4531 I-1.0934 J-0.0264
N11635 G1 X14.8389 Y-0.4374
N11640 X14.8338 Y-0.415
N11645 X14.8299 Y-0.3926
N11650 X14.8271 Y-0.3701
N11655 X14.8255 Y-0.3477
N11660 Y-0.3472
N11665 X14.825 Y-0.3253
N11670 Y-0.3129
N11675 X14.8241 Y-0.2954
N11680 X14.824 Y-0.2938
N11685 X14.8239 Y-0.2922
N11690 X14.8238 Y-0.2906
N11695 X14.8237 Y-0.2891
N11700 X14.8235 Y-0.2875
N11705 X14.8234 Y-0.2859
N11710 X14.8232 Y-0.2843
N11715 X14.823 Y-0.2826
N11720 X14.8228 Y-0.2809
N11725 X14.8226 Y-0.2792
N11730 X14.8224 Y-0.2775
N11735 X14.8222 Y-0.2757
N11740 X14.8219 Y-0.2739
N11745 X14.8216 Y-0.2721
N11750 X14.8213 Y-0.2703
N11755 X14.821 Y-0.2685
N11760 X14.8207 Y-0.2667
N11765 X14.8204 Y-0.2649
N11770 X14.82 Y-0.2631
N11775 X14.8197 Y-0.2612
N11780 X14.8193 Y-0.2594
N11785 X14.8188 Y-0.2574
N11790 X14.8184 Y-0.2555
N11795 X14.818 Y-0.2535
N11800 X14.8175 Y-0.2515
N11805 X14.817 Y-0.2495
N11810 X14.8165 Y-0.2475
N11815 X14.816 Y-0.2455
N11820 X14.8154 Y-0.2435
N11825 X14.8149 Y-0.2415
N11830 X14.8143 Y-0.2395
N11835 X14.8137 Y-0.2375
N11840 X14.8131 Y-0.2354
N11845 X14.8124 Y-0.2332
N11850 X14.8117 Y-0.2311
N11855 X14.811 Y-0.2289
N11860 X14.8103 Y-0.2267
N11865 X14.8095 Y-0.2245
N11870 X14.8088 Y-0.2223
N11875 X14.808 Y-0.2202
N11880 X14.8072 Y-0.218
N11885 X14.8064 Y-0.2158
N11890 X14.8055 Y-0.2135
N11895 X14.8046 Y-0.2113
N11900 X14.8037 Y-0.209
N11905 X14.8027 Y-0.2066
N11910 X14.8018 Y-0.2043
N11915 X14.8007 Y-0.2019
N11920 X14.7997 Y-0.1995
N11925 X14.7987 Y-0.1972
N11930 X14.7976 Y-0.1948
N11935 X14.7965 Y-0.1925
N11940 X14.7954 Y-0.1901
N11945 X14.7942 Y-0.1877
N11950 X14.793 Y-0.1852
N11955 X14.7918 Y-0.1827
N11960 X14.7905 Y-0.1802
N11965 X14.7892 Y-0.1776
N11970 X14.7879 Y-0.1751
N11975 X14.7865 Y-0.1726
N11980 X14.7852 Y-0.1701
N11985 X14.7838 Y-0.1676
N11990 X14.7824 Y-0.165
N11995 X14.7809 Y-0.1624
N12000 X14.7793 Y-0.1598
N12005 X14.7778 Y-0.1572
N12010 X14.7762 Y-0.1545
N12015 X14.7745 Y-0.1518
N12020 X14.7729 Y-0.1492
N12025 X14.7712 Y-0.1465
N12030 X14.7695 Y-0.1439
N12035 X14.7677 Y-0.1412
N12040 X14.7659 Y-0.1385
N12045 X14.7641 Y-0.1357
N12050 X14.7621 Y-0.1329
N12055 X14.7602 Y-0.1301
N12060 X14.7582 Y-0.1273
N12065 X14.7562 Y-0.1245
N12070 X14.7542 Y-0.1218
N12075 X14.7521 Y-0.119
N12080 X14.75 Y-0.1161
N12085 X14.7478 Y-0.1133
N12090 X14.7456 Y-0.1104
N12095 X14.7433 Y-0.1074
N12100 X14.7409 Y-0.1045
N12105 X14.7386 Y-0.1016
N12110 X14.7362 Y-0.0988
N12115 X14.7338 Y-0.0958
N12120 X14.7313 Y-0.0929
N12125 X14.7287 Y-0.0899
N12130 X14.7261 Y-0.0869
N12135 X14.7234 Y-0.0839
N12140 X14.7207 Y-0.0809
N12145 X14.718 Y-0.0779
N12150 X14.7152 Y-0.0749
N12155 X14.7124 Y-0.0719
N12160 X14.7094 Y-0.0688
N12165 X14.7064 Y-0.0657
N12170 X14.7033 Y-0.0626
N12175 X14.7003 Y-0.0595
N12180 X14.6972 Y-0.0564
N12185 X14.694 Y-0.0533
N12190 X14.6908 Y-0.0502
N12195 X14.6874 Y-0.0471
N12200 X14.684 Y-0.0439
N12205 X14.6805 Y-0.0407
N12210 X14.677 Y-0.0376
N12215 X14.6735 Y-0.0344
N12220 X14.6699 Y-0.0312
N12225 X14.6662 Y-0.028
N12230 X14.6623 Y-0.0247
N12235 X14.6584 Y-0.0215
N12240 X14.6546 Y-0.0183
N12245 X14.6506 Y-0.015
N12250 X14.6466 Y-0.0118
N12255 X14.6424 Y-0.0085
N12260 X14.6382 Y-0.0052
N12265 X14.6338 Y-0.0019
N12270 X14.6295 Y0.0014
N12275 X14.6251 Y0.0047
N12280 X14.6206 Y0.008
N12285 X14.6159 Y0.0114
N12290 X14.6112 Y0.0147
N12295 X14.6064 Y0.018
N12300 X14.6016 Y0.0214
N12305 X14.5966 Y0.0247
N12310 X14.5916 Y0.0281
N12315 X14.5863 Y0.0316
N12320 X14.5811 Y0.0349
N12325 X14.5758 Y0.0383
N12330 X14.5704 Y0.0417
N12335 X14.5648 Y0.0451
N12340 X14.5591 Y0.0486
N12345 X14.5534 Y0.052
N12350 X14.5476 Y0.0554
N12355 X14.5416 Y0.0589
N12360 X14.5354 Y0.0624
N12365 X14.5292 Y0.0658
N12370 X14.5229 Y0.0692
N12375 X14.5165 Y0.0727
N12380 X14.5098 Y0.0762
N12385 X14.5031 Y0.0797
N12390 X14.4963 Y0.0832
N12395 X14.4893 Y0.0867
N12400 X14.4821 Y0.0902
N12405 X14.4749 Y0.0937
N12410 X14.4675 Y0.0972
N12415 X14.4599 Y0.1007
N12420 X14.4521 Y0.1043
N12425 X14.4442 Y0.1078
N12430 X14.4362 Y0.1113
N12435 X14.4279 Y0.1148
N12440 X14.4195 Y0.1184
N12445 X14.4109 Y0.1219
N12450 X14.4021 Y0.1254
N12455 X14.3931 Y0.129
N12460 X14.3839 Y0.1325
N12465 X14.3745 Y0.1361
N12470 X14.3648 Y0.1397
N12475 X14.3551 Y0.1432
N12480 X14.3449 Y0.1468
N12485 X14.3346 Y0.1503
N12490 X14.324 Y0.1539
N12495 X14.3131 Y0.1575
N12500 X14.302 Y0.161
N12505 X14.2906 Y0.1646
N12510 X14.2788 Y0.1682
N12515 X14.2669 Y0.1717
N12520 X14.2606 Y0.1735
N12525 X14.2559 Y0.1748
N12530 X14.2433 Y0.1784
N12535 X14.2302 Y0.1819
N12540 X14.2168 Y0.1855
N12545 X14.203 Y0.189
N12550 X14.1887 Y0.1926
N12555 X14.1741 Y0.1962
N12560 X14.1589 Y0.1997
N12565 X14.1433 Y0.2032
N12570 X14.1271 Y0.2068
N12575 X14.1103 Y0.2103
N12580 X14.0929 Y0.2139
N12585 X14.0748 Y0.2174
N12590 X14.0562 Y0.2209
N12595 X14.0367 Y0.2244
N12600 X14.0163 Y0.2279
N12605 X13.9952 Y0.2314
N12610 X13.9731 Y0.2349
N12615 X13.9499 Y0.2384
N12620 X13.9255 Y0.2419
N12625 X13.8999 Y0.2454
N12630 X13.8729 Y0.2488
N12635 X13.8443 Y0.2523
N12640 X13.8148 Y0.2556
N12645 X13.7853 Y0.2587
N12650 X13.7557 Y0.2617
N12655 X13.7261 Y0.2644
N12660 X13.6965 Y0.267
N12665 X13.6669 Y0.2694
N12670 X13.6373 Y0.2716
N12675 X13.6076 Y0.2737
N12680 X13.578 Y0.2757
N12685 X13.5483 Y0.2775
N12690 X13.5186 Y0.2792
N12695 X13.489 Y0.2808
N12700 X13.4593 Y0.2823
N12705 X13.4296 Y0.2837
N12710 X13.3999 Y0.2851
N12715 X13.3703 Y0.2863
N12720 X13.3406 Y0.2874
N12725 X13.3109 Y0.2885
N12730 X13.2812 Y0.2895
N12735 X13.2515 Y0.2904
N12740 X13.2218 Y0.2912
N12745 X13.1921 Y0.292
N12750 X13.1624 Y0.2928
N12755 X13.1327 Y0.2935
N12760 X13.103 Y0.2941
N12765 X13.0732 Y0.2947
N12770 X13.0435 Y0.2953
N12775 X13.0138 Y0.2958
N12780 X12.9841 Y0.2963
N12785 X12.9544 Y0.2967
N12790 X12.9247 Y0.2972
N12795 X12.895 Y0.2976
N12800 X12.8653 Y0.2979
N12805 X12.8356 Y0.2982
N12810 X12.8059 Y0.2986
N12815 X12.7762 Y0.2988
N12820 X12.7464 Y0.2991
N12825 X12.7167 Y0.2994
N12830 X12.687 Y0.2996
N12835 X12.6573 Y0.2998
N12840 X12.6276 Y0.3
N12845 X12.5979 Y0.3002
N12850 X12.5682 Y0.3003
N12855 X12.5385 Y0.3005
N12860 X12.5087 Y0.3006
N12865 X12.479 Y0.3008
N12870 X12.4493 Y0.3009
N12875 X12.4196 Y0.301
N12880 X12.3899 Y0.3011
N12885 X12.3305 Y0.3013
N12890 X12.271 Y0.3014
N12895 X12.2116 Y0.3016
N12900 X12.1522 Y0.3017
N12905 X12.0928 Y0.3018
N12910 X12.0036 Y0.3019
N12915 X11.9145 Y0.302
N12920 X11.7956 Y0.3021
N12925 X11.6768
N12930 X11.5282 Y0.3022
N12935 X11.3202
N12940 X11.0825
N12945 X9.0918
N12950 X7.101
N12955 X5.1103 Y0.3021
N12960 X3.6841
N12965 X3.6246
N12970 X3.5949
N12975 X3.5652
N12980 X3.5355 Y0.302
N12985 X3.5058 Y0.3019
N12990 X3.4761 Y0.3018
N12995 X3.4464 Y0.3016
N13000 X3.4167 Y0.3013
N13005 X3.3869 Y0.301
N13010 X3.3572 Y0.3005
N13015 X3.3275 Y0.2999
N13020 X3.2978 Y0.2992
N13025 X3.2681 Y0.2982
N13030 X3.2384 Y0.297
N13035 X3.2088 Y0.2955
N13040 X3.1791 Y0.2937
N13045 X3.1495 Y0.2915
N13050 X3.1199 Y0.289
N13055 X3.108 Y0.2878
N13060 X3.0973 Y0.2866
N13065 X3.0867 Y0.2854
N13070 X3.076 Y0.284
N13075 X3.0662 Y0.2828
N13080 X3.0572 Y0.2815
N13085 X3.0488 Y0.2803
N13090 X3.0409 Y0.2791
N13095 X3.0334 Y0.2779
N13100 X3.026 Y0.2766
N13105 X3.0184 Y0.2753
N13110 X3.0109 Y0.2739
N13115 X3.0037 Y0.2725
N13120 X2.9968 Y0.2712
N13125 X2.9902 Y0.2698
N13130 X2.9839 Y0.2684
N13135 X2.9778 Y0.2671
N13140 X2.9719 Y0.2657
N13145 X2.9662 Y0.2644
N13150 X2.9604 Y0.263
N13155 X2.9544 Y0.2615
N13160 X2.9485 Y0.2599
N13165 X2.9428 Y0.2584
N13170 X2.9372 Y0.2568
N13175 X2.9318 Y0.2553
N13180 X2.9266 Y0.2538
N13185 X2.9215 Y0.2523
N13190 X2.9166 Y0.2507
N13195 X2.9118 Y0.2492
N13200 X2.907 Y0.2477
N13205 X2.9023 Y0.2461
N13210 X2.8975 Y0.2445
N13215 X2.8926 Y0.2427
N13220 X2.8877 Y0.241
N13225 X2.883 Y0.2393
N13230 X2.8784 Y0.2376
N13235 X2.8739 Y0.2359
N13240 X2.8696 Y0.2342
N13245 X2.8653 Y0.2324
N13250 X2.8611 Y0.2307
N13255 X2.857 Y0.229
N13260 X2.853 Y0.2273
N13265 X2.849 Y0.2256
N13270 X2.845 Y0.2238
N13275 X2.8409 Y0.222
N13280 X2.8367 Y0.2201
N13285 X2.8327 Y0.2182
N13290 X2.8184 Y0.21
N13295 X2.8054 Y0.1997
N13300 X2.7941 Y0.1877
N13305 X2.7848 Y0.1741
N13310 X2.7775 Y0.1593
N13315 X2.7726 Y0.1436
N13320 X2.77 Y0.1273
N13325 X2.7699 Y0.1108
N13330 X2.7705 Y0.1009
N13335 X2.7735 Y0.0561
N13340 X2.7749 Y0.0336
N13345 X2.7755 Y0.0112
N13350 Y-0.0112
N13355 X2.7749 Y-0.0336
N13360 X2.7735 Y-0.0561
N13365 X2.7705 Y-0.1009
N13370 X2.769 Y-0.1234
N13375 G3 X2.9189 Y-0.1287 I0.075 J-0.0024
N13380 X2.919 Y-0.1282 I-0.0749 J0.0029
N13385 G1 X2.9192 Y-0.1216 Z0.5003
N13390 X2.9194 Y-0.1151 Z0.5011
N13395 X2.9196 Y-0.1088 Z0.5026
N13400 X2.9198 Y-0.1025 Z0.5045
N13405 X2.92 Y-0.0965 Z0.507
N13410 X2.9201 Y-0.0907 Z0.51
N13415 X2.9203 Y-0.0852 Z0.5136
N13420 X2.9205 Y-0.08 Z0.5175
N13425 X2.9206 Y-0.0752 Z0.522
N13430 X2.9208 Y-0.0707 Z0.5268
N13435 X2.9209 Y-0.0668 Z0.532
N13440 X2.921 Y-0.0632 Z0.5375
N13445 X2.9211 Y-0.0602 Z0.5433
N13450 X2.9212 Y-0.0577 Z0.5493
N13455 X2.9213 Y-0.0558 Z0.5556
N13460 Y-0.0543 Z0.562
N13465 Y-0.0535 Z0.5685
N13470 Y-0.0532 Z0.575
N13475 G0 Z0.95
N13480 X14.773 Y-0.6188
N13485 Z0.65
N13490 G1 Z0.575 F30.
N13495 X14.7731 Y-0.6185 Z0.5685
N13500 X14.7733 Y-0.6177 Z0.562
N13505 X14.7736 Y-0.6163 Z0.5556
N13510 X14.7741 Y-0.6144 Z0.5493
N13515 X14.7747 Y-0.612 Z0.5433
N13520 X14.7755 Y-0.6091 Z0.5375
N13525 X14.7764 Y-0.6057 Z0.532
N13530 X14.7773 Y-0.6018 Z0.5268
N13535 X14.7784 Y-0.5975 Z0.522
N13540 X14.7796 Y-0.5929 Z0.5175
N13545 X14.7809 Y-0.5878 Z0.5136
N13550 X14.7823 Y-0.5825 Z0.51
N13555 X14.7837 Y-0.5769 Z0.507
N13560 X14.7852 Y-0.571 Z0.5045
N13565 X14.7868 Y-0.565 Z0.5026
N13570 X14.7884 Y-0.5588 Z0.5011
N13575 X14.79 Y-0.5525 Z0.5003
N13580 X14.7916 Y-0.5462 Z0.5
N13585 G3 X14.825 Y-0.3129 I-1.0596 J0.2709
N13590 G1 Y-0.258
N13595 Y-0.1009
N13600 X14.8234 Y-0.0694
N13605 X14.8233 Y-0.0674
N13610 X14.8232 Y-0.0655
N13615 X14.823 Y-0.0635
N13620 X14.8229 Y-0.0615
N13625 X14.8227 Y-0.0595
N13630 X14.8225 Y-0.0575
N13635 X14.8223 Y-0.0555
N13640 X14.8221 Y-0.0534
N13645 X14.8218 Y-0.0513
N13650 X14.8216 Y-0.0492
N13655 X14.8213 Y-0.0471
N13660 X14.821 Y-0.045
N13665 X14.8207 Y-0.0428
N13670 X14.8204 Y-0.0407
N13675 X14.82 Y-0.0385
N13680 X14.8196 Y-0.0363
N13685 X14.8192 Y-0.0341
N13690 X14.8188 Y-0.0318
N13695 X14.8184 Y-0.0295
N13700 X14.8179 Y-0.0273
N13705 X14.8175 Y-0.025
N13710 X14.817 Y-0.0226
N13715 X14.8165 Y-0.0203
N13720 X14.8159 Y-0.0179
N13725 X14.8153 Y-0.0156
N13730 X14.8148 Y-0.0132
N13735 X14.8142 Y-0.0108
N13740 X14.8135 Y-0.0083
N13745 X14.8129 Y-0.0059
N13750 X14.8122 Y-0.0034
N13755 X14.8115 Y-0.0009
N13760 X14.8107 Y0.0016
N13765 X14.81 Y0.0041
N13770 X14.8092 Y0.0066
N13775 X14.8084 Y0.0092
N13780 X14.8075 Y0.0118
N13785 X14.8067 Y0.0144
N13790 X14.8058 Y0.017
N13795 X14.8049 Y0.0196
N13800 X14.8039 Y0.0223
N13805 X14.8029 Y0.025
N13810 X14.8019 Y0.0277
N13815 X14.8009 Y0.0304
N13820 X14.7998 Y0.0331
N13825 X14.7987 Y0.0358
N13830 X14.7976 Y0.0386
N13835 X14.7965 Y0.0414
N13840 X14.7953 Y0.0442
N13845 X14.794 Y0.047
N13850 X14.7928 Y0.0498
N13855 X14.7915 Y0.0527
N13860 X14.7902 Y0.0556
N13865 X14.7888 Y0.0584
N13870 X14.7874 Y0.0613
N13875 X14.786 Y0.0643
N13880 X14.7846 Y0.0672
N13885 X14.7831 Y0.0702
N13890 X14.7815 Y0.0731
N13895 X14.78 Y0.0761
N13900 X14.7783 Y0.0791
N13905 X14.7767 Y0.0822
N13910 X14.775 Y0.0852
N13915 X14.7733 Y0.0883
N13920 X14.7715 Y0.0914
N13925 X14.7697 Y0.0944
N13930 X14.7679 Y0.0976
N13935 X14.766 Y0.1007
N13940 X14.7641 Y0.1038
N13945 X14.7611 Y0.1086
N13950 X14.7591 Y0.1118
N13955 X14.757 Y0.115
N13960 X14.7549 Y0.1182
N13965 X14.7527 Y0.1214
N13970 X14.7505 Y0.1247
N13975 X14.7483 Y0.128
N13980 X14.746 Y0.1312
N13985 X14.7436 Y0.1346
N13990 X14.7412 Y0.1379
N13995 X14.7388 Y0.1412
N14000 X14.7363 Y0.1445
N14005 X14.7337 Y0.1479
N14010 X14.7311 Y0.1513
N14015 X14.7285 Y0.1547
N14020 X14.7258 Y0.1581
N14025 X14.723 Y0.1615
N14030 X14.7202 Y0.165
N14035 X14.7174 Y0.1684
N14040 X14.7145 Y0.1719
N14045 X14.7115 Y0.1754
N14050 X14.7085 Y0.1789
N14055 X14.7054 Y0.1824
N14060 X14.7022 Y0.1859
N14065 X14.699 Y0.1895
N14070 X14.6957 Y0.193
N14075 X14.6924 Y0.1966
N14080 X14.689 Y0.2002
N14085 X14.6856 Y0.2038
N14090 X14.682 Y0.2074
N14095 X14.6785 Y0.211
N14100 X14.6748 Y0.2147
N14105 X14.6711 Y0.2183
N14110 X14.6673 Y0.222
N14115 X14.6634 Y0.2256
N14120 X14.6595 Y0.2293
N14125 X14.6555 Y0.2331
N14130 X14.6514 Y0.2368
N14135 X14.6473 Y0.2405
N14140 X14.6431 Y0.2442
N14145 X14.6387 Y0.248
N14150 X14.6344 Y0.2517
N14155 X14.6299 Y0.2555
N14160 X14.6254 Y0.2593
N14165 X14.6208 Y0.2631
N14170 X14.6161 Y0.2669
N14175 X14.6113 Y0.2707
N14180 X14.6064 Y0.2746
N14185 X14.6015 Y0.2784
N14190 X14.5964 Y0.2823
N14195 X14.5913 Y0.2861
N14200 X14.586 Y0.29
N14205 X14.5807 Y0.2939
N14210 X14.5799 Y0.2944
N14215 G3 X14.4752 Y0.1915 I-0.0416 J-0.0624
N14220 G1 X14.492 Y0.1654
N14225 X14.6624 Y-0.1006
N14230 X14.6869 Y-0.1388
N14235 G3 X14.825 Y-0.1009 I0.0631 J0.0405
N14240 G1 Y-0.0336
N14245 X14.8249 Y-0.0112
N14250 Y0.0112
N14255 X14.825 Y0.0336
N14260 Y0.3028
N14265 Y0.3253
N14270 X14.8255 Y0.3472
N14275 Y0.3477
N14280 X14.8271 Y0.3701
N14285 X14.8299 Y0.3926
N14290 X14.8338 Y0.415
N14295 X14.8389 Y0.4374
N14300 X14.8452 Y0.4598
N14305 X14.848 Y0.468
N14310 X14.853 Y0.4823
N14315 X14.8622 Y0.5047
N14320 X14.8705 Y0.5228
N14325 X14.8727 Y0.5271
N14330 X14.885 Y0.5496
N14335 X14.893 Y0.5626
N14340 X14.899 Y0.572
N14345 X14.9151 Y0.5944
N14350 X14.9154 Y0.5949
N14355 X14.9335 Y0.6169
N14360 X14.9379 Y0.6218
N14365 X14.9548 Y0.6393
N14370 X14.9604 Y0.6447
N14375 X14.9797 Y0.6617
N14380 X14.9829 Y0.6645
N14385 X15.0054 Y0.6819
N14390 X15.0087 Y0.6842
N14395 X15.0279 Y0.697
N14400 X15.1178 Y0.7552
N14405 X15.1291 Y0.7625
N14410 G3 X15.0439 Y0.8859 I-0.0428 J0.0616
N14415 X15.0435 Y0.8856 I0.0424 J-0.0619
N14420 G1 X15.0381 Y0.8819 Z0.5003
N14425 X15.0328 Y0.8782 Z0.5011
N14430 X15.0275 Y0.8746 Z0.5026
N14435 X15.0224 Y0.871 Z0.5045
N14440 X15.0174 Y0.8675 Z0.507
N14445 X15.0127 Y0.8642 Z0.51
N14450 X15.0081 Y0.8611 Z0.5136
N14455 X15.0039 Y0.8581 Z0.5175
N14460 X14.9999 Y0.8554 Z0.522
N14465 X14.9963 Y0.8528 Z0.5268
N14470 X14.993 Y0.8506 Z0.532
N14475 X14.9901 Y0.8486 Z0.5375
N14480 X14.9877 Y0.8468 Z0.5433
N14485 X14.9856 Y0.8454 Z0.5493
N14490 X14.984 Y0.8443 Z0.5556
N14495 X14.9828 Y0.8435 Z0.562
N14500 X14.9821 Y0.843 Z0.5685
N14505 X14.9819 Y0.8428 Z0.575
N14510 G0 Z0.95
N14515 X1.9215 Y1.3025
N14520 Z0.65
N14525 G1 Z0.575 F30.
N14530 X1.9217 Y1.3022 Z0.5685
N14535 X1.9223 Y1.3016 Z0.562
N14540 X1.9233 Y1.3006 Z0.5556
N14545 X1.9246 Y1.2992 Z0.5493
N14550 X1.9263 Y1.2974 Z0.5433
N14555 X1.9284 Y1.2952 Z0.5375
N14560 X1.9308 Y1.2926 Z0.532
N14565 X1.9336 Y1.2897 Z0.5268
N14570 X1.9366 Y1.2865 Z0.522
N14575 X1.9399 Y1.283 Z0.5175
N14580 X1.9435 Y1.2793 Z0.5136
N14585 X1.9473 Y1.2753 Z0.51
N14590 X1.9513 Y1.271 Z0.507
N14595 X1.9555 Y1.2667 Z0.5045
N14600 X1.9598 Y1.2621 Z0.5026
N14605 X1.9642 Y1.2575 Z0.5011
N14610 X1.9686 Y1.2528 Z0.5003
N14615 X1.9731 Y1.2481 Z0.5
N14620 G3 X2.1528 Y1.0956 I0.7933 J0.7529
N14625 G1 X2.164 Y1.0886
N14630 X2.2321 Y1.0431
N14635 X2.254 Y1.0283
N14640 X2.2649 Y1.0206
N14645 X2.2765 Y1.0124
N14650 X2.2941 Y0.9982
N14655 X2.299 Y0.994
N14660 X2.3215 Y0.9743
N14665 X2.3453 Y0.9533
N14670 X2.3664 Y0.9347
N14675 X2.3707 Y0.9309
N14680 X2.3889 Y0.9146
N14685 X2.3956 Y0.9085
N14690 X2.4114 Y0.8927
N14695 X2.4266 Y0.8779
N14700 X2.4288 Y0.8758
N14705 X2.4311 Y0.8736
N14710 X2.4334 Y0.8714
N14715 X2.4358 Y0.8693
N14720 X2.4382 Y0.867
N14725 X2.4407 Y0.8648
N14730 X2.4432 Y0.8626
N14735 X2.4458 Y0.8603
N14740 X2.4484 Y0.8581
N14745 X2.4511 Y0.8558
N14750 X2.4539 Y0.8535
N14755 X2.4567 Y0.8512
N14760 X2.4596 Y0.8489
N14765 X2.4712 Y0.8397
N14770 X2.4819 Y0.8294
N14775 X2.4916 Y0.8181
N14780 X2.5002 Y0.806
N14785 X2.5076 Y0.7931
N14790 X2.5138 Y0.7796
N14795 X2.5176 Y0.7716
N14800 X2.5221 Y0.7638
N14805 X2.527 Y0.7563
N14810 G3 X2.6461 Y0.8475 I0.0596 J0.0456
N14815 X2.4156 Y0.9102 I-0.1563 J-0.1197
N14820 X2.4114 Y0.8927 I0.0042 J-0.0103
N14825 G1 X2.4176 Y0.886
N14830 X2.4339 Y0.8676
N14835 X2.4789 Y0.8163
N14840 X2.4959 Y0.7963
N14845 X2.4961 Y0.7962
N14850 G2 X2.5025 Y0.7906 I-0.0608 J-0.0763
N14855 X2.5099 Y0.7825 I-0.0517 J-0.0544
N14860 G1 X2.514 Y0.7773
N14865 G2 X2.5201 Y0.7682 I-0.059 J-0.0462
N14870 X2.524 Y0.7606 I-0.0848 J-0.0483
N14875 G1 X2.5241 Y0.7604
N14880 X2.5304 Y0.7515
N14885 X2.5688 Y0.694
N14890 X2.5754 Y0.6842
N14895 X2.59 Y0.6617
N14900 X2.5913 Y0.6596
N14905 X2.6038 Y0.6393
N14910 X2.6138 Y0.622
N14915 X2.6165 Y0.6169
N14920 X2.6277 Y0.5944
N14925 X2.6588 Y0.5314
N14930 X2.6608 Y0.5271
N14935 X2.6712 Y0.5047
N14940 X2.681 Y0.4823
N14945 X2.6813 Y0.4817
N14950 X2.6896 Y0.4598
N14955 X2.6973 Y0.4374
N14960 X2.7201 Y0.3701
N14965 X2.7263 Y0.3504
N14970 X2.7271 Y0.3477
N14975 X2.7334 Y0.3253
N14980 X2.739 Y0.3028
N14985 X2.7436 Y0.2804
N14990 X2.7525 Y0.2355
N14995 X2.757 Y0.2131
N15000 X2.761 Y0.1907
N15005 X2.7643 Y0.1682
N15010 G3 X2.9119 Y0.1951 I0.0737 J0.0136
N15015 X2.9118 Y0.1955 I-0.0738 J-0.0132
N15020 G1 X2.9106 Y0.202 Z0.5003
N15025 X2.9095 Y0.2083 Z0.5011
N15030 X2.9083 Y0.2146 Z0.5026
N15035 X2.9072 Y0.2208 Z0.5045
N15040 X2.9061 Y0.2267 Z0.507
N15045 X2.905 Y0.2324 Z0.51
N15050 X2.904 Y0.2378 Z0.5136
N15055 X2.9031 Y0.2429 Z0.5175
N15060 X2.9022 Y0.2477 Z0.522
N15065 X2.9014 Y0.252 Z0.5268
N15070 X2.9007 Y0.2559 Z0.532
N15075 X2.9 Y0.2594 Z0.5375
N15080 X2.8995 Y0.2624 Z0.5433
N15085 X2.899 Y0.2648 Z0.5493
N15090 X2.8986 Y0.2668 Z0.5556
N15095 X2.8984 Y0.2682 Z0.562
N15100 X2.8982 Y0.269 Z0.5685
N15105 Y0.2693 Z0.575
N15110 G0 Z0.95
N15115 X16.2729 Y0.7942
N15120 Z0.65
N15125 G1 Z0.575 F30.
N15130 Y0.7939 Z0.5685
N15135 X16.2727 Y0.7931 Z0.562
N15140 X16.2725 Y0.7917 Z0.5556
N15145 X16.2722 Y0.7898 Z0.5493
N15150 X16.2718 Y0.7873 Z0.5433
N15155 X16.2714 Y0.7843 Z0.5375
N15160 X16.2708 Y0.7808 Z0.532
N15165 X16.2702 Y0.7769 Z0.5268
N15170 X16.2695 Y0.7725 Z0.522
N15175 X16.2688 Y0.7678 Z0.5175
N15180 X16.2679 Y0.7626 Z0.5136
N15185 X16.2671 Y0.7572 Z0.51
N15190 X16.2662 Y0.7514 Z0.507
N15195 X16.2652 Y0.7455 Z0.5045
N15200 X16.2643 Y0.7393 Z0.5026
N15205 X16.2633 Y0.733 Z0.5011
N15210 X16.2623 Y0.7266 Z0.5003
N15215 X16.2612 Y0.7201 Z0.5
N15220 G3 X16.2498 Y0.4848 I1.0803 J-0.1703
N15225 G1 X16.25 Y0.4827
N15230 X16.2506 Y0.4806
N15235 X16.2516 Y0.4787
N15240 G3 X16.3826 Y0.4919 I0.0619 J0.0424
N15245 G1 X16.3841 Y0.4968 Z0.5002
N15250 X16.3856 Y0.5017 Z0.5007
N15255 X16.3871 Y0.5066 Z0.5016
N15260 X16.3875 Y0.5115 Z0.5028
N15265 X16.388 Y0.5164 Z0.5044
N15270 X16.3885 Y0.5211 Z0.5062
N15275 X16.3879 Y0.5264 Z0.5088
N15280 X16.3874 Y0.5315 Z0.5118
N15285 X16.3869 Y0.5363 Z0.5152
N15290 X16.3856 Y0.5404 Z0.5187
N15295 X16.3844 Y0.5442 Z0.5225
N15300 X16.3833 Y0.5477 Z0.5265
N15305 X16.3823 Y0.5509 Z0.5308
N15310 X16.3806 Y0.554 Z0.5362
N15315 X16.3791 Y0.5568 Z0.5419
N15320 X16.3778 Y0.559 Z0.5478
N15325 X16.3768 Y0.5608 Z0.5539
N15330 X16.3761 Y0.5622 Z0.5601
N15335 X16.3756 Y0.5631 Z0.5665
N15340 X16.3754 Y0.5634 Z0.5707
N15345 X16.3753 Y0.5635 Z0.575
N15350 G0 Z0.95
N15355 X16.302 Y0.7877
N15360 Z0.7004
N15365 G1 Z0.6254 F30.
N15370 Y0.7875 Z0.6189
N15375 X16.3018 Y0.7866 Z0.6124
N15380 X16.3014 Y0.7853 Z0.606
N15385 X16.3009 Y0.7834 Z0.5997
N15390 X16.3003 Y0.7809 Z0.5937
N15395 X16.2996 Y0.778 Z0.5879
N15400 X16.2987 Y0.7746 Z0.5824
N15405 X16.2977 Y0.7707 Z0.5772
N15410 X16.2966 Y0.7665 Z0.5724
N15415 X16.2954 Y0.7618 Z0.5679
N15420 X16.2941 Y0.7568 Z0.564
N15425 X16.2927 Y0.7514 Z0.5604
N15430 X16.2913 Y0.7458 Z0.5574
N15435 X16.2898 Y0.7399 Z0.5549
N15440 X16.2883 Y0.7339 Z0.5529
N15445 X16.2867 Y0.7277 Z0.5515
N15450 X16.2851 Y0.7214 Z0.5507
N15455 X16.2834 Y0.7151 Z0.5504
N15460 G3 X16.2499 Y0.4819 I1.0595 J-0.2714
N15465 G1 Y0.467
N15470 X16.2485 Y0.4522
N15475 X16.2457 Y0.4376
N15480 X16.2416 Y0.4234
N15485 X16.2361 Y0.4096
N15490 X16.2293 Y0.3963
N15495 X16.2134 Y0.3712
N15500 X16.2115 Y0.3689
N15505 X16.2095 Y0.3664
N15510 X16.2076 Y0.3639
N15515 X16.2057 Y0.3615
N15520 X16.2038 Y0.359
N15525 X16.202 Y0.3565
N15530 X16.2002 Y0.3541
N15535 X16.1984 Y0.3516
N15540 X16.1965 Y0.3489
N15545 X16.1942 Y0.3456
N15550 X16.1919 Y0.3422
N15555 X16.1897 Y0.339
N15560 X16.1875 Y0.3357
N15565 X16.1853 Y0.3324
N15570 X16.1832 Y0.3291
N15575 X16.1811 Y0.3257
N15580 X16.1789 Y0.3224
N15585 X16.1769 Y0.319
N15590 X16.1749 Y0.3157
N15595 X16.1729 Y0.3124
N15600 X16.171 Y0.309
N15605 X16.169 Y0.3057
N15610 X16.1665 Y0.3012
N15615 X16.164 Y0.2967
N15620 X16.1616 Y0.2923
N15625 X16.1592 Y0.2879
N15630 X16.1569 Y0.2836
N15635 X16.1547 Y0.2792
N15640 X16.1524 Y0.2747
N15645 X16.1502 Y0.2703
N15650 X16.1481 Y0.266
N15655 X16.146 Y0.2618
N15660 X16.144 Y0.2575
N15665 X16.1422 Y0.2535
N15670 X16.1355 Y0.2359
N15675 X16.1315 Y0.2176
N15680 X16.1301 Y0.1989
N15685 Y-0.2804
N15690 X16.1299 Y-0.3022
N15695 X16.1298 Y-0.3028
N15700 X16.1284 Y-0.3253
N15705 X16.1257 Y-0.3477
N15710 X16.1217 Y-0.3701
N15715 X16.1162 Y-0.3926
N15720 X16.1094 Y-0.415
N15725 X16.1074 Y-0.4207
N15730 X16.101 Y-0.4374
N15735 X16.0909 Y-0.4598
N15740 X16.0849 Y-0.4721
N15745 X16.0792 Y-0.4823
N15750 X16.0658 Y-0.5047
N15755 X16.0624 Y-0.5097
N15760 X16.05 Y-0.5271
N15765 X16.0399 Y-0.5398
N15770 X16.0318 Y-0.5496
N15775 X16.0174 Y-0.5653
N15780 X16.0108 Y-0.572
N15785 X15.9949 Y-0.587
N15790 X15.9864 Y-0.5944
N15795 X15.9724 Y-0.6059
N15800 X15.9577 Y-0.6169
N15805 X15.9499 Y-0.6225
N15810 X15.9275 Y-0.6372
N15815 X15.924 Y-0.6393
N15820 X15.905 Y-0.6502
N15825 X15.8831 Y-0.6617
N15830 X15.8825 Y-0.662
N15835 X15.86 Y-0.6725
N15840 X15.8375 Y-0.6821
N15845 X15.8323 Y-0.6842
N15850 X15.815 Y-0.6907
N15855 X15.7925 Y-0.6985
N15860 X15.77 Y-0.7057
N15865 X15.5002 Y-0.7892
N15870 X15.4777 Y-0.7957
N15875 X15.4751 Y-0.7963
N15880 X15.4552 Y-0.8009
N15885 X15.4327 Y-0.8049
N15890 X15.4102 Y-0.8077
N15895 X15.3877 Y-0.8092
N15900 X15.3652 Y-0.8096
N15905 X15.3427 Y-0.8086
N15910 X15.3202 Y-0.8065
N15915 X15.2978 Y-0.8031
N15920 X15.2753 Y-0.7985
N15925 X15.2663 Y-0.7963
N15930 X15.2528 Y-0.7926
N15935 X15.2303 Y-0.7853
N15940 X15.2078 Y-0.7766
N15945 X15.2015 Y-0.7739
N15950 X15.1853 Y-0.7662
N15955 X15.1628 Y-0.7544
N15960 X15.1577 Y-0.7515
N15965 X15.1403 Y-0.7406
N15970 X15.1223 Y-0.729
N15975 X15.0279 Y-0.6679
N15980 X15.0186 Y-0.6617
N15985 X15.0054 Y-0.6527
N15990 X14.9876 Y-0.6393
N15995 X14.9829 Y-0.6355
N16000 X14.9618 Y-0.6169
N16005 X14.9604 Y-0.6156
N16010 X14.9495 Y-0.605
N16015 X14.9396 Y-0.5944
N16020 X14.9379 Y-0.5926
N16025 X14.9203 Y-0.572
N16030 X14.9154 Y-0.5657
N16035 X14.9036 Y-0.5496
N16040 X14.893 Y-0.5335
N16045 X14.889 Y-0.5271
N16050 X14.8764 Y-0.5047
N16055 X14.8763 Y-0.5046
N16060 G2 X14.8654 Y-0.4905 I0.1556 J0.1316
N16065 X14.8548 Y-0.4686 I0.0613 J0.0432
N16070 G1 X14.8314 Y-0.3897
N16075 G2 X14.8283 Y-0.3656 I0.0719 J0.0214
N16080 X14.8297 Y-0.3479 I0.2037 J-0.0074
N16085 G1 Y-0.3477
N16090 X14.8282 Y-0.3253
N16095 X14.8278 Y-0.3028
N16100 Y-0.258
N16105 Y0.2804
N16110 Y0.3028
N16115 X14.8282 Y0.3253
N16120 X14.8297 Y0.3477
N16125 X14.8323 Y0.3701
N16130 X14.8364 Y0.3926
N16135 X14.8416 Y0.415
N16140 X14.848 Y0.4374
N16145 X14.856 Y0.4598
N16150 X14.8654 Y0.4823
N16155 X14.8705 Y0.4933
N16160 X14.8764 Y0.5047
N16165 X14.889 Y0.5271
N16170 X14.893 Y0.5335
N16175 X14.9036 Y0.5496
N16180 X14.9154 Y0.5657
N16185 X14.9203 Y0.572
N16190 X14.9379 Y0.5926
N16195 X14.9396 Y0.5944
N16200 X14.9495 Y0.605
N16205 X14.9604 Y0.6156
N16210 X14.9618 Y0.6169
N16215 X14.9829 Y0.6355
N16220 X14.9876 Y0.6393
N16225 X15.0054 Y0.6527
N16230 X15.0186 Y0.6617
N16235 X15.0279 Y0.6679
N16240 X15.1223 Y0.729
N16245 X15.1403 Y0.7406
N16250 X15.1577 Y0.7515
N16255 X15.1628 Y0.7544
N16260 X15.1853 Y0.7662
N16265 X15.2015 Y0.7739
N16270 X15.2078 Y0.7766
N16275 X15.2303 Y0.7853
N16280 X15.2528 Y0.7926
N16285 X15.2663 Y0.7963
N16290 X15.2753 Y0.7985
N16295 X15.2978 Y0.8031
N16300 X15.3202 Y0.8065
N16305 X15.3427 Y0.8086
N16310 X15.3652 Y0.8096
N16315 X15.3877 Y0.8092
N16320 X15.4102 Y0.8077
N16325 X15.4327 Y0.8049
N16330 X15.4552 Y0.8009
N16335 X15.4751 Y0.7963
N16340 X15.4777 Y0.7957
N16345 X15.5002 Y0.7892
N16350 X15.77 Y0.7057
N16355 X15.7925 Y0.6985
N16360 X15.815 Y0.6907
N16365 X15.8323 Y0.6842
N16370 X15.8375 Y0.6821
N16375 X15.86 Y0.6725
N16380 X15.8825 Y0.662
N16385 X15.8831 Y0.6617
N16390 X15.905 Y0.6502
N16395 X15.924 Y0.6393
N16400 X15.9275 Y0.6372
N16405 X15.9499 Y0.6225
N16410 X15.9577 Y0.6169
N16415 X15.9724 Y0.6059
N16420 X15.9864 Y0.5944
N16425 X15.9949 Y0.587
N16430 X16.0108 Y0.572
N16435 X16.0174 Y0.5653
N16440 X16.0318 Y0.5496
N16445 X16.0399 Y0.5398
N16450 X16.05 Y0.5271
N16455 X16.0624 Y0.5097
N16460 X16.0658 Y0.5047
N16465 X16.0792 Y0.4823
N16470 X16.0849 Y0.4721
N16475 X16.0909 Y0.4598
N16480 X16.101 Y0.4374
N16485 X16.1074 Y0.4207
N16490 X16.1094 Y0.415
N16495 X16.1162 Y0.3926
N16500 X16.1217 Y0.3701
N16505 X16.1257 Y0.3477
N16510 X16.1284 Y0.3253
N16515 X16.1298 Y0.3028
N16520 X16.1299 Y0.3022
N16525 X16.1301 Y0.2804
N16530 Y0.2131
N16535 G3 X16.28 Y0.2178 I0.075 J0.0026
N16540 Y0.2183 I-0.075 J-0.0021
N16545 G1 X16.2798 Y0.2249 Z0.5507
N16550 X16.2796 Y0.2314 Z0.5515
N16555 X16.2793 Y0.2377 Z0.5529
N16560 X16.2791 Y0.244 Z0.5549
N16565 X16.2789 Y0.25 Z0.5574
N16570 X16.2787 Y0.2558 Z0.5604
N16575 X16.2785 Y0.2613 Z0.564
N16580 X16.2783 Y0.2665 Z0.5679
N16585 X16.2782 Y0.2713 Z0.5724
N16590 X16.278 Y0.2758 Z0.5772
N16595 X16.2779 Y0.2797 Z0.5824
N16600 X16.2778 Y0.2832 Z0.5879
N16605 X16.2776 Y0.2863 Z0.5937
N16610 Y0.2888 Z0.5997
N16615 X16.2775 Y0.2907 Z0.606
N16620 X16.2774 Y0.2922 Z0.6124
N16625 Y0.293 Z0.6189
N16630 Y0.2933 Z0.6254
N16635 G0 Z0.95
N16640 X0.1097 Y-0.0269
N16645 Z0.7004
N16650 G1 Z0.6254 F30.
N16655 X0.11 Y-0.0268 Z0.6189
N16660 X0.1108 Y-0.0266 Z0.6124
N16665 X0.1122 Y-0.0262 Z0.606
N16670 X0.1141 Y-0.0257 Z0.5997
N16675 X0.1165 Y-0.0249 Z0.5937
N16680 X0.1194 Y-0.0241 Z0.5879
N16685 X0.1228 Y-0.0231 Z0.5824
N16690 X0.1266 Y-0.022 Z0.5772
N16695 X0.1308 Y-0.0207 Z0.5724
N16700 X0.1354 Y-0.0194 Z0.5679
N16705 X0.1404 Y-0.0179 Z0.564
N16710 X0.1457 Y-0.0164 Z0.5604
N16715 X0.1513 Y-0.0147 Z0.5574
N16720 X0.1571 Y-0.013 Z0.5549
N16725 X0.1631 Y-0.0113 Z0.5529
N16730 X0.1692 Y-0.0095 Z0.5515
N16735 X0.1754 Y-0.0076 Z0.5507
N16740 X0.1817 Y-0.0058 Z0.5504
N16745 X0.2244 Y0.0067
N16750 X0.225
N16755 X0.2261 Y0.0069
N16760 X0.2273 Y0.0071
N16765 X0.2285 Y0.0074
N16770 X0.2296 Y0.0076
N16775 X0.2308 Y0.0079
N16780 X0.2319 Y0.0082
N16785 X0.233 Y0.0085
N16790 X0.2342 Y0.0088
N16795 X0.2353 Y0.0092
N16800 X0.2364 Y0.0095
N16805 X0.2375 Y0.0099
N16810 X0.2387 Y0.0103
N16815 X0.2398 Y0.0107
N16820 X0.2409 Y0.0111
N16825 X0.242 Y0.0115
N16830 X0.2431 Y0.012
N16835 X0.2442 Y0.0124
N16840 X0.2453 Y0.0129
N16845 X0.2464 Y0.0133
N16850 X0.2475 Y0.0138
N16855 X0.2488 Y0.0144
N16860 X0.2501 Y0.015
N16865 X0.2516 Y0.0156
N16870 X0.2531 Y0.0163
N16875 X0.2546 Y0.017
N16880 X0.2561 Y0.0178
N16885 X0.2576 Y0.0185
N16890 X0.2592 Y0.0193
N16895 X0.2609 Y0.0202
N16900 X0.2625 Y0.021
N16905 X0.2642 Y0.0219
N16910 X0.2658 Y0.0228
N16915 X0.2675 Y0.0237
N16920 X0.2693 Y0.0247
N16925 X0.271 Y0.0257
N16930 X0.2728 Y0.0267
N16935 X0.2746 Y0.0278
N16940 X0.2764 Y0.0289
N16945 X0.2783 Y0.03
N16950 X0.2802 Y0.0312
N16955 X0.2821 Y0.0323
N16960 X0.284 Y0.0336
N16965 X0.2859 Y0.0348
N16970 X0.2879 Y0.0361
N16975 X0.2899 Y0.0375
N16980 X0.2919 Y0.0389
N16985 X0.294 Y0.0403
N16990 X0.2961 Y0.0418
N16995 X0.2982 Y0.0433
N17000 X0.3005 Y0.0449
N17005 X0.3027 Y0.0466
N17010 X0.305 Y0.0483
N17015 X0.3076 Y0.0502
N17020 X0.3105 Y0.0524
N17025 X0.3134 Y0.0548
N17030 X0.3165 Y0.0572
N17035 X0.3196 Y0.0596
N17040 X0.3227 Y0.0622
N17045 X0.3258 Y0.0648
N17050 X0.329 Y0.0675
N17055 X0.3322 Y0.0702
N17060 X0.3355 Y0.0731
N17065 X0.3388 Y0.076
N17070 X0.3422 Y0.079
N17075 X0.3456 Y0.0821
N17080 X0.349 Y0.0852
N17085 X0.3525 Y0.0885
N17090 X0.356 Y0.0918
N17095 X0.3596 Y0.0953
N17100 X0.3633 Y0.0989
N17105 X0.3671 Y0.1026
N17110 X0.371 Y0.1066
N17115 X0.375 Y0.1107
N17120 X0.3798 Y0.1156
N17125 X0.3853 Y0.1214
N17130 X0.3911 Y0.1275
N17135 X0.3971 Y0.134
N17140 X0.4032 Y0.1408
N17145 X0.4095 Y0.1478
N17150 X0.4159 Y0.155
N17155 X0.4225 Y0.1625
N17160 X0.4292 Y0.1704
N17165 X0.4366 Y0.1791
N17170 X0.4442 Y0.1883
N17175 X0.4544 Y0.2007
N17180 X0.472 Y0.2225
N17185 X0.4906 Y0.2457
N17190 X0.5089 Y0.2691
N17195 X0.5271 Y0.2925
N17200 X0.5453 Y0.316
N17205 X0.5636 Y0.3394
N17210 X0.582 Y0.3628
N17215 X0.6005 Y0.386
N17220 X0.6192 Y0.4091
N17225 X0.6382 Y0.432
N17230 X0.6574 Y0.4546
N17235 X0.677 Y0.477
N17240 X0.6968 Y0.4991
N17245 X0.7171 Y0.5208
N17250 X0.7378 Y0.5422
N17255 X0.7588 Y0.5631
N17260 X0.7803 Y0.5837
N17265 X0.8022 Y0.6038
N17270 X0.8246 Y0.6233
N17275 X0.8473 Y0.6424
N17280 X0.8706 Y0.6609
N17285 X0.8943 Y0.6788
N17290 X0.9184 Y0.6961
N17295 X0.943 Y0.7129
N17300 X0.968 Y0.7289
N17305 X0.9935 Y0.7442
N17310 X1.0193 Y0.7588
N17315 X1.0456 Y0.7728
N17320 X1.0722 Y0.786
N17325 X1.0992 Y0.7983
N17330 X1.1266 Y0.8098
N17335 X1.1543 Y0.8207
N17340 X1.1823 Y0.8306
N17345 X1.2106 Y0.8396
N17350 X1.2392 Y0.8478
N17355 X1.2679 Y0.8552
N17360 X1.297 Y0.8616
N17365 X1.3262 Y0.867
N17370 X1.3555 Y0.8716
N17375 X1.385 Y0.8753
N17380 X1.4146 Y0.878
N17385 X1.4442 Y0.8798
N17390 X1.474 Y0.8806
N17395 X1.5037 Y0.8805
N17400 X1.5334 Y0.8793
N17405 X1.563 Y0.8772
N17410 X1.5925 Y0.8742
N17415 X1.622 Y0.8702
N17420 X1.6513 Y0.8652
N17425 X1.6804 Y0.8592
N17430 X1.7093 Y0.8523
N17435 X1.738 Y0.8445
N17440 X1.7663 Y0.8357
N17445 X1.7944 Y0.826
N17450 X1.8221 Y0.8153
N17455 X1.8495 Y0.8038
N17460 X1.8765 Y0.7913
N17465 X1.903 Y0.7779
N17470 X1.9301 Y0.7656
N17475 X1.9566 Y0.7523
N17480 X1.9826 Y0.7379
N17485 X2.008 Y0.7225
N17490 X2.0329 Y0.7063
N17495 X2.0572 Y0.6891
N17500 X2.0807 Y0.671
N17505 X2.1036 Y0.652
N17510 X2.1258 Y0.6323
N17515 X2.1473 Y0.6118
N17520 X2.168 Y0.5905
N17525 X2.1879 Y0.5684
N17530 X2.2071 Y0.5457
N17535 X2.2255 Y0.5224
N17540 X2.243 Y0.4983
N17545 X2.2596 Y0.4737
N17550 X2.2754 Y0.4486
N17555 X2.2904 Y0.4229
N17560 X2.3044 Y0.3967
N17565 X2.3175 Y0.37
N17570 X2.3297 Y0.343
N17575 X2.341 Y0.3155
N17580 X2.3513 Y0.2876
N17585 X2.3606 Y0.2594
N17590 X2.3691 Y0.2309
N17595 X2.3765 Y0.2021
N17600 X2.3829 Y0.1731
N17605 X2.3884 Y0.1439
N17610 X2.3929 Y0.1145
N17615 X2.3964 Y0.085
N17620 X2.3989 Y0.0554
N17625 X2.4004 Y0.0258
N17630 X2.401 Y-0.0039
N17635 X2.4005 Y-0.0337
N17640 X2.399 Y-0.0633
N17645 X2.3966 Y-0.0929
N17650 X2.3932 Y-0.1225
N17655 X2.3888 Y-0.1519
N17660 X2.3834 Y-0.1811
N17665 X2.377 Y-0.2101
N17670 X2.3698 Y-0.2389
N17675 X2.3615 Y-0.2674
N17680 X2.3522 Y-0.2957
N17685 X2.3421 Y-0.3236
N17690 X2.3311 Y-0.3512
N17695 X2.3191 Y-0.3784
N17700 X2.3062 Y-0.4052
N17705 X2.2925 Y-0.4315
N17710 X2.2779 Y-0.4574
N17715 X2.2625 Y-0.4828
N17720 X2.2461 Y-0.5076
N17725 X2.229 Y-0.5319
N17730 X2.2112 Y-0.5557
N17735 X2.1925 Y-0.5788
N17740 X2.1731 Y-0.6013
N17745 X2.153 Y-0.6231
N17750 X2.1322 Y-0.6443
N17755 X2.1106 Y-0.6648
N17760 X2.0884 Y-0.6845
N17765 X2.0655 Y-0.7035
N17770 X2.0421 Y-0.7218
N17775 X2.0181 Y-0.7393
N17780 X1.9935 Y-0.7559
N17785 X1.9683 Y-0.7717
N17790 X1.9427 Y-0.7868
N17795 X1.9166 Y-0.8009
N17800 X1.89 Y-0.8142
N17805 X1.863 Y-0.8266
N17810 X1.8356 Y-0.8382
N17815 X1.8079 Y-0.8488
N17820 X1.7798 Y-0.8584
N17825 X1.7514 Y-0.8672
N17830 X1.7227 Y-0.875
N17835 X1.6938 Y-0.8819
N17840 X1.6647 Y-0.8877
N17845 X1.6354 Y-0.8927
N17850 X1.6059 Y-0.8967
N17855 X1.5764 Y-0.8997
N17860 X1.5467 Y-0.9017
N17865 X1.517 Y-0.9028
N17870 X1.4873 Y-0.9029
N17875 X1.4576 Y-0.902
N17880 X1.428 Y-0.9001
N17885 X1.3984 Y-0.8973
N17890 X1.3689 Y-0.8935
N17895 X1.3396 Y-0.8887
N17900 X1.3105 Y-0.8829
N17905 X1.2815 Y-0.8762
N17910 X1.2528 Y-0.8686
N17915 X1.2244 Y-0.86
N17920 X1.1962 Y-0.8504
N17925 X1.1684 Y-0.84
N17930 X1.1409 Y-0.8286
N17935 X1.1139 Y-0.8164
N17940 X1.0873 Y-0.8032
N17945 X1.061 Y-0.7892
N17950 X1.0353 Y-0.7743
N17955 X1.0101 Y-0.7586
N17960 X0.9854 Y-0.7421
N17965 X0.9613 Y-0.7247
N17970 X0.9377 Y-0.7067
N17975 X0.9148 Y-0.6877
N17980 X0.8925 Y-0.6681
N17985 X0.8708 Y-0.6478
N17990 X0.8498 Y-0.6267
N17995 X0.8296 Y-0.605
N18000 X0.8101 Y-0.5826
N18005 X0.7913 Y-0.5596
N18010 X0.7732 Y-0.536
N18015 X0.7561 Y-0.5117
N18020 X0.7414 Y-0.4859
N18025 X0.7305 Y-0.4582
N18030 X0.7226 Y-0.4296
N18035 X0.7172 Y-0.4004
N18040 X0.714 Y-0.3708
N18045 X0.7128 Y-0.3411
N18050 X0.7133 Y-0.3114
N18055 X0.7153 Y-0.2818
N18060 X0.7188 Y-0.2523
N18065 X0.7235 Y-0.223
N18070 X0.7294 Y-0.1938
N18075 X0.7364 Y-0.1649
N18080 X0.7444 Y-0.1363
N18085 X0.7533 Y-0.108
N18090 X0.7631 Y-0.0799
N18095 X0.7737 Y-0.0522
N18100 X0.7852 Y-0.0248
N18105 X0.7974 Y0.0023
N18110 X0.8105 Y0.029
N18115 X0.8242 Y0.0553
N18120 X0.8388 Y0.0812
N18125 X0.854 Y0.1067
N18130 X0.8701 Y0.1318
N18135 X0.8868 Y0.1563
N18140 X0.9043 Y0.1803
N18145 X0.9226 Y0.2037
N18150 X0.9416 Y0.2266
N18155 X0.9613 Y0.2488
N18160 X0.9818 Y0.2703
N18165 X1.0031 Y0.291
N18170 X1.0251 Y0.311
N18175 X1.0478 Y0.3302
N18180 X1.0713 Y0.3484
N18185 X1.0955 Y0.3657
N18190 X1.1203 Y0.3819
N18195 X1.1458 Y0.3971
N18200 X1.172 Y0.4112
N18205 X1.1988 Y0.4241
N18210 X1.2261 Y0.4358
N18215 X1.254 Y0.4461
N18220 X1.2823 Y0.4551
N18225 X1.311 Y0.4628
N18230 X1.3401 Y0.4689
N18235 X1.3694 Y0.4736
N18240 X1.3989 Y0.4768
N18245 X1.4286 Y0.4788
N18250 X1.4583 Y0.4794
N18255 X1.488 Y0.4786
N18260 X1.5176 Y0.4764
N18265 X1.5471 Y0.4727
N18270 X1.5763 Y0.4673
N18275 X1.6052 Y0.4604
N18280 X1.6337 Y0.4519
N18285 X1.6616 Y0.4418
N18290 X1.6889 Y0.43
N18295 X1.7155 Y0.4167
N18300 X1.7412 Y0.4018
N18305 X1.7659 Y0.3854
N18310 X1.7897 Y0.3675
N18315 X1.8122 Y0.3482
N18320 X1.8336 Y0.3275
N18325 X1.8536 Y0.3055
N18330 X1.8722 Y0.2824
N18335 X1.8894 Y0.2581
N18340 X1.9049 Y0.2328
N18345 X1.9189 Y0.2066
N18350 X1.9312 Y0.1795
N18355 X1.9417 Y0.1517
N18360 X1.9505 Y0.1234
N18365 X1.9574 Y0.0945
N18370 X1.9625 Y0.0652
N18375 X1.9658 Y0.0357
N18380 X1.9671 Y0.006
N18385 X1.9666 Y-0.0237
N18390 X1.9642 Y-0.0533
N18395 X1.9599 Y-0.0827
N18400 X1.9537 Y-0.1118
N18405 X1.9457 Y-0.1404
N18410 X1.9359 Y-0.1685
N18415 X1.9244 Y-0.1959
N18420 X1.9111 Y-0.2224
N18425 X1.8962 Y-0.2481
N18430 X1.8796 Y-0.2728
N18435 X1.8616 Y-0.2964
N18440 X1.842 Y-0.3188
N18445 X1.8211 Y-0.3399
N18450 X1.7989 Y-0.3596
N18455 X1.7755 Y-0.3779
N18460 X1.7509 Y-0.3947
N18465 X1.7254 Y-0.4098
N18470 X1.6989 Y-0.4234
N18475 X1.6709 Y-0.4331
N18480 X1.6423 Y-0.4413
N18485 X1.6133 Y-0.4477
N18490 X1.5839 Y-0.4523
N18495 X1.5544 Y-0.4552
N18500 X1.5247 Y-0.4563
N18505 X1.495 Y-0.4555
N18510 X1.4654 Y-0.4529
N18515 X1.436 Y-0.4485
N18520 X1.4217 Y-0.4445
N18525 X1.4078 Y-0.4392
N18530 X1.3945 Y-0.4326
N18535 X1.3819 Y-0.4248
N18540 X1.37 Y-0.4158
N18545 X1.3591 Y-0.4058
N18550 X1.3491 Y-0.3947
N18555 X1.3403 Y-0.3828
N18560 X1.3326 Y-0.3701
N18565 X1.3261 Y-0.3567
N18570 X1.3158 Y-0.3289
N18575 X1.3101 Y-0.2997
N18580 X1.3085 Y-0.27
N18585 X1.3112 Y-0.2404
N18590 X1.3153 Y-0.2261
N18595 X1.318 Y-0.2192
N18600 X1.3187 Y-0.2175
N18605 X1.3191 Y-0.2167
N18610 G3 X1.2368 Y-0.114 I-0.0692 J0.0289
N18615 G1 X1.2318 Y-0.1154 Z0.5506
N18620 X1.2269 Y-0.1168 Z0.5511
N18625 X1.222 Y-0.1182 Z0.552
N18630 X1.2174 Y-0.1206 Z0.5533
N18635 X1.2129 Y-0.123 Z0.5549
N18640 X1.2085 Y-0.1253 Z0.557
N18645 X1.2043 Y-0.1287 Z0.5596
N18650 X1.2004 Y-0.1319 Z0.5627
N18655 X1.1966 Y-0.135 Z0.5662
N18660 X1.1939 Y-0.1383 Z0.5698
N18665 X1.1914 Y-0.1415 Z0.5737
N18670 X1.1891 Y-0.1443 Z0.5779
N18675 X1.187 Y-0.1469 Z0.5823
N18680 X1.1854 Y-0.1499 Z0.5876
N18685 X1.1841 Y-0.1525 Z0.5931
N18690 X1.1829 Y-0.1546 Z0.5988
N18695 X1.182 Y-0.1564 Z0.6047
N18700 X1.1813 Y-0.1577 Z0.6107
N18705 X1.1808 Y-0.1585 Z0.6169
N18710 X1.1807 Y-0.1589 Z0.6211
N18715 Y-0.159 Z0.6254
N18720 G0 Z0.95
N18725 X15.9121 Y0.9685
N18730 Z0.75
N18735 G1 Z0.675 F30.
N18740 X15.9119 Y0.9683 Z0.6685
N18745 X15.9114 Y0.9677 Z0.662
N18750 X15.9104 Y0.9666 Z0.6556
N18755 X15.9091 Y0.9651 Z0.6493
N18760 X15.9075 Y0.9632 Z0.6433
N18765 X15.9055 Y0.9609 Z0.6375
N18770 X15.9032 Y0.9583 Z0.632
N18775 X15.9006 Y0.9553 Z0.6268
N18780 X15.8977 Y0.952 Z0.622
N18785 X15.8945 Y0.9483 Z0.6175
N18790 X15.8911 Y0.9444 Z0.6136
N18795 X15.8874 Y0.9403 Z0.61
N18800 X15.8836 Y0.9359 Z0.607
N18805 X15.8797 Y0.9314 Z0.6045
N18810 X15.8755 Y0.9267 Z0.6026
N18815 X15.8713 Y0.9218 Z0.6011
N18820 X15.8671 Y0.917 Z0.6003
N18825 X15.8628 Y0.912 Z0.6
N18830 G3 X15.7277 Y0.719 I0.8235 J-0.7197
N18835 G1 X15.7273 Y0.7181
N18840 X15.7272 Y0.7147
N18845 X15.7292 Y0.7002
N18850 X15.7339 Y0.6863
N18855 X15.7411 Y0.6735
N18860 X15.7505 Y0.6623
N18865 X15.7618 Y0.653
N18870 X15.77 Y0.6475
N18875 X15.7809 Y0.6393
N18880 X15.7925 Y0.6304
N18885 X15.8084 Y0.6169
N18890 X15.815 Y0.6109
N18895 X15.8318 Y0.5944
N18900 X15.8375 Y0.5885
N18905 X15.852 Y0.572
N18910 X15.86 Y0.5619
N18915 X15.8694 Y0.5496
N18920 X15.8825 Y0.5305
N18925 X15.8846 Y0.5271
N18930 X15.8975 Y0.5047
N18935 X15.905 Y0.4906
N18940 X15.9088 Y0.4823
N18945 X15.9183 Y0.4598
N18950 X15.9264 Y0.4374
N18955 X15.9275 Y0.4337
N18960 X15.9327 Y0.415
N18965 X15.9377 Y0.3926
N18970 X15.9414 Y0.3701
N18975 X15.9438 Y0.3477
N18980 X15.9449 Y0.3253
N18985 X15.945 Y0.3028
N18990 Y-0.3028
N18995 X15.9449 Y-0.3253
N19000 X15.9438 Y-0.3477
N19005 X15.9414 Y-0.3701
N19010 X15.9377 Y-0.3926
N19015 X15.9327 Y-0.415
N19020 X15.9275 Y-0.4337
N19025 X15.9264 Y-0.4374
N19030 X15.9183 Y-0.4598
N19035 X15.9088 Y-0.4823
N19040 X15.905 Y-0.4906
N19045 X15.8975 Y-0.5047
N19050 X15.8846 Y-0.5271
N19055 X15.8825 Y-0.5305
N19060 X15.8694 Y-0.5496
N19065 X15.86 Y-0.5619
N19070 X15.852 Y-0.572
N19075 X15.8375 Y-0.5885
N19080 X15.8318 Y-0.5944
N19085 X15.815 Y-0.6109
N19090 X15.8084 Y-0.6169
N19095 X15.7925 Y-0.6304
N19100 X15.7809 Y-0.6393
N19105 X15.77 Y-0.6475
N19110 X15.7489 Y-0.6617
N19115 X15.7475 Y-0.6626
N19120 X15.7251 Y-0.6759
N19125 X15.7102 Y-0.6842
N19130 X15.7026 Y-0.688
N19135 X15.6801 Y-0.6988
N19140 X15.6624 Y-0.7066
N19145 X15.6576 Y-0.7086
N19150 X15.6351 Y-0.7174
N19155 X15.6126 Y-0.7254
N19160 X15.6015 Y-0.729
N19165 X15.5901 Y-0.7327
N19170 X15.5227 Y-0.7536
N19175 X15.5002 Y-0.7605
N19180 X15.4777 Y-0.7671
N19185 X15.4552 Y-0.7723
N19190 X15.4471 Y-0.7739
N19195 X15.4327 Y-0.7763
N19200 X15.4102 Y-0.779
N19205 X15.3877 Y-0.7806
N19210 X15.3652 Y-0.7809
N19215 X15.3427 Y-0.78
N19220 X15.3202 Y-0.7778
N19225 X15.2978 Y-0.7745
N19230 X15.2944 Y-0.7739
N19235 X15.2753 Y-0.7699
N19240 X15.2528 Y-0.764
N19245 X15.2303 Y-0.7567
N19250 X15.2164 Y-0.7515
N19255 X15.2078 Y-0.7479
N19260 X15.1853 Y-0.7376
N19265 X15.1687 Y-0.729
N19270 X15.1628 Y-0.7257
N19275 X15.1403 Y-0.712
N19280 X15.1319 Y-0.7066
N19285 X15.1178 Y-0.6975
N19290 X15.0974 Y-0.6842
N19295 X15.0954 Y-0.6828
N19300 X15.0729 Y-0.6671
N19305 X15.066 Y-0.6617
N19310 X15.0504 Y-0.6494
N19315 X15.0388 Y-0.6393
N19320 X15.0279 Y-0.6294
N19325 X15.0151 Y-0.6169
N19330 X15.0054 Y-0.6066
N19335 X14.9944 Y-0.5944
N19340 X14.9829 Y-0.5803
N19345 X14.9763 Y-0.572
N19350 X14.9604 Y-0.5496
N19355 X14.9466 Y-0.5271
N19360 X14.9379 Y-0.5117
N19365 X14.9344 Y-0.5047
N19370 X14.9241 Y-0.4823
N19375 X14.9154 Y-0.4608
N19380 X14.9151 Y-0.4598
N19385 X14.9077 Y-0.4374
N19390 X14.9017 Y-0.415
N19395 X14.8971 Y-0.3926
N19400 X14.8937 Y-0.3701
N19405 X14.893 Y-0.3645
N19410 X14.8915 Y-0.3477
N19415 X14.8906 Y-0.3253
N19420 Y-0.3028
N19425 Y0.3028
N19430 Y0.3253
N19435 X14.8915 Y0.3477
N19440 X14.893 Y0.3645
N19445 X14.8937 Y0.3701
N19450 X14.8971 Y0.3926
N19455 X14.9017 Y0.415
N19460 X14.9077 Y0.4374
N19465 X14.9151 Y0.4598
N19470 X14.9154 Y0.4608
N19475 X14.9241 Y0.4823
N19480 X14.9344 Y0.5047
N19485 X14.9379 Y0.5117
N19490 X14.9466 Y0.5271
N19495 X14.9604 Y0.5496
N19500 X14.9763 Y0.572
N19505 X14.9829 Y0.5803
N19510 X14.9944 Y0.5944
N19515 X15.0054 Y0.6066
N19520 X15.0151 Y0.6169
N19525 X15.0279 Y0.6294
N19530 X15.0388 Y0.6393
N19535 X15.0504 Y0.6494
N19540 X15.066 Y0.6617
N19545 X15.0729 Y0.6671
N19550 X15.0954 Y0.6828
N19555 X15.0974 Y0.6842
N19560 X15.1178 Y0.6975
N19565 X15.1319 Y0.7066
N19570 X15.1403 Y0.712
N19575 X15.1628 Y0.7257
N19580 X15.1687 Y0.729
N19585 X15.1853 Y0.7376
N19590 X15.2078 Y0.7479
N19595 X15.2164 Y0.7515
N19600 X15.2303 Y0.7567
N19605 X15.2528 Y0.764
N19610 X15.2753 Y0.7699
N19615 X15.2944 Y0.7739
N19620 X15.2978 Y0.7745
N19625 X15.3202 Y0.7778
N19630 X15.3427 Y0.78
N19635 X15.3652 Y0.7809
N19640 X15.3877 Y0.7806
N19645 X15.4102 Y0.779
N19650 X15.4327 Y0.7763
N19655 X15.4471 Y0.7739
N19660 X15.4552 Y0.7723
N19665 X15.4777 Y0.7671
N19670 X15.5002 Y0.7605
N19675 X15.5296 Y0.7515
N19680 X15.5901 Y0.7327
N19685 X15.6015 Y0.729
N19690 X15.6126 Y0.7254
N19695 X15.6351 Y0.7174
N19700 X15.6576 Y0.7086
N19705 X15.6624 Y0.7066
N19710 X15.6801 Y0.6988
N19715 X15.6913 Y0.6934
N19720 G3 X15.7954 Y0.774 I0.03 J0.0687
N19725 G1 X15.794 Y0.779 Z0.6002
N19730 X15.7927 Y0.7839 Z0.6007
N19735 X15.7914 Y0.7888 Z0.6016
N19740 X15.7891 Y0.7935 Z0.6029
N19745 X15.7868 Y0.798 Z0.6045
N19750 X15.7845 Y0.8025 Z0.6066
N19755 X15.7812 Y0.8067 Z0.6092
N19760 X15.778 Y0.8107 Z0.6123
N19765 X15.775 Y0.8145 Z0.6158
N19770 X15.7717 Y0.8172 Z0.6194
N19775 X15.7687 Y0.8198 Z0.6233
N19780 X15.7658 Y0.8222 Z0.6275
N19785 X15.7632 Y0.8243 Z0.6319
N19790 X15.7603 Y0.8259 Z0.6372
N19795 X15.7578 Y0.8273 Z0.6427
N19800 X15.7556 Y0.8285 Z0.6484
N19805 X15.7539 Y0.8295 Z0.6543
N19810 X15.7526 Y0.8302 Z0.6603
N19815 X15.7518 Y0.8307 Z0.6665
N19820 X15.7514 Y0.8308 Z0.6707
N19825 X15.7513 Y0.8309 Z0.675
N19830 G0 Z0.95
N19835 X15.7961 Y0.9685
N19840 Z0.8
N19845 G1 Z0.725 F30.
N19850 X15.7959 Y0.9683 Z0.7185
N19855 X15.7953 Y0.9677 Z0.712
N19860 X15.7943 Y0.9667 Z0.7056
N19865 X15.793 Y0.9653 Z0.6993
N19870 X15.7912 Y0.9635 Z0.6933
N19875 X15.7891 Y0.9613 Z0.6875
N19880 X15.7866 Y0.9588 Z0.682
N19885 X15.7838 Y0.956 Z0.6768
N19890 X15.7807 Y0.9529 Z0.672
N19895 X15.7773 Y0.9494 Z0.6675
N19900 X15.7736 Y0.9458 Z0.6636
N19905 X15.7698 Y0.9418 Z0.66
N19910 X15.7657 Y0.9377 Z0.657
N19915 X15.7614 Y0.9334 Z0.6545
N19920 X15.757 Y0.929 Z0.6526
N19925 X15.7525 Y0.9244 Z0.6511
N19930 X15.748 Y0.9198 Z0.6503
N19935 X15.7434 Y0.9152 Z0.65
N19940 G3 X15.5967 Y0.7308 I0.7775 J-0.7692
N19945 G1 X15.5962 Y0.73
N19950 X15.5959 Y0.7247
N19955 Y0.7217
N19960 X15.5974 Y0.7048
N19965 X15.6009 Y0.6883
N19970 X15.6066 Y0.6724
N19975 X15.6143 Y0.6573
N19980 X15.6238 Y0.6434
N19985 X15.6351 Y0.6308
N19990 X15.6493 Y0.6169
N19995 X15.6576 Y0.6079
N20000 X15.6694 Y0.5944
N20005 X15.6801 Y0.5806
N20010 X15.6866 Y0.572
N20015 X15.7014 Y0.5496
N20020 X15.7026 Y0.5476
N20025 X15.714 Y0.5271
N20030 X15.725 Y0.5047
N20035 X15.7251 Y0.5045
N20040 X15.734 Y0.4823
N20045 X15.7417 Y0.4598
N20050 X15.7475 Y0.4379
N20055 X15.7477 Y0.4374
N20060 X15.7523 Y0.415
N20065 X15.7556 Y0.3926
N20070 X15.7576 Y0.3701
N20075 X15.7583 Y0.3477
N20080 X15.7584 Y0.3253
N20085 Y-0.3253
N20090 X15.7583 Y-0.3477
N20095 X15.7576 Y-0.3701
N20100 X15.7556 Y-0.3926
N20105 X15.7523 Y-0.415
N20110 X15.7477 Y-0.4374
N20115 X15.7475 Y-0.4379
N20120 X15.7417 Y-0.4598
N20125 X15.734 Y-0.4823
N20130 X15.7251 Y-0.5045
N20135 X15.725 Y-0.5047
N20140 X15.714 Y-0.5271
N20145 X15.7026 Y-0.5476
N20150 X15.7014 Y-0.5496
N20155 X15.6866 Y-0.572
N20160 X15.6801 Y-0.5806
N20165 X15.6694 Y-0.5944
N20170 X15.6576 Y-0.6079
N20175 X15.6493 Y-0.6169
N20180 X15.6351 Y-0.6308
N20185 X15.6255 Y-0.6393
N20190 X15.6126 Y-0.6503
N20195 X15.5972 Y-0.6617
N20200 X15.5901 Y-0.6669
N20205 X15.5676 Y-0.6811
N20210 X15.5625 Y-0.6842
N20215 X15.5451 Y-0.6933
N20220 X15.5227 Y-0.7039
N20225 X15.5162 Y-0.7066
N20230 X15.5002 Y-0.7127
N20235 X15.4777 Y-0.7199
N20240 X15.4552 Y-0.7255
N20245 X15.4379 Y-0.729
N20250 X15.4327 Y-0.7299
N20255 X15.4102 Y-0.7328
N20260 X15.3877 Y-0.7345
N20265 X15.3652 Y-0.7349
N20270 X15.3427 Y-0.7339
N20275 X15.3202 Y-0.7315
N20280 X15.3038 Y-0.729
N20285 X15.2978 Y-0.7279
N20290 X15.2753 Y-0.723
N20295 X15.2528 Y-0.7166
N20300 X15.2303 Y-0.7086
N20305 X15.2253 Y-0.7066
N20310 X15.2078 Y-0.6989
N20315 X15.1853 Y-0.6877
N20320 X15.1789 Y-0.6842
N20325 X15.1628 Y-0.6743
N20330 X15.1441 Y-0.6617
N20335 X15.1403 Y-0.659
N20340 X15.1178 Y-0.641
N20345 X15.116 Y-0.6393
N20350 X15.0954 Y-0.6199
N20355 X15.0924 Y-0.6169
N20360 X15.0729 Y-0.5952
N20365 X15.0722 Y-0.5944
N20370 X15.0549 Y-0.572
N20375 X15.0504 Y-0.5654
N20380 X15.0402 Y-0.5496
N20385 X15.0279 Y-0.5281
N20390 X15.0273 Y-0.5271
N20395 X15.0167 Y-0.5047
N20400 X15.0074 Y-0.4823
N20405 X15.0054 Y-0.4767
N20410 X14.9998 Y-0.4598
N20415 X14.9938 Y-0.4374
N20420 X14.9891 Y-0.415
N20425 X14.9859 Y-0.3926
N20430 X14.9839 Y-0.3701
N20435 X14.9831 Y-0.3477
N20440 Y-0.3253
N20445 Y0.3253
N20450 Y0.3477
N20455 X14.9839 Y0.3701
N20460 X14.9859 Y0.3926
N20465 X14.9891 Y0.415
N20470 X14.9938 Y0.4374
N20475 X14.9998 Y0.4598
N20480 X15.0054 Y0.4767
N20485 X15.0074 Y0.4823
N20490 X15.0167 Y0.5047
N20495 X15.022 Y0.5159
N20500 G3 X14.9412 Y0.6198 I-0.0688 J0.0299
N20505 G1 X14.9362 Y0.6185 Z0.6502
N20510 X14.9313 Y0.6172 Z0.6507
N20515 X14.9264 Y0.6159 Z0.6516
N20520 X14.9217 Y0.6135 Z0.6529
N20525 X14.9172 Y0.6112 Z0.6545
N20530 X14.9127 Y0.6089 Z0.6566
N20535 X14.9085 Y0.6056 Z0.6592
N20540 X14.9045 Y0.6024 Z0.6623
N20545 X14.9007 Y0.5994 Z0.6658
N20550 X14.898 Y0.5961 Z0.6694
N20555 X14.8955 Y0.5931 Z0.6733
N20560 X14.8931 Y0.5902 Z0.6775
N20565 X14.8909 Y0.5876 Z0.6819
N20570 X14.8893 Y0.5847 Z0.6872
N20575 X14.8879 Y0.5821 Z0.6927
N20580 X14.8867 Y0.58 Z0.6984
N20585 X14.8858 Y0.5783 Z0.7043
N20590 X14.8851 Y0.577 Z0.7103
N20595 X14.8846 Y0.5762 Z0.7165
N20600 X14.8845 Y0.5758 Z0.7207
N20605 X14.8844 Y0.5757 Z0.725
N20610 G0 Z0.95
N20615 X15.8615 Y-0.4633
N20620 Z0.85
N20625 G1 Z0.775 F30.
N20630 X15.8612 Z0.7685
N20635 X15.8603 Z0.762
N20640 X15.8589 Y-0.4632 Z0.7556
N20645 X15.8569 Z0.7493
N20650 X15.8544 Y-0.4631 Z0.7433
N20655 X15.8514 Z0.7375
N20660 X15.8479 Y-0.463 Z0.732
N20665 X15.8439 Y-0.4629 Z0.7268
N20670 X15.8395 Y-0.4628 Z0.722
N20675 X15.8347 Y-0.4627 Z0.7175
N20680 X15.8295 Y-0.4626 Z0.7136
