%
(HELENA_WAND)
(HELENA WAND TOP)
(T1  D=0.25 CR=0. - ZMIN=0.0234 - FLAT END MILL)
N10 G90 G94 G17 G91.1
N15 G20
N20 G53 G0 Z0.
(ADAPTIVE2)
N25 M9
N30 T1 M6
N35 S1700 M3
N40 G54
N45 M9
N55 G0 X-0.2672 Y-1.9773
N60 G43 Z1.35 H1
N65 G0 Z0.675
N70 G1 Z0.65 F60.
N75 X-0.2671 Y-1.977 Z0.6461
N80 X-0.2669 Y-1.9761 Z0.6423
N85 X-0.2665 Y-1.9747 Z0.6387
N90 X-0.266 Y-1.9727 Z0.6353
N95 X-0.2654 Y-1.9702 Z0.6323
N100 X-0.2647 Y-1.9673 Z0.6298
N105 X-0.2638 Y-1.9641 Z0.6277
N110 X-0.2629 Y-1.9606 Z0.6262
N115 X-0.262 Y-1.9569 Z0.6253
N120 X-0.261 Y-1.9531 Z0.625
N125 G3 X-0.2498 Y-1.8754 I-0.3532 J0.0905
N130 G2 X-0.2658 Y-1.0216 I8.1412 J0.5793
N135 G1 Y0.1057
N140 G2 X-0.2748 Y0.9753 I17.1533 J0.6118
N145 G1 Y1.6356
N150 G2 X-0.0335 Y1.7623 I0.2243 J-0.134
N155 X0.7875 Y1.7748 I0.5624 J-9.9161
N160 G1 X16.1356
N165 G2 X16.2623 Y1.5335 I-0.1341 J-0.2243
N170 X16.2748 Y0.7125 I-9.917 J-0.5622
N175 G1 Y-1.6388
N180 G2 X16.0145 Y-1.7642 I-0.2406 J0.1667
N185 X15.2095 Y-1.7748 I-0.5483 J11.0393
N190 G1 X-0.0178
N195 G2 X-0.1515 Y-1.5395 I0.1135 J0.2202
N200 X-0.1658 Y-0.7186 I8.7897 J0.5637
N205 G1 Y-0.01
N210 G2 X-0.1748 Y1.0207 I29.6223 J0.773
N215 G1 Y1.4877
N220 G2 X0.0701 Y1.6559 I0.2336 J-0.0777
N225 X1.0518 Y1.6748 I0.6593 J-8.7375
N230 G1 X15.9973
N235 G2 X16.1573 Y1.4206 I-0.1044 J-0.2432
N240 X16.1748 Y0.5516 I-8.403 J-0.6043
N245 G1 Y-1.4938
N250 G2 X15.924 Y-1.6568 I-0.2396 J0.0943
N255 X15.0871 Y-1.6748 I-0.6043 J8.6265
N260 G1 X14.8617
N265 X0.1256
N270 G2 X-0.0459 Y-1.4328 I0.0713 J0.2322
N275 X-0.0658 Y-0.4351 I8.7576 J0.6741
N280 G1 Y-0.0968
N285 X-0.0685 Y0.0619
N290 X-0.0708 Y0.2206
N295 X-0.0725 Y0.3794
N300 X-0.0738 Y0.5381
N305 X-0.0746 Y0.6968
N310 X-0.0749 Y0.8556
N315 X-0.0747 Y1.0143
N320 X-0.0748 Y1.3686
N325 G2 X0.1767 Y1.5529 I0.2472 J-0.0737
N330 X1.2065 Y1.5748 I0.6992 J-8.6425
N335 G1 X15.8621
N340 G2 X16.0518 Y1.3299 I-0.0582 J-0.241
N345 X16.0748 Y0.3162 I-8.1168 J-0.6912
N350 G1 Y-1.3748
N355 G2 X15.8014 Y-1.5562 I-0.2592 J0.0939
N360 X14.8197 Y-1.5748 I-0.6693 J9.3942
N365 G1 X0.2446
N370 G2 X0.0545 Y-1.3108 I0.0703 J0.2511
N375 X0.0342 Y-0.4741 I7.9905 J0.6125
N380 G1 Y-0.1841
N385 X0.0314 Y0.0029
N390 X0.0292 Y0.1899
N395 X0.0275 Y0.3769
N400 X0.0265 Y0.5639
N405 X0.0261 Y0.7509
N410 X0.0263 Y0.938
N415 X0.0271 Y1.125
N420 X0.0285 Y1.312
N425 G2 X0.4384 Y1.4627 I0.3552 J-0.3331
N430 X1.2441 Y1.4748 I0.5452 J-9.4747
N435 G1 X1.5018
N440 X15.7547
N445 G2 X15.9516 Y1.2156 I-0.0626 J-0.2519
N450 X15.9748 Y0.1858 I-8.2783 J-0.7015
N455 G1 Y-1.2475
N460 G2 X15.7228 Y-1.4504 I-0.2455 J0.047
N465 X14.7093 Y-1.4748 I-0.6938 J7.7508
N470 G1 X0.3597
N475 G2 X0.1585 Y-1.2204 I0.0524 J0.2482
N480 X0.1386 Y0.0666 I11.0413 J0.8137
N485 X0.131 Y1.2088 I15.513 J0.6745
N490 X0.5388 Y1.362 I0.3557 J-0.3273
N495 X1.3766 Y1.3748 I0.5702 J-9.8885
N500 G1 X1.6826
N505 X15.6457
N510 G2 X15.849 Y1.121 I-0.0534 J-0.2511
N515 X15.8748 Y0.1236 I-7.5357 J-0.694
N520 G1 Y-0.4078
N525 Y-1.1326
N530 G2 X15.6339 Y-1.3466 I-0.2403 J0.0279
N535 X14.5885 Y-1.3748 I-0.7418 J8.0893
N540 G1 X14.2503
N545 X0.4805
N550 G2 X0.2603 Y-1.1217 I0.0305 J0.2489
N555 X0.2391 Y0.0524 I9.1398 J0.7522
N560 X0.2327 Y1.1134 I12.76 J0.6078
N565 X0.6785 Y1.2634 I0.3823 J-0.3989
N570 X1.4842 Y1.2748 I0.5455 J-10.0311
N575 G1 X1.7258
N580 X15.5278
N585 G2 X15.7507 Y1.0045 I-0.0375 J-0.2579
N590 X15.7748 Y-0.0896 I-8.8545 J-0.7424
N595 G1 Y-1.0237
N600 G2 X15.5086 Y-1.25 I-0.2547 J0.0298
N605 X14.5434 Y-1.2748 I-0.6974 J8.3532
N610 G1 X14.334
N615 X0.5803
N620 G2 X0.361 Y-1.0193 I0.0363 J0.2531
N625 X0.3343 Y1.0067 I24.1948 J1.3324
N630 X0.741 Y1.1613 I0.3575 J-0.328
N635 X1.7559 Y1.1748 I0.6912 J-13.7674
N640 G1 X15.4291
N645 G2 X15.6504 Y0.9017 I-0.044 J-0.2618
N650 X15.6748 Y-0.0958 I-8.6881 J-0.7114
N655 G1 Y-0.9171
N660 G2 X15.4136 Y-1.1484 I-0.2525 J0.0221
N665 X14.4323 Y-1.1748 I-0.707 J8.0186
N670 G1 X14.1585
N675 X0.6786
N680 G2 X0.4585 Y-0.9003 I0.0469 J0.2632
N685 X0.433 Y0.9009 I20.9656 J1.1971
N690 X0.836 Y1.0606 I0.3548 J-0.3069
N695 X1.867 Y1.0748 I0.6937 J-12.8828
N700 G1 X15.3147
N705 G2 X15.5476 Y0.8148 I-0.0206 J-0.2527
N710 X15.5748 Y-0.2147 I-8.4574 J-0.7387
N715 G1 Y-0.8106
N720 G2 X15.319 Y-1.0468 I-0.2497 J0.0137
N725 X14.2413 Y-1.0748 I-0.7656 J8.7087
N730 G1 X13.9192
N735 X0.7937
N740 G2 X0.5675 Y-0.8144 I0.0186 J0.2446
N745 X0.5353 Y0.5854 I9.0733 J0.9087
N750 X0.5706 Y0.8482 I0.2562 J0.0993
N755 X1.0265 Y0.9661 I0.3919 J-0.5746
N760 X1.977 Y0.9748 I0.6121 J-14.9758
N765 G1 X15.2153
N770 G2 X15.4474 Y0.7135 I-0.0233 J-0.2544
N775 X15.4748 Y-0.3643 I-8.9259 J-0.766
N780 G1 Y-0.7186
N785 G2 X15.2103 Y-0.948 I-0.2569 J0.029
N790 X14.0197 Y-0.9748 I-0.7984 J8.9986
N795 G1 X0.8943
N800 G2 X0.6678 Y-0.7142 I0.0192 J0.2454
N805 X0.6384 Y0.7152 I8.4417 J0.8888
N810 X1.0858 Y0.863 I0.3866 J-0.4194
N815 X2.0847 Y0.8748 I0.6675 J-14.1555
N820 G1 X15.1137
N825 G2 X15.3469 Y0.6146 I-0.0217 J-0.2541
N830 X15.3748 Y-0.3826 I-7.1245 J-0.698
N835 G1 Y-0.6242
N840 G2 X15.1043 Y-0.8488 I-0.2622 J0.0406
N845 X14.0747 Y-0.8748 I-0.7139 J7.8649
N850 G1 X13.8331
N855 X0.9974
N860 G2 X0.7723 Y-0.6175 I0.0077 J0.2339
N865 X0.7396 Y0.1705 I3.1934 J0.5272
N870 X0.7419 Y0.6193 I1.4859 J0.2167
N875 X1.2227 Y0.7644 I0.4074 J-0.4806
N880 X2.1573 Y0.7748 I0.6015 J-12.0285
N885 G1 X15.0091
N890 X15.0252 Y0.7747
N895 G2 X15.2488 Y0.5028 I-0.0435 J-0.2637
N900 X15.2658 Y-0.6053 I-7.6133 J-0.6711
N905 X14.8252 Y-0.7669 I-0.3901 J0.3822
N910 X13.8429 Y-0.7748 I-0.6601 J20.9193
N915 G1 X1.0877
N920 X1.0716 Y-0.7746
N925 G2 X0.8629 Y-0.4911 I0.0656 J0.2668
N930 X0.8366 Y0.5048 I5.9036 J0.6545
N935 X1.276 Y0.6622 I0.3793 J-0.367
N940 X2.13 Y0.6748 I0.5802 J-10.3331
N945 G1 X2.3555
N950 X14.9174
N955 G2 X15.1473 Y0.4103 I-0.0297 J-0.258
N960 X15.1655 Y-0.5046 I-5.429 J-0.5654
N965 X14.7257 Y-0.6668 I-0.3893 J0.378
N970 X13.7112 Y-0.6748 I-0.676 J21.3066
N975 G1 X1.1976
N980 G2 X0.9723 Y-0.4172 I0.0087 J0.235
N985 X0.9419 Y0.4167 I3.1333 J0.5314
N990 X1.4063 Y0.5648 I0.4033 J-0.4627
N995 X2.228 Y0.5748 I0.5587 J-12.1792
N1000 G1 X2.4534
N1005 X14.8062
N1010 G2 X15.0356 Y0.3221 I-0.002 J-0.2322
N1015 G1 X15.0424 Y0.2837
N1020 X15.0485 Y0.2453
N1025 X15.0541 Y0.2067
N1030 X15.0591 Y0.168
N1035 X15.0634 Y0.1293
N1040 X15.0672 Y0.0905
N1045 X15.0703 Y0.0517
N1050 X15.0729 Y0.0128
N1055 X15.0748 Y-0.0262
N1060 X15.0761 Y-0.0651
N1065 X15.0768 Y-0.1041
N1070 X15.0769 Y-0.1431
N1075 X15.0764 Y-0.182
N1080 X15.0752 Y-0.221
N1085 X15.0735 Y-0.2599
N1090 X15.0711 Y-0.2988
N1095 X15.0682 Y-0.3377
N1100 X15.0646 Y-0.3765
N1105 X15.0604 Y-0.4153
N1110 G2 X14.6137 Y-0.5674 I-0.3965 J0.4325
N1115 X13.6153 Y-0.5748 I-0.6684 J22.6214
N1120 G1 X1.295
N1125 X1.2789 Y-0.5747
N1130 G2 X1.0639 Y-0.2981 I0.0516 J0.2619
N1135 X1.0404 Y0.3108 I2.349 J0.3959
N1140 X1.4846 Y0.4625 I0.3841 J-0.3984
N1145 X2.4996 Y0.4748 I0.6823 J-14.3664
N1150 G1 X14.7074
N1155 G2 X14.9357 Y0.2208 I-0.0038 J-0.233
N1160 X14.9571 Y-0.3228 I-1.361 J-0.3258
N1165 X14.4726 Y-0.4691 I-0.4221 J0.5227
N1170 X13.5385 Y-0.4748 I-0.6258 J25.9597
N1175 G1 X1.3953
N1180 G2 X1.1711 Y-0.2151 I0.0126 J0.2375
N1185 X1.1526 Y0.2311 I0.8936 J0.2605
N1190 X1.6576 Y0.3666 I0.4308 J-0.5968
N1195 X2.592 Y0.3748 I0.6301 J-18.5644
N1200 G1 X14.6065
N1205 G2 X14.8356 Y0.1215 I-0.0028 J-0.2328
N1210 X14.8407 Y-0.2423 I-0.5213 J-0.1893
N1215 X14.3154 Y-0.3709 I-0.4497 J0.7001
N1220 X13.3975 Y-0.3748 I-0.6122 J35.6865
N1225 G1 X1.512
N1230 G2 X1.2731 Y-0.1314 I-0.0091 J0.23
N1235 G1 X1.2671 Y-0.1208
N1240 X1.2616 Y-0.1099
N1245 X1.2566 Y-0.0988
N1250 X1.2522 Y-0.0874
N1255 X1.2484 Y-0.0758
N1260 X1.2452 Y-0.064
N1265 X1.2425 Y-0.0521
N1270 X1.2404 Y-0.0401
N1275 X1.239 Y-0.028
N1280 X1.2381 Y-0.0158
N1285 X1.2378 Y-0.0036
N1290 X1.2381 Y0.0086
N1295 X1.2391 Y0.0208
N1300 X1.2406 Y0.0329
N1305 X1.2427 Y0.0449
N1310 X1.2455 Y0.0568
N1315 X1.2488 Y0.0685
N1320 X1.2527 Y0.0801
N1325 X1.2571 Y0.0914
N1330 X1.2621 Y0.1026
N1335 X1.2677 Y0.1134
N1340 X1.2737 Y0.124
N1345 X1.2803 Y0.1343
N1350 X1.2874 Y0.1442
N1355 X1.295 Y0.1538
N1360 X1.3031 Y0.1629
N1365 X1.3116 Y0.1717
N1370 X1.3205 Y0.18
N1375 X1.3298 Y0.1879
N1380 X1.3395 Y0.1953
N1385 X1.3495 Y0.2023
N1390 X1.3599 Y0.2087
N1395 X1.3706 Y0.2146
N1400 X1.3815 Y0.2199
N1405 X1.3927 Y0.2248
N1410 X1.4042 Y0.229
N1415 X1.4158 Y0.2327
N1420 X1.4276 Y0.2358
N1425 X1.4395 Y0.2383
N1430 X1.4516 Y0.2403
N1435 X1.4637 Y0.2416
N1440 X1.4759 Y0.2423
N1445 X1.4881 Y0.2424
N1450 X1.5003 Y0.242
N1455 X1.5124 Y0.2409
N1460 G2 X2.3816 Y0.268 I0.5718 J-4.387
N1465 G1 X2.5592 Y0.2748
N1470 X2.8169
N1475 X14.5091
N1480 G2 X14.7456 Y0.0179 I-0.0169 J-0.2528
N1485 G1 X14.7481 Y0.0074
N1490 X14.7501 Y-0.0033
N1495 X14.7514 Y-0.014
N1500 X14.7522 Y-0.0248
N1505 X14.7523 Y-0.0356
N1510 X14.7519 Y-0.0464
N1515 X14.7508 Y-0.0572
N1520 X14.7492 Y-0.0679
N1525 X14.7469 Y-0.0784
N1530 X14.7441 Y-0.0889
N1535 X14.7407 Y-0.0992
N1540 X14.7368 Y-0.1092
N1545 X14.7323 Y-0.119
N1550 X14.7272 Y-0.1286
N1555 X14.7217 Y-0.1379
N1560 X14.7156 Y-0.1468
N1565 X14.7091 Y-0.1554
N1570 X14.702 Y-0.1636
N1575 X14.6946 Y-0.1715
N1580 X14.6867 Y-0.1789
N1585 X14.6784 Y-0.1858
N1590 X14.6698 Y-0.1923
N1595 X14.6608 Y-0.1983
N1600 X14.6515 Y-0.2038
N1605 X14.6418 Y-0.2087
N1610 X14.632 Y-0.2131
N1615 X14.6219 Y-0.217
N1620 X14.6116 Y-0.2203
N1625 X14.6011 Y-0.223
N1630 X14.5905 Y-0.2251
N1635 X14.5798 Y-0.2267
N1640 X14.5691 Y-0.2276
N1645 X14.5583 Y-0.228
N1650 X14.5475 Y-0.2278
N1655 G2 X13.9541 Y-0.2677 I-0.4171 J1.7693
N1660 X13.5025 Y-0.2748 I-0.3022 J4.8505
N1665 G1 X13.0516
N1670 X1.601
N1675 G2 X1.4083 Y0.0676 I-0.003 J0.2237
N1680 X1.9899 Y0.1697 I0.4785 J-1.0179
N1685 X2.6022 Y0.1748 I0.3965 J-10.8959
N1690 G1 X2.9887
N1695 X14.4074
N1700 G2 X14.5992 Y-0.0368 I0.0236 J-0.1714
N1705 X14.127 Y-0.17 I-0.4098 J0.5495
N1710 X13.193 Y-0.1748 I-0.6234 J30.0552
N1715 G1 X2.612
N1720 G3 X1.6268 Y-0.1656 I-0.6907 J-21.3286
N1725 G2 X1.6544 Y0.0022 I0.0169 J0.0834
N1730 X2.2131 Y0.0569 I0.399 J-1.1942
N1735 X2.9227 Y0.0658 I0.4401 J-6.7557
N1740 G1 X14.309
N1745 G2 X14.3582 Y0.0634 I0.0125 J-0.253
N1750 G3 X14.3855 Y0.0977 I0.0043 J0.0246
N1755 G1 X14.3839 Y0.1002 Z0.6252
N1760 X14.3823 Y0.1027 Z0.6257
N1765 X14.3808 Y0.1051 Z0.6266
N1770 X14.3782 Y0.107 Z0.6281
N1775 X14.3759 Y0.1088 Z0.63
N1780 X14.3737 Y0.1104 Z0.6323
N1785 X14.3716 Y0.1111 Z0.6349
N1790 X14.3698 Y0.1117 Z0.6378
N1795 X14.3685 Y0.1122 Z0.6409
N1800 X14.3675 Y0.1125 Z0.6442
N1805 X14.367 Y0.1126 Z0.6471
N1810 X14.3668 Y0.1127 Z0.65
N1815 G0 Z0.95
N1820 X-0.2672 Y-1.9773
N1825 Z0.5501
N1830 G1 Z0.5251 F60.
N1835 X-0.2671 Y-1.977 Z0.5212
N1840 X-0.2669 Y-1.9761 Z0.5174
N1845 X-0.2665 Y-1.9747 Z0.5138
N1850 X-0.266 Y-1.9727 Z0.5104
N1855 X-0.2654 Y-1.9702 Z0.5074
N1860 X-0.2647 Y-1.9673 Z0.5049
N1865 X-0.2638 Y-1.9641 Z0.5028
N1870 X-0.2629 Y-1.9606 Z0.5013
N1875 X-0.262 Y-1.9569 Z0.5004
N1880 X-0.261 Y-1.9531 Z0.5001
N1885 G3 X-0.2498 Y-1.8754 I-0.3532 J0.0905
N1890 G2 X-0.2658 Y-1.0216 I8.1412 J0.5793
N1895 G1 Y0.1057
N1900 G2 X-0.2748 Y0.9753 I17.1533 J0.6118
N1905 G1 Y1.6356
N1910 G2 X-0.0335 Y1.7623 I0.2243 J-0.134
N1915 X0.7875 Y1.7748 I0.5624 J-9.9161
N1920 G1 X16.1356
N1925 G2 X16.2623 Y1.5335 I-0.1341 J-0.2243
N1930 X16.2748 Y0.7125 I-9.917 J-0.5622
N1935 G1 Y-1.6388
N1940 G2 X16.0145 Y-1.7642 I-0.2406 J0.1667
N1945 X15.2095 Y-1.7748 I-0.5483 J11.0393
N1950 G1 X-0.0178
N1955 G2 X-0.1515 Y-1.5395 I0.1135 J0.2202
N1960 X-0.1658 Y-0.7186 I8.7897 J0.5637
N1965 G1 Y-0.01
N1970 G2 X-0.1748 Y1.0207 I29.6223 J0.773
N1975 G1 Y1.4877
N1980 G2 X0.0701 Y1.6559 I0.2336 J-0.0777
N1985 X1.0518 Y1.6748 I0.6593 J-8.7375
N1990 G1 X15.9973
N1995 G2 X16.1573 Y1.4206 I-0.1044 J-0.2432
N2000 X16.1748 Y0.5516 I-8.403 J-0.6043
N2005 G1 Y-1.4938
N2010 G2 X15.924 Y-1.6568 I-0.2396 J0.0943
N2015 X15.0871 Y-1.6748 I-0.6043 J8.6265
N2020 G1 X14.8617
N2025 X0.1256
N2030 G2 X-0.0459 Y-1.4328 I0.0713 J0.2322
N2035 X-0.0658 Y-0.4351 I8.7576 J0.6741
N2040 G1 Y-0.0968
N2045 X-0.0685 Y0.0619
N2050 X-0.0708 Y0.2206
N2055 X-0.0725 Y0.3794
N2060 X-0.0738 Y0.5381
N2065 X-0.0746 Y0.6968
N2070 X-0.0749 Y0.8556
N2075 X-0.0747 Y1.0143
N2080 X-0.0748 Y1.3686
N2085 G2 X0.1767 Y1.5529 I0.2472 J-0.0737
N2090 X1.2065 Y1.5748 I0.6992 J-8.6425
N2095 G1 X15.8621
N2100 G2 X16.0518 Y1.3299 I-0.0582 J-0.241
N2105 X16.0748 Y0.3162 I-8.1168 J-0.6912
N2110 G1 Y-1.3748
N2115 G2 X15.8014 Y-1.5562 I-0.2592 J0.0939
N2120 X14.8197 Y-1.5748 I-0.6693 J9.3942
N2125 G1 X0.2446
N2130 G2 X0.0545 Y-1.3108 I0.0703 J0.2511
N2135 X0.0342 Y-0.4741 I7.9905 J0.6125
N2140 G1 Y-0.1841
N2145 X0.0314 Y0.0029
N2150 X0.0292 Y0.1899
N2155 X0.0275 Y0.3769
N2160 X0.0265 Y0.5639
N2165 X0.0261 Y0.7509
N2170 X0.0263 Y0.938
N2175 X0.0271 Y1.125
N2180 X0.0285 Y1.312
N2185 G2 X0.4384 Y1.4627 I0.3552 J-0.3331
N2190 X1.2441 Y1.4748 I0.5452 J-9.4747
N2195 G1 X1.5018
N2200 X15.7547
N2205 G2 X15.9516 Y1.2156 I-0.0626 J-0.2519
N2210 X15.9748 Y0.1858 I-8.2783 J-0.7015
N2215 G1 Y-1.2475
N2220 G2 X15.7228 Y-1.4504 I-0.2455 J0.047
N2225 X14.7093 Y-1.4748 I-0.6938 J7.7508
N2230 G1 X0.3597
N2235 G2 X0.1585 Y-1.2204 I0.0524 J0.2482
N2240 X0.1386 Y0.0666 I11.0413 J0.8137
N2245 X0.131 Y1.2088 I15.513 J0.6745
N2250 X0.5388 Y1.362 I0.3557 J-0.3273
N2255 X1.3766 Y1.3748 I0.5702 J-9.8885
N2260 G1 X1.6826
N2265 X15.6457
N2270 G2 X15.849 Y1.121 I-0.0534 J-0.2511
N2275 X15.8748 Y0.1236 I-7.5357 J-0.694
N2280 G1 Y-0.4078
N2285 Y-1.1326
N2290 G2 X15.6339 Y-1.3466 I-0.2403 J0.0279
N2295 X14.5885 Y-1.3748 I-0.7418 J8.0893
N2300 G1 X14.2503
N2305 X0.4805
N2310 G2 X0.2603 Y-1.1217 I0.0305 J0.2489
N2315 X0.2391 Y0.0524 I9.1398 J0.7522
N2320 X0.2327 Y1.1134 I12.76 J0.6078
N2325 X0.6785 Y1.2634 I0.3823 J-0.3989
N2330 X1.4842 Y1.2748 I0.5455 J-10.0311
N2335 G1 X1.7258
N2340 X15.5278
N2345 G2 X15.7507 Y1.0045 I-0.0375 J-0.2579
N2350 X15.7799 Y0.427 I-6.6571 J-0.6266
N2355 G1 X15.7866 Y0.4161
N2360 X15.7955 Y0.4069
N2365 X15.8062 Y0.3999
N2370 G3 X15.8311 Y0.4022 I0.0105 J0.0227
N2375 G2 X15.8548 Y0.4049 I0.0144 J-0.0205
N2380 G1 X15.8701 Y0.3988
N2385 X15.8734 Y0.3972
N2390 X15.8765 Y0.3951
N2395 X15.8792 Y0.3926
N2400 G2 X15.8851 Y0.3695 I-0.0183 J-0.017
N2405 G3 X15.8745 Y0.2917 I0.3538 J-0.0881
N2410 G1 Y0.2846
N2415 Y0.2771
N2420 Y-0.2771
N2425 G2 X15.7906 Y-0.4716 I-0.4773 J0.0905
N2430 G1 X15.7829 Y-0.6293
N2435 X15.7757 Y-0.7871
N2440 X15.7691 Y-0.9448
N2445 X15.7631 Y-1.1026
N2450 G2 X15.3969 Y-1.2634 I-0.3346 J0.2649
N2455 X14.4308 Y-1.2748 I-0.6549 J14.481
N2460 G1 X0.5805
N2465 G2 X0.3583 Y-1.0036 I0.0394 J0.2589
N2470 X0.3331 Y1.0065 I27.1284 J1.3444
N2475 X0.7571 Y1.1633 I0.3738 J-0.3591
N2480 X1.4659 Y1.1748 I0.5069 J-9.4331
N2485 G1 X1.7075
N2490 X15.4289
N2495 G2 X15.6504 Y0.9019 I-0.0437 J-0.2617
N2500 G3 X15.6891 Y0.4509 I28.2675 J2.1987
N2505 X15.7829 Y0.4093 I0.1083 J0.1174
N2510 X15.7967 Y0.4573 I0.0066 J0.0241
N2515 G1 X15.7932 Y0.4583 Z0.5003
N2520 X15.7898 Y0.4592 Z0.501
N2525 X15.7865 Y0.4601 Z0.5022
N2530 X15.7834 Y0.461 Z0.5039
N2535 X15.7806 Y0.4617 Z0.506
N2540 X15.7781 Y0.4624 Z0.5085
N2545 X15.7759 Y0.463 Z0.5114
N2550 X15.7742 Y0.4635 Z0.5146
N2555 X15.773 Y0.4638 Z0.518
N2560 X15.7722 Y0.464 Z0.5215
N2565 X15.772 Y0.4641 Z0.5251
N2570 G0 Z0.95
N2575 X15.9251 Y-0.3052
N2580 Z0.5501
N2585 G1 Z0.5251 F60.
N2590 X15.9249 Y-0.3054 Z0.5212
N2595 X15.9241 Y-0.3059 Z0.5174
N2600 X15.9229 Y-0.3067 Z0.5138
N2605 X15.9212 Y-0.3079 Z0.5104
N2610 X15.9191 Y-0.3093 Z0.5074
N2615 X15.9166 Y-0.311 Z0.5049
N2620 X15.9138 Y-0.3128 Z0.5028
N2625 X15.9108 Y-0.3149 Z0.5013
N2630 X15.9076 Y-0.317 Z0.5004
N2635 X15.9044 Y-0.3192 Z0.5001
N2640 G3 X15.8445 Y-0.3699 I0.2042 J-0.302
N2645 G1 X15.8325 Y-0.3779
N2650 X15.8209 Y-0.3865
N2655 X15.8097 Y-0.3954
N2660 X15.7988 Y-0.4049
N2665 X15.7883 Y-0.4148
N2670 X15.7783 Y-0.4251
N2675 X15.7687 Y-0.4358
N2680 X15.7595 Y-0.4469
N2685 X15.7508 Y-0.4584
N2690 X15.7426 Y-0.4702
N2695 X15.7349 Y-0.4824
N2700 X15.7278 Y-0.4948
N2705 X15.7211 Y-0.5076
N2710 X15.715 Y-0.5206
N2715 X15.7094 Y-0.5338
N2720 X15.7043 Y-0.5473
N2725 X15.6999 Y-0.561
N2730 X15.696 Y-0.5749
N2735 X15.6927 Y-0.5889
N2740 X15.6899 Y-0.603
N2745 X15.6878 Y-0.6172
N2750 X15.6862 Y-0.6315
N2755 X15.6853 Y-0.6459
N2760 X15.6849 Y-0.6602
N2765 X15.6851 Y-0.6746
N2770 X15.686 Y-0.689
N2775 X15.6874 Y-0.7033
N2780 X15.6894 Y-0.7175
N2785 X15.692 Y-0.7317
N2790 G2 X15.6614 Y-1.0204 I-6.2854 J0.5208
N2795 X15.2128 Y-1.1681 I-0.3958 J0.4468
N2800 X14.3754 Y-1.1748 I-0.5818 J20.481
N2805 G1 X14.1016
N2810 X0.6861
N2815 G2 X0.4597 Y-0.9077 I0.0327 J0.2572
N2820 X0.434 Y0.9088 I19.8412 J1.189
N2825 X0.8767 Y1.0627 I0.3813 J-0.3831
N2830 X1.6824 Y1.0748 I0.5477 J-9.6439
N2835 G1 X1.8918
N2840 X15.3234
N2845 G2 X15.5491 Y0.8063 I-0.0358 J-0.2592
N2850 G3 X15.5854 Y0.4785 I7.8167 J0.699
N2855 X15.7194 Y0.4289 I0.1766 J0.2717
N2860 X15.7332 Y0.477 I0.0066 J0.0241
N2865 G1 X15.7297 Y0.4779 Z0.5003
N2870 X15.7262 Y0.4789 Z0.501
N2875 X15.7229 Y0.4798 Z0.5022
N2880 X15.7198 Y0.4806 Z0.5039
N2885 X15.717 Y0.4814 Z0.506
N2890 X15.7145 Y0.4821 Z0.5085
N2895 X15.7124 Y0.4826 Z0.5114
N2900 X15.7107 Y0.4831 Z0.5146
N2905 X15.7094 Y0.4834 Z0.518
N2910 X15.7087 Y0.4836 Z0.5215
N2915 X15.7084 Y0.4837 Z0.5251
N2920 G0 Z0.95
N2925 X15.899 Y-0.378
N2930 Z0.5501
N2935 G1 Z0.5251 F60.
N2940 X15.8987 Y-0.3781 Z0.5212
N2945 X15.8978 Y-0.3782 Z0.5174
N2950 X15.8963 Y-0.3785 Z0.5138
N2955 X15.8943 Y-0.3788 Z0.5104
N2960 X15.8918 Y-0.3792 Z0.5074
N2965 X15.8889 Y-0.3797 Z0.5049
N2970 X15.8856 Y-0.3803 Z0.5028
N2975 X15.882 Y-0.3809 Z0.5013
N2980 X15.8782 Y-0.3815 Z0.5004
N2985 X15.8744 Y-0.3822 Z0.5001
N2990 G3 X15.7988 Y-0.4036 I0.0608 J-0.3595
N2995 X15.6055 Y-0.6771 I0.0527 J-0.2424
N3000 G2 X15.5508 Y-0.9287 I-1.3501 J0.1615
N3005 X15.1359 Y-1.0668 I-0.3726 J0.427
N3010 X14.1697 Y-1.0748 I-0.6509 J20.2486
N3015 G1 X0.7865
N3020 G2 X0.5658 Y-0.8074 I0.0314 J0.2507
N3025 X0.5356 Y0.7213 I10.959 J0.9807
N3030 X0.6997 Y0.9255 I0.1914 J0.0142
N3035 X1.581 Y0.9688 I0.6197 J-3.6244
N3040 G1 X1.6619 Y0.9748
N3045 X1.7747
N3050 X1.9679
N3055 X15.2063
N3060 G2 X15.4425 Y0.7381 I-0.0062 J-0.2424
N3065 G3 X15.4973 Y0.5022 I0.7196 J0.043
N3070 G1 X15.5068 Y0.4959
N3075 X15.5173 Y0.4915
N3080 X15.6206 Y0.4595
N3085 G3 X15.6343 Y0.5076 I0.0066 J0.0241
N3090 G1 X15.6308 Y0.5085 Z0.5003
N3095 X15.6274 Y0.5094 Z0.501
N3100 X15.6241 Y0.5103 Z0.5022
N3105 X15.621 Y0.5112 Z0.5039
N3110 X15.6181 Y0.512 Z0.506
N3115 X15.6156 Y0.5126 Z0.5085
N3120 X15.6135 Y0.5132 Z0.5114
N3125 X15.6118 Y0.5137 Z0.5146
N3130 X15.6106 Y0.514 Z0.518
N3135 X15.6098 Y0.5142 Z0.5215
N3140 X15.6095 Y0.5143 Z0.5251
N3145 G0 Z0.95
N3150 X15.8366 Y-0.4292
N3155 Z0.5501
N3160 G1 Z0.5251 F60.
N3165 X15.8363 Y-0.4291 Z0.5212
N3170 X15.8354 Y-0.4289 Z0.5174
N3175 X15.8339 Y-0.4286 Z0.5138
N3180 X15.8319 Y-0.4281 Z0.5104
N3185 X15.8295 Y-0.4275 Z0.5074
N3190 X15.8266 Y-0.4268 Z0.5049
N3195 X15.8233 Y-0.426 Z0.5028
N3200 X15.8198 Y-0.4252 Z0.5013
N3205 X15.8161 Y-0.4243 Z0.5004
N3210 X15.8123 Y-0.4233 Z0.5001
N3215 G3 X15.7338 Y-0.4245 I-0.0371 J-0.1539
N3220 X15.4971 Y-0.7386 I0.0712 J-0.2999
N3225 G2 X15.1746 Y-0.9548 I-0.3049 J0.1061
N3230 X14.225 Y-0.9748 I-0.688 J10.1202
N3235 G1 X13.9674
N3240 X0.8901
N3245 G2 X0.6668 Y-0.7102 I0.0265 J0.2489
N3250 X0.6342 Y-0.1957 I2.7188 J0.4307
N3255 G1 X0.6304 Y0.1428
N3260 G2 X0.633 Y0.7043 I7.3531 J0.2466
N3265 X1.0737 Y0.8621 I0.3803 J-0.3681
N3270 X1.9438 Y0.8748 I0.5873 J-10.4036
N3275 G1 X2.2015
N3280 X15.1177
N3285 G2 X15.3525 Y0.612 I-0.0333 J-0.266
N3290 G3 X15.4114 Y0.5242 I0.0892 J-0.0038
N3295 G1 X15.508 Y0.4943
N3300 G3 X15.5218 Y0.5424 I0.0066 J0.0241
N3305 G1 X15.5183 Y0.5433 Z0.5003
N3310 X15.5148 Y0.5443 Z0.501
N3315 X15.5115 Y0.5452 Z0.5022
N3320 X15.5084 Y0.546 Z0.5039
N3325 X15.5056 Y0.5468 Z0.506
N3330 X15.5031 Y0.5475 Z0.5085
N3335 X15.501 Y0.548 Z0.5114
N3340 X15.4992 Y0.5485 Z0.5146
N3345 X15.498 Y0.5488 Z0.518
N3350 X15.4972 Y0.5491 Z0.5215
N3355 X15.497 Z0.5251
N3360 G0 Z0.95
N3365 X15.7561 Y-0.4541
N3370 Z0.5501
N3375 G1 Z0.5251 F60.
N3380 X15.7558 Y-0.454 Z0.5212
N3385 X15.7549 Y-0.4538 Z0.5174
N3390 X15.7534 Y-0.4535 Z0.5138
N3395 X15.7515 Y-0.453 Z0.5104
N3400 X15.749 Y-0.4524 Z0.5074
N3405 X15.7461 Y-0.4517 Z0.5049
N3410 X15.7428 Y-0.4509 Z0.5028
N3415 X15.7393 Y-0.4501 Z0.5013
N3420 X15.7356 Y-0.4492 Z0.5004
N3425 X15.7318 Y-0.4483 Z0.5001
N3430 G3 X15.6533 Y-0.4494 I-0.0371 J-0.1539
N3435 X15.404 Y-0.7001 I0.0549 J-0.3039
N3440 G2 X14.969 Y-0.8654 I-0.3915 J0.375
N3445 X14.1316 Y-0.8748 I-0.5925 J15.5485
N3450 G1 X13.7612
N3455 X0.99
N3460 G2 X0.7669 Y-0.6096 I0.0279 J0.2499
N3465 X0.7382 Y0.611 I6.9996 J0.7751
N3470 X1.1819 Y0.7627 I0.3833 J-0.3963
N3475 X2.1648 Y0.7748 I0.6598 J-13.6118
N3480 G1 X15.0166
N3485 G2 X15.2536 Y0.5665 I-0.0298 J-0.2729
N3490 G3 X15.3313 Y0.5245 I0.0611 J0.0202
N3495 X15.3154 Y0.5719 I-0.0083 J0.0236
N3500 G1 X15.312 Y0.5707 Z0.5003
N3505 X15.3086 Y0.5695 Z0.501
N3510 X15.3054 Y0.5684 Z0.5022
N3515 X15.3023 Y0.5673 Z0.5039
N3520 X15.2996 Y0.5663 Z0.506
N3525 X15.2971 Y0.5654 Z0.5085
N3530 X15.295 Y0.5647 Z0.5114
N3535 X15.2933 Y0.5641 Z0.5146
N3540 X15.2921 Y0.5637 Z0.518
N3545 X15.2914 Y0.5634 Z0.5215
N3550 X15.2911 Z0.5251
N3555 G0 Z0.95
N3560 X15.6641 Y-0.4826
N3565 Z0.5501
N3570 G1 Z0.5251 F60.
N3575 X15.6638 Y-0.4825 Z0.5212
N3580 X15.663 Y-0.4823 Z0.5174
N3585 X15.6615 Y-0.4819 Z0.5138
N3590 X15.6595 Y-0.4814 Z0.5104
N3595 X15.657 Y-0.4808 Z0.5074
N3600 X15.6541 Y-0.4801 Z0.5049
N3605 X15.6509 Y-0.4794 Z0.5028
N3610 X15.6474 Y-0.4785 Z0.5013
N3615 X15.6436 Y-0.4776 Z0.5004
N3620 X15.6398 Y-0.4767 Z0.5001
N3625 G3 X15.5613 Y-0.4778 I-0.0371 J-0.1539
N3630 X15.3069 Y-0.6509 I0.1117 J-0.4377
N3635 G2 X14.7171 Y-0.7717 I-0.5018 J0.9496
N3640 G1 X14.5748 Y-0.7734
N3645 X14.4326 Y-0.7747
N3650 X14.2903 Y-0.7755
N3655 X14.148 Y-0.7757
N3660 X14.0058 Y-0.7755
N3665 X13.8635 Y-0.7748
N3670 X1.0922
N3675 G2 X0.8715 Y-0.5122 I0.016 J0.2374
N3680 X0.8331 Y0.1316 I3.1039 J0.5084
N3685 X0.8358 Y0.5008 I2.2281 J0.168
N3690 X1.2394 Y0.6602 I0.3567 J-0.3125
N3695 X2.2865 Y0.6748 I0.7077 J-13.14
N3700 G1 X14.9129
N3705 G2 X15.1721 Y0.507 I-0.0351 J-0.3384
N3710 G3 X15.2975 Y0.5093 I0.0619 J0.0491
N3715 G1 X15.3005 Y0.5115
N3720 X15.3031 Y0.5142
N3725 X15.3052 Y0.5172
N3730 X15.3069 Y0.5205
N3735 X15.308 Y0.5241
N3740 X15.3085 Y0.5278
N3745 Y0.5315
N3750 X15.3078 Y0.5352
N3755 X15.3066 Y0.5388
N3760 X15.3049 Y0.5422
N3765 X15.3026 Y0.5452
N3770 X15.2999 Y0.5479
N3775 X15.2967 Y0.5501
N3780 X15.2933 Y0.5518
N3785 X15.2896 Y0.5529
N3790 X15.2858 Y0.5535
N3795 X15.2819
N3800 X15.2781 Y0.5528
N3805 X15.2744 Y0.5516
N3810 X15.2709 Y0.5498
N3815 X15.268 Y0.5477 Z0.5003
N3820 X15.265 Y0.5457 Z0.501
N3825 X15.2622 Y0.5437 Z0.5022
N3830 X15.2596 Y0.5419 Z0.5039
N3835 X15.2572 Y0.5402 Z0.506
N3840 X15.255 Y0.5387 Z0.5085
N3845 X15.2532 Y0.5375 Z0.5114
N3850 X15.2517 Y0.5364 Z0.5146
N3855 X15.2507 Y0.5357 Z0.518
N3860 X15.25 Y0.5353 Z0.5215
N3865 X15.2498 Y0.5351 Z0.5251
N3870 G0 Z0.95
N3875 X15.5742 Y-0.5104
N3880 Z0.5501
N3885 G1 Z0.5251 F60.
N3890 X15.5739 Y-0.5103 Z0.5212
N3895 X15.573 Y-0.5101 Z0.5174
N3900 X15.5715 Y-0.5098 Z0.5138
N3905 X15.5695 Y-0.5093 Z0.5104
N3910 X15.5671 Y-0.5087 Z0.5074
N3915 X15.5642 Y-0.508 Z0.5049
N3920 X15.5609 Y-0.5072 Z0.5028
N3925 X15.5574 Y-0.5063 Z0.5013
N3930 X15.5537 Y-0.5055 Z0.5004
N3935 X15.5499 Y-0.5045 Z0.5001
N3940 G3 X15.4713 Y-0.5057 I-0.0371 J-0.1539
N3945 G2 X14.921 Y-0.6668 I-1.4663 J3.987
N3950 G1 X14.7516 Y-0.6697
N3955 X14.5823 Y-0.672
N3960 X14.4129 Y-0.6736
N3965 X14.2436 Y-0.6746
N3970 X14.0742 Y-0.675
N3975 X13.9049 Y-0.6748
N3980 X13.4217
N3985 X1.198
N3990 G2 X0.9723 Y-0.4176 I0.0082 J0.2348
N3995 X0.9419 Y0.4164 I3.1358 J0.5321
N4000 X1.4059 Y0.5648 I0.403 J-0.4603
N4005 X2.3886 Y0.5748 I0.6375 J-14.3524
N4010 G1 X14.8053
N4015 G2 X15.1118 Y0.4218 I-0.0333 J-0.4502
N4020 G3 X15.1846 Y0.4344 I0.0292 J0.0478
N4025 G1 X15.2632 Y0.4852
N4030 G3 X15.2351 Y0.5266 I-0.0143 J0.0205
N4035 G1 X15.2321 Y0.5245 Z0.5003
N4040 X15.2292 Y0.5225 Z0.501
N4045 X15.2264 Y0.5205 Z0.5022
N4050 X15.2238 Y0.5187 Z0.5039
N4055 X15.2214 Y0.517 Z0.506
N4060 X15.2192 Y0.5155 Z0.5085
N4065 X15.2174 Y0.5143 Z0.5114
N4070 X15.216 Y0.5133 Z0.5146
N4075 X15.2149 Y0.5125 Z0.518
N4080 X15.2143 Y0.5121 Z0.5215
N4085 X15.214 Y0.5119 Z0.5251
N4090 G0 Z0.95
N4095 X15.4842 Y-0.5417
N4100 Z0.5501
N4105 G1 Z0.5251 F60.
N4110 X15.4839 Z0.5212
N4115 X15.483 Y-0.5415 Z0.5174
N4120 X15.4815 Y-0.5412 Z0.5138
N4125 X15.4795 Y-0.5408 Z0.5104
N4130 X15.477 Y-0.5403 Z0.5074
N4135 X15.4741 Y-0.5398 Z0.5049
N4140 X15.4708 Y-0.5391 Z0.5028
N4145 X15.4672 Y-0.5384 Z0.5013
N4150 X15.4635 Y-0.5377 Z0.5004
N4155 X15.4596 Y-0.537 Z0.5001
N4160 G3 X15.3814 Y-0.5304 I-0.0695 J-0.3579
N4165 X14.9016 Y-0.5663 I-0.158 J-1.1106
N4170 G1 X14.7333 Y-0.5691
N4175 X14.565 Y-0.5713
N4180 X14.3967 Y-0.573
N4185 X14.2284 Y-0.5743
N4190 X14.0601 Y-0.575
N4195 X13.8919 Y-0.5751
N4200 X13.7236 Y-0.5748
N4205 X13.3531
N4210 X1.2904
N4215 G2 X1.0708 Y-0.3103 I0.0197 J0.2398
N4220 X1.0429 Y0.3149 I1.9255 J0.3991
N4225 X1.4891 Y0.4628 I0.3859 J-0.4169
N4230 X2.488 Y0.4748 I0.6684 J-14.0723
N4235 G1 X14.7114
N4240 G2 X15.0713 Y0.3396 I-0.0573 J-0.6994
N4245 G3 X15.1371 Y0.3813 I-0.0054 J0.0813
N4250 X15.091 Y0.4005 I-0.0232 J0.0093
N4255 G1 X15.0896 Y0.3971 Z0.5003
N4260 X15.0883 Y0.3938 Z0.501
N4265 X15.087 Y0.3906 Z0.5022
N4270 X15.0858 Y0.3876 Z0.5039
N4275 X15.0848 Y0.3849 Z0.506
N4280 X15.0838 Y0.3825 Z0.5085
N4285 X15.083 Y0.3805 Z0.5114
N4290 X15.0823 Y0.3788 Z0.5146
N4295 X15.0818 Y0.3776 Z0.518
N4300 X15.0815 Y0.3769 Z0.5215
N4305 X15.0814 Y0.3767 Z0.5251
N4310 G0 Z0.95
N4315 X15.407 Y-0.5787
N4320 Z0.5501
N4325 G1 Z0.5251 F60.
N4330 X15.4067 Y-0.5785 Z0.5212
N4335 X15.406 Y-0.5779 Z0.5174
N4340 X15.4049 Y-0.577 Z0.5138
N4345 X15.4033 Y-0.5757 Z0.5104
N4350 X15.4013 Y-0.5741 Z0.5074
N4355 X15.3989 Y-0.5722 Z0.5049
N4360 X15.3963 Y-0.5701 Z0.5028
N4365 X15.3935 Y-0.5679 Z0.5013
N4370 X15.3906 Y-0.5655 Z0.5004
N4375 X15.3875 Y-0.563 Z0.5001
N4380 G3 X15.3214 Y-0.5206 I-0.2287 J-0.2839
N4385 X14.9152 Y-0.4659 I-0.2596 J-0.392
N4390 G1 X14.7308 Y-0.469
N4395 X14.5463 Y-0.4715
N4400 X14.3619 Y-0.4734
N4405 X14.1774 Y-0.4747
N4410 X13.993 Y-0.4754
N4415 X13.8085
N4420 X13.6241 Y-0.4748
N4425 X1.4003
N4430 G2 X1.1719 Y-0.22 I0.0056 J0.2347
N4435 X1.1506 Y0.2266 I0.9278 J0.2681
N4440 X1.6363 Y0.3648 I0.4121 J-0.5259
N4445 X2.5225 Y0.3748 I0.597 J-13.5776
N4450 G1 X2.8929
N4455 X14.6175
N4460 G2 X14.9988 Y0.2662 I-0.0134 J-0.771
N4465 G3 X15.1199 Y0.3023 I0.034 J0.107
N4470 G1 X15.1237 Y0.3139
N4475 X15.125 Y0.3259
N4480 G3 X15.075 Y0.3252 I-0.025 J-0.0007
N4485 G1 X15.0751 Y0.3216 Z0.5003
N4490 X15.0752 Y0.318 Z0.501
N4495 X15.0753 Y0.3146 Z0.5022
N4500 X15.0754 Y0.3114 Z0.5039
N4505 X15.0755 Y0.3084 Z0.506
N4510 X15.0756 Y0.3058 Z0.5085
N4515 Y0.3036 Z0.5114
N4520 X15.0757 Y0.3019 Z0.5146
N4525 Y0.3006 Z0.518
N4530 Y0.2998 Z0.5215
N4535 X15.0758 Y0.2995 Z0.5251
N4540 G0 Z0.95
N4545 X15.3164 Y-0.5613
N4550 Z0.5501
N4555 G1 Z0.5251 F60.
N4560 X15.3163 Y-0.561 Z0.5212
N4565 X15.3159 Y-0.5602 Z0.5174
N4570 X15.3152 Y-0.5588 Z0.5138
N4575 X15.3143 Y-0.557 Z0.5104
N4580 X15.3132 Y-0.5547 Z0.5074
N4585 X15.3118 Y-0.552 Z0.5049
N4590 X15.3104 Y-0.549 Z0.5028
N4595 X15.3087 Y-0.5458 Z0.5013
N4600 X15.307 Y-0.5424 Z0.5004
N4605 X15.3053 Y-0.5389 Z0.5001
N4610 G3 X15.2541 Y-0.4793 I-0.1418 J-0.0703
N4615 X14.7724 Y-0.3659 I-0.3659 J-0.4745
N4620 G2 X13.5968 Y-0.3748 I-0.8483 J34.3844
N4625 G1 X13.1942
N4630 X1.5018
N4635 G2 X1.2716 Y-0.1219 I0.0034 J0.2343
N4640 G1 X1.2659 Y-0.1108
N4645 X1.2607 Y-0.0994
N4650 X1.2561 Y-0.0878
N4655 X1.2521 Y-0.076
N4660 X1.2486 Y-0.064
N4665 X1.2457 Y-0.0519
N4670 X1.2434 Y-0.0397
N4675 X1.2417 Y-0.0273
N4680 X1.2405 Y-0.0149
N4685 X1.24 Y-0.0024
N4690 Y0.01
N4695 X1.2406 Y0.0225
N4700 X1.2419 Y0.0349
N4705 X1.2437 Y0.0472
N4710 X1.2461 Y0.0595
N4715 X1.2491 Y0.0716
N4720 X1.2526 Y0.0835
N4725 X1.2567 Y0.0953
N4730 X1.2614 Y0.1069
N4735 X1.2666 Y0.1182
N4740 X1.2724 Y0.1292
N4745 X1.2787 Y0.14
N4750 X1.2854 Y0.1505
N4755 X1.2927 Y0.1606
N4760 X1.3005 Y0.1704
N4765 X1.3087 Y0.1798
N4770 G2 X1.9408 Y0.27 I0.5081 J-1.2998
N4775 X2.537 Y0.2748 I0.3921 J-11.65
N4780 G1 X2.7625
N4785 X14.5193
N4790 G2 X14.9708 Y0.1768 I-0.0079 J-1.125
N4795 G3 X15.1202 Y0.2233 I0.035 J0.1511
N4800 G1 X15.1238 Y0.2346
N4805 X15.125 Y0.2464
N4810 Y0.3146
N4815 G3 X15.075 Y0.3135 I-0.025 J-0.0009
N4820 G1 X15.0751 Y0.3099 Z0.5003
N4825 X15.0753 Y0.3063 Z0.501
N4830 X15.0754 Y0.3029 Z0.5022
N4835 X15.0755 Y0.2997 Z0.5039
N4840 X15.0756 Y0.2967 Z0.506
N4845 X15.0757 Y0.2941 Z0.5085
N4850 X15.0758 Y0.2919 Z0.5114
N4855 Y0.2902 Z0.5146
N4860 X15.0759 Y0.2889 Z0.518
N4865 Y0.2881 Z0.5215
N4870 Y0.2878 Z0.5251
N4875 G0 Z0.95
N4880 X15.2275 Y-0.5018
N4885 Z0.5501
N4890 G1 Z0.5251 F60.
N4895 X15.2274 Y-0.5015 Z0.5212
N4900 X15.2269 Y-0.5007 Z0.5174
N4905 X15.2261 Y-0.4995 Z0.5138
N4910 X15.225 Y-0.4977 Z0.5104
N4915 X15.2236 Y-0.4956 Z0.5074
N4920 X15.222 Y-0.4931 Z0.5049
N4925 X15.2202 Y-0.4903 Z0.5028
N4930 X15.2182 Y-0.4872 Z0.5013
N4935 X15.2162 Y-0.484 Z0.5004
N4940 X15.2141 Y-0.4807 Z0.5001
N4945 G3 X15.165 Y-0.4194 I-0.3073 J-0.1961
N4950 G1 X15.1579 Y-0.4081
N4955 X15.1503 Y-0.397
N4960 X15.1422 Y-0.3863
N4965 X15.1336 Y-0.376
N4970 X15.1247 Y-0.366
N4975 X15.1152 Y-0.3565
N4980 X15.1054 Y-0.3474
N4985 X15.0952 Y-0.3387
N4990 X15.0846 Y-0.3305
N4995 X15.0736 Y-0.3228
N5000 X15.0624 Y-0.3156
N5005 X15.0508 Y-0.3088
N5010 X15.0389 Y-0.3026
N5015 X15.0268 Y-0.2969
N5020 X15.0144 Y-0.2918
N5025 X15.0018 Y-0.2872
N5030 X14.989 Y-0.2832
N5035 X14.9761 Y-0.2797
N5040 X14.963 Y-0.2768
N5045 X14.9498 Y-0.2745
N5050 X14.9365 Y-0.2728
N5055 X14.9232 Y-0.2716
N5060 X14.9098 Y-0.2711
N5065 X14.8964
N5070 X14.883 Y-0.2718
N5075 X14.8697 Y-0.273
N5080 X14.8564 Y-0.2748
N5085 X14.8433 Y-0.2772
N5090 X14.8302 Y-0.2802
N5095 G3 X13.5395 Y-0.2748 I-0.7594 J-27.5403
N5100 G1 X13.1852
N5105 X1.6057
N5110 G2 X1.4052 Y0.0638 I-0.0071 J0.2245
N5115 X1.9689 Y0.1686 I0.4614 J-0.9132
N5120 X2.7745 Y0.1748 I0.4991 J-12.4353
N5125 G1 X14.4178
N5130 G2 X14.9544 Y0.0847 I0.0041 J-1.6183
N5135 G3 X15.115 Y0.1293 I0.0182 J0.2456
N5140 X15.125 Y0.2464 I-0.14 J0.0709
N5145 X15.075 Y0.2453 I-0.025 J-0.0009
N5150 G1 X15.0751 Y0.2417 Z0.5003
N5155 X15.0753 Y0.2381 Z0.501
N5160 X15.0754 Y0.2347 Z0.5022
N5165 X15.0755 Y0.2315 Z0.5039
N5170 X15.0756 Y0.2285 Z0.506
N5175 X15.0757 Y0.2259 Z0.5085
N5180 X15.0758 Y0.2237 Z0.5114
N5185 Y0.222 Z0.5146
N5190 X15.0759 Y0.2207 Z0.518
N5195 Y0.2199 Z0.5215
N5200 Y0.2196 Z0.5251
N5205 G0 Z0.95
N5210 X15.1569 Y-0.4754
N5215 Z0.5501
N5220 G1 Z0.5251 F60.
N5225 X15.1568 Y-0.4751 Z0.5212
N5230 X15.1567 Y-0.4742 Z0.5174
N5235 X15.1565 Y-0.4727 Z0.5138
N5240 X15.1562 Y-0.4707 Z0.5104
N5245 X15.1558 Y-0.4681 Z0.5074
N5250 X15.1554 Y-0.4652 Z0.5049
N5255 X15.155 Y-0.4619 Z0.5028
N5260 X15.1545 Y-0.4583 Z0.5013
N5265 X15.1539 Y-0.4545 Z0.5004
N5270 X15.1534 Y-0.4506 Z0.5001
N5275 G3 X15.1341 Y-0.3745 I-0.361 J-0.0507
N5280 G1 X15.1322 Y-0.3633
N5285 X15.1296 Y-0.3523
N5290 X15.1265 Y-0.3414
N5295 X15.1228 Y-0.3307
N5300 X15.1185 Y-0.3202
N5305 X15.1137 Y-0.3099
N5310 X15.1083 Y-0.2999
N5315 X15.1024 Y-0.2902
N5320 X15.0961 Y-0.2809
N5325 X15.0892 Y-0.2718
N5330 X15.0819 Y-0.2632
N5335 X15.0741 Y-0.255
N5340 X15.0659 Y-0.2471
N5345 X15.0572 Y-0.2398
N5350 X15.0483 Y-0.2329
N5355 X15.0389 Y-0.2265
N5360 X15.0292 Y-0.2206
N5365 X15.0193 Y-0.2152
N5370 X15.009 Y-0.2103
N5375 X14.9986 Y-0.206
N5380 X14.9879 Y-0.2023
N5385 X14.977 Y-0.1991
N5390 X14.966 Y-0.1965
N5395 X14.9548 Y-0.1945
N5400 X14.9436 Y-0.1931
N5405 X14.9323 Y-0.1923
N5410 X14.9209 Y-0.1921
N5415 X14.9096 Y-0.1924
N5420 X14.8983 Y-0.1934
N5425 X14.8871 Y-0.195
N5430 G3 X14.001 Y-0.1828 I-0.5044 J-4.448
N5435 X13.501 Y-0.1748 I-0.361 J-6.9437
N5440 G1 X13.2112
N5445 X3.3066
N5450 G3 X2.4332 Y-0.1658 I-0.6156 J-17.3625
N5455 G1 X1.7085
N5460 G2 X1.556 Y-0.0754 I-0.0424 J0.1023
N5465 X1.8441 Y0.0516 I0.2667 J-0.2149
N5470 X2.9227 Y0.0658 I0.7158 J-13.3842
N5475 G1 X14.3573
N5480 X14.3732 Y0.0657
N5485 G2 X14.9912 Y-0.0156 I-0.2587 J-4.3521
N5490 G3 X15.1279 Y0.0523 I-0.0195 J0.2108
N5495 G1 X15.125 Y0.0673
N5500 Y0.1619
N5505 G3 X15.075 Y0.1611 I-0.025 J-0.0009
N5510 G1 X15.0751 Y0.1574 Z0.5003
N5515 X15.0753 Y0.1538 Z0.5009
N5520 X15.0754 Y0.1504 Z0.5021
N5525 X15.0755 Y0.1471 Z0.5038
N5530 X15.0756 Y0.1442 Z0.5059
N5535 X15.0757 Y0.1416 Z0.5085
N5540 X15.0758 Y0.1393 Z0.5113
N5545 Y0.1376 Z0.5145
N5550 X15.0759 Y0.1363 Z0.5179
N5555 Y0.1355 Z0.5215
N5560 Y0.1352 Z0.5251
N5565 G0 Z0.95
N5570 X15.113 Y-0.4356
N5575 Z0.5501
N5580 G1 Z0.5251 F60.
N5585 Y-0.4353 Z0.5212
N5590 X15.1132 Y-0.4344 Z0.5174
N5595 X15.1135 Y-0.4329 Z0.5138
N5600 X15.1139 Y-0.4309 Z0.5104
N5605 X15.1144 Y-0.4284 Z0.5074
N5610 X15.115 Y-0.4255 Z0.5049
N5615 X15.1157 Y-0.4222 Z0.5028
N5620 X15.1164 Y-0.4187 Z0.5013
N5625 X15.1172 Y-0.415 Z0.5004
N5630 X15.118 Y-0.4111 Z0.5001
N5635 G3 X15.1252 Y-0.3329 I-0.3573 J0.0726
N5640 G2 X15.1212 Y-0.162 I2.3924 J0.1411
N5645 G1 X15.121 Y-0.1587
N5650 X15.1203 Y-0.1555
N5655 X15.1191 Y-0.1523
N5660 X15.1174 Y-0.1494
N5665 X15.1152 Y-0.1468
N5670 X15.1126 Y-0.1445
N5675 X15.1097 Y-0.1426
N5680 X15.1065 Y-0.1411
N5685 X15.1031 Y-0.1402
N5690 X15.0995 Y-0.1398
N5695 X15.0959 Y-0.14
N5700 X15.0924 Y-0.1407
N5705 X15.0889 Y-0.142
N5710 X15.0857 Y-0.1438
N5715 X15.0828 Y-0.1461
N5720 X15.0803 Y-0.1489
N5725 X15.0782 Y-0.152
N5730 X15.0766 Y-0.1554
N5735 X15.0755 Y-0.1591
N5740 X15.075 Y-0.1629
N5745 Y-0.1638
N5750 Y-0.2713
N5755 Y-0.2721
N5760 G3 X15.125 Y-0.273 I0.025 J0.
N5765 G1 Y0.0673
N5770 G3 X15.0858 Y0.087 I-0.025 J-0.0009
N5775 G1 X15.0837 Y0.0849 Z0.5003
N5780 X15.0816 Y0.0828 Z0.5009
N5785 X15.0795 Y0.0808 Z0.5017
N5790 X15.0782 Y0.0779 Z0.5032
N5795 X15.077 Y0.0752 Z0.5051
N5800 X15.0758 Y0.0728 Z0.5074
N5805 X15.0756 Y0.0707 Z0.5099
N5810 X15.0753 Y0.0689 Z0.5126
N5815 X15.0752 Y0.0675 Z0.5155
N5820 X15.075 Y0.0664 Z0.5186
N5825 Y0.0658 Z0.5218
N5830 Y0.0656 Z0.5251
N5835 G0 Z0.95
N5840 X15.0801 Y0.2696
N5845 Z0.5625
N5850 G1 Z0.5375 F60.
N5855 X15.0803 Y0.2698 Z0.5336
N5860 X15.0808 Y0.2706 Z0.5298
N5865 X15.0817 Y0.2718 Z0.5262
N5870 X15.0828 Y0.2735 Z0.5228
N5875 X15.0843 Y0.2756 Z0.5198
N5880 X15.0859 Y0.2781 Z0.5173
N5885 X15.0878 Y0.2808 Z0.5152
N5890 X15.0899 Y0.2838 Z0.5137
N5895 X15.092 Y0.287 Z0.5128
N5900 X15.0942 Y0.2902 Z0.5125
N5905 G3 X15.1312 Y0.3595 I-0.3012 J0.2053
N5910 G2 X15.1841 Y0.4269 I0.1204 J-0.04
N5915 X15.3514 Y0.5222 I0.2349 J-0.218
N5920 X15.4114 Y0.5171 I0.0195 J-0.1265
N5925 G1 X15.7338 Y0.4173
N5930 G2 X15.8283 Y0.2921 I-0.0314 J-0.1221
N5935 G1 Y-0.2921
N5940 X15.8282 Y-0.2996
N5945 X15.8278 Y-0.3071
N5950 X15.8269 Y-0.3146
N5955 G3 X15.8767 Y-0.3193 I0.0249 J-0.002
N5960 G1 X15.877 Y-0.3157 Z0.5127
N5965 X15.8772 Y-0.3121 Z0.5134
N5970 X15.8775 Y-0.3087 Z0.5146
N5975 X15.8778 Y-0.3055 Z0.5162
N5980 X15.878 Y-0.3026 Z0.5184
N5985 X15.8782 Y-0.3 Z0.5209
N5990 X15.8784 Y-0.2978 Z0.5238
N5995 X15.8785 Y-0.296 Z0.5269
N6000 X15.8787 Y-0.2947 Z0.5303
N6005 Y-0.2939 Z0.5339
N6010 Y-0.2937 Z0.5375
N6015 G0 Z0.95
N6020 X15.8813 Y-0.3098
N6025 Z0.5625
N6030 G1 Z0.5375 F60.
N6035 X15.881 Y-0.31 Z0.5336
N6040 X15.8802 Y-0.3105 Z0.5298
N6045 X15.879 Y-0.3114 Z0.5262
N6050 X15.8773 Y-0.3125 Z0.5228
N6055 X15.8752 Y-0.3139 Z0.5198
N6060 X15.8727 Y-0.3156 Z0.5173
N6065 X15.8699 Y-0.3175 Z0.5152
N6070 X15.8669 Y-0.3195 Z0.5137
N6075 X15.8638 Y-0.3216 Z0.5128
N6080 X15.8605 Y-0.3238 Z0.5125
N6085 G3 X15.8005 Y-0.3745 I0.2038 J-0.3023
N6090 G2 X15.7338 Y-0.4173 I-0.0992 J0.0812
N6095 G1 X15.4114 Y-0.5171
N6100 G2 X15.2998 Y-0.5018 I-0.0404 J0.12
N6105 G1 X15.1864 Y-0.4284
N6110 G3 X15.1486 Y-0.4507 I-0.0128 J-0.0215
N6115 G1 X15.1492 Y-0.4536 Z0.5127
N6120 X15.1498 Y-0.4565 Z0.5132
N6125 X15.1504 Y-0.4593 Z0.5141
N6130 X15.1521 Y-0.462 Z0.5156
N6135 X15.1537 Y-0.4645 Z0.5175
N6140 X15.1551 Y-0.4667 Z0.5198
N6145 X15.1568 Y-0.4682 Z0.5224
N6150 X15.1583 Y-0.4694 Z0.5253
N6155 X15.1594 Y-0.4703 Z0.5284
N6160 X15.1602 Y-0.471 Z0.5317
N6165 X15.1606 Y-0.4713 Z0.5346
N6170 X15.1608 Z0.5375
N6175 G0 Z0.95
N6180 X15.0712 Y0.2507
N6185 Z0.575
N6190 G1 Z0.55 F60.
N6195 X15.0715 Y0.2509 Z0.5461
N6200 X15.0721 Y0.2516 Z0.5423
N6205 X15.0731 Y0.2526 Z0.5387
N6210 X15.0746 Y0.2541 Z0.5353
N6215 X15.0763 Y0.2559 Z0.5323
N6220 X15.0784 Y0.2581 Z0.5298
N6225 X15.0807 Y0.2605 Z0.5277
N6230 X15.0832 Y0.2631 Z0.5262
N6235 X15.0859 Y0.2659 Z0.5253
N6240 X15.0886 Y0.2687 Z0.525
N6245 G3 X15.1273 Y0.337 I-0.1141 J0.1097
N6250 G2 X15.1837 Y0.4194 I0.1234 J-0.024
N6255 X15.3664 Y0.5165 I0.2288 J-0.2101
N6260 X15.4114 Y0.5099 I0.0036 J-0.1318
N6265 G1 X15.6813 Y0.4263
N6270 G2 X15.7817 Y0.2846 I-0.0284 J-0.1266
N6275 G1 Y-0.2996
N6280 X15.7815 Y-0.3071
N6285 X15.7811 Y-0.3146
N6290 G3 X15.8311 Y-0.3161 I0.025 J-0.0004
N6295 G1 X15.8312 Y-0.3125 Z0.5252
N6300 Y-0.3089 Z0.5259
N6305 X15.8313 Y-0.3055 Z0.5271
N6310 X15.8314 Y-0.3023 Z0.5287
N6315 Y-0.2994 Z0.5309
N6320 X15.8315 Y-0.2968 Z0.5334
N6325 Y-0.2946 Z0.5363
N6330 Y-0.2928 Z0.5394
N6335 X15.8316 Y-0.2915 Z0.5428
N6340 Y-0.2907 Z0.5464
N6345 Y-0.2905 Z0.55
N6350 G0 Z0.95
N6355 X15.8353 Y-0.3044
N6360 Z0.575
N6365 G1 Z0.55 F60.
N6370 X15.8351 Y-0.3045 Z0.5461
N6375 X15.8344 Y-0.3051 Z0.5423
N6380 X15.8332 Y-0.306 Z0.5387
N6385 X15.8316 Y-0.3073 Z0.5353
N6390 X15.8295 Y-0.3089 Z0.5323
N6395 X15.8272 Y-0.3107 Z0.5298
N6400 X15.8246 Y-0.3128 Z0.5277
N6405 X15.8217 Y-0.315 Z0.5262
N6410 X15.8187 Y-0.3173 Z0.5253
N6415 X15.8156 Y-0.3197 Z0.525
N6420 G3 X15.7593 Y-0.3745 I0.2244 J-0.2873
N6425 G2 X15.6795 Y-0.4269 I-0.1083 J0.078
N6430 G1 X15.4113 Y-0.5099
N6435 G2 X15.2917 Y-0.4888 I-0.0404 J0.121
N6440 G1 X15.1864 Y-0.4212
N6445 G3 X15.1486 Y-0.4435 I-0.0128 J-0.0215
N6450 G1 X15.1492 Y-0.4464 Z0.5252
N6455 X15.1498 Y-0.4493 Z0.5257
N6460 X15.1504 Y-0.4521 Z0.5266
N6465 X15.1521 Y-0.4548 Z0.5281
N6470 X15.1537 Y-0.4573 Z0.53
N6475 X15.1551 Y-0.4595 Z0.5323
N6480 X15.1568 Y-0.461 Z0.5349
N6485 X15.1583 Y-0.4622 Z0.5378
N6490 X15.1594 Y-0.4631 Z0.5409
N6495 X15.1602 Y-0.4638 Z0.5442
N6500 X15.1606 Y-0.464 Z0.5471
N6505 X15.1608 Y-0.4641 Z0.55
N6510 G0 Z0.95
N6515 X15.7158 Y0.521
N6520 Z0.5875
N6525 G1 Z0.5625 F60.
N6530 X15.7156 Y0.5208 Z0.5586
N6535 X15.7151 Y0.5201 Z0.5548
N6540 X15.7142 Y0.5188 Z0.5512
N6545 X15.713 Y0.5172 Z0.5478
N6550 X15.7115 Y0.5151 Z0.5448
N6555 X15.7097 Y0.5127 Z0.5423
N6560 X15.7078 Y0.51 Z0.5402
N6565 X15.7056 Y0.5071 Z0.5387
N6570 X15.7034 Y0.504 Z0.5378
N6575 X15.7011 Y0.5009 Z0.5375
N6580 G3 X15.6618 Y0.4329 I0.2942 J-0.2153
N6585 G2 X15.735 Y0.2996 I-0.0813 J-0.1315
N6590 G1 Y-0.2996
N6595 Y-0.3071
N6600 X15.7349 Y-0.3146
N6605 G3 X15.7529 Y-0.338 I0.025 J0.0006
N6610 G1 X15.7804 Y-0.3461
N6615 G3 X15.7945 Y-0.2981 I0.0071 J0.024
N6620 X15.7694 Y-0.3048 I-0.0071 J-0.024
N6625 X15.7214 Y-0.367 I0.263 J-0.2525
N6630 G2 X15.6363 Y-0.4331 I-0.1145 J0.0596
N6635 G1 X15.4113 Y-0.5026
N6640 G2 X15.2916 Y-0.4816 I-0.0404 J0.1212
N6645 X15.1449 Y-0.367 I0.0789 J0.2522
N6650 X15.1313 Y-0.2996 I0.1205 J0.0594
N6655 G1 Y0.2996
N6660 G2 X15.1939 Y0.4189 I0.1277 J0.009
N6665 X15.3664 Y0.5093 I0.2062 J-0.1836
N6670 X15.4114 Y0.5026 I0.0034 J-0.1329
N6675 G1 X15.6363 Y0.4331
N6680 X15.6438 Y0.4307
N6685 G3 X15.6743 Y0.4623 I0.0066 J0.0241
N6690 G1 X15.6729 Y0.4649 Z0.5377
N6695 X15.6715 Y0.4675 Z0.5382
N6700 X15.6702 Y0.4701 Z0.5391
N6705 X15.6678 Y0.4722 Z0.5406
N6710 X15.6657 Y0.4742 Z0.5425
N6715 X15.6637 Y0.476 Z0.5448
N6720 X15.6616 Y0.4769 Z0.5474
N6725 X15.6599 Y0.4777 Z0.5503
N6730 X15.6586 Y0.4783 Z0.5534
N6735 X15.6577 Y0.4787 Z0.5567
N6740 X15.6572 Y0.4789 Z0.5596
N6745 X15.657 Z0.5625
N6750 G0 Z0.95
N6755 X15.6842 Y0.5214
N6760 Z0.6
N6765 G1 Z0.575 F60.
N6770 X15.684 Y0.5212 Z0.5711
N6775 X15.6834 Y0.5205 Z0.5673
N6780 X15.6825 Y0.5193 Z0.5637
N6785 X15.6812 Y0.5177 Z0.5603
N6790 X15.6795 Y0.5158 Z0.5573
N6795 X15.6776 Y0.5135 Z0.5548
N6800 X15.6755 Y0.5109 Z0.5527
N6805 X15.6732 Y0.5081 Z0.5512
N6810 X15.6708 Y0.5052 Z0.5503
N6815 X15.6683 Y0.5021 Z0.55
N6820 G3 X15.6251 Y0.4365 I0.2812 J-0.232
N6825 G2 X15.6884 Y0.3146 I-0.107 J-0.1329
N6830 G1 Y-0.3146
N6835 G2 X15.6854 Y-0.3445 I-0.1361 J-0.0014
N6840 G1 X15.685 Y-0.3482
N6845 X15.6853 Y-0.3519
N6850 X15.686 Y-0.3555
N6855 X15.6873 Y-0.3589
N6860 X15.6891 Y-0.3622
N6865 X15.6913 Y-0.3651
N6870 X15.6939 Y-0.3677
N6875 X15.6969 Y-0.3699
N6880 X15.7002 Y-0.3715
N6885 X15.7037 Y-0.3727
N6890 X15.7073 Y-0.3734
N6895 G3 X15.7449 Y-0.3752 I0.0219 J0.0647
N6900 X15.7399 Y-0.3266 I-0.008 J0.0237
N6905 X15.721 Y-0.3322 I-0.003 J-0.0248
N6910 X15.6663 Y-0.3885 I0.2325 J-0.2808
N6915 G2 X15.5687 Y-0.4457 I-0.1157 J0.0855
N6920 X15.3664 Y-0.502 I-0.2163 J0.3853
N6925 X15.1552 Y-0.337 I0.0267 J0.2518
N6930 G1 X15.1543 Y-0.3295
N6935 X15.1538 Y-0.3221
N6940 X15.1536 Y-0.3146
N6945 Y0.3141
N6950 G2 X15.3147 Y0.4841 I0.199 J-0.0274
N6955 X15.4114 Y0.4954 I0.0592 J-0.0864
N6960 G1 X15.5988 Y0.4374
N6965 G3 X15.6292 Y0.4691 I0.0066 J0.0241
N6970 G1 X15.6278 Y0.4717 Z0.5502
N6975 X15.6265 Y0.4743 Z0.5507
N6980 X15.6251 Y0.4769 Z0.5516
N6985 X15.6228 Y0.479 Z0.5531
N6990 X15.6206 Y0.481 Z0.555
N6995 X15.6186 Y0.4828 Z0.5573
N7000 X15.6166 Y0.4837 Z0.5599
N7005 X15.6149 Y0.4845 Z0.5628
N7010 X15.6135 Y0.4851 Z0.5659
N7015 X15.6126 Y0.4855 Z0.5692
N7020 X15.6121 Y0.4856 Z0.5721
N7025 X15.6119 Y0.4857 Z0.575
N7030 G0 Z0.95
N7035 X15.6422 Y0.5268
N7040 Z0.6125
N7045 G1 Z0.5875 F60.
N7050 X15.642 Y0.5265 Z0.5836
N7055 X15.6414 Y0.5258 Z0.5798
N7060 X15.6404 Y0.5247 Z0.5762
N7065 X15.639 Y0.5232 Z0.5728
N7070 X15.6374 Y0.5212 Z0.5698
N7075 X15.6354 Y0.519 Z0.5673
N7080 X15.6332 Y0.5165 Z0.5652
N7085 X15.6308 Y0.5137 Z0.5637
N7090 X15.6283 Y0.5109 Z0.5628
N7095 X15.6258 Y0.5079 Z0.5625
N7100 G3 X15.5808 Y0.4435 I0.2748 J-0.2395
N7105 G2 X15.6417 Y0.3146 I-0.122 J-0.1365
N7110 G1 Y-0.3146
N7115 G2 X15.64 Y-0.3445 I-0.1616 J-0.0059
N7120 G3 X15.6623 Y-0.3719 I0.0249 J-0.0025
N7125 X15.7014 Y-0.3735 I0.0223 J0.0651
N7130 X15.6847 Y-0.3264 I-0.0084 J0.0236
N7135 X15.6764 Y-0.3313 I0.0084 J-0.0236
N7140 X15.6237 Y-0.3895 I0.2422 J-0.2725
N7145 G2 X15.5463 Y-0.4465 I-0.1091 J0.0671
N7150 X15.3589 Y-0.4943 I-0.1752 J0.2954
N7155 X15.1759 Y-0.3146 I0.0164 J0.1996
N7160 G1 Y0.3146
N7165 Y0.3221
N7170 X15.1761 Y0.3295
N7175 X15.1766 Y0.337
N7180 G3 X15.1317 Y0.3531 I-0.025 J0.0009
N7185 G1 X15.1224 Y0.3408
N7190 X15.1049 Y0.3178
N7195 G3 X15.1444 Y0.2871 I0.0199 J-0.0151
N7200 X15.1459 Y0.2892 I-0.0196 J0.0156
N7205 X15.1808 Y0.3595 I-0.307 J0.1966
N7210 G2 X15.4118 Y0.4918 I0.2042 J-0.0888
N7215 G1 X15.5463 Y0.4465
N7220 X15.5504 Y0.4452
N7225 G3 X15.5809 Y0.4768 I0.0066 J0.0241
N7230 G1 X15.5795 Y0.4794 Z0.5627
N7235 X15.5782 Y0.482 Z0.5632
N7240 X15.5768 Y0.4845 Z0.5641
N7245 X15.5745 Y0.4867 Z0.5656
N7250 X15.5723 Y0.4887 Z0.5675
N7255 X15.5703 Y0.4905 Z0.5698
N7260 X15.5683 Y0.4914 Z0.5724
N7265 X15.5666 Y0.4922 Z0.5753
N7270 X15.5652 Y0.4928 Z0.5784
N7275 X15.5643 Y0.4932 Z0.5817
N7280 X15.5638 Y0.4933 Z0.5846
N7285 X15.5637 Y0.4934 Z0.5875
N7290 G0 Z0.95
N7295 X15.5958 Y0.5339
N7300 Z0.625
N7305 G1 Z0.6 F60.
N7310 X15.5956 Y0.5337 Z0.5961
N7315 X15.595 Y0.533 Z0.5923
N7320 X15.594 Y0.5319 Z0.5887
N7325 X15.5926 Y0.5303 Z0.5853
N7330 X15.5909 Y0.5284 Z0.5823
N7335 X15.589 Y0.5262 Z0.5798
N7340 X15.5868 Y0.5237 Z0.5777
N7345 X15.5844 Y0.5209 Z0.5762
N7350 X15.5819 Y0.5181 Z0.5753
N7355 X15.5793 Y0.5151 Z0.575
N7360 G3 X15.5341 Y0.4509 I0.274 J-0.2405
N7365 G2 X15.5951 Y0.3221 I-0.1106 J-0.1312
N7370 G1 Y-0.3221
N7375 Y-0.3295
N7380 X15.5949 Y-0.337
N7385 X15.5943 Y-0.3445
N7390 G3 X15.6443 Y-0.3472 I0.025 J-0.001
N7395 G1 X15.6444 Y-0.3436 Z0.5752
N7400 X15.6445 Y-0.34 Z0.5759
N7405 X15.6447 Y-0.3366 Z0.5771
N7410 X15.6448 Y-0.3334 Z0.5787
N7415 X15.6449 Y-0.3304 Z0.5809
N7420 X15.645 Y-0.3278 Z0.5834
N7425 X15.6451 Y-0.3256 Z0.5863
N7430 X15.6452 Y-0.3238 Z0.5894
N7435 Y-0.3226 Z0.5928
N7440 X15.6453 Y-0.3218 Z0.5964
N7445 Y-0.3215 Z0.6
N7450 G0 Z0.95
N7455 X15.6481 Y-0.3488
N7460 Z0.625
N7465 G1 Z0.6 F60.
N7470 X15.6478 Y-0.3489 Z0.5961
N7475 X15.6471 Y-0.3494 Z0.5923
N7480 X15.6458 Y-0.3503 Z0.5887
N7485 X15.6441 Y-0.3514 Z0.5853
N7490 X15.6419 Y-0.3528 Z0.5823
N7495 X15.6394 Y-0.3544 Z0.5798
N7500 X15.6366 Y-0.3562 Z0.5777
N7505 X15.6336 Y-0.3582 Z0.5762
N7510 X15.6304 Y-0.3602 Z0.5753
N7515 X15.6271 Y-0.3624 Z0.575
N7520 G3 X15.5662 Y-0.4119 I0.1983 J-0.3059
N7525 G1 X15.557 Y-0.4206
N7530 X15.5473 Y-0.4287
N7535 X15.5373 Y-0.4364
N7540 X15.5269 Y-0.4436
N7545 X15.5162 Y-0.4503
N7550 X15.5052 Y-0.4564
N7555 X15.4938 Y-0.462
N7560 X15.4823 Y-0.467
N7565 X15.4704 Y-0.4714
N7570 X15.4584 Y-0.4753
N7575 X15.4462 Y-0.4785
N7580 X15.4339 Y-0.4812
N7585 X15.4214 Y-0.4832
N7590 X15.4089 Y-0.4846
N7595 X15.3963 Y-0.4855
N7600 X15.3837 Y-0.4856
N7605 X15.371 Y-0.4852
N7610 X15.3585 Y-0.4842
N7615 X15.3459 Y-0.4825
N7620 X15.3335 Y-0.4802
N7625 X15.3212 Y-0.4773
N7630 X15.3091 Y-0.4739
N7635 X15.2972 Y-0.4698
N7640 G2 X15.1982 Y-0.3221 I0.0628 J0.1491
N7645 G1 Y0.3221
N7650 Y0.3295
N7655 X15.1984 Y0.337
N7660 X15.199 Y0.3445
N7665 G3 X15.1579 Y0.3646 I-0.025 J0.001
N7670 G1 X15.142 Y0.3512
N7675 X15.1297 Y0.3408
N7680 G3 X15.1618 Y0.3025 I0.0161 J-0.0191
N7685 X15.1659 Y0.3068 I-0.016 J0.0192
N7690 X15.2057 Y0.3745 I-0.2925 J0.2176
N7695 G2 X15.504 Y0.4499 I0.181 J-0.0884
N7700 G1 X15.5079 Y0.4491
N7705 X15.5118 Y0.4489
N7710 X15.5157 Y0.4493
N7715 X15.5195 Y0.4503
N7720 X15.523 Y0.4518
N7725 X15.5263 Y0.4537
N7730 X15.5293 Y0.4561
N7735 X15.5318 Y0.4589
N7740 X15.534 Y0.462
N7745 X15.5356 Y0.4654
N7750 X15.5367 Y0.4689
N7755 X15.5374 Y0.4726
N7760 Y0.4762
N7765 X15.537 Y0.4799
N7770 X15.536 Y0.4834
N7775 X15.5346 Y0.486 Z0.5752
N7780 X15.5333 Y0.4886 Z0.5757
N7785 X15.5319 Y0.4912 Z0.5766
N7790 X15.5296 Y0.4933 Z0.5781
N7795 X15.5274 Y0.4953 Z0.58
N7800 X15.5254 Y0.4971 Z0.5823
N7805 X15.5234 Y0.498 Z0.5849
N7810 X15.5217 Y0.4988 Z0.5878
N7815 X15.5204 Y0.4994 Z0.5909
N7820 X15.5194 Y0.4999 Z0.5942
N7825 X15.5189 Y0.5 Z0.5971
N7830 X15.5188 Y0.5001 Z0.6
N7835 G0 Z0.95
N7840 X15.5544 Y0.5391
N7845 Z0.6375
N7850 G1 Z0.6125 F60.
N7855 X15.5542 Y0.5388 Z0.6086
N7860 X15.5536 Y0.5382 Z0.6048
N7865 X15.5526 Y0.537 Z0.6012
N7870 X15.5512 Y0.5355 Z0.5978
N7875 X15.5495 Y0.5336 Z0.5948
N7880 X15.5475 Y0.5314 Z0.5923
N7885 X15.5452 Y0.5289 Z0.5902
N7890 X15.5428 Y0.5263 Z0.5887
N7895 X15.5402 Y0.5234 Z0.5878
N7900 X15.5376 Y0.5205 Z0.5875
N7905 G3 X15.4915 Y0.457 I0.2703 J-0.2446
N7910 G2 X15.5484 Y0.3295 I-0.1262 J-0.1328
N7915 G1 Y-0.3295
N7920 Y-0.337
N7925 X15.5482 Y-0.3445
N7930 X15.5478 Y-0.352
N7935 G3 X15.5657 Y-0.3766 I0.025 J-0.0006
N7940 G1 X15.5922 Y-0.3844
N7945 G3 X15.61 Y-0.3829 I0.0071 J0.024
N7950 X15.5885 Y-0.3378 I-0.0108 J0.0226
N7955 X15.582 Y-0.3423 I0.0108 J-0.0226
N7960 X15.5313 Y-0.4023 I0.2517 J-0.2638
N7965 G2 X15.2205 Y-0.3295 I-0.1435 J0.0872
N7970 G1 Y0.3295
N7975 Y0.337
N7980 X15.2208 Y0.3445
N7985 X15.2212 Y0.352
N7990 G3 X15.18 Y0.3718 I-0.025 J0.0007
N7995 G1 X15.1642 Y0.3582
N8000 X15.1522 Y0.348
N8005 G3 X15.1514 Y0.3107 I0.0162 J-0.019
N8010 X15.1885 Y0.3141 I0.017 J0.0183
N8015 X15.2281 Y0.382 I-0.2933 J0.2165
N8020 G2 X15.4559 Y0.459 I0.1487 J-0.0643
N8025 G1 X15.4598 Y0.4583
N8030 X15.4638 Y0.4582
N8035 X15.4677 Y0.4587
N8040 X15.4715 Y0.4598
N8045 X15.475 Y0.4614
N8050 X15.4783 Y0.4636
N8055 X15.4812 Y0.4662
N8060 X15.4836 Y0.4692
N8065 X15.4856 Y0.4726
N8070 X15.487 Y0.4762
N8075 X15.4878 Y0.48
N8080 X15.4881 Y0.4839
N8085 X15.4877 Y0.4877
N8090 X15.4868 Y0.4914
N8095 X15.4854 Y0.4941 Z0.5877
N8100 X15.4841 Y0.4967 Z0.5882
N8105 X15.4827 Y0.4992 Z0.5891
N8110 X15.4804 Y0.5014 Z0.5906
N8115 X15.4782 Y0.5033 Z0.5925
N8120 X15.4762 Y0.5051 Z0.5948
N8125 X15.4742 Y0.5061 Z0.5974
N8130 X15.4725 Y0.5068 Z0.6003
N8135 X15.4711 Y0.5075 Z0.6034
N8140 X15.4702 Y0.5079 Z0.6067
N8145 X15.4697 Y0.508 Z0.6096
N8150 X15.4696 Y0.5081 Z0.6125
N8155 G0 Z0.95
N8160 X15.5111 Y0.544
N8165 Z0.65
N8170 G1 Z0.625 F60.
N8175 X15.5109 Y0.5438 Z0.6211
N8180 X15.5102 Y0.5431 Z0.6173
N8185 X15.5092 Y0.542 Z0.6137
N8190 X15.5078 Y0.5405 Z0.6103
N8195 X15.5061 Y0.5387 Z0.6073
N8200 X15.504 Y0.5365 Z0.6048
N8205 X15.5017 Y0.5341 Z0.6027
N8210 X15.4993 Y0.5314 Z0.6012
N8215 X15.4966 Y0.5286 Z0.6003
N8220 X15.494 Y0.5258 Z0.6
N8225 G3 X15.4467 Y0.4631 I0.2658 J-0.2496
N8230 G2 X15.5018 Y0.337 I-0.1326 J-0.133
N8235 G1 Y-0.337
N8240 G2 X15.5 Y-0.367 I-0.1599 J-0.0054
N8245 G3 X15.5134 Y-0.3917 I0.0249 J-0.0025
N8250 G1 X15.5385 Y-0.4046
N8255 G3 X15.5584 Y-0.4059 I0.0114 J0.0222
N8260 X15.5615 Y-0.3602 I-0.0085 J0.0235
N8265 X15.5342 Y-0.3629 I-0.0116 J-0.0221
N8270 X15.4788 Y-0.4186 I0.2293 J-0.2834
N8275 G2 X15.2428 Y-0.337 I-0.1061 J0.0752
N8280 G1 Y0.337
N8285 G2 X15.2535 Y0.397 I0.1365 J0.0066
N8290 G1 X15.2545 Y0.4007
N8295 X15.2549 Y0.4044
N8300 X15.2547 Y0.4083
N8305 X15.254 Y0.412
N8310 X15.2526 Y0.4156
N8315 X15.2508 Y0.4189
N8320 X15.2485 Y0.4219
N8325 X15.2457 Y0.4246
N8330 X15.2426 Y0.4268
N8335 X15.2391 Y0.4284
N8340 X15.2355 Y0.4296
N8345 X15.2317 Y0.4301
N8350 X15.2279
N8355 X15.2241 Y0.4295
N8360 X15.2214 Y0.4283 Z0.6002
N8365 X15.2187 Y0.4271 Z0.6007
N8370 X15.2161 Y0.426 Z0.6016
N8375 X15.2138 Y0.4238 Z0.6031
N8380 X15.2116 Y0.4217 Z0.605
N8385 X15.2097 Y0.4199 Z0.6073
N8390 X15.2086 Y0.4179 Z0.6099
N8395 X15.2078 Y0.4163 Z0.6128
N8400 X15.2071 Y0.415 Z0.6159
N8405 X15.2066 Y0.4141 Z0.6192
N8410 X15.2064 Y0.4136 Z0.6221
N8415 X15.2063 Y0.4134 Z0.625
N8420 G0 Z0.95
N8425 X15.5375 Y-0.4052
N8430 Z0.6625
N8435 G1 Z0.6375 F60.
N8440 X15.5372 Z0.6336
N8445 X15.5363 Y-0.405 Z0.6298
N8450 X15.5348 Y-0.4048 Z0.6262
N8455 X15.5328 Y-0.4045 Z0.6228
N8460 X15.5303 Y-0.4042 Z0.6198
N8465 X15.5273 Y-0.4037 Z0.6173
N8470 X15.524 Y-0.4033 Z0.6152
N8475 X15.5204 Y-0.4028 Z0.6137
N8480 X15.5166 Y-0.4022 Z0.6128
N8485 X15.5128 Y-0.4017 Z0.6125
N8490 X15.2442 Y-0.3632
N8495 X15.2532 Y-0.356
N8500 X15.2618 Y-0.3483
N8505 X15.2701 Y-0.3402
N8510 X15.2778 Y-0.3317
N8515 X15.2852 Y-0.3227
N8520 X15.292 Y-0.3134
N8525 X15.2984 Y-0.3038
N8530 X15.3043 Y-0.2938
N8535 X15.3096 Y-0.2835
N8540 X15.3144 Y-0.273
N8545 X15.3186 Y-0.2623
N8550 X15.3223 Y-0.2513
N8555 X15.3254 Y-0.2402
N8560 X15.3279 Y-0.2289
N8565 X15.3298 Y-0.2175
N8570 X15.3312 Y-0.206
N8575 X15.3319 Y-0.1945
N8580 X15.332 Y-0.1829
N8585 X15.3315 Y-0.1714
N8590 X15.3305 Y-0.1599
N8595 X15.3288 Y-0.1484
N8600 G3 X15.3514 Y0.229 I-1.9358 J0.305
N8605 X15.3126 Y0.2496 I-0.025 J-0.0003
N8610 G1 X15.3104 Y0.2475 Z0.6127
N8615 X15.3083 Y0.2455 Z0.6132
N8620 X15.3062 Y0.2435 Z0.6141
N8625 X15.3048 Y0.2407 Z0.6156
N8630 X15.3035 Y0.238 Z0.6175
N8635 X15.3023 Y0.2356 Z0.6198
N8640 X15.302 Y0.2331 Z0.6228
N8645 X15.3017 Y0.2311 Z0.6261
N8650 X15.3015 Y0.2296 Z0.6297
N8655 X15.3014 Y0.2287 Z0.6335
N8660 Y0.2285 Z0.6355
N8665 Y0.2284 Z0.6375
N8670 G0 Z0.95
N8675 X-0.2672 Y-1.9773
N8680 Z0.4251
N8685 G1 Z0.4001 F60.
N8690 X-0.2671 Y-1.977 Z0.3962
N8695 X-0.2669 Y-1.9761 Z0.3924
N8700 X-0.2665 Y-1.9747 Z0.3888
N8705 X-0.266 Y-1.9727 Z0.3854
N8710 X-0.2654 Y-1.9702 Z0.3824
N8715 X-0.2647 Y-1.9673 Z0.3799
N8720 X-0.2638 Y-1.9641 Z0.3778
N8725 X-0.2629 Y-1.9606 Z0.3763
N8730 X-0.262 Y-1.9569 Z0.3754
N8735 X-0.261 Y-1.9531 Z0.3751
N8740 G3 X-0.2498 Y-1.8754 I-0.3532 J0.0905
N8745 G2 X-0.2658 Y-1.0216 I8.1412 J0.5793
N8750 G1 Y0.1057
N8755 G2 X-0.2748 Y0.9753 I17.1533 J0.6118
N8760 G1 Y1.6356
N8765 G2 X-0.0335 Y1.7623 I0.2243 J-0.134
N8770 X0.7875 Y1.7748 I0.5624 J-9.9161
N8775 G1 X16.1356
N8780 G2 X16.2623 Y1.5335 I-0.1341 J-0.2243
N8785 X16.2748 Y0.7125 I-9.917 J-0.5622
N8790 G1 Y-1.6388
N8795 G2 X16.0145 Y-1.7642 I-0.2406 J0.1667
N8800 X15.2095 Y-1.7748 I-0.5483 J11.0393
N8805 G1 X-0.0178
N8810 G2 X-0.1515 Y-1.5395 I0.1135 J0.2202
N8815 X-0.1658 Y-0.7186 I8.7897 J0.5637
N8820 G1 Y-0.01
N8825 G2 X-0.1748 Y1.0207 I29.6223 J0.773
N8830 G1 Y1.4877
N8835 G2 X0.0701 Y1.6559 I0.2336 J-0.0777
N8840 X1.0518 Y1.6748 I0.6593 J-8.7375
N8845 G1 X15.9973
N8850 G2 X16.1573 Y1.4206 I-0.1044 J-0.2432
N8855 X16.1748 Y0.5516 I-8.403 J-0.6043
N8860 G1 Y-1.4938
N8865 G2 X15.924 Y-1.6568 I-0.2396 J0.0943
N8870 X15.0871 Y-1.6748 I-0.6043 J8.6265
N8875 G1 X14.8617
N8880 X0.1256
N8885 G2 X-0.0459 Y-1.4328 I0.0713 J0.2322
N8890 X-0.0658 Y-0.4351 I8.7576 J0.6741
N8895 G1 Y-0.0968
N8900 X-0.0685 Y0.0619
N8905 X-0.0708 Y0.2206
N8910 X-0.0725 Y0.3794
N8915 X-0.0738 Y0.5381
N8920 X-0.0746 Y0.6968
N8925 X-0.0749 Y0.8556
N8930 X-0.0747 Y1.0143
N8935 X-0.0748 Y1.3686
N8940 G2 X0.1767 Y1.5529 I0.2472 J-0.0737
N8945 X1.2065 Y1.5748 I0.6992 J-8.6425
N8950 G1 X15.8621
N8955 G2 X16.0518 Y1.3299 I-0.0582 J-0.241
N8960 X16.0791 Y0.3873 I-8.5359 J-0.7186
N8965 X16.125 Y0.2771 I-0.111 J-0.111
N8970 G1 Y-0.2771
N8975 G3 X16.0832 Y-0.9573 I2.058 J-0.4678
N8980 G2 X16.0726 Y-1.3928 I-9.2116 J0.0071
N8985 X15.7834 Y-1.5585 I-0.2746 J0.144
N8990 X14.8981 Y-1.5748 I-0.616 J9.4199
N8995 G1 X14.6404
N9000 X0.2426
N9005 G2 X0.0542 Y-1.3087 I0.0753 J0.253
N9010 X0.0342 Y-0.472 I8.112 J0.6125
N9015 G1 Y-0.182
N9020 X0.0316 Y-0.0158
N9025 X0.0295 Y0.1504
N9030 X0.028 Y0.3166
N9035 X0.0269 Y0.4828
N9040 X0.0263 Y0.649
N9045 Y0.8152
N9050 X0.0268 Y0.9815
N9055 X0.0278 Y1.1477
N9060 X0.0293 Y1.3139
N9065 G2 X0.4571 Y1.4682 I0.3782 J-0.3784
N9070 X1.2945 Y1.4748 I0.5766 J-19.8369
N9075 G1 X15.7568
N9080 G2 X15.952 Y1.2135 I-0.0673 J-0.2538
N9085 X15.9829 Y0.438 I-9.9418 J-0.7853
N9090 G3 X16.0318 Y0.4044 I0.0587 J0.0332
N9095 X16.0455 Y0.4525 I0.0066 J0.0241
N9100 G1 X16.042 Y0.4535 Z0.3753
N9105 X16.0386 Y0.4544 Z0.376
N9110 X16.0353 Y0.4553 Z0.3772
N9115 X16.0322 Y0.4561 Z0.3789
N9120 X16.0293 Y0.4569 Z0.381
N9125 X16.0268 Y0.4576 Z0.3835
N9130 X16.0247 Y0.4582 Z0.3864
N9135 X16.023 Y0.4586 Z0.3896
N9140 X16.0217 Y0.459 Z0.393
N9145 X16.021 Y0.4592 Z0.3965
N9150 X16.0207 Z0.4001
N9155 G0 Z0.95
N9160 X16.171 Y-0.2472
N9165 Z0.4251
N9170 G1 Z0.4001 F60.
N9175 X16.1708 Y-0.2474 Z0.3962
N9180 X16.1702 Y-0.2481 Z0.3924
N9185 X16.1693 Y-0.2493 Z0.3888
N9190 X16.168 Y-0.2509 Z0.3854
N9195 X16.1665 Y-0.2529 Z0.3824
N9200 X16.1646 Y-0.2553 Z0.3799
N9205 X16.1626 Y-0.2579 Z0.3778
N9210 X16.1603 Y-0.2608 Z0.3763
N9215 X16.158 Y-0.2638 Z0.3754
N9220 X16.1556 Y-0.2669 Z0.3751
N9225 G3 X16.1143 Y-0.3337 I0.2876 J-0.2241
N9230 X15.9815 Y-0.6955 I0.2766 J-0.3068
N9235 G1 X15.9681 Y-1.3211
N9240 G2 X15.5189 Y-1.4692 I-0.3904 J0.429
N9245 X14.7943 Y-1.4748 I-0.5168 J20.0616
N9250 G1 X14.5849
N9255 X0.3642
N9260 G2 X0.1592 Y-1.2249 I0.0431 J0.2443
N9265 X0.1373 Y0.0622 I12.3339 J0.8542
N9270 X0.13 Y1.2046 I18.0251 J0.6859
N9275 X0.5343 Y1.3617 I0.3522 J-0.3076
N9280 X1.3721 Y1.3748 I0.5705 J-9.6659
N9285 G1 X1.6298
N9290 X15.6411
N9295 G2 X15.8482 Y1.1255 I-0.0441 J-0.2472
N9300 X15.8865 Y0.4693 I-11.9456 J-1.0276
N9305 G3 X15.9221 Y0.4384 I0.0528 J0.0248
N9310 G1 X16.0176 Y0.4088
N9315 G3 X16.0314 Y0.4569 I0.0066 J0.0241
N9320 G1 X16.0279 Y0.4578 Z0.3753
N9325 X16.0244 Y0.4588 Z0.376
N9330 X16.0211 Y0.4597 Z0.3772
N9335 X16.018 Y0.4605 Z0.3789
N9340 X16.0152 Y0.4613 Z0.381
N9345 X16.0127 Y0.462 Z0.3835
N9350 X16.0105 Y0.4626 Z0.3864
N9355 X16.0088 Y0.463 Z0.3896
N9360 X16.0076 Y0.4634 Z0.393
N9365 X16.0068 Y0.4636 Z0.3965
N9370 X16.0066 Z0.4001
N9375 G0 Z0.95
N9380 X16.1661 Y-0.3379
N9385 Z0.4251
N9390 G1 Z0.4001 F60.
N9395 X16.1659 Y-0.338 Z0.3962
N9400 X16.165 Y-0.3383 Z0.3924
N9405 X16.1636 Y-0.3389 Z0.3888
N9410 X16.1617 Y-0.3397 Z0.3854
N9415 X16.1594 Y-0.3406 Z0.3824
N9420 X16.1566 Y-0.3417 Z0.3799
N9425 X16.1535 Y-0.343 Z0.3778
N9430 X16.1501 Y-0.3443 Z0.3763
N9435 X16.1466 Y-0.3458 Z0.3754
N9440 X16.143 Y-0.3472 Z0.3751
N9445 G3 X16.0737 Y-0.3843 I0.1364 J-0.3381
N9450 G1 X16.0615 Y-0.3892
N9455 X16.0496 Y-0.3947
N9460 X16.038 Y-0.4007
N9465 X16.0266 Y-0.4073
N9470 X16.0156 Y-0.4144
N9475 X16.005 Y-0.4221
N9480 X15.9947 Y-0.4302
N9485 X15.9848 Y-0.4388
N9490 X15.9753 Y-0.4479
N9495 X15.9663 Y-0.4574
N9500 X15.9577 Y-0.4674
N9505 X15.9497 Y-0.4777
N9510 X15.9421 Y-0.4884
N9515 X15.935 Y-0.4995
N9520 X15.9285 Y-0.5108
N9525 X15.9225 Y-0.5225
N9530 X15.9171 Y-0.5344
N9535 X15.9122 Y-0.5466
N9540 X15.908 Y-0.559
N9545 X15.9043 Y-0.5716
N9550 X15.9013 Y-0.5844
N9555 X15.8988 Y-0.5972
N9560 X15.897 Y-0.6102
N9565 X15.8958 Y-0.6233
N9570 X15.8952 Y-0.6364
N9575 Y-0.6495
N9580 X15.8959 Y-0.6626
N9585 X15.8971 Y-0.6756
N9590 X15.899 Y-0.6886
N9595 G3 X15.8645 Y-1.2037 I7.1828 J-0.7399
N9600 G2 X15.4985 Y-1.3639 I-0.3325 J0.2615
N9605 X14.4841 Y-1.3748 I-0.6768 J15.7512
N9610 G1 X0.4727
N9615 G2 X0.2619 Y-1.1299 I0.0356 J0.2438
N9620 X0.2348 Y0.6078 I19.5802 J1.1745
N9625 X0.2329 Y1.106 I2.7863 J0.2594
N9630 X0.6381 Y1.2615 I0.3547 J-0.3187
N9635 X1.4598 Y1.2748 I0.564 J-9.4178
N9640 G1 X1.6691
N9645 X15.5194
N9650 G2 X15.7493 Y1.0128 I-0.0224 J-0.2515
N9655 X15.789 Y0.4993 I-23.5509 J-2.0782
N9660 G3 X15.8244 Y0.4686 I0.0527 J0.025
N9665 G1 X15.9221 Y0.4384
N9670 G3 X15.9358 Y0.4864 I0.0066 J0.0241
N9675 G1 X15.9323 Y0.4874 Z0.3753
N9680 X15.9289 Y0.4883 Z0.376
N9685 X15.9256 Y0.4892 Z0.3772
N9690 X15.9225 Y0.4901 Z0.3789
N9695 X15.9196 Y0.4908 Z0.381
N9700 X15.9171 Y0.4915 Z0.3835
N9705 X15.915 Y0.4921 Z0.3864
N9710 X15.9133 Y0.4926 Z0.3896
N9715 X15.9121 Y0.4929 Z0.393
N9720 X15.9113 Y0.4931 Z0.3965
N9725 X15.911 Y0.4932 Z0.4001
N9730 G0 Z0.95
N9735 X16.1287 Y-0.3926
N9740 Z0.4251
N9745 G1 Z0.4001 F60.
N9750 X16.1284 Y-0.3927 Z0.3962
N9755 X16.1275 Z0.3924
N9760 X16.126 Y-0.3928 Z0.3888
N9765 X16.1239 Y-0.3929 Z0.3854
N9770 X16.1214 Y-0.393 Z0.3824
N9775 X16.1184 Y-0.3932 Z0.3799
N9780 X16.1151 Y-0.3933 Z0.3778
N9785 X16.1114 Y-0.3935 Z0.3763
N9790 X16.1076 Y-0.3937 Z0.3754
N9795 X16.1037 Y-0.3939 Z0.3751
N9800 G3 X16.0262 Y-0.4062 I0.018 J-0.3641
N9805 X15.7974 Y-0.703 I0.0664 J-0.2877
N9810 G1 X15.7811 Y-0.9031
N9815 X15.7644 Y-1.1032
N9820 G2 X15.3977 Y-1.2634 I-0.3356 J0.2683
N9825 X14.3672 Y-1.2748 I-0.6862 J15.3461
N9830 G1 X0.5813
N9835 G2 X0.3584 Y-1.0045 I0.0378 J0.2582
N9840 X0.333 Y1.0058 I27.1743 J1.3486
N9845 X0.7562 Y1.1633 I0.3731 J-0.3551
N9850 X1.7389 Y1.1748 I0.6668 J-14.9331
N9855 G1 X15.4281
N9860 G2 X15.6502 Y0.9027 I-0.0421 J-0.261
N9865 G3 X15.6885 Y0.519 I11.6714 J0.9696
N9870 X15.8244 Y0.4686 I0.1811 J0.2803
N9875 X15.8382 Y0.5167 I0.0066 J0.0241
N9880 G1 X15.8347 Y0.5176 Z0.3753
N9885 X15.8312 Y0.5185 Z0.376
N9890 X15.8279 Y0.5194 Z0.3772
N9895 X15.8248 Y0.5203 Z0.3789
N9900 X15.822 Y0.5211 Z0.381
N9905 X15.8195 Y0.5217 Z0.3835
N9910 X15.8173 Y0.5223 Z0.3864
N9915 X15.8156 Y0.5228 Z0.3896
N9920 X15.8144 Y0.5231 Z0.393
N9925 X15.8136 Y0.5233 Z0.3965
N9930 X15.8134 Y0.5234 Z0.4001
N9935 G0 Z0.95
N9940 X16.0465 Y-0.4364
N9945 Z0.4251
N9950 G1 Z0.4001 F60.
N9955 X16.0462 Y-0.4363 Z0.3962
N9960 X16.0453 Y-0.4361 Z0.3924
N9965 X16.0439 Y-0.4358 Z0.3888
N9970 X16.0419 Y-0.4353 Z0.3854
N9975 X16.0394 Y-0.4347 Z0.3824
N9980 X16.0365 Y-0.434 Z0.3799
N9985 X16.0332 Y-0.4332 Z0.3778
N9990 X16.0297 Y-0.4324 Z0.3763
N9995 X16.026 Y-0.4315 Z0.3754
N10000 X16.0222 Y-0.4306 Z0.3751
N10005 G3 X15.9437 Y-0.4317 I-0.0371 J-0.1539
N10010 X15.6997 Y-0.7475 I0.0696 J-0.306
N10015 G2 X15.6596 Y-1.032 I-1.6383 J0.0855
N10020 X15.1556 Y-1.1704 I-0.436 J0.601
N10025 X14.3504 Y-1.1748 I-0.5548 J27.562
N10030 G1 X14.0122
N10035 X0.6773
N10040 G2 X0.4582 Y-0.899 I0.0496 J0.2643
N10045 X0.4235 Y-0.1498 I10.5625 J0.8647
N10050 X0.4148 Y0.1399 I0.1886 J0.1506
N10055 G3 X0.4264 Y0.8838 I-11.1927 J0.546
N10060 G2 X0.8181 Y1.0589 I0.3443 J-0.2446
N10065 X1.7847 Y1.0748 I0.6442 J-9.7308
N10070 G1 X15.3129
N10075 G2 X15.5473 Y0.8166 I-0.0177 J-0.2515
N10080 G3 X15.6023 Y0.5422 I0.9343 J0.0447
N10085 G1 X15.612 Y0.5356
N10090 X15.6227 Y0.531
N10095 X15.7249 Y0.4994
N10100 G3 X15.7387 Y0.5474 I0.0066 J0.0241
N10105 G1 X15.7352 Y0.5484 Z0.3753
N10110 X15.7318 Y0.5493 Z0.376
N10115 X15.7285 Y0.5502 Z0.3772
N10120 X15.7254 Y0.5511 Z0.3789
N10125 X15.7225 Y0.5518 Z0.381
N10130 X15.72 Y0.5525 Z0.3835
N10135 X15.7179 Y0.5531 Z0.3864
N10140 X15.7162 Y0.5536 Z0.3896
N10145 X15.7149 Y0.5539 Z0.393
N10150 X15.7142 Y0.5541 Z0.3965
N10155 X15.7139 Y0.5542 Z0.4001
N10160 G0 Z0.95
N10165 X15.964 Y-0.4619
N10170 Z0.4251
N10175 G1 Z0.4001 F60.
N10180 X15.9637 Z0.3962
N10185 X15.9629 Y-0.4616 Z0.3924
N10190 X15.9614 Y-0.4613 Z0.3888
N10195 X15.9594 Y-0.4608 Z0.3854
N10200 X15.9569 Y-0.4602 Z0.3824
N10205 X15.954 Y-0.4595 Z0.3799
N10210 X15.9508 Y-0.4587 Z0.3778
N10215 X15.9473 Y-0.4579 Z0.3763
N10220 X15.9435 Y-0.457 Z0.3754
N10225 X15.9397 Y-0.4561 Z0.3751
N10230 G3 X15.8612 Y-0.4572 I-0.0371 J-0.1539
N10235 X15.6035 Y-0.7761 I0.0642 J-0.3155
N10240 G1 X15.603 Y-0.7889
N10245 X15.6019 Y-0.8017
N10250 X15.6002 Y-0.8144
N10255 X15.5979 Y-0.827
N10260 X15.5951 Y-0.8395
N10265 X15.5916 Y-0.8518
N10270 X15.5875 Y-0.864
N10275 X15.5829 Y-0.8759
N10280 X15.5777 Y-0.8876
N10285 X15.5719 Y-0.8991
N10290 X15.5657 Y-0.9103
N10295 X15.5589 Y-0.9211
N10300 X15.5516 Y-0.9317
N10305 X15.5437 Y-0.9418
N10310 X15.5355 Y-0.9516
N10315 X15.5267 Y-0.961
N10320 X15.5176 Y-0.9699
N10325 X15.508 Y-0.9785
N10330 X15.498 Y-0.9865
N10335 X15.4877 Y-0.9941
N10340 X15.477 Y-1.0011
N10345 X15.466 Y-1.0077
N10350 X15.4547 Y-1.0137
N10355 X15.4431 Y-1.0192
N10360 X15.4313 Y-1.0241
N10365 X15.4192 Y-1.0285
N10370 X15.407 Y-1.0323
N10375 X15.3945 Y-1.0355
N10380 X15.382 Y-1.0381
N10385 X15.3693 Y-1.0401
N10390 X15.3566 Y-1.0415
N10395 X15.3438 Y-1.0423
N10400 X15.331 Y-1.0425
N10405 X15.3182 Y-1.042
N10410 X15.3054 Y-1.041
N10415 G2 X14.517 Y-1.0653 I-0.4977 J3.3512
N10420 G1 X14.4357 Y-1.0748
N10425 X14.323
N10430 X14.1297
N10435 X0.7949
N10440 G2 X0.5678 Y-0.8156 I0.0166 J0.2436
N10445 X0.5236 Y-0.3895 I6.8987 J0.931
N10450 G3 X0.4398 Y-0.1681 I-1.3672 J-0.3911
N10455 G1 X0.4367 Y-0.1656
N10460 X0.4333 Y-0.1636
N10465 X0.4297 Y-0.1621
N10470 X0.4259 Y-0.1613
N10475 X0.4221 Y-0.161
N10480 X0.4182 Y-0.1613
N10485 X0.4145 Y-0.1622
N10490 G2 X0.3845 Y-0.1464 I-0.0065 J0.0241
N10495 G1 X0.3794 Y-0.1322
N10500 X0.3405 Y-0.0232
N10505 G2 X0.3443 Y0.0006 I0.0235 J0.0084
N10510 G3 X0.3856 Y0.0674 I-0.2876 J0.224
N10515 X0.5166 Y0.7469 I-0.8908 J0.5242
N10520 G2 X0.8669 Y0.9588 I0.3252 J-0.142
N10525 G3 X1.3078 Y1.0346 I0.018 J1.216
N10530 G2 X1.9063 Y0.9823 I0.1718 J-1.4838
N10535 G3 X2.7124 Y0.9748 I0.5956 J20.9389
N10540 G1 X15.2099
N10545 G2 X15.4486 Y0.7195 I-0.0161 J-0.2543
N10550 G3 X15.5148 Y0.5644 I0.1742 J-0.0173
N10555 G1 X15.6138 Y0.5338
N10560 G3 X15.6276 Y0.5818 I0.0066 J0.0241
N10565 G1 X15.6241 Y0.5828 Z0.3753
N10570 X15.6206 Y0.5837 Z0.376
N10575 X15.6173 Y0.5846 Z0.3772
N10580 X15.6142 Y0.5855 Z0.3789
N10585 X15.6114 Y0.5862 Z0.381
N10590 X15.6089 Y0.5869 Z0.3835
N10595 X15.6067 Y0.5875 Z0.3864
N10600 X15.605 Y0.588 Z0.3896
N10605 X15.6038 Y0.5883 Z0.393
N10610 X15.603 Y0.5885 Z0.3965
N10615 X15.6028 Y0.5886 Z0.4001
N10620 G0 Z0.95
N10625 X15.8683 Y-0.4916
N10630 Z0.4251
N10635 G1 Z0.4001 F60.
N10640 X15.868 Y-0.4915 Z0.3962
N10645 X15.8671 Y-0.4913 Z0.3924
N10650 X15.8657 Y-0.4909 Z0.3888
N10655 X15.8637 Y-0.4904 Z0.3854
N10660 X15.8612 Y-0.4898 Z0.3824
N10665 X15.8583 Y-0.4891 Z0.3799
N10670 X15.855 Y-0.4884 Z0.3778
N10675 X15.8515 Y-0.4875 Z0.3763
N10680 X15.8478 Y-0.4866 Z0.3754
N10685 X15.844 Y-0.4857 Z0.3751
N10690 G3 X15.7655 Y-0.4868 I-0.0371 J-0.1539
N10695 X15.5097 Y-0.7726 I0.0584 J-0.3096
N10700 G2 X15.1253 Y-0.9613 I-0.354 J0.2354
N10705 X14.2238 Y-0.9748 I-0.6345 J12.2125
N10710 G1 X13.9178
N10715 X1.9011
N10720 G2 X1.1106 Y-0.9797 I-0.4018 J1.047
N10725 X0.7748 Y-0.9528 I-0.0856 J1.041
N10730 G1 X0.7632 Y-0.9374
N10735 X0.7521 Y-0.9217
N10740 X0.7415 Y-0.9057
N10745 X0.7314 Y-0.8894
N10750 X0.7218 Y-0.8727
N10755 X0.7127 Y-0.8558
N10760 X0.7041 Y-0.8386
N10765 X0.6961 Y-0.8211
N10770 X0.6886 Y-0.8034
N10775 X0.6816 Y-0.7855
N10780 X0.6752 Y-0.7674
N10785 X0.6693 Y-0.749
N10790 X0.6641 Y-0.7306
N10795 X0.6593 Y-0.7119
N10800 X0.6552 Y-0.6931
N10805 X0.6516 Y-0.6742
N10810 X0.6487 Y-0.6553
N10815 X0.6462 Y-0.6362
N10820 X0.6444 Y-0.617
N10825 X0.6432 Y-0.5979
N10830 G2 X0.6091 Y-0.5542 I0.0559 J0.0788
N10835 G1 X0.5371 Y-0.4194
N10840 G3 X0.4935 Y-0.4439 I-0.0216 J-0.0125
N10845 G1 X0.4953 Y-0.4471 Z0.3753
N10850 X0.4971 Y-0.4501 Z0.376
N10855 X0.4988 Y-0.4531 Z0.3772
N10860 X0.5004 Y-0.4559 Z0.3789
N10865 X0.5019 Y-0.4584 Z0.381
N10870 X0.5032 Y-0.4607 Z0.3835
N10875 X0.5043 Y-0.4626 Z0.3864
N10880 X0.5052 Y-0.4641 Z0.3896
N10885 X0.5059 Y-0.4652 Z0.393
N10890 X0.5063 Y-0.4659 Z0.3965
N10895 X0.5064 Y-0.4661 Z0.4001
N10900 G0 Z0.95
N10905 X0.4097 Y0.1956
N10910 Z0.4251
N10915 G1 Z0.4001 F60.
N10920 X0.41 Y0.1958 Z0.3962
N10925 X0.4107 Y0.1963 Z0.3924
N10930 X0.412 Y0.1972 Z0.3888
N10935 X0.4136 Y0.1984 Z0.3854
N10940 X0.4157 Y0.1998 Z0.3824
N10945 X0.4182 Y0.2016 Z0.3799
N10950 X0.4209 Y0.2035 Z0.3778
N10955 X0.4239 Y0.2056 Z0.3763
N10960 X0.427 Y0.2077 Z0.3754
N10965 X0.4302 Y0.21 Z0.3751
N10970 G3 X0.4813 Y0.2696 I-0.0908 J0.1296
N10975 X0.6281 Y0.6877 I-2.4242 J1.0861
N10980 G2 X0.8936 Y0.8564 I0.3074 J-0.1905
N10985 X1.0835 Y0.9642 I0.4265 J-0.5301
N10990 G3 X1.059 Y1.0078 I-0.0125 J0.0216
N10995 G1 X1.0559 Y1.006 Z0.3753
N11000 X1.0528 Y1.0042 Z0.376
N11005 X1.0498 Y1.0025 Z0.3772
N11010 X1.047 Y1.0009 Z0.3789
N11015 X1.0445 Y0.9994 Z0.381
N11020 X1.0422 Y0.9981 Z0.3835
N11025 X1.0403 Y0.997 Z0.3864
N11030 X1.0388 Y0.9961 Z0.3896
N11035 X1.0377 Y0.9954 Z0.393
N11040 X1.037 Y0.9951 Z0.3965
N11045 X1.0368 Y0.9949 Z0.4001
N11050 G0 Z0.95
N11055 X1.6982 Y1.0702
N11060 Z0.4251
N11065 G1 Z0.4001 F60.
N11070 X1.6984 Y1.0699 Z0.3962
N11075 X1.699 Y1.0693 Z0.3924
N11080 X1.7001 Y1.0682 Z0.3888
N11085 X1.7014 Y1.0666 Z0.3854
N11090 X1.7032 Y1.0648 Z0.3824
N11095 X1.7052 Y1.0626 Z0.3799
N11100 X1.7074 Y1.0601 Z0.3778
N11105 X1.7099 Y1.0574 Z0.3763
N11110 X1.7124 Y1.0546 Z0.3754
N11115 X1.7151 Y1.0517 Z0.3751
N11120 G3 X1.7808 Y1.0086 I0.1169 J0.1067
N11125 G1 X1.8165 Y0.994
N11130 X1.8525 Y0.9798
N11135 X1.8886 Y0.9661
N11140 X1.925 Y0.953
N11145 X1.9615 Y0.9403
N11150 X1.9982 Y0.9282
N11155 X2.035 Y0.9166
N11160 X2.072 Y0.9055
N11165 X2.1092 Y0.8949
N11170 X2.1465 Y0.8849
N11175 X2.184 Y0.8753
N11180 X2.3777 Y0.8759
N11185 X2.5714 Y0.8761
N11190 X2.7652 Y0.8757
N11195 X2.9589 Y0.8748
N11200 X15.1182
N11205 G2 X15.3569 Y0.6344 I-0.038 J-0.2765
N11210 G3 X15.5148 Y0.5644 I0.1589 J0.1452
N11215 X15.5286 Y0.6124 I0.0066 J0.0241
N11220 G1 X15.5251 Y0.6134 Z0.3753
N11225 X15.5216 Y0.6143 Z0.376
N11230 X15.5183 Y0.6152 Z0.3772
N11235 X15.5152 Y0.6161 Z0.3789
N11240 X15.5124 Y0.6168 Z0.381
N11245 X15.5099 Y0.6175 Z0.3835
N11250 X15.5077 Y0.6181 Z0.3864
N11255 X15.506 Y0.6186 Z0.3896
N11260 X15.5048 Y0.6189 Z0.393
N11265 X15.504 Y0.6191 Z0.3965
N11270 X15.5038 Y0.6192 Z0.4001
N11275 G0 Z0.95
N11280 X15.7766 Y-0.5199
N11285 Z0.4251
N11290 G1 Z0.4001 F60.
N11295 X15.7763 Z0.3962
N11300 X15.7754 Y-0.5196 Z0.3924
N11305 X15.774 Y-0.5193 Z0.3888
N11310 X15.772 Y-0.5188 Z0.3854
N11315 X15.7695 Y-0.5182 Z0.3824
N11320 X15.7666 Y-0.5175 Z0.3799
N11325 X15.7633 Y-0.5167 Z0.3778
N11330 X15.7598 Y-0.5159 Z0.3763
N11335 X15.7561 Y-0.515 Z0.3754
N11340 X15.7523 Y-0.5141 Z0.3751
N11345 G3 X15.6738 Y-0.5152 I-0.0371 J-0.1539
N11350 X15.4229 Y-0.7174 I0.0594 J-0.3304
N11355 G2 X14.9284 Y-0.8682 I-0.4393 J0.5539
N11360 X13.9622 Y-0.8748 I-0.6492 J24.3837
N11365 G1 X2.0985
N11370 X2.089 Y-0.8756
N11375 X2.0797 Y-0.8779
N11380 X2.071 Y-0.8817
N11385 X1.9157 Y-0.9647
N11390 G3 X1.9402 Y-1.0082 I0.0125 J-0.0216
N11395 G1 X1.9433 Y-1.0064 Z0.3753
N11400 X1.9464 Y-1.0046 Z0.376
N11405 X1.9494 Y-1.0029 Z0.3772
N11410 X1.9522 Y-1.0013 Z0.3789
N11415 X1.9547 Y-0.9998 Z0.381
N11420 X1.957 Y-0.9985 Z0.3835
N11425 X1.9589 Y-0.9974 Z0.3864
N11430 X1.9604 Y-0.9965 Z0.3896
N11435 X1.9615 Y-0.9959 Z0.393
N11440 X1.9622 Y-0.9955 Z0.3965
N11445 X1.9624 Y-0.9953 Z0.4001
N11450 G0 Z0.95
N11455 X1.301 Y-1.0699
N11460 Z0.4251
N11465 G1 Z0.4001 F60.
N11470 X1.3008 Y-1.0697 Z0.3962
N11475 X1.3002 Y-1.069 Z0.3924
N11480 X1.2991 Y-1.0679 Z0.3888
N11485 X1.2978 Y-1.0664 Z0.3854
N11490 X1.296 Y-1.0645 Z0.3824
N11495 X1.294 Y-1.0623 Z0.3799
N11500 X1.2918 Y-1.0598 Z0.3778
N11505 X1.2893 Y-1.0572 Z0.3763
N11510 X1.2868 Y-1.0543 Z0.3754
N11515 X1.2841 Y-1.0515 Z0.3751
N11520 G3 X1.2184 Y-1.0084 I-0.1169 J-0.1067
N11525 G2 X0.8329 Y-0.8131 I0.2475 J0.9669
N11530 G1 X0.8304 Y-0.8112
N11535 X0.8276 Y-0.8097
N11540 X0.8245 Y-0.8087
N11545 X0.8213 Y-0.8081
N11550 X0.818
N11555 X0.8147 Y-0.8086
N11560 X0.8114 Y-0.8096
N11565 X0.8084 Y-0.8111
N11570 X0.8055 Y-0.8131
N11575 X0.803 Y-0.8155
N11580 X0.8009 Y-0.8184
N11585 X0.7992 Y-0.8216
N11590 X0.7981 Y-0.825
N11595 X0.7975 Y-0.8286
N11600 X0.7974 Y-0.8323
N11605 X0.798 Y-0.836
N11610 X0.7991 Y-0.8396
N11615 X0.8008 Y-0.843
N11620 X0.803 Y-0.8462
N11625 X0.8058 Y-0.849
N11630 X0.8072 Y-0.85
N11635 X0.9907 Y-0.9712
N11640 X0.992 Y-0.972
N11645 G3 X1.0261 Y-0.9629 I0.0125 J0.0216
N11650 X1.0171 Y-0.9287 I-0.0216 J0.0125
N11655 G2 X0.6368 Y-0.5982 I0.4508 J0.9025
N11660 G3 X0.5989 Y-0.6307 I-0.0188 J-0.0165
N11665 G1 X0.6013 Y-0.6334 Z0.3753
N11670 X0.6036 Y-0.6361 Z0.376
N11675 X0.6059 Y-0.6387 Z0.3772
N11680 X0.608 Y-0.6411 Z0.3789
N11685 X0.61 Y-0.6433 Z0.381
N11690 X0.6117 Y-0.6452 Z0.3835
N11695 X0.6131 Y-0.6469 Z0.3864
N11700 X0.6143 Y-0.6482 Z0.3896
N11705 X0.6151 Y-0.6492 Z0.393
N11710 X0.6157 Y-0.6498 Z0.3965
N11715 X0.6158 Y-0.65 Z0.4001
N11720 G0 Z0.95
N11725 X0.4966 Y0.417
N11730 Z0.4251
N11735 G1 Z0.4001 F60.
N11740 X0.4968 Y0.4172 Z0.3962
N11745 X0.4976 Y0.4176 Z0.3924
N11750 X0.4989 Y0.4184 Z0.3888
N11755 X0.5006 Y0.4195 Z0.3854
N11760 X0.5028 Y0.4209 Z0.3824
N11765 X0.5053 Y0.4224 Z0.3799
N11770 X0.5082 Y0.4242 Z0.3778
N11775 X0.5113 Y0.4261 Z0.3763
N11780 X0.5145 Y0.4281 Z0.3754
N11785 X0.5178 Y0.4302 Z0.3751
N11790 G3 X0.5722 Y0.4868 I-0.0834 J0.1345
N11795 G2 X0.8946 Y0.855 I0.8368 J-0.4076
N11800 G1 X0.8973 Y0.8578
N11805 X0.8996 Y0.8611
N11810 X0.9013 Y0.8646
N11815 X0.9026 Y0.8683
N11820 X0.9032 Y0.8722
N11825 X0.9033 Y0.8761
N11830 X0.9028 Y0.8799
N11835 X0.9017 Y0.8837
N11840 X0.9001 Y0.8872
N11845 X0.898 Y0.8904
N11850 X0.8955 Y0.8933
N11855 X0.8925 Y0.8958
N11860 X0.8893 Y0.8978
N11865 X0.8858 Y0.8992
N11870 X0.8821 Y0.9002
N11875 X0.8783 Y0.9006
N11880 X0.8745 Y0.9004
N11885 X0.8709 Y0.8996
N11890 X0.8673 Y0.8984
N11895 X0.864 Y0.8966
N11900 X0.8611 Y0.8944
N11905 X0.8583 Y0.892 Z0.3753
N11910 X0.8557 Y0.8896 Z0.376
N11915 X0.8531 Y0.8874 Z0.3772
N11920 X0.8507 Y0.8852 Z0.3789
N11925 X0.8485 Y0.8833 Z0.381
N11930 X0.8465 Y0.8816 Z0.3835
N11935 X0.8449 Y0.8801 Z0.3864
N11940 X0.8435 Y0.8789 Z0.3896
N11945 X0.8426 Y0.8781 Z0.393
N11950 X0.842 Y0.8776 Z0.3965
N11955 X0.8418 Y0.8774 Z0.4001
N11960 G0 Z0.95
N11965 X1.914 Y1.0052
N11970 Z0.4251
N11975 G1 Z0.4001 F60.
N11980 X1.9141 Y1.0049 Z0.3962
N11985 X1.9146 Y1.0041 Z0.3924
N11990 X1.9154 Y1.0028 Z0.3888
N11995 X1.9165 Y1.0011 Z0.3854
N12000 X1.9178 Y0.9989 Z0.3824
N12005 X1.9193 Y0.9963 Z0.3799
N12010 X1.921 Y0.9935 Z0.3778
N12015 X1.9229 Y0.9904 Z0.3763
N12020 X1.9249 Y0.9871 Z0.3754
N12025 X1.9269 Y0.9838 Z0.3751
N12030 G3 X1.9829 Y0.9287 I0.1355 J0.0818
N12035 X2.2966 Y0.7848 I0.5248 J0.73
N12040 X3.2476 Y0.7748 I0.6929 J20.7284
N12045 G1 X15.0043
N12050 G2 X15.2614 Y0.5993 I-0.0198 J-0.3052
N12055 G3 X15.3203 Y0.5923 I0.0354 J0.0464
N12060 X15.2992 Y0.6376 I-0.0109 J0.0225
N12065 G1 X15.2959 Y0.6361 Z0.3753
N12070 X15.2927 Y0.6345 Z0.376
N12075 X15.2896 Y0.633 Z0.3772
N12080 X15.2867 Y0.6316 Z0.3789
N12085 X15.284 Y0.6303 Z0.381
N12090 X15.2817 Y0.6292 Z0.3835
N12095 X15.2797 Y0.6283 Z0.3864
N12100 X15.2781 Y0.6275 Z0.3896
N12105 X15.277 Y0.6269 Z0.393
N12110 X15.2763 Y0.6266 Z0.3965
N12115 X15.276 Y0.6265 Z0.4001
N12120 G0 Z0.95
N12125 X15.6791 Y-0.5501
N12130 Z0.4251
N12135 G1 Z0.4001 F60.
N12140 X15.6788 Y-0.55 Z0.3962
N12145 X15.6779 Y-0.5498 Z0.3924
N12150 X15.6765 Y-0.5494 Z0.3888
N12155 X15.6745 Y-0.549 Z0.3854
N12160 X15.672 Y-0.5484 Z0.3824
N12165 X15.6691 Y-0.5477 Z0.3799
N12170 X15.6659 Y-0.5469 Z0.3778
N12175 X15.6623 Y-0.546 Z0.3763
N12180 X15.6586 Y-0.5451 Z0.3754
N12185 X15.6548 Y-0.5442 Z0.3751
N12190 G3 X15.5763 Y-0.5454 I-0.0371 J-0.1539
N12195 X15.2936 Y-0.687 I0.4459 J-1.2426
N12200 G2 X14.5634 Y-0.7738 I-0.5977 J1.9147
N12205 G1 X14.3701 Y-0.7746
N12210 X14.1769 Y-0.7749
N12215 X13.9836 Y-0.7748
N12220 X13.5488
N12225 X2.2267
N12230 G3 X2.1897 Y-0.788 I0. J-0.0583
N12235 G1 X2.0957 Y-0.8652
N12240 G3 X2.1282 Y-0.9032 I0.0165 J-0.0188
N12245 G1 X2.1309 Y-0.9008 Z0.3753
N12250 X2.1336 Y-0.8984 Z0.376
N12255 X2.1362 Y-0.8962 Z0.3772
N12260 X2.1386 Y-0.8941 Z0.3789
N12265 X2.1408 Y-0.8921 Z0.381
N12270 X2.1427 Y-0.8904 Z0.3835
N12275 X2.1444 Y-0.8889 Z0.3864
N12280 X2.1457 Y-0.8878 Z0.3896
N12285 X2.1467 Y-0.8869 Z0.393
N12290 X2.1473 Y-0.8864 Z0.3965
N12295 X2.1475 Y-0.8862 Z0.4001
N12300 G0 Z0.95
N12305 X2.0568 Y0.9422
N12310 Z0.4251
N12315 G1 Z0.4001 F60.
N12320 X2.0569 Y0.942 Z0.3962
N12325 X2.0573 Y0.9411 Z0.3924
N12330 X2.0578 Y0.9397 Z0.3888
N12335 X2.0585 Y0.9378 Z0.3854
N12340 X2.0593 Y0.9354 Z0.3824
N12345 X2.0603 Y0.9326 Z0.3799
N12350 X2.0615 Y0.9294 Z0.3778
N12355 X2.0627 Y0.926 Z0.3763
N12360 X2.064 Y0.9224 Z0.3754
N12365 X2.0653 Y0.9187 Z0.3751
N12370 G3 X2.1096 Y0.8538 I0.1488 J0.0538
N12375 X2.6108 Y0.6787 I0.4439 J0.4658
N12380 X3.3838 Y0.6748 I0.5242 J27.3626
N12385 G1 X14.915
N12390 G2 X15.1838 Y0.5411 I-0.0579 J-0.4536
N12395 G3 X15.2977 Y0.5813 I0.0296 J0.0974
N12400 G1 X15.3006 Y0.5836
N12405 X15.3032 Y0.5862
N12410 X15.3054 Y0.5893
N12415 X15.307 Y0.5926
N12420 X15.3081 Y0.5962
N12425 X15.3086 Y0.5999
N12430 Y0.6037
N12435 X15.3079 Y0.6074
N12440 X15.3067 Y0.611
N12445 X15.3049 Y0.6144
N12450 X15.3027 Y0.6174
N12455 X15.2999 Y0.6201
N12460 X15.2968 Y0.6223
N12465 X15.2933 Y0.624
N12470 X15.2897 Y0.6252
N12475 X15.2858 Y0.6257
N12480 X15.2819
N12485 X15.2781 Y0.625
N12490 X15.2744 Y0.6238
N12495 X15.271 Y0.6219
N12500 X15.268 Y0.6199 Z0.3753
N12505 X15.265 Y0.6179 Z0.376
N12510 X15.2622 Y0.6159 Z0.3772
N12515 X15.2596 Y0.6141 Z0.3789
N12520 X15.2572 Y0.6124 Z0.381
N12525 X15.255 Y0.6109 Z0.3835
N12530 X15.2532 Y0.6096 Z0.3864
N12535 X15.2518 Y0.6086 Z0.3896
N12540 X15.2507 Y0.6079 Z0.393
N12545 X15.2501 Y0.6075 Z0.3965
N12550 X15.2498 Y0.6073 Z0.4001
N12555 G0 Z0.95
N12560 X15.5817 Y-0.5802
N12565 Z0.4251
N12570 G1 Z0.4001 F60.
N12575 X15.5814 Z0.3962
N12580 X15.5805 Y-0.58 Z0.3924
N12585 X15.579 Y-0.5796 Z0.3888
N12590 X15.577 Y-0.5791 Z0.3854
N12595 X15.5746 Y-0.5785 Z0.3824
N12600 X15.5717 Y-0.5778 Z0.3799
N12605 X15.5684 Y-0.577 Z0.3778
N12610 X15.5649 Y-0.5762 Z0.3763
N12615 X15.5612 Y-0.5753 Z0.3754
N12620 X15.5574 Y-0.5744 Z0.3751
N12625 G3 X15.4788 Y-0.5755 I-0.0371 J-0.1539
N12630 G2 X15.1641 Y-0.6316 I-1.2869 J6.3047
N12635 X14.0879 Y-0.6653 I-0.711 J5.5171
N12640 G1 X13.9745 Y-0.6748
N12645 X13.7974
N12650 X2.3306
N12655 G3 X2.2306 Y-0.7545 I0.1685 J-0.3139
N12660 G1 X2.2282 Y-0.7565
N12665 X2.1897 Y-0.788
N12670 G3 X2.2223 Y-0.826 I0.0165 J-0.0188
N12675 G1 X2.225 Y-0.8236 Z0.3753
N12680 X2.2277 Y-0.8212 Z0.376
N12685 X2.2302 Y-0.819 Z0.3772
N12690 X2.2327 Y-0.8168 Z0.3789
N12695 X2.2349 Y-0.8149 Z0.381
N12700 X2.2368 Y-0.8132 Z0.3835
N12705 X2.2385 Y-0.8117 Z0.3864
N12710 X2.2398 Y-0.8106 Z0.3896
N12715 X2.2408 Y-0.8097 Z0.393
N12720 X2.2414 Y-0.8092 Z0.3965
N12725 X2.2416 Y-0.809 Z0.4001
N12730 G0 Z0.95
N12735 X15.4578 Y-0.6327
N12740 Z0.4251
N12745 G1 Z0.4001 F60.
N12750 X15.4575 Y-0.6326 Z0.3962
N12755 X15.4566 Y-0.6323 Z0.3924
N12760 X15.4552 Y-0.6317 Z0.3888
N12765 X15.4533 Y-0.631 Z0.3854
N12770 X15.451 Y-0.63 Z0.3824
N12775 X15.4482 Y-0.6289 Z0.3799
N12780 X15.4451 Y-0.6277 Z0.3778
N12785 X15.4417 Y-0.6263 Z0.3763
N12790 X15.4382 Y-0.6249 Z0.3754
N12795 X15.4345 Y-0.6235 Z0.3751
N12800 G3 X15.3589 Y-0.6024 I-0.1349 J-0.3387
N12805 G1 X15.3377 Y-0.5947
N12810 X15.3163 Y-0.5874
N12815 X15.2948 Y-0.5808
N12820 X15.273 Y-0.5748
N12825 X15.2511 Y-0.5693
N12830 X15.2291 Y-0.5644
N12835 X15.207 Y-0.5602
N12840 X15.1847 Y-0.5565
N12845 X15.1624 Y-0.5535
N12850 X15.1399 Y-0.551
N12855 X15.1174 Y-0.5492
N12860 X15.0949 Y-0.548
N12865 X15.0724 Y-0.5474
N12870 X15.0498
N12875 X15.0273 Y-0.548
N12880 X15.0047 Y-0.5492
N12885 X14.9823 Y-0.5511
N12890 X14.9598 Y-0.5535
N12895 X14.9375 Y-0.5566
N12900 X14.9152 Y-0.5602
N12905 X14.8931 Y-0.5645
N12910 X14.8711 Y-0.5694
N12915 X14.8492 Y-0.5748
N12920 X14.6743 Y-0.5735
N12925 X14.4994 Y-0.5726
N12930 X14.3245 Y-0.5724
N12935 X14.1497 Y-0.5726
N12940 X13.9748 Y-0.5735
N12945 X13.7999 Y-0.5748
N12950 X13.3329
N12955 X2.4459
N12960 G3 X2.3646 Y-0.5965 I-0.0218 J-0.0815
N12965 G1 X2.2828 Y-0.6961
N12970 G3 X2.3221 Y-0.727 I0.0199 J-0.0152
N12975 G1 X2.3243 Y-0.7241 Z0.3753
N12980 X2.3264 Y-0.7213 Z0.376
N12985 X2.3285 Y-0.7186 Z0.3772
N12990 X2.3305 Y-0.716 Z0.3789
N12995 X2.3323 Y-0.7137 Z0.381
N13000 X2.3338 Y-0.7116 Z0.3835
N13005 X2.3352 Y-0.7099 Z0.3864
N13010 X2.3363 Y-0.7085 Z0.3896
N13015 X2.337 Y-0.7074 Z0.393
N13020 X2.3375 Y-0.7068 Z0.3965
N13025 X2.3377 Y-0.7066 Z0.4001
N13030 G0 Z0.95
N13035 X15.3752 Y-0.6503
N13040 Z0.4251
N13045 G1 Z0.4001 F60.
N13050 X15.375 Y-0.6501 Z0.3962
N13055 X15.3744 Y-0.6494 Z0.3924
N13060 X15.3734 Y-0.6483 Z0.3888
N13065 X15.372 Y-0.6468 Z0.3854
N13070 X15.3702 Y-0.6449 Z0.3824
N13075 X15.3682 Y-0.6427 Z0.3799
N13080 X15.3659 Y-0.6403 Z0.3778
N13085 X15.3635 Y-0.6376 Z0.3763
N13090 X15.3609 Y-0.6348 Z0.3754
N13095 X15.3582 Y-0.632 Z0.3751
N13100 G3 X15.2989 Y-0.5805 I-0.2672 J-0.248
N13105 X14.8476 Y-0.4672 I-0.3633 J-0.4919
N13110 G1 X14.7087 Y-0.4699
N13115 X14.5698 Y-0.4721
N13120 X14.4309 Y-0.4737
N13125 X14.292 Y-0.4749
N13130 X14.1531 Y-0.4756
N13135 X14.0142 Y-0.4759
N13140 X13.8753 Y-0.4756
N13145 X13.7364 Y-0.4748
N13150 X13.221
N13155 X2.5434
N13160 G3 X2.3806 Y-0.5731 I-0.0427 J-0.1133
N13165 X2.4248 Y-0.5964 I0.0223 J-0.0114
N13170 G1 X2.4264 Y-0.5932 Z0.3753
N13175 X2.428 Y-0.59 Z0.376
N13180 X2.4296 Y-0.587 Z0.3772
N13185 X2.4311 Y-0.5841 Z0.3789
N13190 X2.4324 Y-0.5815 Z0.381
N13195 X2.4336 Y-0.5792 Z0.3835
N13200 X2.4346 Y-0.5772 Z0.3864
N13205 X2.4354 Y-0.5756 Z0.3896
N13210 X2.436 Y-0.5745 Z0.393
N13215 X2.4363 Y-0.5738 Z0.3965
N13220 X2.4365 Y-0.5736 Z0.4001
N13225 G0 Z0.95
N13230 X15.2563 Y-0.5945
N13235 Z0.4251
N13240 G1 Z0.4001 F60.
N13245 X15.2561 Y-0.5942 Z0.3962
N13250 X15.2557 Y-0.5934 Z0.3924
N13255 X15.2551 Y-0.5921 Z0.3888
N13260 X15.2542 Y-0.5902 Z0.3854
N13265 X15.253 Y-0.588 Z0.3824
N13270 X15.2517 Y-0.5853 Z0.3799
N13275 X15.2502 Y-0.5823 Z0.3778
N13280 X15.2486 Y-0.579 Z0.3763
N13285 X15.2469 Y-0.5756 Z0.3754
N13290 X15.2452 Y-0.5721 Z0.3751
N13295 G3 X15.1939 Y-0.5126 I-0.1418 J-0.0703
N13300 X14.8485 Y-0.3735 I-0.2858 J-0.2113
N13305 G1 X14.5707 Y-0.373
N13310 X14.2929
N13315 X14.0151 Y-0.3736
N13320 X13.7373 Y-0.3748
N13325 X13.5279
N13330 X2.6409
N13335 G3 X2.4668 Y-0.4119 I-0.0534 J-0.1763
N13340 G1 X2.4629 Y-0.4194
N13345 X2.4159 Y-0.5073
N13350 G3 X2.4605 Y-0.53 I0.0224 J-0.011
N13355 G1 X2.4621 Y-0.5267 Z0.3753
N13360 X2.4637 Y-0.5235 Z0.376
N13365 X2.4652 Y-0.5204 Z0.3772
N13370 X2.4666 Y-0.5176 Z0.3789
N13375 X2.4679 Y-0.5149 Z0.381
N13380 X2.469 Y-0.5126 Z0.3835
N13385 X2.47 Y-0.5106 Z0.3864
N13390 X2.4708 Y-0.509 Z0.3896
N13395 X2.4714 Y-0.5079 Z0.393
N13400 X2.4717 Y-0.5072 Z0.3965
N13405 X2.4718 Y-0.5069 Z0.4001
N13410 G0 Z0.95
N13415 X15.1775 Y-0.5618
N13420 Z0.4251
N13425 G1 Z0.4001 F60.
N13430 Y-0.5615 Z0.3962
N13435 X15.1772 Y-0.5606 Z0.3924
N13440 X15.1768 Y-0.5592 Z0.3888
N13445 X15.1763 Y-0.5572 Z0.3854
N13450 X15.1757 Y-0.5547 Z0.3824
N13455 X15.1749 Y-0.5518 Z0.3799
N13460 X15.174 Y-0.5486 Z0.3778
N13465 X15.1731 Y-0.5451 Z0.3763
N13470 X15.1721 Y-0.5414 Z0.3754
N13475 X15.1711 Y-0.5376 Z0.3751
N13480 G3 X15.1429 Y-0.4644 I-0.3523 J-0.0937
N13485 G1 X15.1393 Y-0.4528
N13490 X15.1352 Y-0.4415
N13495 X15.1306 Y-0.4304
N13500 X15.1254 Y-0.4196
N13505 X15.1196 Y-0.409
N13510 X15.1133 Y-0.3987
N13515 X15.1065 Y-0.3888
N13520 X15.0992 Y-0.3792
N13525 X15.0914 Y-0.37
N13530 X15.0832 Y-0.3612
N13535 X15.0745 Y-0.3528
N13540 X15.0654 Y-0.3449
N13545 X15.056 Y-0.3375
N13550 X15.0462 Y-0.3305
N13555 X15.036 Y-0.3241
N13560 X15.0255 Y-0.3181
N13565 X15.0147 Y-0.3128
N13570 X15.0037 Y-0.3079
N13575 X14.9925 Y-0.3036
N13580 X14.981 Y-0.2999
N13585 X14.9694 Y-0.2968
N13590 X14.9576 Y-0.2943
N13595 X14.9457 Y-0.2924
N13600 X14.9338 Y-0.2911
N13605 X14.9217 Y-0.2904
N13610 X14.9097 Y-0.2903
N13615 X14.8977 Y-0.2908
N13620 X14.8857 Y-0.2919
N13625 X14.8738 Y-0.2936
N13630 G3 X13.8587 Y-0.2838 I-0.5667 J-6.1251
N13635 G1 X13.7453 Y-0.2748
N13640 X13.5682
N13645 X13.1978
N13650 X2.7294
N13655 G3 X2.5007 Y-0.3009 I-0.0593 J-0.4949
N13660 G2 X2.4735 Y-0.397 I-0.4645 J0.08
N13665 G3 X2.5204 Y-0.4143 I0.0236 J-0.0083
N13670 G1 X2.5216 Y-0.4109 Z0.3753
N13675 X2.5228 Y-0.4075 Z0.376
N13680 X2.5239 Y-0.4043 Z0.3772
N13685 X2.525 Y-0.4012 Z0.3789
N13690 X2.526 Y-0.3985 Z0.381
N13695 X2.5268 Y-0.396 Z0.3835
N13700 X2.5276 Y-0.3939 Z0.3864
N13705 X2.5282 Y-0.3923 Z0.3896
N13710 X2.5286 Y-0.391 Z0.393
N13715 X2.5288 Y-0.3903 Z0.3965
N13720 X2.5289 Y-0.3901 Z0.4001
N13725 G0 Z0.95
N13730 X2.1704 Y0.849
N13735 Z0.4251
N13740 G1 Z0.4001 F60.
N13745 X2.1705 Y0.8488 Z0.3962
N13750 X2.1708 Y0.8479 Z0.3924
N13755 X2.1713 Y0.8465 Z0.3888
N13760 X2.172 Y0.8446 Z0.3854
N13765 X2.1729 Y0.8422 Z0.3824
N13770 X2.1739 Y0.8394 Z0.3799
N13775 X2.175 Y0.8362 Z0.3778
N13780 X2.1763 Y0.8328 Z0.3763
N13785 X2.1776 Y0.8292 Z0.3754
N13790 X2.1789 Y0.8255 Z0.3751
N13795 G3 X2.2231 Y0.7606 I0.1488 J0.0538
N13800 X2.662 Y0.5904 I0.3572 J0.27
N13805 X3.4528 Y0.5748 I0.5226 J6.4541
N13810 G1 X4.2419
N13815 X14.8065
N13820 G2 X15.1169 Y0.4652 I-0.0379 J-0.6014
N13825 G3 X15.2423 Y0.5439 I-0.4906 J0.9211
N13830 X15.2143 Y0.5853 I-0.0143 J0.0205
N13835 G1 X15.2113 Y0.5832 Z0.3753
N13840 X15.2084 Y0.5812 Z0.376
N13845 X15.2056 Y0.5792 Z0.3772
N13850 X15.2029 Y0.5774 Z0.3789
N13855 X15.2005 Y0.5757 Z0.381
N13860 X15.1984 Y0.5742 Z0.3835
N13865 X15.1966 Y0.573 Z0.3864
N13870 X15.1951 Y0.5719 Z0.3896
N13875 X15.1941 Y0.5712 Z0.393
N13880 X15.1934 Y0.5708 Z0.3965
N13885 X15.1932 Y0.5706 Z0.4001
N13890 G0 Z0.95
N13895 X15.1235 Y-0.5228
N13900 Z0.4251
N13905 G1 Z0.4001 F60.
N13910 X15.1236 Y-0.5225 Z0.3962
N13915 X15.1237 Y-0.5216 Z0.3924
N13920 X15.1238 Y-0.5201 Z0.3888
N13925 X15.124 Y-0.5181 Z0.3854
N13930 X15.1243 Y-0.5155 Z0.3824
N13935 X15.1247 Y-0.5126 Z0.3799
N13940 X15.125 Y-0.5092 Z0.3778
N13945 X15.1254 Y-0.5056 Z0.3763
N13950 X15.1259 Y-0.5018 Z0.3754
N13955 X15.1263 Y-0.498 Z0.3751
N13960 G3 X15.1266 Y-0.4194 I-0.3623 J0.0407
N13965 X14.9067 Y-0.212 I-0.2004 J0.0078
N13970 X14.2953 Y-0.1743 I-0.4546 J-2.3916
N13975 G1 X14.086 Y-0.1745
N13980 X13.635 Y-0.1748
N13985 X13.2163
N13990 X2.8124
N13995 G3 X2.5489 Y-0.1932 I-0.0658 J-0.9511
N14000 X2.4989 Y-0.3216 I0.5624 J-0.293
N14005 X2.5468 Y-0.3358 I0.0241 J-0.0068
N14010 G1 X2.5478 Y-0.3323 Z0.3753
N14015 X2.5488 Y-0.3289 Z0.376
N14020 X2.5497 Y-0.3256 Z0.3772
N14025 X2.5506 Y-0.3225 Z0.3789
N14030 X2.5514 Y-0.3197 Z0.381
N14035 X2.5521 Y-0.3172 Z0.3835
N14040 X2.5527 Y-0.3151 Z0.3864
N14045 X2.5532 Y-0.3134 Z0.3896
N14050 X2.5535 Y-0.3121 Z0.393
N14055 X2.5538 Y-0.3114 Z0.3965
N14060 Y-0.3111 Z0.4001
N14065 G0 Z0.95
N14070 X2.2561 Y0.7836
N14075 Z0.4251
N14080 G1 Z0.4001 F60.
N14085 X2.2562 Y0.7833 Z0.3962
N14090 X2.2563 Y0.7824 Z0.3924
N14095 X2.2566 Y0.7809 Z0.3888
N14100 X2.2569 Y0.7789 Z0.3854
N14105 X2.2572 Y0.7764 Z0.3824
N14110 X2.2577 Y0.7734 Z0.3799
N14115 X2.2582 Y0.7701 Z0.3778
N14120 X2.2587 Y0.7665 Z0.3763
N14125 X2.2593 Y0.7628 Z0.3754
N14130 X2.2599 Y0.7589 Z0.3751
N14135 G3 X2.2906 Y0.6866 I0.1565 J0.0238
N14140 X2.7162 Y0.4837 I0.384 J0.2576
N14145 X3.5535 Y0.4748 I0.5866 J15.9546
N14150 G1 X3.7951
N14155 X14.7144
N14160 G2 X15.063 Y0.3859 I-0.035 J-0.8659
N14165 G3 X15.1299 Y0.4344 I-0.0044 J0.0765
N14170 X15.0819 Y0.4484 I-0.0241 J0.0067
N14175 G1 X15.081 Y0.4449 Z0.3753
N14180 X15.08 Y0.4415 Z0.376
N14185 X15.0791 Y0.4382 Z0.3772
N14190 X15.0782 Y0.4351 Z0.3789
N14195 X15.0774 Y0.4323 Z0.381
N14200 X15.0767 Y0.4298 Z0.3835
N14205 X15.0762 Y0.4276 Z0.3864
N14210 X15.0757 Y0.4259 Z0.3896
N14215 X15.0753 Y0.4247 Z0.393
N14220 X15.0751 Y0.4239 Z0.3965
N14225 Y0.4237 Z0.4001
N14230 G0 Z0.95
N14235 X15.0901 Y-0.4638
N14240 Z0.4251
N14245 G1 Z0.4001 F60.
N14250 X15.0902 Y-0.4636 Z0.3962
N14255 X15.0907 Y-0.4628 Z0.3924
N14260 X15.0915 Y-0.4615 Z0.3888
N14265 X15.0925 Y-0.4597 Z0.3854
N14270 X15.0938 Y-0.4575 Z0.3824
N14275 X15.0954 Y-0.455 Z0.3799
N14280 X15.0971 Y-0.4521 Z0.3778
N14285 X15.0989 Y-0.449 Z0.3763
N14290 X15.1009 Y-0.4457 Z0.3754
N14295 X15.1029 Y-0.4424 Z0.3751
N14300 G3 X15.125 Y-0.367 I-0.136 J0.0809
N14305 X15.1133 Y-0.2649 I-0.2707 J0.0208
N14310 X15.0666 Y-0.2823 I-0.0228 J-0.0103
N14315 G1 X15.0682 Y-0.2873
N14320 G3 X15.1169 Y-0.2771 I0.0238 J0.0076
N14325 G1 X15.1101 Y-0.2646
N14330 X15.1029 Y-0.2523
N14335 X15.095 Y-0.2404
N14340 X15.0867 Y-0.2288
N14345 X15.0779 Y-0.2177
N14350 X15.0686 Y-0.2069
N14355 X15.0588 Y-0.1965
N14360 X15.0486 Y-0.1865
N14365 X15.038 Y-0.1771
N14370 X15.027 Y-0.168
N14375 X15.0155 Y-0.1595
N14380 X15.0038 Y-0.1515
N14385 X14.9916 Y-0.144
N14390 X14.9792 Y-0.1371
N14395 X14.9665 Y-0.1307
N14400 X14.9535 Y-0.1248
N14405 X14.9403 Y-0.1195
N14410 X14.9268 Y-0.1148
N14415 X14.9132 Y-0.1107
N14420 X14.8994 Y-0.1072
N14425 X14.8854 Y-0.1044
N14430 X14.8713 Y-0.1021
N14435 X14.8572 Y-0.1004
N14440 X14.843 Y-0.0994
N14445 X14.8288 Y-0.0989
N14450 X14.8145 Y-0.0991
N14455 X14.8003 Y-0.1
N14460 X14.7861 Y-0.1014
N14465 G3 X14.1574 Y-0.0745 I-0.4685 J-3.5953
N14470 G1 X13.8836 Y-0.0747
N14475 X13.7387 Y-0.0748
N14480 X13.5615
N14485 X13.1911
N14490 X2.8839
N14495 G3 X2.6043 Y-0.0894 I-0.0693 J-1.3594
N14500 X2.5381 Y-0.2221 I0.6483 J-0.4059
N14505 X2.5859 Y-0.237 I0.024 J-0.0071
N14510 G1 X2.5869 Y-0.2335 Z0.3753
N14515 X2.5879 Y-0.2301 Z0.376
N14520 X2.5889 Y-0.2268 Z0.3772
N14525 X2.5898 Y-0.2237 Z0.3789
N14530 X2.5906 Y-0.2209 Z0.381
N14535 X2.5914 Y-0.2184 Z0.3835
N14540 X2.592 Y-0.2163 Z0.3864
N14545 X2.5925 Y-0.2146 Z0.3896
N14550 X2.5929 Y-0.2134 Z0.393
N14555 X2.5931 Y-0.2126 Z0.3965
N14560 X2.5932 Y-0.2124 Z0.4001
N14565 G0 Z0.95
N14570 X2.3391 Y0.6904
N14575 Z0.4251
N14580 G1 Z0.4001 F60.
N14585 Y0.6901 Z0.3962
N14590 X2.3392 Y0.6892 Z0.3924
N14595 X2.3394 Y0.6877 Z0.3888
N14600 X2.3396 Y0.6856 Z0.3854
N14605 X2.3398 Y0.6831 Z0.3824
N14610 X2.3401 Y0.6801 Z0.3799
N14615 X2.3404 Y0.6768 Z0.3778
N14620 X2.3408 Y0.6732 Z0.3763
N14625 X2.3412 Y0.6694 Z0.3754
N14630 X2.3415 Y0.6655 Z0.3751
N14635 G3 X2.3684 Y0.5917 I0.1575 J0.0155
N14640 X2.7245 Y0.399 I0.3033 J0.1352
N14645 X3.8208 Y0.3748 I0.7204 J7.8051
N14650 G1 X14.6113
N14655 G2 X15.0198 Y0.3006 I-0.0155 J-1.2474
N14660 G3 X15.125 Y0.3706 I0.0166 J0.0891
N14665 G1 Y0.397
N14670 G3 X15.075 Y0.396 I-0.025 J-0.0008
N14675 G1 X15.0751 Y0.3923 Z0.3753
N14680 X15.0753 Y0.3888 Z0.376
N14685 X15.0754 Y0.3854 Z0.3772
N14690 X15.0755 Y0.3821 Z0.3789
N14695 X15.0756 Y0.3792 Z0.381
N14700 X15.0757 Y0.3766 Z0.3835
N14705 Y0.3744 Z0.3864
N14710 X15.0758 Y0.3726 Z0.3896
N14715 Y0.3713 Z0.393
N14720 X15.0759 Y0.3706 Z0.3965
N14725 Y0.3703 Z0.4001
N14730 G0 Z0.95
N14735 X15.1145 Y-0.3575
N14740 Z0.4251
N14745 G1 Z0.4001 F60.
N14750 Y-0.3571 Z0.3962
N14755 X15.1146 Y-0.3562 Z0.3924
N14760 X15.1148 Y-0.3548 Z0.3888
N14765 X15.1151 Y-0.3527 Z0.3854
N14770 X15.1155 Y-0.3502 Z0.3824
N14775 X15.1159 Y-0.3472 Z0.3799
N14780 X15.1163 Y-0.3439 Z0.3778
N14785 X15.1168 Y-0.3403 Z0.3763
N14790 X15.1174 Y-0.3366 Z0.3754
N14795 X15.1179 Y-0.3327 Z0.3751
N14800 G3 X15.1091 Y-0.2546 I-0.1568 J0.0218
N14805 G1 X15.1046 Y-0.2406
N14810 X15.0995 Y-0.2268
N14815 X15.0938 Y-0.2132
N14820 X15.0877 Y-0.1998
N14825 X15.0809 Y-0.1867
N14830 X15.0736 Y-0.1739
N14835 X15.0658 Y-0.1614
N14840 X15.0576 Y-0.1492
N14845 X15.0488 Y-0.1374
N14850 X15.0395 Y-0.1259
N14855 X15.0298 Y-0.1148
N14860 X15.0196 Y-0.1042
N14865 X15.009 Y-0.0939
N14870 X14.998 Y-0.0841
N14875 X14.9866 Y-0.0748
N14880 X14.9748 Y-0.066
N14885 X14.9627 Y-0.0576
N14890 X14.9502 Y-0.0497
N14895 X14.9374 Y-0.0424
N14900 X14.9244 Y-0.0356
N14905 X14.911 Y-0.0293
N14910 X14.8974 Y-0.0236
N14915 X14.8836 Y-0.0184
N14920 X14.8696 Y-0.0139
N14925 X14.8555 Y-0.0098
N14930 X14.8411 Y-0.0064
N14935 X14.8267 Y-0.0036
N14940 X14.8121 Y-0.0014
N14945 X14.7975 Y0.0003
N14950 X14.7828 Y0.0013
N14955 X14.768 Y0.0018
N14960 X14.7533 Y0.0016
N14965 X14.7386 Y0.0008
N14970 X14.7239 Y-0.0006
N14975 G3 X14.0309 Y0.0253 I-0.5089 J-4.3349
N14980 G1 X13.6766 Y0.0252
N14985 X13.4672
N14990 X13.1129
N14995 X2.9667
N15000 G3 X2.6439 Y0.0096 I-0.0819 J-1.6487
N15005 G2 X2.5918 Y-0.115 I-0.9506 J0.3244
N15010 G3 X2.6375 Y-0.1351 I0.023 J-0.0098
N15015 G1 X2.6389 Y-0.1318 Z0.3753
N15020 X2.6403 Y-0.1285 Z0.376
N15025 X2.6417 Y-0.1254 Z0.3772
N15030 X2.6429 Y-0.1224 Z0.3789
N15035 X2.6441 Y-0.1197 Z0.381
N15040 X2.6451 Y-0.1173 Z0.3835
N15045 X2.646 Y-0.1153 Z0.3864
N15050 X2.6466 Y-0.1136 Z0.3896
N15055 X2.6471 Y-0.1124 Z0.393
N15060 X2.6475 Y-0.1117 Z0.3965
N15065 X2.6476 Y-0.1115 Z0.4001
N15070 G0 Z0.95
N15075 X2.3957 Y0.619
N15080 Z0.4251
N15085 G1 Z0.4001 F60.
N15090 Y0.6186 Z0.3962
N15095 X2.3956 Y0.6177 Z0.3924
N15100 Y0.6162 Z0.3888
N15105 X2.3955 Y0.6142 Z0.3854
N15110 X2.3954 Y0.6116 Z0.3824
N15115 X2.3952 Y0.6087 Z0.3799
N15120 X2.3951 Y0.6053 Z0.3778
N15125 X2.3949 Y0.6017 Z0.3763
N15130 X2.3947 Y0.5979 Z0.3754
N15135 X2.3946 Y0.594 Z0.3751
N15140 G3 X2.4106 Y0.5171 I0.1581 J-0.0072
N15145 X2.7346 Y0.299 I0.2997 J0.0955
N15150 X3.5288 Y0.2719 I0.5326 J3.9604
N15155 G1 X3.6097 Y0.2659
N15160 X3.7224
N15165 X3.8996 Y0.2658
N15170 X14.5289
N15175 G2 X14.9884 Y0.2106 I-0.7436 J-8.1407
N15180 G3 X15.125 Y0.3706 I0.0217 J0.1198
N15185 X15.075 Y0.3696 I-0.025 J-0.0009
N15190 G1 X15.0751 Y0.3659 Z0.3753
N15195 X15.0753 Y0.3624 Z0.376
N15200 X15.0754 Y0.359 Z0.3772
N15205 X15.0755 Y0.3557 Z0.3789
N15210 X15.0756 Y0.3528 Z0.381
N15215 X15.0757 Y0.3502 Z0.3835
N15220 X15.0758 Y0.348 Z0.3864
N15225 Y0.3462 Z0.3896
N15230 X15.0759 Y0.3449 Z0.393
N15235 Y0.3442 Z0.3965
N15240 Y0.3439 Z0.4001
N15245 G0 Z0.95
N15250 X15.0555 Y-0.2375
N15255 Z0.4251
N15260 G1 Z0.4001 F60.
N15265 X15.0556 Y-0.2372 Z0.3962
N15270 X15.0557 Y-0.2363 Z0.3924
N15275 X15.0559 Y-0.2348 Z0.3888
N15280 X15.0561 Y-0.2327 Z0.3854
N15285 X15.0564 Y-0.2302 Z0.3824
N15290 X15.0567 Y-0.2272 Z0.3799
N15295 X15.0571 Y-0.2239 Z0.3778
N15300 X15.0575 Y-0.2203 Z0.3763
N15305 X15.058 Y-0.2165 Z0.3754
N15310 X15.0584 Y-0.2126 Z0.3751
N15315 G3 X15.0478 Y-0.1348 I-0.1572 J0.0182
N15320 G1 X15.041 Y-0.1249
N15325 X15.0346 Y-0.1146
N15330 X15.0289 Y-0.1039
N15335 X15.0236 Y-0.093
N15340 X15.019 Y-0.0819
N15345 X15.0149 Y-0.0705
N15350 X15.0114 Y-0.0589
N15355 X15.0085 Y-0.0472
N15360 X15.0062 Y-0.0353
N15365 X15.0045 Y-0.0234
N15370 X15.0035 Y-0.0113
N15375 X15.0031 Y0.0008
N15380 X15.0033 Y0.0128
N15385 X15.0041 Y0.0249
N15390 X15.0056 Y0.0369
N15395 X15.0076 Y0.0488
N15400 X15.0103 Y0.0606
N15405 X15.0136 Y0.0722
N15410 X15.0175 Y0.0837
N15415 X15.0219 Y0.0949
N15420 X15.027 Y0.1059
N15425 X15.0326 Y0.1166
N15430 X15.0387 Y0.127
N15435 X15.0454 Y0.1371
N15440 X15.0525 Y0.1468
N15445 X15.0602 Y0.1561
N15450 X15.0684 Y0.1651
N15455 X15.077 Y0.1736
N15460 X15.086 Y0.1816
N15465 X15.0839 Y0.1947
N15470 X15.087 Y0.2022
N15475 X15.1087 Y0.2537
N15480 G3 X15.0622 Y0.2721 I-0.0234 J0.0089
N15485 G1 X15.0609 Y0.2687 Z0.3753
N15490 X15.0596 Y0.2654 Z0.376
N15495 X15.0584 Y0.2622 Z0.3772
N15500 X15.0573 Y0.2592 Z0.3789
N15505 X15.0562 Y0.2564 Z0.381
N15510 X15.0553 Y0.254 Z0.3835
N15515 X15.0545 Y0.2519 Z0.3864
N15520 X15.0539 Y0.2503 Z0.3896
N15525 X15.0534 Y0.2491 Z0.393
N15530 X15.0532 Y0.2483 Z0.3965
N15535 X15.0531 Y0.2481 Z0.4001
N15540 G0 Z0.95
N15545 X2.4439 Y0.5288
N15550 Z0.4251
N15555 G1 Z0.4001 F60.
N15560 Y0.5285 Z0.3962
N15565 X2.4438 Y0.5276 Z0.3924
N15570 Y0.5261 Z0.3888
N15575 X2.4437 Y0.524 Z0.3854
N15580 X2.4436 Y0.5215 Z0.3824
N15585 X2.4434 Y0.5185 Z0.3799
N15590 X2.4433 Y0.5151 Z0.3778
N15595 X2.4431 Y0.5115 Z0.3763
N15600 X2.4429 Y0.5077 Z0.3754
N15605 X2.4428 Y0.5038 Z0.3751
N15610 G3 X2.4588 Y0.4269 I0.1581 J-0.0072
N15615 X2.7473 Y0.1995 I0.278 J0.0559
N15620 G1 X2.7545 Y0.1889
N15625 X2.7594 Y0.188
N15630 G3 X2.7752 Y0.2345 I0.0036 J0.0247
N15635 G1 X2.7673 Y0.239
N15640 X2.5444 Y0.3638
N15645 X2.5274 Y0.3733
N15650 G3 X2.4912 Y0.3445 I-0.0122 J-0.0218
N15655 X2.5582 Y0.1798 I1.3118 J0.4369
N15660 X2.6009 Y0.205 I0.0199 J0.0151
N15665 G1 X2.5986 Y0.2103
N15670 X2.5758 Y0.2616
N15675 X2.5746 Y0.2645
N15680 G3 X2.5278 Y0.2472 I-0.0229 J-0.0101
N15685 X2.6202 Y0.053 I2.8292 J1.2278
N15690 G1 X2.6222 Y0.0497
N15695 X2.6247 Y0.0468
N15700 X2.6276 Y0.0442
N15705 X2.6309 Y0.0422
N15710 X2.6344 Y0.0406
N15715 X2.6381 Y0.0397
N15720 X2.642 Y0.0393
N15725 X2.6458 Y0.0394
N15730 X2.6496 Y0.0402
N15735 X2.6532 Y0.0415
N15740 X2.6565 Y0.0434
N15745 X2.6595 Y0.0458
N15750 X2.6622 Y0.0485
N15755 X2.6643 Y0.0517
N15760 X2.6654 Y0.0545 Z0.3753
N15765 X2.6664 Y0.0572 Z0.3759
N15770 X2.6674 Y0.0599 Z0.3767
N15775 X2.6676 Y0.0622 Z0.3778
N15780 X2.6678 Y0.0644 Z0.379
N15785 X2.6674 Y0.067 Z0.3809
N15790 X2.6669 Y0.0694 Z0.3832
N15795 X2.6666 Y0.0714 Z0.3858
N15800 X2.6663 Y0.0731 Z0.3886
N15805 X2.6658 Y0.0742 Z0.3914
N15810 X2.6655 Y0.075 Z0.3943
N15815 X2.6652 Y0.0755 Z0.3972
N15820 Y0.0756 Z0.4001
N15825 G0 Z0.95
N15830 X16.1752 Y-0.2469
N15835 Z0.4375
N15840 G1 Z0.4125 F60.
N15845 X16.175 Y-0.2471 Z0.4086
N15850 X16.1744 Y-0.2478 Z0.4048
N15855 X16.1734 Y-0.2489 Z0.4012
N15860 X16.172 Y-0.2505 Z0.3978
N15865 X16.1703 Y-0.2524 Z0.3948
N15870 X16.1684 Y-0.2546 Z0.3923
N15875 X16.1661 Y-0.2571 Z0.3902
N15880 X16.1637 Y-0.2598 Z0.3887
N15885 X16.1612 Y-0.2627 Z0.3878
N15890 X16.1586 Y-0.2656 Z0.3875
N15895 G3 X16.113 Y-0.3295 I0.2724 J-0.2423
N15900 G2 X16.0262 Y-0.399 I-0.1157 J0.0556
N15905 G1 X15.4113 Y-0.5893
N15910 G2 X15.2927 Y-0.5689 I-0.0404 J0.1209
N15915 G1 X15.1864 Y-0.5006
N15920 X15.1823 Y-0.4978
N15925 G3 X15.1573 Y-0.4968 I-0.0133 J-0.0212
N15930 G2 X15.1233 Y-0.4859 I-0.0117 J0.0221
N15935 G1 X15.1177 Y-0.4747
N15940 X15.102 Y-0.4435
N15945 G2 X15.1029 Y-0.4195 I0.0223 J0.0112
N15950 G3 X15.125 Y-0.3441 I-0.136 J0.0809
N15955 X15.0505 Y-0.03 I-2.5765 J-0.4451
N15960 G2 X15.12 Y0.2846 I1.341 J-0.1312
N15965 G3 X15.125 Y0.3295 I-0.2768 J0.0537
N15970 X15.1103 Y0.3515 I-0.025 J-0.0009
N15975 G1 X15.0963 Y0.3578
N15980 G2 X15.0941 Y0.3657 I0.0022 J0.0048
N15985 G3 X15.1321 Y0.4344 I-0.2981 J0.2099
N15990 G2 X15.1865 Y0.5005 I0.1186 J-0.0421
N15995 X15.3664 Y0.5959 I0.2239 J-0.205
N16000 X15.4114 Y0.5892 I0.0034 J-0.1329
N16005 G1 X16.0262 Y0.399
N16010 X16.0328 Y0.397
N16015 G3 X16.0467 Y0.445 I0.0066 J0.0241
N16020 G1 X16.0432 Y0.4459 Z0.3877
N16025 X16.0398 Y0.4469 Z0.3884
N16030 X16.0365 Y0.4478 Z0.3896
N16035 X16.0334 Y0.4486 Z0.3912
N16040 X16.0305 Y0.4494 Z0.3934
N16045 X16.028 Y0.4501 Z0.3959
N16050 X16.0259 Y0.4507 Z0.3988
N16055 X16.0242 Y0.4512 Z0.4019
N16060 X16.0229 Y0.4515 Z0.4053
N16065 X16.0222 Y0.4517 Z0.4089
N16070 X16.0219 Y0.4518 Z0.4125
N16075 G0 Z0.95
N16080 X0.6756 Y-0.8077
N16085 Z0.4375
N16090 G1 Z0.4125 F60.
N16095 X0.6758 Y-0.8075 Z0.4086
N16100 X0.6766 Y-0.807 Z0.4048
N16105 X0.6779 Y-0.8062 Z0.4012
N16110 X0.6796 Y-0.8051 Z0.3978
N16115 X0.6817 Y-0.8037 Z0.3948
N16120 X0.6843 Y-0.8021 Z0.3923
N16125 X0.6871 Y-0.8003 Z0.3902
N16130 X0.6901 Y-0.7984 Z0.3887
N16135 X0.6934 Y-0.7963 Z0.3878
N16140 X0.6967 Y-0.7942 Z0.3875
N16145 G3 X0.758 Y-0.7452 I-0.1958 J0.3075
N16150 G2 X0.4124 Y0.0666 I1.0781 J0.9384
N16155 G3 X0.5405 Y0.4199 I-3.1746 J1.3511
N16160 G2 X2.5305 Y0.186 I0.9591 J-0.4222
N16165 X2.5844 Y-0.0374 I-0.3146 J-0.1941
N16170 G1 X2.5735 Y-0.0764
N16175 X2.562 Y-0.1151
N16180 X2.55 Y-0.1537
N16185 X2.5375 Y-0.1921
N16190 X2.5244 Y-0.2303
N16195 X2.5107 Y-0.2683
N16200 X2.4965 Y-0.3061
N16205 X2.4818 Y-0.3438
N16210 X2.4665 Y-0.3812
N16215 X2.4506 Y-0.4183
N16220 X2.4343 Y-0.4553
N16225 X2.4174 Y-0.492
N16230 X2.4 Y-0.5284
N16235 X2.382 Y-0.5646
N16240 X2.3636 Y-0.6006
N16245 G2 X0.771 Y-0.753 I-0.8625 J0.6154
N16250 G1 X0.7681 Y-0.751
N16255 X0.765 Y-0.7494
N16260 X0.7616 Y-0.7483
N16265 X0.7581 Y-0.7477
N16270 X0.7545
N16275 X0.7509 Y-0.7482
N16280 X0.7474 Y-0.7493
N16285 X0.7441 Y-0.7509
N16290 X0.7411 Y-0.753
N16295 X0.7384 Y-0.7555
N16300 X0.7361 Y-0.7584
N16305 X0.7343 Y-0.7617
N16310 X0.7329 Y-0.7653
N16315 X0.7322 Y-0.769
N16320 X0.7321 Y-0.7712 Z0.3876
N16325 X0.7326 Y-0.7742 Z0.3881
N16330 X0.7331 Y-0.7771 Z0.3889
N16335 X0.7336 Y-0.7799 Z0.3901
N16340 X0.7353 Y-0.7827 Z0.3921
N16345 X0.7368 Y-0.7853 Z0.3945
N16350 X0.7381 Y-0.7875 Z0.3974
N16355 X0.7394 Y-0.7888 Z0.4003
N16360 X0.7405 Y-0.7898 Z0.4034
N16365 X0.7412 Y-0.7905 Z0.4067
N16370 X0.7416 Y-0.7908 Z0.4096
N16375 X0.7417 Y-0.791 Z0.4125
N16380 G0 Z0.95
N16385 X16.1776 Y-0.2518
N16390 Z0.45
N16395 G1 Z0.425 F60.
N16400 X16.1774 Y-0.252 Z0.4211
N16405 X16.1767 Y-0.2527 Z0.4173
N16410 X16.1756 Y-0.2537 Z0.4137
N16415 X16.1741 Y-0.2551 Z0.4103
N16420 X16.1723 Y-0.2569 Z0.4073
N16425 X16.1702 Y-0.259 Z0.4048
N16430 X16.1678 Y-0.2613 Z0.4027
N16435 X16.1652 Y-0.2638 Z0.4012
N16440 X16.1624 Y-0.2665 Z0.4003
N16445 X16.1596 Y-0.2692 Z0.4
N16450 G3 X16.1093 Y-0.3295 I0.2534 J-0.2621
N16455 G2 X16.0262 Y-0.3918 I-0.1125 J0.0636
N16460 G1 X15.4113 Y-0.582
N16465 G2 X15.2917 Y-0.5609 I-0.0404 J0.1208
N16470 G1 X15.1864 Y-0.4934
N16475 X15.1823 Y-0.4906
N16480 G3 X15.1573 Y-0.4896 I-0.0134 J-0.0211
N16485 G2 X15.1223 Y-0.4762 I-0.0116 J0.0221
N16490 G1 X15.1188 Y-0.4669
N16495 X15.1009 Y-0.4189
N16500 G2 X15.1029 Y-0.3974 I0.0234 J0.0087
N16505 G3 X15.125 Y-0.3221 I-0.136 J0.0809
N16510 X15.0748 Y-0.0449 I-2.1127 J-0.2396
N16515 G2 X15.1249 Y0.3071 I2.7343 J-0.2098
N16520 G1 X15.125 Y0.3146
N16525 G3 X15.1085 Y0.3372 I-0.025 J-0.0009
N16530 G1 X15.0981 Y0.3409
N16535 G2 X15.0954 Y0.3488 I0.0018 J0.005
N16540 G3 X15.1297 Y0.4194 I-0.309 J0.1935
N16545 G2 X15.1865 Y0.4933 I0.1211 J-0.0343
N16550 X15.3664 Y0.5886 I0.2248 J-0.2066
N16555 X15.4114 Y0.582 I0.0036 J-0.1319
N16560 G1 X16.0262 Y0.3918
N16565 X16.0337 Y0.3895
N16570 G3 X16.0475 Y0.4375 I0.0066 J0.0241
N16575 G1 X16.044 Y0.4385 Z0.4002
N16580 X16.0406 Y0.4394 Z0.4009
N16585 X16.0373 Y0.4403 Z0.4021
N16590 X16.0342 Y0.4412 Z0.4037
N16595 X16.0314 Y0.4419 Z0.4059
N16600 X16.0289 Y0.4426 Z0.4084
N16605 X16.0267 Y0.4432 Z0.4113
N16610 X16.025 Y0.4437 Z0.4144
N16615 X16.0238 Y0.444 Z0.4178
N16620 X16.023 Y0.4442 Z0.4214
N16625 X16.0228 Y0.4443 Z0.425
N16630 G0 Z0.95
N16635 X0.6895 Y-0.8145
N16640 Z0.45
N16645 G1 Z0.425 F60.
N16650 X0.6898 Y-0.8143 Z0.4211
N16655 X0.6905 Y-0.8139 Z0.4173
N16660 X0.6918 Y-0.813 Z0.4137
N16665 X0.6935 Y-0.8119 Z0.4103
N16670 X0.6957 Y-0.8106 Z0.4073
N16675 X0.6982 Y-0.809 Z0.4048
N16680 X0.701 Y-0.8072 Z0.4027
N16685 X0.7041 Y-0.8052 Z0.4012
N16690 X0.7073 Y-0.8032 Z0.4003
N16695 X0.7106 Y-0.8011 Z0.4
N16700 G3 X0.772 Y-0.7521 I-0.1956 J0.3077
N16705 G2 X0.4414 Y0.0975 I0.8866 J0.834
N16710 X0.774 Y0.7521 I1.4067 J-0.3029
N16715 X2.5342 Y-0.2039 I0.7222 J-0.7688
N16720 G3 X2.4518 Y-0.4194 I0.7721 J-0.4188
N16725 G2 X0.7863 Y-0.7565 I-0.952 J0.4206
N16730 G3 X0.7462 Y-0.7743 I-0.0152 J-0.0199
N16735 G1 X0.7461 Y-0.7763 Z0.4001
N16740 X0.7466 Y-0.7793 Z0.4005
N16745 X0.7472 Y-0.7822 Z0.4013
N16750 X0.7476 Y-0.785 Z0.4025
N16755 X0.7493 Y-0.7878 Z0.4044
N16760 X0.7508 Y-0.7904 Z0.4068
N16765 X0.7521 Y-0.7926 Z0.4096
N16770 X0.7535 Y-0.7939 Z0.4126
N16775 X0.7546 Y-0.795 Z0.4158
N16780 X0.7554 Y-0.7958 Z0.4192
N16785 X0.7558 Y-0.7961 Z0.4221
N16790 X0.7559 Y-0.7962 Z0.425
N16795 G0 Z0.95
N16800 X16.1765 Y-0.2548
N16805 Z0.4625
N16810 G1 Z0.4375 F60.
N16815 X16.1763 Y-0.255 Z0.4336
N16820 X16.1756 Y-0.2556 Z0.4298
N16825 X16.1745 Y-0.2566 Z0.4262
N16830 X16.1729 Y-0.258 Z0.4228
N16835 X16.171 Y-0.2597 Z0.4198
N16840 X16.1688 Y-0.2616 Z0.4173
N16845 X16.1663 Y-0.2639 Z0.4152
N16850 X16.1636 Y-0.2663 Z0.4137
N16855 X16.1607 Y-0.2688 Z0.4128
N16860 X16.1578 Y-0.2714 Z0.4125
N16865 G3 X16.105 Y-0.3295 I0.2419 J-0.2727
N16870 G2 X16.0262 Y-0.3846 I-0.1087 J0.0717
N16875 G1 X15.4113 Y-0.5748
N16880 G2 X15.2916 Y-0.5538 I-0.0404 J0.1212
N16885 G1 X15.1864 Y-0.4862
N16890 X15.1823 Y-0.4834
N16895 G3 X15.1573 Y-0.4827 I-0.0131 J-0.0213
N16900 G2 X15.1217 Y-0.4683 I-0.0119 J0.022
N16905 G1 X15.1191 Y-0.4602
N16910 X15.1005 Y-0.4025
N16915 G2 X15.1029 Y-0.3821 I0.0238 J0.0076
N16920 G3 X15.125 Y-0.3067 I-0.136 J0.0809
N16925 X15.0826 Y-0.0458 I-1.3558 J-0.0866
N16930 G1 X15.0834 Y-0.018
N16935 X15.0848 Y0.0097
N16940 X15.0868 Y0.0373
N16945 X15.0895 Y0.0649
N16950 X15.0927 Y0.0925
N16955 X15.0966 Y0.12
N16960 X15.1011 Y0.1473
N16965 X15.1061 Y0.1746
N16970 X15.1118 Y0.2018
N16975 X15.118 Y0.2288
N16980 X15.1249 Y0.2557
N16985 X15.1323 Y0.2824
N16990 X15.125 Y0.2921
N16995 Y0.2996
N17000 G3 X15.109 Y0.3221 I-0.025 J-0.0009
N17005 G1 X15.1013 Y0.325
N17010 G2 X15.0935 Y0.3509 I0.0061 J0.016
N17015 G3 X15.1319 Y0.4194 I-0.2968 J0.2117
N17020 G2 X15.1864 Y0.4862 I0.1205 J-0.0428
N17025 X15.3664 Y0.5814 I0.225 J-0.2074
N17030 X15.4114 Y0.5748 I0.0035 J-0.1327
N17035 G1 X16.0262 Y0.3846
N17040 X16.0337 Y0.3823
N17045 G3 X16.0476 Y0.4303 I0.0066 J0.0241
N17050 G1 X16.0441 Y0.4312 Z0.4127
