%
(HELENA_WAND)
(HELENA WAND TOP)
(T4  D=0.0787 CR=0. - ZMIN=0.375 - FLAT END MILL)
N10 G90 G94 G17 G91.1
N15 G20
N20 G53 G0 Z0.
(POCKET2)
N25 M9
N30 T4 M6
N35 S1700 M3
N40 G54
N45 M8
N55 G0 X1.4253 Y0.1217
N60 G43 Z1.35 H4
N65 G0 Z0.8294
N70 G1 Z0.7999 F20.
N75 Y0.1218 Z0.7984
N80 G2 X1.4252 Y0.1222 Z0.797 I0.037 J0.0056
N85 Y0.1228 Z0.7957 I0.037 J0.0052
N90 X1.4251 Y0.1237 Z0.7945 I0.0371 J0.0046
N95 X1.425 Y0.1248 Z0.7936 I0.0372 J0.0037
N100 X1.4249 Y0.126 Z0.7928 I0.0373 J0.0026
N105 Y0.1274 Z0.7923 I0.0374 J0.0014
N110 Y0.1283 Z0.7921 I0.0374 J0.
N115 Y0.1292 Z0.792 I0.0374 J-0.0009
N120 X1.4996 Y0.1256 Z0.7879 I0.0374 J-0.0018
N125 X1.4249 Y0.1292 Z0.7838 I-0.0374 J0.0018
N130 X1.4996 Y0.1256 Z0.7797 I0.0374 J-0.0018
N135 X1.4249 Y0.1292 Z0.7756 I-0.0374 J0.0018
N140 X1.4996 Y0.1256 Z0.7715 I0.0374 J-0.0018
N145 X1.4249 Y0.1292 Z0.7674 I-0.0374 J0.0018
N150 X1.4996 Y0.1256 Z0.7633 I0.0374 J-0.0018
N155 X1.4249 Y0.1292 Z0.7592 I-0.0374 J0.0018
N160 X1.4996 Y0.1256 Z0.7551 I0.0374 J-0.0018
N165 X1.4249 Y0.1292 Z0.751 I-0.0374 J0.0018
N170 X1.4996 Y0.1256 Z0.7469 I0.0374 J-0.0018
N175 X1.4249 Y0.1292 Z0.7428 I-0.0374 J0.0018
N180 X1.4996 Y0.1256 Z0.7387 I0.0374 J-0.0018
N185 X1.4249 Y0.1292 Z0.7346 I-0.0374 J0.0018
N190 X1.4996 Y0.1256 Z0.7305 I0.0374 J-0.0018
N195 X1.4249 Y0.1292 Z0.7263 I-0.0374 J0.0018
N200 X1.4996 Y0.1256 Z0.7222 I0.0374 J-0.0018
N205 X1.4249 Y0.1292 Z0.7181 I-0.0374 J0.0018
N210 X1.4996 Y0.1256 Z0.714 I0.0374 J-0.0018
N215 X1.4249 Y0.1274 Z0.71 I-0.0374 J0.0018
N220 G3 X1.4165 Y0.1435 I-0.0197 J0.
N225 G1 X1.4157 Y0.1441
N230 G3 X1.4044 Y0.1477 I-0.0113 J-0.0161
N235 G1 X1.2052
N240 G3 X1.1943 Y0.1444 I0. J-0.0197
N245 G1 X1.1934 Y0.1438
N250 G3 X1.1846 Y0.1274 I0.0109 J-0.0164
N255 G1 Y0.0379
N260 Y0.0378
N265 X1.1827
N270 X1.0587
N275 Y0.0379
N280 Y0.3976
N285 X1.1641 Y0.3977
N290 X1.1846 Y0.3976
N295 Y0.3257
N300 G3 X1.1935 Y0.3092 I0.0197 J0.
N305 G1 X1.1944 Y0.3087
N310 G3 X1.2052 Y0.3054 I0.0109 J0.0164
N315 G1 X1.5708
N320 X1.7843
N325 G3 X1.7959 Y0.3092 I0. J0.0197
N330 G1 X1.7967 Y0.3098
N335 G3 X1.8048 Y0.3257 I-0.0117 J0.0159
N340 G1 Y0.3976
N345 X1.9327
N350 Y0.0379
N355 Y0.0378
N360 X1.8048
N365 Y0.0379
N370 Y0.1274
N375 G3 X1.7968 Y0.1432 I-0.0197 J0.
N380 G1 X1.796 Y0.1438
N385 G3 X1.7843 Y0.1477 I-0.0117 J-0.0158
N390 G1 X1.5708
N395 G3 X1.5523 Y0.1349 I0. J-0.0197
N400 G1 X1.5521 Y0.1343
N405 G3 X1.5509 Y0.1274 I0.0184 J-0.0069
N410 G1 Y-0.1521
N415 G3 X1.5532 Y-0.1614 I0.0197 J0.
N420 G1 X1.5534 Y-0.1618
N425 G3 X1.5708 Y-0.1722 I0.0173 J0.0094
N430 G1 X1.7843
N435 G3 X1.7932 Y-0.17 I0. J0.0197
N440 G1 X1.794 Y-0.1696
N445 G3 X1.8048 Y-0.1521 I-0.0089 J0.0175
N450 G1 Y-0.0708
N455 Y-0.0643
N460 X1.9326
N465 X1.9327
N470 Y-0.0647
N475 Y-0.4202
N480 X1.8048
N485 Y-0.3506
N490 G3 X1.7965 Y-0.3345 I-0.0197 J0.
N495 G1 X1.7957 Y-0.334
N500 G3 X1.7843 Y-0.3304 I-0.0114 J-0.0161
N505 G1 X1.2052
N510 G3 X1.1946 Y-0.3334 I0. J-0.0197
N515 G1 X1.1938 Y-0.334
N520 G3 X1.1846 Y-0.3506 I0.0106 J-0.0166
N525 G1 Y-0.4202
N530 X1.1827
N535 X1.0587
N540 Y-0.0708
N545 Y-0.0643
N550 X1.1641 Y-0.0642
N555 X1.1846 Y-0.0643
N560 Y-0.0647
N565 Y-0.1521
N570 G3 X1.1961 Y-0.17 I0.0197 J0.
N575 G1 X1.197 Y-0.1704
N580 G3 X1.2052 Y-0.1722 I0.0082 J0.0179
N585 G1 X1.4044
N590 G3 X1.4129 Y-0.1702 I0. J0.0197
N595 G1 X1.4138 Y-0.1698
N600 G3 X1.4249 Y-0.1521 I-0.0086 J0.0177
N605 G1 Y0.1274
N610 G2 X1.439 Y0.1542 I0.0325 J0.
N615 G3 X1.438 Y0.1845 I-0.0101 J0.0148
N620 X1.4044 Y0.1936 I-0.0336 J-0.0573
N625 G1 X1.2052
N630 G3 X1.1595 Y0.1737 I0. J-0.0624
N635 X1.1413 Y0.1274 I0.0497 J-0.0463
N640 X1.1417 Y0.1151 I0.1972 J0.
N645 G2 X1.1421 Y0.1028 I-0.1968 J-0.0123
N650 X1.1013 I-0.0204 J0.
N655 G1 Y0.3347
N660 G2 X1.1217 Y0.3551 I0.0204 J0.
N665 X1.1421 Y0.3347 I0. J-0.0204
N670 X1.1419 Y0.3302 I-0.072 J0.
N675 G3 X1.1418 Y0.3256 I0.0719 J-0.0045
N680 X1.1598 Y0.2795 I0.0682 J0.
N685 X1.2052 Y0.2595 I0.0454 J0.0418
N690 G1 X1.7843 Y0.2596
N695 G3 X1.8296 Y0.2795 I0. J0.0615
N700 X1.8475 Y0.3256 I-0.0502 J0.0461
N705 X1.8474 Y0.329 I-0.0529 J0.
N710 G2 X1.8473 Y0.3323 I0.0528 J0.0033
N715 X1.8687 Y0.3536 I0.0214 J0.
N720 X1.8901 Y0.3323 I0. J-0.0214
N725 G1 Y0.1032
N730 G2 X1.8473 I-0.0214 J0.
N735 X1.8477 Y0.1153 I0.1936 J0.
N740 G3 X1.8481 Y0.1274 I-0.1933 J0.0121
N745 X1.8299 Y0.1737 I-0.0681 J0.
N750 X1.7843 Y0.1936 I-0.0456 J-0.0424
N755 G1 X1.5708
N760 G3 X1.5241 Y0.1741 I0. J-0.0656
N765 X1.5049 Y0.1274 I0.0473 J-0.0467
N770 G1 Y-0.1521
N775 G3 X1.5708 Y-0.2181 I0.0658 J-0.0002
N780 G1 X1.7843
N785 G3 X1.8299 Y-0.1983 I0. J0.0625
N790 X1.8482 Y-0.1521 I-0.0494 J0.0463
N795 X1.8478 Y-0.1383 I-0.2212 J0.
N800 G2 X1.8473 Y-0.1244 I0.2207 J0.0138
N805 X1.8649 Y-0.1068 I0.0176 J0.
N810 G1 X1.8725
N815 G2 X1.8901 Y-0.1244 I0. J-0.0176
N820 G1 Y-0.3548
N825 G2 X1.8687 Y-0.3762 I-0.0214 J0.
N830 X1.8473 Y-0.3548 I0. J0.0214
N835 X1.8474 Y-0.3527 I0.0335 J0.
N840 G3 X1.8475 Y-0.3506 I-0.0335 J0.0021
N845 X1.8295 Y-0.3045 I-0.0681 J0.
N850 X1.7843 Y-0.2847 I-0.0452 J-0.0416
N855 G1 X1.2052
N860 G3 X1.1599 Y-0.3045 I0. J-0.0616
N865 X1.1419 Y-0.3506 I0.05 J-0.0461
N870 X1.142 Y-0.3529 I0.0371 J0.
N875 G2 X1.1421 Y-0.3552 I-0.0371 J-0.0023
N880 X1.1013 I-0.0204 J0.
N885 G1 X1.1012 Y-0.1244
N890 G2 X1.1188 Y-0.1068 I0.0176 J0.
N895 G1 X1.1245
N900 G2 X1.1421 Y-0.1244 I0. J-0.0176
N905 X1.1416 Y-0.1382 I-0.2213 J0.
N910 G3 X1.1412 Y-0.1521 I0.2209 J-0.0138
N915 X1.1595 Y-0.1983 I0.0676 J0.
N920 X1.2052 Y-0.2181 I0.0457 J0.0429
N925 G1 X1.4044
N930 G3 X1.4513 Y-0.1988 I0. J0.0668
N935 X1.4708 Y-0.1521 I-0.0462 J0.0468
N940 G1 Y0.1274
N945 G3 X1.438 Y0.1845 I-0.0665 J-0.0003
N950 G2 X1.4513 Y0.2275 I0.0117 J0.0199
N955 G3 X1.4963 Y0.2258 I0.045 J0.6234
N960 G1 X1.5072
N965 G2 X1.5128 Y0.2085 I0. J-0.0096
N970 G3 X1.4974 Y0.1948 I0.058 J-0.0805
N975 G2 X1.4781 Y0.1947 I-0.0097 J0.0088
N980 G3 X1.4624 Y0.2085 I-0.0729 J-0.0673
N985 G2 X1.4679 Y0.2258 I0.0055 J0.0078
N990 G1 X1.4963
N995 X1.4965
N1000 X1.8307 Y0.2071
N1005 G3 X1.8329 Y0.2145 I0.0002 J0.0039
N1010 X1.8266 Y0.2177 I-0.0486 J-0.0865
N1015 G2 Y0.2353 I0.0041 J0.0088
N1020 G3 X1.8333 Y0.2389 I-0.0423 J0.0897
N1025 G2 X1.8532 Y0.2273 I0.0066 J-0.0115
N1030 G1 Y0.2257
N1035 G2 X1.8333 Y0.2142 I-0.0133 J0.
N1040 G3 X1.8329 Y0.2145 I-0.0491 J-0.0862
N1045 G2 X1.8316 Y0.2153 Z0.7102 I0.0039 J0.0069
N1050 X1.8306 Y0.2164 Z0.7106 I0.0051 J0.006
N1055 X1.8298 Y0.2175 Z0.7113 I0.0061 J0.0049
N1060 X1.8293 Y0.2186 Z0.7123 I0.0069 J0.0038
N1065 X1.8291 Y0.2196 Z0.7135 I0.0074 J0.0027
N1070 X1.8289 Y0.2203 Z0.7149 I0.0077 J0.0018
N1075 Y0.2207 Z0.7163 I0.0078 J0.0011
N1080 G1 Y0.2209 Z0.7179
N1085 G0 Z0.95
N1090 X1.8197 Y-0.2865
N1095 Z0.8294
N1100 G1 Z0.7179 F20.
N1105 X1.8195 Y-0.2868 Z0.7158
N1110 X1.8192 Y-0.2874 Z0.7139
N1115 X1.8185 Y-0.2885 Z0.7123
N1120 X1.8178 Y-0.29 Z0.7111
N1125 X1.8168 Y-0.2916 Z0.7103
N1130 X1.8158 Y-0.2934 Z0.71
N1135 G2 X1.8033 Y-0.2963 I-0.0076 J0.0042
N1140 X1.8017 Y-0.2836 I0.0049 J0.0071
N1145 G1 X1.8303 Y-0.25
N1150 G2 X1.8435 Y-0.2612 I0.0066 J-0.0056
N1155 X1.8327 Y-0.2632 I-0.0066 J0.0056
N1160 G3 X1.8299 Y-0.2617 I-0.0484 J-0.0869
N1165 G2 X1.83 Y-0.2408 I0.0054 J0.0104
N1170 G3 X1.833 Y-0.2392 I-0.045 J0.0889
N1175 G2 X1.8529 Y-0.2509 I0.0065 J-0.0118
N1180 G1 Y-0.2518
N1185 G2 X1.8331 Y-0.2634 I-0.0133 J0.
N1190 G3 X1.8327 Y-0.2632 I-0.0488 J-0.0866
N1195 X1.8313 Y-0.2627 I-0.0019 J-0.0034
N1200 G1 X1.5016 Y-0.2166
N1205 G3 X1.4983 Y-0.2232 I-0.0005 J-0.0039
N1210 X1.5073 Y-0.2314 I0.0725 J0.0708
N1215 G2 X1.5011 Y-0.2487 I-0.0061 J-0.0076
N1220 G1 X1.4742
N1225 G2 X1.4681 Y-0.2314 I0. J0.0097
N1230 G3 X1.4785 Y-0.222 I-0.0629 J0.0794
N1235 G2 X1.4971 I0.0093 J-0.0089
N1240 G3 X1.4983 Y-0.2232 I0.0736 J0.0696
N1245 G2 X1.4955 Y-0.2299 I-0.0028 J-0.0028
N1250 G1 X1.1592 Y-0.2323
N1255 G3 X1.1574 Y-0.2397 I0. J-0.0039
N1260 X1.1595 Y-0.2408 I0.0469 J0.0877
N1265 G2 X1.1596 Y-0.2617 I-0.0053 J-0.0104
N1270 G3 X1.1533 Y-0.2653 I0.0456 J-0.0884
N1275 G2 X1.1384 Y-0.257 I-0.0051 J0.0083
N1280 G1 Y-0.2457
N1285 G2 X1.1532 Y-0.2373 I0.0097 J0.
N1290 G3 X1.1574 Y-0.2397 I0.0512 J0.0853
N1295 G2 X1.1587 Y-0.2406 Z0.7102 I-0.0037 J-0.0069
N1300 X1.1597 Y-0.2416 Z0.7106 I-0.005 J-0.0061
N1305 X1.1605 Y-0.2427 Z0.7113 I-0.006 J-0.0051
N1310 X1.161 Y-0.2438 Z0.7123 I-0.0068 J-0.0039
N1315 X1.1613 Y-0.2447 Z0.7135 I-0.0073 J-0.0029
N1320 X1.1615 Y-0.2454 Z0.7149 I-0.0076 J-0.0019
N1325 Y-0.2459 Z0.7163 I-0.0078 J-0.0012
N1330 G1 Y-0.246 Z0.7179
N1335 G0 Z0.95
N1340 X1.1091 Y0.2265
N1345 Z0.8294
N1350 G1 Z0.7179 F20.
N1355 G18 G3 X1.1013 Z0.71 I-0.0079 K0.
N1360 G17 G2 X1.0921 Y0.2367 I0. J0.0092
N1365 X1.1031 Y0.2448 I0.0092 J-0.0009
N1370 G1 X1.1492 Y0.2356
N1375 G2 X1.1456 Y0.2175 I-0.0018 J-0.0091
N1380 X1.1382 Y0.2265 I0.0018 J0.0091
N1385 G1 Y0.2266
N1390 G2 X1.1576 Y0.2381 I0.0131 J0.
N1395 G3 X1.1597 Y0.237 I0.0476 J0.087
N1400 G2 Y0.2161 I-0.0054 J-0.0104
N1405 G3 X1.1576 Y0.215 I0.0456 J-0.0881
N1410 G2 X1.1382 Y0.2265 I-0.0063 J0.0115
N1415 G3 X1.1352 Y0.2303 I-0.0039 J0.
N1420 G1 X1.0716 Y0.2465
N1425 G2 X1.0698 Y0.2531 I0.001 J0.0038
N1430 X1.1224 Y0.2 Z0.7059 I0.0263 J-0.0266
N1435 X1.0698 Y0.2531 Z0.7018 I-0.0263 J0.0266
N1440 X1.1224 Y0.2 Z0.6977 I0.0263 J-0.0266
N1445 X1.0698 Y0.2531 Z0.6936 I-0.0263 J0.0266
N1450 X1.1224 Y0.2 Z0.6895 I0.0263 J-0.0266
N1455 X1.0698 Y0.2531 Z0.6854 I-0.0263 J0.0266
N1460 X1.1224 Y0.2 Z0.6813 I0.0263 J-0.0266
N1465 X1.0698 Y0.2531 Z0.6772 I-0.0263 J0.0266
N1470 X1.1224 Y0.2 Z0.6731 I0.0263 J-0.0266
N1475 X1.0587 Y0.2265 Z0.67 I-0.0263 J0.0266
N1480 G1 Y0.3976
N1485 X1.1641 Y0.3977
N1490 X1.1846 Y0.3976
N1495 Y0.3257
N1500 G3 X1.1935 Y0.3092 I0.0197 J0.
N1505 G1 X1.1944 Y0.3087
N1510 G3 X1.2052 Y0.3054 I0.0109 J0.0164
N1515 G1 X1.5708
N1520 X1.7843
N1525 G3 X1.7959 Y0.3092 I0. J0.0197
N1530 G1 X1.7967 Y0.3098
N1535 G3 X1.8048 Y0.3257 I-0.0117 J0.0159
N1540 G1 Y0.3976
N1545 X1.9327
N1550 Y0.0379
N1555 Y0.0378
N1560 X1.8048
N1565 Y0.0379
N1570 Y0.1274
N1575 G3 X1.7968 Y0.1432 I-0.0197 J0.
N1580 G1 X1.796 Y0.1438
N1585 G3 X1.7843 Y0.1477 I-0.0117 J-0.0158
N1590 G1 X1.5708
N1595 G3 X1.5523 Y0.1349 I0. J-0.0197
N1600 G1 X1.5521 Y0.1343
N1605 G3 X1.5509 Y0.1274 I0.0184 J-0.0069
N1610 G1 Y-0.1521
N1615 G3 X1.5532 Y-0.1614 I0.0197 J0.
N1620 G1 X1.5534 Y-0.1618
N1625 G3 X1.5708 Y-0.1722 I0.0173 J0.0094
N1630 G1 X1.7843
N1635 G3 X1.7932 Y-0.17 I0. J0.0197
N1640 G1 X1.794 Y-0.1696
N1645 G3 X1.8048 Y-0.1521 I-0.0089 J0.0175
N1650 G1 Y-0.0708
N1655 Y-0.0643
N1660 X1.9326
N1665 X1.9327
N1670 Y-0.0647
N1675 Y-0.4202
N1680 X1.8048
N1685 Y-0.3506
N1690 G3 X1.7965 Y-0.3345 I-0.0197 J0.
N1695 G1 X1.7957 Y-0.334
N1700 G3 X1.7843 Y-0.3304 I-0.0114 J-0.0161
N1705 G1 X1.2052
N1710 G3 X1.1946 Y-0.3334 I0. J-0.0197
N1715 G1 X1.1938 Y-0.334
N1720 G3 X1.1846 Y-0.3506 I0.0106 J-0.0166
N1725 G1 Y-0.4202
N1730 X1.1827
N1735 X1.0587
N1740 Y-0.0708
N1745 Y-0.0643
N1750 X1.1641 Y-0.0642
N1755 X1.1846 Y-0.0643
N1760 Y-0.0647
N1765 Y-0.1521
N1770 G3 X1.1961 Y-0.17 I0.0197 J0.
N1775 G1 X1.197 Y-0.1704
N1780 G3 X1.2052 Y-0.1722 I0.0082 J0.0179
N1785 G1 X1.4044
N1790 G3 X1.4129 Y-0.1702 I0. J0.0197
N1795 G1 X1.4138 Y-0.1698
N1800 G3 X1.4249 Y-0.1521 I-0.0086 J0.0177
N1805 G1 Y0.1274
N1810 G3 X1.4165 Y0.1435 I-0.0197 J0.
N1815 G1 X1.4157 Y0.1441
N1820 G3 X1.4044 Y0.1477 I-0.0113 J-0.0161
N1825 G1 X1.2052
N1830 G3 X1.1943 Y0.1444 I0. J-0.0197
N1835 G1 X1.1934 Y0.1438
N1840 G3 X1.1846 Y0.1274 I0.0109 J-0.0164
N1845 G1 Y0.0379
N1850 Y0.0378
N1855 X1.1827
N1860 X1.0587
N1865 Y0.0379
N1870 Y0.2265
N1875 G2 X1.08 Y0.2585 I0.0346 J0.
N1880 G3 X1.1013 Y0.2904 I-0.0133 J0.0319
N1885 G1 Y0.3347
N1890 G2 X1.1217 Y0.3551 I0.0204 J0.
N1895 X1.1421 Y0.3347 I0. J-0.0204
N1900 X1.1419 Y0.3302 I-0.072 J0.
N1905 G3 X1.1418 Y0.3256 I0.0719 J-0.0045
N1910 X1.1598 Y0.2795 I0.0682 J0.
N1915 X1.2052 Y0.2595 I0.0454 J0.0418
N1920 G1 X1.7843 Y0.2596
N1925 G3 X1.8296 Y0.2795 I0. J0.0615
N1930 X1.8475 Y0.3256 I-0.0502 J0.0461
N1935 X1.8474 Y0.329 I-0.0529 J0.
N1940 G2 X1.8473 Y0.3323 I0.0528 J0.0033
N1945 X1.8687 Y0.3536 I0.0214 J0.
N1950 X1.8901 Y0.3323 I0. J-0.0214
N1955 G1 Y0.1032
N1960 G2 X1.8473 I-0.0214 J0.
N1965 X1.8477 Y0.1153 I0.1936 J0.
N1970 G3 X1.8481 Y0.1274 I-0.1933 J0.0121
N1975 X1.8299 Y0.1737 I-0.0681 J0.
N1980 X1.7843 Y0.1936 I-0.0456 J-0.0424
N1985 G1 X1.5708
N1990 G3 X1.5241 Y0.1741 I0. J-0.0656
N1995 X1.5049 Y0.1274 I0.0473 J-0.0467
N2000 G1 Y-0.1521
N2005 G3 X1.5708 Y-0.2181 I0.0658 J-0.0002
N2010 G1 X1.7843
N2015 G3 X1.8299 Y-0.1983 I0. J0.0625
N2020 X1.8482 Y-0.1521 I-0.0494 J0.0463
N2025 X1.8478 Y-0.1383 I-0.2212 J0.
N2030 G2 X1.8473 Y-0.1244 I0.2207 J0.0138
N2035 X1.8649 Y-0.1068 I0.0176 J0.
N2040 G1 X1.8725
N2045 G2 X1.8901 Y-0.1244 I0. J-0.0176
N2050 G1 Y-0.3548
N2055 G2 X1.8687 Y-0.3762 I-0.0214 J0.
N2060 X1.8473 Y-0.3548 I0. J0.0214
N2065 X1.8474 Y-0.3527 I0.0335 J0.
N2070 G3 X1.8475 Y-0.3506 I-0.0335 J0.0021
N2075 X1.8295 Y-0.3045 I-0.0681 J0.
N2080 X1.7843 Y-0.2847 I-0.0452 J-0.0416
N2085 G1 X1.2052
N2090 G3 X1.1599 Y-0.3045 I0. J-0.0616
N2095 X1.1419 Y-0.3506 I0.05 J-0.0461
N2100 X1.142 Y-0.3529 I0.0371 J0.
N2105 G2 X1.1421 Y-0.3552 I-0.0371 J-0.0023
N2110 X1.1013 I-0.0204 J0.
N2115 G1 X1.1012 Y-0.1244
N2120 G2 X1.1188 Y-0.1068 I0.0176 J0.
N2125 G1 X1.1245
N2130 G2 X1.1421 Y-0.1244 I0. J-0.0176
N2135 X1.1416 Y-0.1382 I-0.2213 J0.
N2140 G3 X1.1412 Y-0.1521 I0.2209 J-0.0138
N2145 X1.1595 Y-0.1983 I0.0676 J0.
N2150 X1.2052 Y-0.2181 I0.0457 J0.0429
N2155 G1 X1.4044
N2160 G3 X1.4513 Y-0.1988 I0. J0.0668
N2165 X1.4708 Y-0.1521 I-0.0462 J0.0468
N2170 G1 Y0.1274
N2175 G3 X1.4044 Y0.1936 I-0.0665 J-0.0003
N2180 G1 X1.2052
N2185 G3 X1.1595 Y0.1737 I0. J-0.0624
N2190 X1.1413 Y0.1274 I0.0497 J-0.0463
N2195 X1.1417 Y0.1151 I0.1972 J0.
N2200 G2 X1.1421 Y0.1028 I-0.1968 J-0.0123
N2205 X1.1013 I-0.0204 J0.
N2210 G1 Y0.2904
N2215 G3 X1.0934 I-0.0039 J0.
N2220 X1.0946 Y0.2875 I0.0039 J0.
N2225 G1 X1.1483 Y0.2366
N2230 G2 X1.1429 Y0.2309 I-0.0027 J-0.0029
N2235 X1.1432 Y0.2369 I0.0027 J0.0029
N2240 X1.1576 Y0.2381 I0.0081 J-0.0103
N2245 G3 X1.1597 Y0.237 I0.0476 J0.087
N2250 G2 Y0.2161 I-0.0054 J-0.0104
N2255 G3 X1.1576 Y0.215 I0.0456 J-0.0881
N2260 G2 X1.1382 Y0.2265 I-0.0063 J0.0115
N2265 G1 Y0.2266
N2270 G2 X1.1432 Y0.2369 I0.0131 J0.
N2275 X1.1462 Y0.2377 I0.0024 J-0.0031
N2280 G1 X1.4725 Y0.1904
N2285 G3 X1.4759 Y0.197 I0.0006 J0.0039
N2290 X1.4624 Y0.2085 I-0.0707 J-0.0696
N2295 G2 X1.4679 Y0.2258 I0.0055 J0.0078
N2300 G1 X1.5072
N2305 G2 X1.5128 Y0.2085 I0. J-0.0096
N2310 G3 X1.4974 Y0.1948 I0.058 J-0.0805
N2315 G2 X1.4781 Y0.1947 I-0.0097 J0.0088
N2320 G3 X1.4759 Y0.197 I-0.0729 J-0.0673
N2325 G2 X1.4786 Y0.2037 I0.0028 J0.0028
N2330 G1 X1.831 Y0.2071
N2335 G3 X1.8329 Y0.2144 I0. J0.0039
N2340 X1.8266 Y0.2177 I-0.0486 J-0.0865
N2345 G2 Y0.2353 I0.0041 J0.0088
N2350 G3 X1.8333 Y0.2389 I-0.0423 J0.0897
N2355 G2 X1.8532 Y0.2273 I0.0066 J-0.0115
N2360 G1 Y0.2257
N2365 G2 X1.8333 Y0.2142 I-0.0133 J0.
N2370 G3 X1.8329 Y0.2144 I-0.0491 J-0.0862
N2375 G2 X1.8316 Y0.2153 Z0.6702 I0.0039 J0.0069
N2380 X1.8306 Y0.2164 Z0.6706 I0.0051 J0.006
N2385 X1.8299 Y0.2175 Z0.6713 I0.0061 J0.0049
N2390 X1.8294 Y0.2186 Z0.6723 I0.0069 J0.0038
N2395 X1.8291 Y0.2195 Z0.6735 I0.0074 J0.0027
N2400 X1.829 Y0.2203 Z0.6749 I0.0077 J0.0018
N2405 X1.8289 Y0.2207 Z0.6763 I0.0078 J0.0011
N2410 G1 Y0.2209 Z0.6779
N2415 G0 Z0.95
N2420 X1.8197 Y-0.2865
N2425 Z0.7894
N2430 G1 Z0.6779 F20.
N2435 X1.8195 Y-0.2868 Z0.6758
N2440 X1.8192 Y-0.2874 Z0.6739
N2445 X1.8185 Y-0.2885 Z0.6723
N2450 X1.8178 Y-0.29 Z0.6711
N2455 X1.8168 Y-0.2916 Z0.6703
N2460 X1.8158 Y-0.2934 Z0.67
N2465 G2 X1.8033 Y-0.2963 I-0.0076 J0.0042
N2470 X1.8017 Y-0.2836 I0.0049 J0.0071
N2475 G1 X1.8303 Y-0.25
N2480 G2 X1.8435 Y-0.2612 I0.0066 J-0.0056
N2485 X1.8327 Y-0.2632 I-0.0066 J0.0056
N2490 G3 X1.8299 Y-0.2617 I-0.0484 J-0.0869
N2495 G2 X1.83 Y-0.2408 I0.0054 J0.0104
N2500 G3 X1.833 Y-0.2392 I-0.045 J0.0889
N2505 G2 X1.8529 Y-0.2509 I0.0065 J-0.0118
N2510 G1 Y-0.2518
N2515 G2 X1.8331 Y-0.2634 I-0.0133 J0.
N2520 G3 X1.8327 Y-0.2632 I-0.0488 J-0.0866
N2525 X1.8313 Y-0.2627 I-0.0019 J-0.0034
N2530 G1 X1.5016 Y-0.2166
N2535 G3 X1.4983 Y-0.2232 I-0.0005 J-0.0039
N2540 X1.5073 Y-0.2314 I0.0725 J0.0708
N2545 G2 X1.5011 Y-0.2487 I-0.0061 J-0.0076
N2550 G1 X1.4742
N2555 G2 X1.4681 Y-0.2314 I0. J0.0097
N2560 G3 X1.4785 Y-0.222 I-0.0629 J0.0794
N2565 G2 X1.4971 I0.0093 J-0.0089
N2570 G3 X1.4983 Y-0.2232 I0.0736 J0.0696
N2575 G2 X1.4955 Y-0.2299 I-0.0028 J-0.0028
N2580 G1 X1.1592 Y-0.2323
N2585 G3 X1.1574 Y-0.2397 I0. J-0.0039
N2590 X1.1595 Y-0.2408 I0.0469 J0.0877
N2595 G2 X1.1596 Y-0.2617 I-0.0053 J-0.0104
N2600 G3 X1.1533 Y-0.2653 I0.0456 J-0.0884
N2605 G2 X1.1384 Y-0.257 I-0.0051 J0.0083
N2610 G1 Y-0.2457
N2615 G2 X1.1532 Y-0.2373 I0.0097 J0.
N2620 G3 X1.1574 Y-0.2397 I0.0512 J0.0853
N2625 G2 X1.1594 Y-0.2426 I-0.0019 J-0.0035
N2630 G1 X1.1735 Y-0.3288
N2635 G2 X1.1683 Y-0.3331 I-0.0039 J-0.0006
N2640 X1.1947 Y-0.2631 Z0.6659 I0.0132 J0.035
N2645 X1.1683 Y-0.3331 Z0.6618 I-0.0132 J-0.035
N2650 X1.1947 Y-0.2631 Z0.6577 I0.0132 J0.035
N2655 X1.1683 Y-0.3331 Z0.6536 I-0.0132 J-0.035
N2660 X1.1947 Y-0.2631 Z0.6495 I0.0132 J0.035
N2665 X1.1683 Y-0.3331 Z0.6454 I-0.0132 J-0.035
N2670 X1.1947 Y-0.2631 Z0.6413 I0.0132 J0.035
N2675 X1.1683 Y-0.3331 Z0.6372 I-0.0132 J-0.035
N2680 X1.1947 Y-0.2631 Z0.6331 I0.0132 J0.035
N2685 X1.197 Y-0.3321 Z0.63 I-0.0132 J-0.035
N2690 G3 X1.1946 Y-0.3334 I0.0082 J-0.0179
N2695 G1 X1.1938 Y-0.334
N2700 G3 X1.1846 Y-0.3506 I0.0106 J-0.0166
N2705 G1 Y-0.4202
N2710 X1.1827
N2715 X1.0587
N2720 Y-0.0708
N2725 Y-0.0643
N2730 X1.1641 Y-0.0642
N2735 X1.1846 Y-0.0643
N2740 Y-0.0647
N2745 Y-0.1521
N2750 G3 X1.1961 Y-0.17 I0.0197 J0.
N2755 G1 X1.197 Y-0.1704
N2760 G3 X1.2052 Y-0.1722 I0.0082 J0.0179
N2765 G1 X1.4044
N2770 G3 X1.4129 Y-0.1702 I0. J0.0197
N2775 G1 X1.4138 Y-0.1698
N2780 G3 X1.4249 Y-0.1521 I-0.0086 J0.0177
N2785 G1 Y0.1274
N2790 G3 X1.4165 Y0.1435 I-0.0197 J0.
N2795 G1 X1.4157 Y0.1441
N2800 G3 X1.4044 Y0.1477 I-0.0113 J-0.0161
N2805 G1 X1.2052
N2810 G3 X1.1943 Y0.1444 I0. J-0.0197
N2815 G1 X1.1934 Y0.1438
N2820 G3 X1.1846 Y0.1274 I0.0109 J-0.0164
N2825 G1 Y0.0379
N2830 Y0.0378
N2835 X1.1827
N2840 X1.0587
N2845 Y0.0379
N2850 Y0.3976
N2855 X1.1641 Y0.3977
N2860 X1.1846 Y0.3976
N2865 Y0.3257
N2870 G3 X1.1935 Y0.3092 I0.0197 J0.
N2875 G1 X1.1944 Y0.3087
N2880 G3 X1.2052 Y0.3054 I0.0109 J0.0164
N2885 G1 X1.5708
N2890 X1.7843
N2895 G3 X1.7959 Y0.3092 I0. J0.0197
N2900 G1 X1.7967 Y0.3098
N2905 G3 X1.8048 Y0.3257 I-0.0117 J0.0159
N2910 G1 Y0.3976
N2915 X1.9327
N2920 Y0.0379
N2925 Y0.0378
N2930 X1.8048
N2935 Y0.0379
N2940 Y0.1274
N2945 G3 X1.7968 Y0.1432 I-0.0197 J0.
N2950 G1 X1.796 Y0.1438
N2955 G3 X1.7843 Y0.1477 I-0.0117 J-0.0158
N2960 G1 X1.5708
N2965 G3 X1.5523 Y0.1349 I0. J-0.0197
N2970 G1 X1.5521 Y0.1343
N2975 G3 X1.5509 Y0.1274 I0.0184 J-0.0069
N2980 G1 Y-0.1521
N2985 G3 X1.5532 Y-0.1614 I0.0197 J0.
N2990 G1 X1.5534 Y-0.1618
N2995 G3 X1.5708 Y-0.1722 I0.0173 J0.0094
N3000 G1 X1.7843
N3005 G3 X1.7932 Y-0.17 I0. J0.0197
N3010 G1 X1.794 Y-0.1696
N3015 G3 X1.8048 Y-0.1521 I-0.0089 J0.0175
N3020 G1 Y-0.0708
N3025 Y-0.0643
N3030 X1.9326
N3035 X1.9327
N3040 Y-0.0647
N3045 Y-0.4202
N3050 X1.8048
N3055 Y-0.3506
N3060 G3 X1.7965 Y-0.3345 I-0.0197 J0.
N3065 G1 X1.7957 Y-0.334
N3070 G3 X1.7843 Y-0.3304 I-0.0114 J-0.0161
N3075 G1 X1.2052
N3080 G3 X1.197 Y-0.3321 I0. J-0.0197
N3085 G2 X1.1678 Y-0.3312 I-0.0136 J0.0298
N3090 G3 X1.1421 Y-0.3451 I-0.0083 J-0.0153
N3095 X1.1419 Y-0.3506 I0.0678 J-0.0055
N3100 X1.142 Y-0.3529 I0.0371 J0.
N3105 G2 X1.1421 Y-0.3552 I-0.0371 J-0.0023
N3110 X1.1013 I-0.0204 J0.
N3115 G1 X1.1012 Y-0.1244
N3120 G2 X1.1188 Y-0.1068 I0.0176 J0.
N3125 G1 X1.1245
N3130 G2 X1.1421 Y-0.1244 I0. J-0.0176
N3135 X1.1416 Y-0.1382 I-0.2213 J0.
N3140 G3 X1.1412 Y-0.1521 I0.2209 J-0.0138
N3145 X1.1595 Y-0.1983 I0.0676 J0.
N3150 X1.2052 Y-0.2181 I0.0457 J0.0429
N3155 G1 X1.4044
N3160 G3 X1.4513 Y-0.1988 I0. J0.0668
N3165 X1.4708 Y-0.1521 I-0.0462 J0.0468
N3170 G1 Y0.1274
N3175 G3 X1.4044 Y0.1936 I-0.0665 J-0.0003
N3180 G1 X1.2052
N3185 G3 X1.1595 Y0.1737 I0. J-0.0624
N3190 X1.1413 Y0.1274 I0.0497 J-0.0463
N3195 X1.1417 Y0.1151 I0.1972 J0.
N3200 G2 X1.1421 Y0.1028 I-0.1968 J-0.0123
N3205 X1.1013 I-0.0204 J0.
N3210 G1 Y0.3347
N3215 G2 X1.1217 Y0.3551 I0.0204 J0.
N3220 X1.1421 Y0.3347 I0. J-0.0204
N3225 X1.1419 Y0.3302 I-0.072 J0.
N3230 G3 X1.1418 Y0.3256 I0.0719 J-0.0045
N3235 X1.1598 Y0.2795 I0.0682 J0.
N3240 X1.2052 Y0.2595 I0.0454 J0.0418
N3245 G1 X1.7843 Y0.2596
N3250 G3 X1.8296 Y0.2795 I0. J0.0615
N3255 X1.8475 Y0.3256 I-0.0502 J0.0461
N3260 X1.8474 Y0.329 I-0.0529 J0.
N3265 G2 X1.8473 Y0.3323 I0.0528 J0.0033
N3270 X1.8687 Y0.3536 I0.0214 J0.
N3275 X1.8901 Y0.3323 I0. J-0.0214
N3280 G1 Y0.1032
N3285 G2 X1.8473 I-0.0214 J0.
N3290 X1.8477 Y0.1153 I0.1936 J0.
N3295 G3 X1.8481 Y0.1274 I-0.1933 J0.0121
N3300 X1.8299 Y0.1737 I-0.0681 J0.
N3305 X1.7843 Y0.1936 I-0.0456 J-0.0424
N3310 G1 X1.5708
N3315 G3 X1.5241 Y0.1741 I0. J-0.0656
N3320 X1.5049 Y0.1274 I0.0473 J-0.0467
N3325 G1 Y-0.1521
N3330 G3 X1.5708 Y-0.2181 I0.0658 J-0.0002
N3335 G1 X1.7843
N3340 G3 X1.8299 Y-0.1983 I0. J0.0625
N3345 X1.8482 Y-0.1521 I-0.0494 J0.0463
N3350 X1.8478 Y-0.1383 I-0.2212 J0.
N3355 G2 X1.8473 Y-0.1244 I0.2207 J0.0138
N3360 X1.8649 Y-0.1068 I0.0176 J0.
N3365 G1 X1.8725
N3370 G2 X1.8901 Y-0.1244 I0. J-0.0176
N3375 G1 Y-0.3548
N3380 G2 X1.8687 Y-0.3762 I-0.0214 J0.
N3385 X1.8473 Y-0.3548 I0. J0.0214
N3390 X1.8474 Y-0.3527 I0.0335 J0.
N3395 G3 X1.8475 Y-0.3506 I-0.0335 J0.0021
N3400 X1.8295 Y-0.3045 I-0.0681 J0.
N3405 X1.7843 Y-0.2847 I-0.0452 J-0.0416
N3410 G1 X1.2052
N3415 G3 X1.1599 Y-0.3045 I0. J-0.0616
N3420 X1.1421 Y-0.3451 I0.05 J-0.0461
N3425 X1.1461 Y-0.3493 I0.0039 J-0.0003
N3430 X1.15 Y-0.3451 I0. J0.0039
N3435 G1 X1.1438 Y-0.2631
N3440 G2 X1.1517 Y-0.2625 I0.0039 J0.0003
N3445 X1.1475 Y-0.2667 I-0.0039 J-0.0003
N3450 X1.1384 Y-0.257 I0.0007 J0.0097
N3455 G1 Y-0.2457
N3460 G2 X1.1532 Y-0.2373 I0.0097 J0.
N3465 G3 X1.1595 Y-0.2408 I0.0512 J0.0853
N3470 G2 X1.1596 Y-0.2617 I-0.0053 J-0.0104
N3475 G3 X1.1533 Y-0.2653 I0.0456 J-0.0884
N3480 G2 X1.1475 Y-0.2667 I-0.0051 J0.0083
N3485 X1.1477 Y-0.2588 I0.0003 J0.0039
N3490 G1 X1.4878 Y-0.2566
N3495 G3 Y-0.2487 I0. J0.0039
N3500 G1 X1.4742
N3505 G2 X1.4681 Y-0.2314 I0. J0.0097
N3510 G3 X1.4785 Y-0.222 I-0.0629 J0.0794
N3515 G2 X1.4971 I0.0093 J-0.0089
N3520 G3 X1.5073 Y-0.2314 I0.0736 J0.0696
N3525 G2 X1.5011 Y-0.2487 I-0.0061 J-0.0076
N3530 G1 X1.4878
N3535 G3 X1.4877 Y-0.2566 I0. J-0.0039
N3540 G1 X1.831 Y-0.2708
N3545 G3 X1.8331 Y-0.2634 I0.0002 J0.0039
N3550 X1.8299 Y-0.2617 I-0.0488 J-0.0866
N3555 G2 X1.83 Y-0.2408 I0.0054 J0.0104
N3560 G3 X1.833 Y-0.2392 I-0.045 J0.0889
N3565 G2 X1.8529 Y-0.2509 I0.0065 J-0.0118
N3570 G1 Y-0.2518
N3575 G2 X1.8331 Y-0.2634 I-0.0133 J0.
N3580 X1.8318 Y-0.2625 Z0.6302 I0.0039 J0.0069
N3585 X1.8308 Y-0.2615 Z0.6306 I0.0051 J0.006
N3590 X1.83 Y-0.2603 Z0.6313 I0.0061 J0.0049
N3595 X1.8295 Y-0.2592 Z0.6323 I0.0069 J0.0038
N3600 X1.8293 Y-0.2583 Z0.6335 I0.0074 J0.0027
N3605 X1.8291 Y-0.2576 Z0.6349 I0.0077 J0.0018
N3610 Y-0.2571 Z0.6363 I0.0078 J0.0011
N3615 G1 Y-0.257 Z0.6379
N3620 G0 Z0.95
N3625 X1.8822 Y0.2265
N3630 Z0.8294
N3635 G1 Z0.7494 F20.
N3640 Z0.6379
N3645 G18 G2 X1.8901 Z0.63 I0.0079 K0.
N3650 G17 G2 X1.8993 Y0.2164 I0. J-0.0092
N3655 X1.8883 Y0.2082 I-0.0092 J0.0009
N3660 G1 X1.8421 Y0.2175
N3665 G2 X1.8457 Y0.2356 I0.0018 J0.0091
N3670 X1.8532 Y0.2265 I-0.0018 J-0.0091
N3675 G1 Y0.2257
N3680 G2 X1.8333 Y0.2142 I-0.0133 J0.
N3685 G3 X1.8266 Y0.2177 I-0.0491 J-0.0862
N3690 G2 Y0.2353 I0.0041 J0.0088
N3695 G3 X1.8333 Y0.2389 I-0.0423 J0.0897
N3700 G2 X1.8532 Y0.2273 I0.0066 J-0.0115
N3705 G1 Y0.2265
N3710 G2 X1.8493 Y0.2226 I-0.0039 J0.
N3715 G1 X1.4877 Y0.218
N3720 G2 X1.4837 Y0.2219 I-0.0001 J0.0039
N3725 X1.4877 Y0.2258 I0.0039 J0.
N3730 G1 X1.5072
N3735 G2 X1.5128 Y0.2085 I0. J-0.0096
N3740 G3 X1.4974 Y0.1948 I0.058 J-0.0805
N3745 G2 X1.4781 Y0.1947 I-0.0097 J0.0088
N3750 G3 X1.4624 Y0.2085 I-0.0729 J-0.0673
N3755 G2 X1.4679 Y0.2258 I0.0055 J0.0078
N3760 G1 X1.4877
N3765 G3 X1.4878 Y0.2337 I0. J0.0039
N3770 G1 X1.1528 Y0.2475
N3775 G3 X1.1523 Y0.2396 I-0.0002 J-0.0039
N3780 G2 X1.1576 Y0.2381 I-0.001 J-0.0131
N3785 G3 X1.1597 Y0.237 I0.0476 J0.087
N3790 G2 Y0.2161 I-0.0054 J-0.0104
N3795 G3 X1.1576 Y0.215 I0.0456 J-0.0881
N3800 G2 X1.1382 Y0.2265 I-0.0063 J0.0115
N3805 G1 Y0.2266
N3810 G2 X1.1523 Y0.2396 I0.0131 J0.
N3815 X1.1558 Y0.2348 I-0.0003 J-0.0039
N3820 G1 X1.1482 Y0.2037
N3825 G3 X1.1493 Y0.2 I0.0038 J-0.0009
N3830 X1.2019 Y0.2531 Z0.6259 I0.0263 J0.0266
N3835 X1.1493 Y0.2 Z0.6218 I-0.0263 J-0.0266
N3840 X1.2019 Y0.2531 Z0.6177 I0.0263 J0.0266
N3845 X1.1493 Y0.2 Z0.6136 I-0.0263 J-0.0266
N3850 X1.2019 Y0.2531 Z0.6095 I0.0263 J0.0266
N3855 X1.1493 Y0.2 Z0.6054 I-0.0263 J-0.0266
N3860 X1.2019 Y0.2531 Z0.6013 I0.0263 J0.0266
N3865 X1.1493 Y0.2 Z0.5972 I-0.0263 J-0.0266
N3870 X1.2019 Y0.2531 Z0.5931 I0.0263 J0.0266
N3875 X1.1382 Y0.2265 Z0.59 I-0.0263 J-0.0266
N3880 X1.1576 Y0.215 I0.0131 J0.
N3885 G2 X1.1597 Y0.2161 I0.0476 J-0.087
N3890 G3 Y0.237 I-0.0054 J0.0104
N3895 G2 X1.1576 Y0.2381 I0.0456 J0.0881
N3900 G3 X1.1382 Y0.2266 I-0.0063 J-0.0115
N3905 G1 Y0.2265
N3910 G3 X1.1418 Y0.2226 I0.0039 J0.
N3915 G1 X1.4734 Y0.1982
N3920 G2 X1.4759 Y0.197 I-0.0003 J-0.0039
N3925 X1.4781 Y0.1947 I-0.0707 J-0.0696
N3930 G3 X1.4974 Y0.1948 I0.0096 J0.0089
N3935 G2 X1.5128 Y0.2085 I0.0734 J-0.0668
N3940 G3 X1.5072 Y0.2258 I-0.0056 J0.0078
N3945 G1 X1.4679
N3950 G3 X1.4624 Y0.2085 I0. J-0.0096
N3955 G2 X1.4759 Y0.197 I-0.0572 J-0.0811
N3960 G3 X1.4789 Y0.1959 I0.0028 J0.0028
N3965 G1 X1.8308 Y0.2149
N3970 G2 X1.8329 Y0.2144 I0.0002 J-0.0039
N3975 X1.8333 Y0.2142 I-0.0486 J-0.0865
N3980 G3 X1.8532 Y0.2257 I0.0066 J0.0115
N3985 G1 Y0.2273
N3990 G3 X1.8333 Y0.2389 I-0.0133 J0.
N3995 G2 X1.8266 Y0.2353 I-0.0491 J0.0862
N4000 G3 Y0.2177 I0.0041 J-0.0088
N4005 G2 X1.8329 Y0.2144 I-0.0423 J-0.0897
N4010 G3 X1.8343 Y0.2138 Z0.5902 I0.0039 J0.0069
N4015 X1.8357 Y0.2135 Z0.5906 I0.0025 J0.0075
N4020 X1.8371 Y0.2134 Z0.5913 I0.001 J0.0078
N4025 X1.8383 Y0.2136 Z0.5923 I-0.0003 J0.0079
N4030 X1.8392 Y0.2138 Z0.5935 I-0.0015 J0.0077
N4035 X1.8399 Y0.2141 Z0.5949 I-0.0025 J0.0075
N4040 X1.8403 Y0.2143 Z0.5963 I-0.0032 J0.0072
N4045 G1 X1.8404 Y0.2144 Z0.5979
N4050 G0 Z0.95
N4055 X1.8279 Y-0.26
N4060 Z0.6799
N4065 G1 X1.828 Y-0.2601 Z0.6784 F20.
N4070 G3 X1.8283 Y-0.2603 Z0.677 I0.0229 J0.0296
N4075 X1.8288 Y-0.2607 Z0.6757 I0.0226 J0.0298
N4080 X1.8295 Y-0.2612 Z0.6745 I0.0221 J0.0302
N4085 X1.8304 Y-0.2618 Z0.6736 I0.0213 J0.0307
N4090 X1.8315 Y-0.2625 Z0.6728 I0.0204 J0.0313
N4095 X1.8327 Y-0.2632 Z0.6723 I0.0194 J0.032
N4100 X1.8335 Y-0.2636 Z0.6721 I0.0182 J0.0327
N4105 X1.8343 Y-0.264 Z0.672 I0.0174 J0.0331
N4110 X1.8675 Y-0.197 Z0.6679 I0.0166 J0.0335
N4115 X1.8343 Y-0.264 Z0.6638 I-0.0166 J-0.0335
N4120 X1.8675 Y-0.197 Z0.6597 I0.0166 J0.0335
N4125 X1.8343 Y-0.264 Z0.6556 I-0.0166 J-0.0335
N4130 X1.8675 Y-0.197 Z0.6515 I0.0166 J0.0335
N4135 X1.8343 Y-0.264 Z0.6474 I-0.0166 J-0.0335
N4140 X1.8675 Y-0.197 Z0.6433 I0.0166 J0.0335
N4145 X1.8343 Y-0.264 Z0.6392 I-0.0166 J-0.0335
N4150 X1.8675 Y-0.197 Z0.6351 I0.0166 J0.0335
N4155 X1.8343 Y-0.264 Z0.631 I-0.0166 J-0.0335
N4160 X1.8675 Y-0.197 Z0.6269 I0.0166 J0.0335
N4165 X1.8343 Y-0.264 Z0.6228 I-0.0166 J-0.0335
N4170 X1.8675 Y-0.197 Z0.6187 I0.0166 J0.0335
N4175 X1.8343 Y-0.264 Z0.6146 I-0.0166 J-0.0335
N4180 X1.8675 Y-0.197 Z0.6105 I0.0166 J0.0335
N4185 X1.8343 Y-0.264 Z0.6063 I-0.0166 J-0.0335
N4190 X1.8675 Y-0.197 Z0.6022 I0.0166 J0.0335
N4195 X1.8343 Y-0.264 Z0.5981 I-0.0166 J-0.0335
N4200 X1.8675 Y-0.197 Z0.594 I0.0166 J0.0335
N4205 X1.8327 Y-0.2632 Z0.59 I-0.0166 J-0.0335
N4210 G2 X1.8331 Y-0.2634 I-0.0484 J-0.0869
N4215 G3 X1.8529 Y-0.2518 I0.0065 J0.0116
N4220 G1 Y-0.2509
N4225 G3 X1.833 Y-0.2392 I-0.0134 J0.
N4230 G2 X1.83 Y-0.2408 I-0.0481 J0.0873
N4235 G3 X1.8299 Y-0.2617 I0.0053 J-0.0105
N4240 G2 X1.8327 Y-0.2632 I-0.0456 J-0.0884
N4245 X1.8302 Y-0.2705 I-0.0019 J-0.0034
N4250 G1 X1.5005 Y-0.2244
N4255 G2 X1.4983 Y-0.2232 I0.0005 J0.0039
N4260 X1.4971 Y-0.222 I0.0725 J0.0708
N4265 G3 X1.4785 I-0.0093 J-0.0088
N4270 G2 X1.4681 Y-0.2314 I-0.0733 J0.0699
N4275 G3 X1.4742 Y-0.2487 I0.006 J-0.0076
N4280 G1 X1.5011
N4285 G3 X1.5073 Y-0.2314 I0. J0.0098
N4290 G2 X1.4983 Y-0.2232 I0.0635 J0.0789
N4295 G3 X1.4952 Y-0.222 I-0.0028 J-0.0028
N4300 G1 X1.1595 Y-0.2402
N4305 G2 X1.1574 Y-0.2397 I-0.0002 J0.0039
N4310 X1.1532 Y-0.2373 I0.0469 J0.0877
N4315 G3 X1.1384 Y-0.2457 I-0.005 J-0.0083
N4320 G1 Y-0.257
N4325 G3 X1.1533 Y-0.2653 I0.0097 J0.
N4330 G2 X1.1596 Y-0.2617 I0.052 J-0.0848
N4335 G3 X1.1595 Y-0.2408 I-0.0054 J0.0104
N4340 G2 X1.1574 Y-0.2397 I0.0448 J0.0888
N4345 X1.1431 Y-0.206 I0.0137 J0.0257
N4350 G3 X1.1435 Y-0.1695 I-0.066 J0.0189
N4355 G2 X1.1412 Y-0.1521 I0.0653 J0.0174
N4360 X1.1416 Y-0.1382 I0.2213 J0.
N4365 G3 X1.1421 Y-0.1244 I-0.2209 J0.0138
N4370 X1.1245 Y-0.1068 I-0.0176 J0.
N4375 G1 X1.1188
N4380 G3 X1.1012 Y-0.1244 I0. J-0.0176
N4385 G1 X1.1013 Y-0.3552
N4390 G3 X1.1421 I0.0204 J0.
N4395 X1.142 Y-0.3529 I-0.0371 J0.
N4400 G2 X1.1419 Y-0.3506 I0.0371 J0.0023
N4405 X1.1599 Y-0.3045 I0.068 J0.
N4410 X1.2052 Y-0.2847 I0.0453 J-0.0417
N4415 G1 X1.7843
N4420 G2 X1.8295 Y-0.3045 I0. J-0.0614
N4425 X1.8475 Y-0.3506 I-0.0501 J-0.0461
N4430 X1.8474 Y-0.3527 I-0.0335 J0.
N4435 G3 X1.8473 Y-0.3548 I0.0335 J-0.0021
N4440 X1.8687 Y-0.3762 I0.0214 J0.
N4445 X1.8901 Y-0.3548 I0. J0.0214
N4450 G1 Y-0.1244
N4455 G3 X1.8725 Y-0.1068 I-0.0176 J0.
N4460 G1 X1.8649
N4465 G3 X1.8473 Y-0.1244 I0. J-0.0176
N4470 X1.8478 Y-0.1383 I0.2212 J0.
N4475 G2 X1.8482 Y-0.1521 I-0.2207 J-0.0138
N4480 X1.8299 Y-0.1983 I-0.0676 J0.
N4485 X1.7843 Y-0.2181 I-0.0456 J0.0428
N4490 G1 X1.5708
N4495 G2 X1.5049 Y-0.1521 I0. J0.0658
N4500 G1 Y0.1274
N4505 G2 X1.5241 Y0.1741 I0.0665 J0.
N4510 X1.5708 Y0.1936 I0.0466 J-0.0461
N4515 G1 X1.7843
N4520 G2 X1.8299 Y0.1737 I0. J-0.0623
N4525 X1.8481 Y0.1274 I-0.0499 J-0.0463
N4530 X1.8477 Y0.1153 I-0.1936 J0.
N4535 G3 X1.8473 Y0.1032 I0.1933 J-0.0121
N4540 X1.8901 I0.0214 J0.
N4545 G1 Y0.3323
N4550 G3 X1.8687 Y0.3536 I-0.0214 J0.
N4555 X1.8473 Y0.3323 I0. J-0.0214
N4560 X1.8474 Y0.329 I0.0529 J0.
N4565 G2 X1.8475 Y0.3256 I-0.0528 J-0.0033
N4570 X1.8296 Y0.2795 I-0.0682 J0.
N4575 X1.7843 Y0.2596 I-0.0453 J0.0416
N4580 G1 X1.2052 Y0.2595
N4585 G2 X1.1598 Y0.2795 I0. J0.0617
N4590 X1.1418 Y0.3256 I0.0502 J0.0462
N4595 X1.1419 Y0.3302 I0.072 J0.
N4600 G3 X1.1421 Y0.3347 I-0.0719 J0.0045
N4605 X1.1217 Y0.3551 I-0.0204 J0.
N4610 X1.1013 Y0.3347 I0. J-0.0204
N4615 G1 Y0.1028
N4620 G3 X1.1217 Y0.0824 I0.0204 J0.
N4625 X1.1421 Y0.1028 I0. J0.0204
N4630 X1.1417 Y0.1151 I-0.1972 J0.
N4635 G2 X1.1413 Y0.1274 I0.1968 J0.0123
N4640 X1.1595 Y0.1737 I0.068 J0.
N4645 X1.2052 Y0.1936 I0.0457 J-0.0426
N4650 G1 X1.4044
N4655 G2 X1.4708 Y0.1274 I0. J-0.0665
N4660 G1 Y-0.1521
N4665 G2 X1.4513 Y-0.1988 I-0.0657 J0.
N4670 X1.4044 Y-0.2181 I-0.0469 J0.0475
N4675 G1 X1.2052
N4680 G2 X1.1595 Y-0.1983 I0. J0.0627
N4685 X1.1435 Y-0.1695 I0.0492 J0.0463
N4690 X1.1616 Y-0.1298 I0.0331 J0.0088
N4695 G3 X1.1846 Y-0.0929 I-0.018 J0.0369
N4700 G1 Y-0.0647
N4705 Y-0.0643
N4710 X1.1641 Y-0.0642
N4715 X1.0587 Y-0.0643
N4720 Y-0.0708
N4725 Y-0.4201
N4730 X1.1827 Y-0.4202
N4735 X1.1846
N4740 Y-0.3506
N4745 G2 X1.1938 Y-0.334 I0.0197 J0.
N4750 G1 X1.1946 Y-0.3334
N4755 G2 X1.2052 Y-0.3304 I0.0106 J-0.0166
N4760 G1 X1.7843
N4765 G2 X1.7957 Y-0.334 I0. J-0.0197
N4770 G1 X1.7965 Y-0.3345
N4775 G2 X1.8048 Y-0.3506 I-0.0114 J-0.0161
N4780 G1 Y-0.4202
N4785 X1.9326
N4790 X1.9327 Y-0.0647
N4795 Y-0.0643
N4800 X1.8048
N4805 Y-0.0708
N4810 Y-0.1521
N4815 G2 X1.794 Y-0.1696 I-0.0197 J0.
N4820 G1 X1.7932 Y-0.17
N4825 G2 X1.7843 Y-0.1722 I-0.0089 J0.0175
N4830 G1 X1.5708
N4835 G2 X1.5534 Y-0.1618 I0. J0.0197
N4840 G1 X1.5532 Y-0.1614
N4845 G2 X1.5509 Y-0.1521 I0.0173 J0.0094
N4850 G1 Y0.1274
N4855 G2 X1.5521 Y0.1343 I0.0197 J0.
N4860 G1 X1.5523 Y0.1349
N4865 G2 X1.5708 Y0.1477 I0.0184 J-0.0069
N4870 G1 X1.7843
N4875 G2 X1.796 Y0.1438 I0. J-0.0197
N4880 G1 X1.7968 Y0.1432
N4885 G2 X1.8048 Y0.1274 I-0.0117 J-0.0158
N4890 G1 Y0.0379
N4895 Y0.0378
N4900 X1.9326
N4905 X1.9327 Y0.0379
N4910 Y0.3976
N4915 X1.8048
N4920 Y0.3257
N4925 G2 X1.7967 Y0.3098 I-0.0197 J0.
N4930 G1 X1.7959 Y0.3092
N4935 G2 X1.7843 Y0.3054 I-0.0117 J0.0159
N4940 G1 X1.2052
N4945 G2 X1.1944 Y0.3087 I0. J0.0197
N4950 G1 X1.1935 Y0.3092
N4955 G2 X1.1846 Y0.3257 I0.0109 J0.0164
N4960 G1 Y0.3976
N4965 X1.1641 Y0.3977
N4970 X1.0587 Y0.3976
N4975 Y0.0379
N4980 Y0.0378
N4985 X1.1827
N4990 X1.1846
N4995 Y0.0379
N5000 Y0.1274
N5005 G2 X1.1934 Y0.1438 I0.0197 J0.
N5010 G1 X1.1943 Y0.1444
N5015 G2 X1.2052 Y0.1477 I0.0109 J-0.0164
N5020 G1 X1.4044
N5025 G2 X1.4157 Y0.1441 I0. J-0.0197
N5030 G1 X1.4165 Y0.1435
N5035 G2 X1.4249 Y0.1274 I-0.0113 J-0.0161
N5040 G1 Y-0.1521
N5045 G2 X1.4138 Y-0.1698 I-0.0197 J0.
N5050 G1 X1.4129 Y-0.1702
N5055 G2 X1.4044 Y-0.1722 I-0.0086 J0.0177
N5060 G1 X1.2052
N5065 G2 X1.197 Y-0.1704 I0. J0.0197
N5070 G1 X1.1961 Y-0.17
N5075 G2 X1.1846 Y-0.1521 I0.0082 J0.0179
N5080 G1 Y-0.0929
N5085 G3 X1.1768 Y-0.0923 I-0.0039 J0.
N5090 G1 X1.1484 Y-0.2745
N5095 G3 X1.1495 Y-0.2779 I0.0039 J-0.0006
N5100 X1.2021 Y-0.2247 Z0.5859 I0.0263 J0.0266
N5105 X1.1495 Y-0.2779 Z0.5818 I-0.0263 J-0.0266
N5110 X1.2021 Y-0.2247 Z0.5777 I0.0263 J0.0266
N5115 X1.1495 Y-0.2779 Z0.5736 I-0.0263 J-0.0266
N5120 X1.2021 Y-0.2247 Z0.5695 I0.0263 J0.0266
N5125 X1.1495 Y-0.2779 Z0.5654 I-0.0263 J-0.0266
N5130 X1.2021 Y-0.2247 Z0.5613 I0.0263 J0.0266
N5135 X1.1495 Y-0.2779 Z0.5572 I-0.0263 J-0.0266
N5140 X1.2021 Y-0.2247 Z0.5531 I0.0263 J0.0266
N5145 X1.1384 Y-0.2513 Z0.55 I-0.0263 J-0.0266
N5150 G1 Y-0.257
N5155 G3 X1.1533 Y-0.2653 I0.0097 J0.
N5160 G2 X1.1596 Y-0.2617 I0.052 J-0.0848
N5165 G3 X1.1595 Y-0.2408 I-0.0054 J0.0104
N5170 G2 X1.1532 Y-0.2373 I0.0448 J0.0888
N5175 G3 X1.1384 Y-0.2457 I-0.005 J-0.0083
N5180 G1 Y-0.2513
N5185 G3 X1.1424 Y-0.2552 I0.0039 J0.
N5190 G1 X1.4878 Y-0.2487
N5195 X1.5011
N5200 G3 X1.5073 Y-0.2314 I0. J0.0098
N5205 G2 X1.4971 Y-0.222 I0.0635 J0.0789
N5210 G3 X1.4785 I-0.0093 J-0.0088
N5215 G2 X1.4681 Y-0.2314 I-0.0733 J0.0699
N5220 G3 X1.4742 Y-0.2487 I0.006 J-0.0076
N5225 G1 X1.4878
N5230 X1.8313 Y-0.2629
N5235 G2 X1.8331 Y-0.2634 I-0.0002 J-0.0039
N5240 G3 X1.8529 Y-0.2518 I0.0065 J0.0116
N5245 G1 Y-0.2509
N5250 G3 X1.833 Y-0.2392 I-0.0134 J0.
N5255 G2 X1.83 Y-0.2408 I-0.0481 J0.0873
N5260 G3 X1.8299 Y-0.2617 I0.0053 J-0.0105
N5265 G2 X1.8331 Y-0.2634 I-0.0456 J-0.0884
N5270 G3 X1.8345 Y-0.264 Z0.5502 I0.0039 J0.0069
N5275 X1.8359 Y-0.2643 Z0.5506 I0.0025 J0.0075
N5280 X1.8373 Y-0.2644 Z0.5513 I0.001 J0.0078
N5285 X1.8385 Y-0.2643 Z0.5523 I-0.0003 J0.0079
N5290 X1.8394 Y-0.264 Z0.5535 I-0.0015 J0.0077
N5295 X1.8401 Y-0.2638 Z0.5549 I-0.0025 J0.0075
N5300 X1.8405 Y-0.2636 Z0.5563 I-0.0031 J0.0072
N5305 G1 X1.8406 Y-0.2635 Z0.5579
N5310 G0 Z0.95
N5315 X1.8527 Y0.2208
N5320 Z0.6399
N5325 G1 Y0.2209 Z0.6384 F20.
N5330 G3 X1.8528 Y0.2213 Z0.637 I-0.037 J0.0056
N5335 X1.8529 Y0.222 Z0.6357 I-0.037 J0.0052
N5340 X1.853 Y0.2228 Z0.6345 I-0.0371 J0.0046
N5345 X1.8531 Y0.2239 Z0.6336 I-0.0372 J0.0037
N5350 Y0.2252 Z0.6328 I-0.0373 J0.0026
N5355 X1.8532 Y0.2265 Z0.6323 I-0.0374 J0.0014
N5360 Y0.2274 Z0.6321 I-0.0374 J0.
N5365 X1.8531 Y0.2284 Z0.632 I-0.0374 J-0.0009
N5370 X1.7784 Y0.2247 Z0.6279 I-0.0374 J-0.0018
N5375 X1.8531 Y0.2284 Z0.6238 I0.0374 J0.0018
N5380 X1.7784 Y0.2247 Z0.6197 I-0.0374 J-0.0018
N5385 X1.8531 Y0.2284 Z0.6156 I0.0374 J0.0018
N5390 X1.7784 Y0.2247 Z0.6115 I-0.0374 J-0.0018
N5395 X1.8531 Y0.2284 Z0.6074 I0.0374 J0.0018
N5400 X1.7784 Y0.2247 Z0.6033 I-0.0374 J-0.0018
N5405 X1.8531 Y0.2284 Z0.5992 I0.0374 J0.0018
N5410 X1.7784 Y0.2247 Z0.5951 I-0.0374 J-0.0018
N5415 X1.8531 Y0.2284 Z0.591 I0.0374 J0.0018
N5420 X1.7784 Y0.2247 Z0.5869 I-0.0374 J-0.0018
N5425 X1.8531 Y0.2284 Z0.5828 I0.0374 J0.0018
N5430 X1.7784 Y0.2247 Z0.5787 I-0.0374 J-0.0018
N5435 X1.8531 Y0.2284 Z0.5746 I0.0374 J0.0018
N5440 X1.7784 Y0.2247 Z0.5705 I-0.0374 J-0.0018
N5445 X1.8531 Y0.2284 Z0.5663 I0.0374 J0.0018
N5450 X1.7784 Y0.2247 Z0.5622 I-0.0374 J-0.0018
N5455 X1.8531 Y0.2284 Z0.5581 I0.0374 J0.0018
N5460 X1.7784 Y0.2247 Z0.554 I-0.0374 J-0.0018
N5465 X1.8532 Y0.2265 Z0.55 I0.0374 J0.0018
N5470 G1 Y0.2273
N5475 G3 X1.8333 Y0.2389 I-0.0133 J0.
N5480 G2 X1.8266 Y0.2353 I-0.0491 J0.0862
N5485 G3 Y0.2177 I0.0041 J-0.0088
N5490 G2 X1.8333 Y0.2142 I-0.0423 J-0.0897
N5495 G3 X1.8532 Y0.2257 I0.0066 J0.0115
N5500 G1 Y0.2265
N5505 G3 X1.8492 Y0.2305 I-0.0039 J0.
N5510 G1 X1.4877 Y0.2258
N5515 X1.4679
N5520 G3 X1.4624 Y0.2085 I0. J-0.0096
N5525 G2 X1.4781 Y0.1947 I-0.0572 J-0.0811
N5530 G3 X1.4974 Y0.1948 I0.0096 J0.0089
N5535 G2 X1.5128 Y0.2085 I0.0734 J-0.0668
N5540 G3 X1.5072 Y0.2258 I-0.0056 J0.0078
N5545 G1 X1.4877
N5550 X1.1523 Y0.2396
N5555 G3 X1.1382 Y0.2266 I-0.001 J-0.0131
N5560 G1 Y0.2265
N5565 G3 X1.1576 Y0.215 I0.0131 J0.
N5570 G2 X1.1597 Y0.2161 I0.0476 J-0.087
N5575 G3 Y0.237 I-0.0054 J0.0104
N5580 G2 X1.1576 Y0.2381 I0.0456 J0.0881
N5585 G3 X1.1523 Y0.2396 I-0.0063 J-0.0115
N5590 G2 X1.1293 Y0.2565 I0.0021 J0.0271
N5595 G3 X1.1013 Y0.2509 I-0.0135 J-0.0055
N5600 G1 Y0.1028
N5605 G3 X1.1217 Y0.0824 I0.0204 J0.
N5610 X1.1421 Y0.1028 I0. J0.0204
N5615 X1.1417 Y0.1151 I-0.1972 J0.
N5620 G2 X1.1413 Y0.1274 I0.1968 J0.0123
N5625 X1.1595 Y0.1737 I0.068 J0.
N5630 X1.2052 Y0.1936 I0.0457 J-0.0426
N5635 G1 X1.4044
N5640 G2 X1.4708 Y0.1274 I0. J-0.0665
N5645 G1 Y-0.1521
N5650 G2 X1.4513 Y-0.1988 I-0.0657 J0.
N5655 X1.4044 Y-0.2181 I-0.0469 J0.0475
N5660 G1 X1.2052
N5665 G2 X1.1595 Y-0.1983 I0. J0.0627
N5670 X1.1412 Y-0.1521 I0.0492 J0.0463
N5675 X1.1416 Y-0.1382 I0.2213 J0.
N5680 G3 X1.1421 Y-0.1244 I-0.2209 J0.0138
N5685 X1.1245 Y-0.1068 I-0.0176 J0.
N5690 G1 X1.1188
N5695 G3 X1.1012 Y-0.1244 I0. J-0.0176
N5700 G1 X1.1013 Y-0.3552
N5705 G3 X1.1421 I0.0204 J0.
N5710 X1.142 Y-0.3529 I-0.0371 J0.
N5715 G2 X1.1419 Y-0.3506 I0.0371 J0.0023
N5720 X1.1599 Y-0.3045 I0.068 J0.
N5725 X1.2052 Y-0.2847 I0.0453 J-0.0417
N5730 G1 X1.7843
N5735 G2 X1.8295 Y-0.3045 I0. J-0.0614
N5740 X1.8475 Y-0.3506 I-0.0501 J-0.0461
N5745 X1.8474 Y-0.3527 I-0.0335 J0.
N5750 G3 X1.8473 Y-0.3548 I0.0335 J-0.0021
N5755 X1.8687 Y-0.3762 I0.0214 J0.
N5760 X1.8901 Y-0.3548 I0. J0.0214
N5765 G1 Y-0.1244
N5770 G3 X1.8725 Y-0.1068 I-0.0176 J0.
N5775 G1 X1.8649
N5780 G3 X1.8473 Y-0.1244 I0. J-0.0176
N5785 X1.8478 Y-0.1383 I0.2212 J0.
N5790 G2 X1.8482 Y-0.1521 I-0.2207 J-0.0138
N5795 X1.8299 Y-0.1983 I-0.0676 J0.
N5800 X1.7843 Y-0.2181 I-0.0456 J0.0428
N5805 G1 X1.5708
N5810 G2 X1.5049 Y-0.1521 I0. J0.0658
N5815 G1 Y0.1274
N5820 G2 X1.5241 Y0.1741 I0.0665 J0.
N5825 X1.5708 Y0.1936 I0.0466 J-0.0461
N5830 G1 X1.7843
N5835 G2 X1.8299 Y0.1737 I0. J-0.0623
N5840 X1.8481 Y0.1274 I-0.0499 J-0.0463
N5845 X1.8477 Y0.1153 I-0.1936 J0.
N5850 G3 X1.8473 Y0.1032 I0.1933 J-0.0121
N5855 X1.8901 I0.0214 J0.
N5860 G1 Y0.3323
N5865 G3 X1.8687 Y0.3536 I-0.0214 J0.
N5870 X1.8473 Y0.3323 I0. J-0.0214
N5875 X1.8474 Y0.329 I0.0529 J0.
N5880 G2 X1.8475 Y0.3256 I-0.0528 J-0.0033
N5885 X1.8296 Y0.2795 I-0.0682 J0.
N5890 X1.7843 Y0.2596 I-0.0453 J0.0416
N5895 G1 X1.2052 Y0.2595
N5900 G2 X1.1598 Y0.2795 I0. J0.0617
N5905 X1.1418 Y0.3256 I0.0502 J0.0462
N5910 X1.1419 Y0.3302 I0.072 J0.
N5915 G3 X1.1421 Y0.3347 I-0.0719 J0.0045
N5920 X1.1217 Y0.3551 I-0.0204 J0.
N5925 X1.1013 Y0.3347 I0. J-0.0204
N5930 G1 Y0.2509
N5935 G2 X1.08 Y0.219 I-0.0346 J0.
N5940 G3 X1.0587 Y0.1871 I0.0133 J-0.0319
N5945 G1 Y0.0379
N5950 Y0.0378
N5955 X1.1827
N5960 X1.1846
N5965 Y0.0379
N5970 Y0.1274
N5975 G2 X1.1934 Y0.1438 I0.0197 J0.
N5980 G1 X1.1943 Y0.1444
N5985 G2 X1.2052 Y0.1477 I0.0109 J-0.0164
N5990 G1 X1.4044
N5995 G2 X1.4157 Y0.1441 I0. J-0.0197
N6000 G1 X1.4165 Y0.1435
N6005 G2 X1.4249 Y0.1274 I-0.0113 J-0.0161
N6010 G1 Y-0.1521
N6015 G2 X1.4138 Y-0.1698 I-0.0197 J0.
N6020 G1 X1.4129 Y-0.1702
N6025 G2 X1.4044 Y-0.1722 I-0.0086 J0.0177
N6030 G1 X1.2052
N6035 G2 X1.197 Y-0.1704 I0. J0.0197
N6040 G1 X1.1961 Y-0.17
N6045 G2 X1.1846 Y-0.1521 I0.0082 J0.0179
N6050 G1 Y-0.0647
N6055 Y-0.0643
N6060 X1.1641 Y-0.0642
N6065 X1.0587 Y-0.0643
N6070 Y-0.0708
N6075 Y-0.4201
N6080 X1.1827 Y-0.4202
N6085 X1.1846
N6090 Y-0.3506
N6095 G2 X1.1938 Y-0.334 I0.0197 J0.
N6100 G1 X1.1946 Y-0.3334
N6105 G2 X1.2052 Y-0.3304 I0.0106 J-0.0166
N6110 G1 X1.7843
N6115 G2 X1.7957 Y-0.334 I0. J-0.0197
N6120 G1 X1.7965 Y-0.3345
N6125 G2 X1.8048 Y-0.3506 I-0.0114 J-0.0161
N6130 G1 Y-0.4202
N6135 X1.9326
N6140 X1.9327 Y-0.0647
N6145 Y-0.0643
N6150 X1.8048
N6155 Y-0.0708
N6160 Y-0.1521
N6165 G2 X1.794 Y-0.1696 I-0.0197 J0.
N6170 G1 X1.7932 Y-0.17
N6175 G2 X1.7843 Y-0.1722 I-0.0089 J0.0175
N6180 G1 X1.5708
N6185 G2 X1.5534 Y-0.1618 I0. J0.0197
N6190 G1 X1.5532 Y-0.1614
N6195 G2 X1.5509 Y-0.1521 I0.0173 J0.0094
N6200 G1 Y0.1274
N6205 G2 X1.5521 Y0.1343 I0.0197 J0.
N6210 G1 X1.5523 Y0.1349
N6215 G2 X1.5708 Y0.1477 I0.0184 J-0.0069
N6220 G1 X1.7843
N6225 G2 X1.796 Y0.1438 I0. J-0.0197
N6230 G1 X1.7968 Y0.1432
N6235 G2 X1.8048 Y0.1274 I-0.0117 J-0.0158
N6240 G1 Y0.0379
N6245 Y0.0378
N6250 X1.9326
N6255 X1.9327 Y0.0379
N6260 Y0.3976
N6265 X1.8048
N6270 Y0.3257
N6275 G2 X1.7967 Y0.3098 I-0.0197 J0.
N6280 G1 X1.7959 Y0.3092
N6285 G2 X1.7843 Y0.3054 I-0.0117 J0.0159
N6290 G1 X1.2052
N6295 G2 X1.1944 Y0.3087 I0. J0.0197
N6300 G1 X1.1935 Y0.3092
N6305 G2 X1.1846 Y0.3257 I0.0109 J0.0164
N6310 G1 Y0.3976
N6315 X1.1641 Y0.3977
N6320 X1.0587 Y0.3976
N6325 Y0.1871
N6330 G3 X1.0635 Y0.1833 I0.0039 J0.
N6335 G1 X1.1457 Y0.201
N6340 G2 X1.1493 Y0.2 I0.0008 J-0.0038
N6345 G3 X1.2019 Y0.2531 Z0.5459 I0.0263 J0.0266
N6350 X1.1493 Y0.2 Z0.5418 I-0.0263 J-0.0266
N6355 X1.2019 Y0.2531 Z0.5377 I0.0263 J0.0266
N6360 X1.1493 Y0.2 Z0.5336 I-0.0263 J-0.0266
N6365 X1.2019 Y0.2531 Z0.5295 I0.0263 J0.0266
N6370 X1.1493 Y0.2 Z0.5254 I-0.0263 J-0.0266
N6375 X1.2019 Y0.2531 Z0.5213 I0.0263 J0.0266
N6380 X1.1493 Y0.2 Z0.5172 I-0.0263 J-0.0266
N6385 X1.2019 Y0.2531 Z0.5131 I0.0263 J0.0266
N6390 X1.1382 Y0.2265 Z0.51 I-0.0263 J-0.0266
N6395 X1.1576 Y0.215 I0.0131 J0.
N6400 G2 X1.1597 Y0.2161 I0.0476 J-0.087
N6405 G3 Y0.237 I-0.0054 J0.0104
N6410 G2 X1.1576 Y0.2381 I0.0456 J0.0881
N6415 G3 X1.1382 Y0.2266 I-0.0063 J-0.0115
N6420 G1 Y0.2265
N6425 G3 X1.1418 Y0.2226 I0.0039 J0.
N6430 G1 X1.4734 Y0.1982
N6435 G2 X1.4759 Y0.197 I-0.0003 J-0.0039
N6440 X1.4781 Y0.1947 I-0.0707 J-0.0696
N6445 G3 X1.4974 Y0.1948 I0.0096 J0.0089
N6450 G2 X1.5128 Y0.2085 I0.0734 J-0.0668
N6455 G3 X1.5072 Y0.2258 I-0.0056 J0.0078
N6460 G1 X1.4679
N6465 G3 X1.4624 Y0.2085 I0. J-0.0096
N6470 G2 X1.4759 Y0.197 I-0.0572 J-0.0811
N6475 G3 X1.4789 Y0.1959 I0.0028 J0.0028
N6480 G1 X1.8308 Y0.2149
N6485 G2 X1.8329 Y0.2144 I0.0002 J-0.0039
N6490 X1.8333 Y0.2142 I-0.0486 J-0.0865
N6495 G3 X1.8532 Y0.2257 I0.0066 J0.0115
N6500 G1 Y0.2273
N6505 G3 X1.8333 Y0.2389 I-0.0133 J0.
N6510 G2 X1.8266 Y0.2353 I-0.0491 J0.0862
N6515 G3 Y0.2177 I0.0041 J-0.0088
N6520 G2 X1.8329 Y0.2144 I-0.0423 J-0.0897
N6525 G3 X1.8343 Y0.2138 Z0.5102 I0.0039 J0.0069
N6530 X1.8357 Y0.2135 Z0.5106 I0.0025 J0.0075
N6535 X1.8371 Y0.2134 Z0.5113 I0.001 J0.0078
N6540 X1.8383 Y0.2136 Z0.5123 I-0.0003 J0.0079
N6545 X1.8392 Y0.2138 Z0.5135 I-0.0015 J0.0077
N6550 X1.8399 Y0.2141 Z0.5149 I-0.0025 J0.0075
N6555 X1.8403 Y0.2143 Z0.5163 I-0.0032 J0.0072
N6560 G1 X1.8404 Y0.2144 Z0.5179
N6565 G0 Z0.95
N6570 X1.8279 Y-0.26
N6575 Z0.5999
N6580 G1 X1.828 Y-0.2601 Z0.5984 F20.
N6585 G3 X1.8283 Y-0.2603 Z0.597 I0.0229 J0.0296
N6590 X1.8288 Y-0.2607 Z0.5957 I0.0226 J0.0298
N6595 X1.8295 Y-0.2612 Z0.5945 I0.0221 J0.0302
N6600 X1.8304 Y-0.2618 Z0.5936 I0.0213 J0.0307
N6605 X1.8315 Y-0.2625 Z0.5928 I0.0204 J0.0313
N6610 X1.8327 Y-0.2632 Z0.5923 I0.0194 J0.032
N6615 X1.8335 Y-0.2636 Z0.5921 I0.0182 J0.0327
N6620 X1.8343 Y-0.264 Z0.592 I0.0174 J0.0331
N6625 X1.8675 Y-0.197 Z0.5879 I0.0166 J0.0335
N6630 X1.8343 Y-0.264 Z0.5838 I-0.0166 J-0.0335
N6635 X1.8675 Y-0.197 Z0.5797 I0.0166 J0.0335
N6640 X1.8343 Y-0.264 Z0.5756 I-0.0166 J-0.0335
N6645 X1.8675 Y-0.197 Z0.5715 I0.0166 J0.0335
N6650 X1.8343 Y-0.264 Z0.5674 I-0.0166 J-0.0335
N6655 X1.8675 Y-0.197 Z0.5633 I0.0166 J0.0335
N6660 X1.8343 Y-0.264 Z0.5592 I-0.0166 J-0.0335
N6665 X1.8675 Y-0.197 Z0.5551 I0.0166 J0.0335
N6670 X1.8343 Y-0.264 Z0.551 I-0.0166 J-0.0335
N6675 X1.8675 Y-0.197 Z0.5469 I0.0166 J0.0335
N6680 X1.8343 Y-0.264 Z0.5428 I-0.0166 J-0.0335
N6685 X1.8675 Y-0.197 Z0.5387 I0.0166 J0.0335
N6690 X1.8343 Y-0.264 Z0.5346 I-0.0166 J-0.0335
N6695 X1.8675 Y-0.197 Z0.5305 I0.0166 J0.0335
N6700 X1.8343 Y-0.264 Z0.5263 I-0.0166 J-0.0335
N6705 X1.8675 Y-0.197 Z0.5222 I0.0166 J0.0335
N6710 X1.8343 Y-0.264 Z0.5181 I-0.0166 J-0.0335
N6715 X1.8675 Y-0.197 Z0.514 I0.0166 J0.0335
N6720 X1.8327 Y-0.2632 Z0.51 I-0.0166 J-0.0335
N6725 G2 X1.8331 Y-0.2634 I-0.0484 J-0.0869
N6730 G3 X1.8529 Y-0.2518 I0.0065 J0.0116
N6735 G1 Y-0.2509
N6740 G3 X1.833 Y-0.2392 I-0.0134 J0.
N6745 G2 X1.83 Y-0.2408 I-0.0481 J0.0873
N6750 G3 X1.8299 Y-0.2617 I0.0053 J-0.0105
N6755 G2 X1.8327 Y-0.2632 I-0.0456 J-0.0884
N6760 X1.8302 Y-0.2705 I-0.0019 J-0.0034
N6765 G1 X1.5005 Y-0.2244
N6770 G2 X1.4983 Y-0.2232 I0.0005 J0.0039
N6775 X1.4971 Y-0.222 I0.0725 J0.0708
N6780 G3 X1.4785 I-0.0093 J-0.0088
N6785 G2 X1.4681 Y-0.2314 I-0.0733 J0.0699
N6790 G3 X1.4742 Y-0.2487 I0.006 J-0.0076
N6795 G1 X1.5011
N6800 G3 X1.5073 Y-0.2314 I0. J0.0098
N6805 G2 X1.4983 Y-0.2232 I0.0635 J0.0789
N6810 G3 X1.4952 Y-0.222 I-0.0028 J-0.0028
N6815 G1 X1.1595 Y-0.2402
N6820 G2 X1.1574 Y-0.2397 I-0.0002 J0.0039
N6825 X1.1532 Y-0.2373 I0.0469 J0.0877
N6830 G3 X1.1384 Y-0.2457 I-0.005 J-0.0083
N6835 G1 Y-0.257
N6840 G3 X1.1533 Y-0.2653 I0.0097 J0.
N6845 G2 X1.1596 Y-0.2617 I0.052 J-0.0848
N6850 G3 X1.1595 Y-0.2408 I-0.0054 J0.0104
N6855 G2 X1.1574 Y-0.2397 I0.0448 J0.0888
N6860 X1.1431 Y-0.206 I0.0137 J0.0257
N6865 G3 X1.1435 Y-0.1695 I-0.066 J0.0189
N6870 G2 X1.1412 Y-0.1521 I0.0653 J0.0174
N6875 X1.1416 Y-0.1382 I0.2213 J0.
N6880 G3 X1.1421 Y-0.1244 I-0.2209 J0.0138
N6885 X1.1245 Y-0.1068 I-0.0176 J0.
N6890 G1 X1.1188
N6895 G3 X1.1012 Y-0.1244 I0. J-0.0176
N6900 G1 X1.1013 Y-0.3552
N6905 G3 X1.1421 I0.0204 J0.
N6910 X1.142 Y-0.3529 I-0.0371 J0.
N6915 G2 X1.1419 Y-0.3506 I0.0371 J0.0023
N6920 X1.1599 Y-0.3045 I0.068 J0.
N6925 X1.2052 Y-0.2847 I0.0453 J-0.0417
N6930 G1 X1.7843
N6935 G2 X1.8295 Y-0.3045 I0. J-0.0614
N6940 X1.8475 Y-0.3506 I-0.0501 J-0.0461
N6945 X1.8474 Y-0.3527 I-0.0335 J0.
N6950 G3 X1.8473 Y-0.3548 I0.0335 J-0.0021
N6955 X1.8687 Y-0.3762 I0.0214 J0.
N6960 X1.8901 Y-0.3548 I0. J0.0214
N6965 G1 Y-0.1244
N6970 G3 X1.8725 Y-0.1068 I-0.0176 J0.
N6975 G1 X1.8649
N6980 G3 X1.8473 Y-0.1244 I0. J-0.0176
N6985 X1.8478 Y-0.1383 I0.2212 J0.
N6990 G2 X1.8482 Y-0.1521 I-0.2207 J-0.0138
N6995 X1.8299 Y-0.1983 I-0.0676 J0.
N7000 X1.7843 Y-0.2181 I-0.0456 J0.0428
N7005 G1 X1.5708
N7010 G2 X1.5049 Y-0.1521 I0. J0.0658
N7015 G1 Y0.1274
N7020 G2 X1.5241 Y0.1741 I0.0665 J0.
N7025 X1.5708 Y0.1936 I0.0466 J-0.0461
N7030 G1 X1.7843
N7035 G2 X1.8299 Y0.1737 I0. J-0.0623
N7040 X1.8481 Y0.1274 I-0.0499 J-0.0463
N7045 X1.8477 Y0.1153 I-0.1936 J0.
N7050 G3 X1.8473 Y0.1032 I0.1933 J-0.0121
N7055 X1.8901 I0.0214 J0.
N7060 G1 Y0.3323
N7065 G3 X1.8687 Y0.3536 I-0.0214 J0.
N7070 X1.8473 Y0.3323 I0. J-0.0214
N7075 X1.8474 Y0.329 I0.0529 J0.
N7080 G2 X1.8475 Y0.3256 I-0.0528 J-0.0033
N7085 X1.8296 Y0.2795 I-0.0682 J0.
N7090 X1.7843 Y0.2596 I-0.0453 J0.0416
N7095 G1 X1.2052 Y0.2595
N7100 G2 X1.1598 Y0.2795 I0. J0.0617
N7105 X1.1418 Y0.3256 I0.0502 J0.0462
N7110 X1.1419 Y0.3302 I0.072 J0.
N7115 G3 X1.1421 Y0.3347 I-0.0719 J0.0045
N7120 X1.1217 Y0.3551 I-0.0204 J0.
N7125 X1.1013 Y0.3347 I0. J-0.0204
N7130 G1 Y0.1028
N7135 G3 X1.1217 Y0.0824 I0.0204 J0.
N7140 X1.1421 Y0.1028 I0. J0.0204
N7145 X1.1417 Y0.1151 I-0.1972 J0.
N7150 G2 X1.1413 Y0.1274 I0.1968 J0.0123
N7155 X1.1595 Y0.1737 I0.068 J0.
N7160 X1.2052 Y0.1936 I0.0457 J-0.0426
N7165 G1 X1.4044
N7170 G2 X1.4708 Y0.1274 I0. J-0.0665
N7175 G1 Y-0.1521
N7180 G2 X1.4513 Y-0.1988 I-0.0657 J0.
N7185 X1.4044 Y-0.2181 I-0.0469 J0.0475
N7190 G1 X1.2052
N7195 G2 X1.1595 Y-0.1983 I0. J0.0627
N7200 X1.1435 Y-0.1695 I0.0492 J0.0463
N7205 X1.1616 Y-0.1298 I0.0331 J0.0088
N7210 G3 X1.1846 Y-0.0929 I-0.018 J0.0369
N7215 G1 Y-0.0647
N7220 Y-0.0643
N7225 X1.1641 Y-0.0642
N7230 X1.0587 Y-0.0643
N7235 Y-0.0708
N7240 Y-0.4201
N7245 X1.1827 Y-0.4202
N7250 X1.1846
N7255 Y-0.3506
N7260 G2 X1.1938 Y-0.334 I0.0197 J0.
N7265 G1 X1.1946 Y-0.3334
N7270 G2 X1.2052 Y-0.3304 I0.0106 J-0.0166
N7275 G1 X1.7843
N7280 G2 X1.7957 Y-0.334 I0. J-0.0197
N7285 G1 X1.7965 Y-0.3345
N7290 G2 X1.8048 Y-0.3506 I-0.0114 J-0.0161
N7295 G1 Y-0.4202
N7300 X1.9326
N7305 X1.9327 Y-0.0647
N7310 Y-0.0643
N7315 X1.8048
N7320 Y-0.0708
N7325 Y-0.1521
N7330 G2 X1.794 Y-0.1696 I-0.0197 J0.
N7335 G1 X1.7932 Y-0.17
N7340 G2 X1.7843 Y-0.1722 I-0.0089 J0.0175
N7345 G1 X1.5708
N7350 G2 X1.5534 Y-0.1618 I0. J0.0197
N7355 G1 X1.5532 Y-0.1614
N7360 G2 X1.5509 Y-0.1521 I0.0173 J0.0094
N7365 G1 Y0.1274
N7370 G2 X1.5521 Y0.1343 I0.0197 J0.
N7375 G1 X1.5523 Y0.1349
N7380 G2 X1.5708 Y0.1477 I0.0184 J-0.0069
N7385 G1 X1.7843
N7390 G2 X1.796 Y0.1438 I0. J-0.0197
N7395 G1 X1.7968 Y0.1432
N7400 G2 X1.8048 Y0.1274 I-0.0117 J-0.0158
N7405 G1 Y0.0379
N7410 Y0.0378
N7415 X1.9326
N7420 X1.9327 Y0.0379
N7425 Y0.3976
N7430 X1.8048
N7435 Y0.3257
N7440 G2 X1.7967 Y0.3098 I-0.0197 J0.
N7445 G1 X1.7959 Y0.3092
N7450 G2 X1.7843 Y0.3054 I-0.0117 J0.0159
N7455 G1 X1.2052
N7460 G2 X1.1944 Y0.3087 I0. J0.0197
N7465 G1 X1.1935 Y0.3092
N7470 G2 X1.1846 Y0.3257 I0.0109 J0.0164
N7475 G1 Y0.3976
N7480 X1.1641 Y0.3977
N7485 X1.0587 Y0.3976
N7490 Y0.0379
N7495 Y0.0378
N7500 X1.1827
N7505 X1.1846
N7510 Y0.0379
N7515 Y0.1274
N7520 G2 X1.1934 Y0.1438 I0.0197 J0.
N7525 G1 X1.1943 Y0.1444
N7530 G2 X1.2052 Y0.1477 I0.0109 J-0.0164
N7535 G1 X1.4044
N7540 G2 X1.4157 Y0.1441 I0. J-0.0197
N7545 G1 X1.4165 Y0.1435
N7550 G2 X1.4249 Y0.1274 I-0.0113 J-0.0161
N7555 G1 Y-0.1521
N7560 G2 X1.4138 Y-0.1698 I-0.0197 J0.
N7565 G1 X1.4129 Y-0.1702
N7570 G2 X1.4044 Y-0.1722 I-0.0086 J0.0177
N7575 G1 X1.2052
N7580 G2 X1.197 Y-0.1704 I0. J0.0197
N7585 G1 X1.1961 Y-0.17
N7590 G2 X1.1846 Y-0.1521 I0.0082 J0.0179
N7595 G1 Y-0.0929
N7600 G3 X1.1768 Y-0.0927 I-0.0039 J0.
N7605 G1 X1.1716 Y-0.2109
N7610 G2 X1.1685 Y-0.2146 I-0.0039 J0.0002
N7615 G3 X1.1832 Y-0.288 Z0.5059 I0.0073 J-0.0367
N7620 X1.1685 Y-0.2146 Z0.5018 I-0.0073 J0.0367
N7625 X1.1384 Y-0.2513 Z0.5 I0.0073 J-0.0367
N7630 G1 Y-0.257
N7635 G3 X1.1533 Y-0.2653 I0.0097 J0.
N7640 G2 X1.1596 Y-0.2617 I0.052 J-0.0848
N7645 G3 X1.1595 Y-0.2408 I-0.0054 J0.0104
N7650 G2 X1.1532 Y-0.2373 I0.0448 J0.0888
N7655 G3 X1.1384 Y-0.2457 I-0.005 J-0.0083
N7660 G1 Y-0.2513
N7665 G3 X1.1424 Y-0.2552 I0.0039 J0.
N7670 G1 X1.4878 Y-0.2487
N7675 X1.5011
N7680 G3 X1.5073 Y-0.2314 I0. J0.0098
N7685 G2 X1.4971 Y-0.222 I0.0635 J0.0789
N7690 G3 X1.4785 I-0.0093 J-0.0088
N7695 G2 X1.4681 Y-0.2314 I-0.0733 J0.0699
N7700 G3 X1.4742 Y-0.2487 I0.006 J-0.0076
N7705 G1 X1.4878
N7710 X1.8313 Y-0.2629
N7715 G2 X1.8331 Y-0.2634 I-0.0002 J-0.0039
N7720 G3 X1.8529 Y-0.2518 I0.0065 J0.0116
N7725 G1 Y-0.2509
N7730 G3 X1.833 Y-0.2392 I-0.0134 J0.
N7735 G2 X1.83 Y-0.2408 I-0.0481 J0.0873
N7740 G3 X1.8299 Y-0.2617 I0.0053 J-0.0105
N7745 G2 X1.8331 Y-0.2634 I-0.0456 J-0.0884
N7750 G3 X1.8345 Y-0.264 Z0.5002 I0.0039 J0.0069
N7755 X1.8359 Y-0.2643 Z0.5006 I0.0025 J0.0075
N7760 X1.8373 Y-0.2644 Z0.5013 I0.001 J0.0078
N7765 X1.8385 Y-0.2643 Z0.5023 I-0.0003 J0.0079
N7770 X1.8394 Y-0.264 Z0.5035 I-0.0015 J0.0077
N7775 X1.8401 Y-0.2638 Z0.5049 I-0.0025 J0.0075
N7780 X1.8405 Y-0.2636 Z0.5063 I-0.0031 J0.0072
N7785 G1 X1.8406 Y-0.2635 Z0.5079
N7790 G0 Z0.95
N7795 X1.7904 Y0.1991
N7800 G1 Z0.5599 F20.
N7805 X1.7905 Y0.199 Z0.5585
N7810 X1.7907 Y0.1988 Z0.5572
N7815 G3 X1.7911 Y0.1984 Z0.556 I0.0251 J0.0278
N7820 X1.7917 Y0.1979 Z0.5549 I0.0246 J0.0281
N7825 X1.7925 Y0.1973 Z0.5539 I0.024 J0.0286
N7830 X1.7933 Y0.1966 Z0.5531 I0.0233 J0.0292
N7835 X1.7943 Y0.1959 Z0.5525 I0.0224 J0.0299
N7840 X1.7953 Y0.1952 Z0.5522 I0.0215 J0.0306
N7845 X1.7964 Y0.1945 Z0.552 I0.0204 J0.0313
N7850 X1.8351 Y0.2585 Z0.5479 I0.0193 J0.032
N7855 X1.7964 Y0.1945 Z0.5438 I-0.0193 J-0.032
N7860 X1.8351 Y0.2585 Z0.5397 I0.0193 J0.032
N7865 X1.7964 Y0.1945 Z0.5356 I-0.0193 J-0.032
N7870 X1.8351 Y0.2585 Z0.5315 I0.0193 J0.032
N7875 X1.7964 Y0.1945 Z0.5274 I-0.0193 J-0.032
N7880 X1.8351 Y0.2585 Z0.5233 I0.0193 J0.032
N7885 X1.7964 Y0.1945 Z0.5192 I-0.0193 J-0.032
N7890 X1.8351 Y0.2585 Z0.5151 I0.0193 J0.032
N7895 X1.7964 Y0.1945 Z0.511 I-0.0193 J-0.032
N7900 X1.8351 Y0.2585 Z0.5069 I0.0193 J0.032
N7905 X1.7964 Y0.1945 Z0.5028 I-0.0193 J-0.032
N7910 X1.8532 Y0.2265 Z0.5 I0.0193 J0.032
N7915 G1 Y0.2273
N7920 G3 X1.8333 Y0.2389 I-0.0133 J0.
N7925 G2 X1.8266 Y0.2353 I-0.0491 J0.0862
N7930 G3 Y0.2177 I0.0041 J-0.0088
N7935 G2 X1.8333 Y0.2142 I-0.0423 J-0.0897
N7940 G3 X1.8532 Y0.2257 I0.0066 J0.0115
N7945 G1 Y0.2265
N7950 G3 X1.8492 Y0.2305 I-0.0039 J0.
N7955 G1 X1.4877 Y0.2258
N7960 X1.4679
N7965 G3 X1.4624 Y0.2085 I0. J-0.0096
N7970 G2 X1.4781 Y0.1947 I-0.0572 J-0.0811
N7975 G3 X1.4974 Y0.1948 I0.0096 J0.0089
N7980 G2 X1.5128 Y0.2085 I0.0734 J-0.0668
N7985 G3 X1.5072 Y0.2258 I-0.0056 J0.0078
N7990 G1 X1.4877
N7995 X1.1523 Y0.2396
N8000 G3 X1.1382 Y0.2266 I-0.001 J-0.0131
N8005 G1 Y0.2265
N8010 G3 X1.1576 Y0.215 I0.0131 J0.
N8015 G2 X1.1597 Y0.2161 I0.0476 J-0.087
N8020 G3 Y0.237 I-0.0054 J0.0104
N8025 G2 X1.1576 Y0.2381 I0.0456 J0.0881
N8030 G3 X1.1523 Y0.2396 I-0.0063 J-0.0115
N8035 G2 X1.1293 Y0.2565 I0.0021 J0.0271
N8040 G3 X1.1013 Y0.2509 I-0.0135 J-0.0055
N8045 G1 Y0.1028
N8050 G3 X1.1217 Y0.0824 I0.0204 J0.
N8055 X1.1421 Y0.1028 I0. J0.0204
N8060 X1.1417 Y0.1151 I-0.1972 J0.
N8065 G2 X1.1413 Y0.1274 I0.1968 J0.0123
N8070 X1.1595 Y0.1737 I0.068 J0.
N8075 X1.2052 Y0.1936 I0.0457 J-0.0426
N8080 G1 X1.4044
N8085 G2 X1.4708 Y0.1274 I0. J-0.0665
N8090 G1 Y-0.1521
N8095 G2 X1.4513 Y-0.1988 I-0.0657 J0.
N8100 X1.4044 Y-0.2181 I-0.0469 J0.0475
N8105 G1 X1.2052
N8110 G2 X1.1595 Y-0.1983 I0. J0.0627
N8115 X1.1412 Y-0.1521 I0.0492 J0.0463
N8120 X1.1416 Y-0.1382 I0.2213 J0.
N8125 G3 X1.1421 Y-0.1244 I-0.2209 J0.0138
N8130 X1.1245 Y-0.1068 I-0.0176 J0.
N8135 G1 X1.1188
N8140 G3 X1.1012 Y-0.1244 I0. J-0.0176
N8145 G1 X1.1013 Y-0.3552
N8150 G3 X1.1421 I0.0204 J0.
N8155 X1.142 Y-0.3529 I-0.0371 J0.
N8160 G2 X1.1419 Y-0.3506 I0.0371 J0.0023
N8165 X1.1599 Y-0.3045 I0.068 J0.
N8170 X1.2052 Y-0.2847 I0.0453 J-0.0417
N8175 G1 X1.7843
N8180 G2 X1.8295 Y-0.3045 I0. J-0.0614
N8185 X1.8475 Y-0.3506 I-0.0501 J-0.0461
N8190 X1.8474 Y-0.3527 I-0.0335 J0.
N8195 G3 X1.8473 Y-0.3548 I0.0335 J-0.0021
N8200 X1.8687 Y-0.3762 I0.0214 J0.
N8205 X1.8901 Y-0.3548 I0. J0.0214
N8210 G1 Y-0.1244
N8215 G3 X1.8725 Y-0.1068 I-0.0176 J0.
N8220 G1 X1.8649
N8225 G3 X1.8473 Y-0.1244 I0. J-0.0176
N8230 X1.8478 Y-0.1383 I0.2212 J0.
N8235 G2 X1.8482 Y-0.1521 I-0.2207 J-0.0138
N8240 X1.8299 Y-0.1983 I-0.0676 J0.
N8245 X1.7843 Y-0.2181 I-0.0456 J0.0428
N8250 G1 X1.5708
N8255 G2 X1.5049 Y-0.1521 I0. J0.0658
N8260 G1 Y0.1274
N8265 G2 X1.5241 Y0.1741 I0.0665 J0.
N8270 X1.5708 Y0.1936 I0.0466 J-0.0461
N8275 G1 X1.7843
N8280 G2 X1.8299 Y0.1737 I0. J-0.0623
N8285 X1.8481 Y0.1274 I-0.0499 J-0.0463
N8290 X1.8477 Y0.1153 I-0.1936 J0.
N8295 G3 X1.8473 Y0.1032 I0.1933 J-0.0121
N8300 X1.8901 I0.0214 J0.
N8305 G1 Y0.3323
N8310 G3 X1.8687 Y0.3536 I-0.0214 J0.
N8315 X1.8473 Y0.3323 I0. J-0.0214
N8320 X1.8474 Y0.329 I0.0529 J0.
N8325 G2 X1.8475 Y0.3256 I-0.0528 J-0.0033
N8330 X1.8296 Y0.2795 I-0.0682 J0.
N8335 X1.7843 Y0.2596 I-0.0453 J0.0416
N8340 G1 X1.2052 Y0.2595
N8345 G2 X1.1598 Y0.2795 I0. J0.0617
N8350 X1.1418 Y0.3256 I0.0502 J0.0462
N8355 X1.1419 Y0.3302 I0.072 J0.
N8360 G3 X1.1421 Y0.3347 I-0.0719 J0.0045
N8365 X1.1217 Y0.3551 I-0.0204 J0.
N8370 X1.1013 Y0.3347 I0. J-0.0204
N8375 G1 Y0.2509
N8380 G2 X1.08 Y0.219 I-0.0346 J0.
N8385 G3 X1.0587 Y0.1871 I0.0133 J-0.0319
N8390 G1 Y0.0379
N8395 Y0.0378
N8400 X1.1827
N8405 X1.1846
N8410 Y0.0379
N8415 Y0.1274
N8420 G2 X1.1934 Y0.1438 I0.0197 J0.
N8425 G1 X1.1943 Y0.1444
N8430 G2 X1.2052 Y0.1477 I0.0109 J-0.0164
N8435 G1 X1.4044
N8440 G2 X1.4157 Y0.1441 I0. J-0.0197
N8445 G1 X1.4165 Y0.1435
N8450 G2 X1.4249 Y0.1274 I-0.0113 J-0.0161
N8455 G1 Y-0.1521
N8460 G2 X1.4138 Y-0.1698 I-0.0197 J0.
N8465 G1 X1.4129 Y-0.1702
N8470 G2 X1.4044 Y-0.1722 I-0.0086 J0.0177
N8475 G1 X1.2052
N8480 G2 X1.197 Y-0.1704 I0. J0.0197
N8485 G1 X1.1961 Y-0.17
N8490 G2 X1.1846 Y-0.1521 I0.0082 J0.0179
N8495 G1 Y-0.0647
N8500 Y-0.0643
N8505 X1.1641 Y-0.0642
N8510 X1.0587 Y-0.0643
N8515 Y-0.0708
N8520 Y-0.4201
N8525 X1.1827 Y-0.4202
N8530 X1.1846
N8535 Y-0.3506
N8540 G2 X1.1938 Y-0.334 I0.0197 J0.
N8545 G1 X1.1946 Y-0.3334
N8550 G2 X1.2052 Y-0.3304 I0.0106 J-0.0166
N8555 G1 X1.7843
N8560 G2 X1.7957 Y-0.334 I0. J-0.0197
N8565 G1 X1.7965 Y-0.3345
N8570 G2 X1.8048 Y-0.3506 I-0.0114 J-0.0161
N8575 G1 Y-0.4202
N8580 X1.9326
N8585 X1.9327 Y-0.0647
N8590 Y-0.0643
N8595 X1.8048
N8600 Y-0.0708
N8605 Y-0.1521
N8610 G2 X1.794 Y-0.1696 I-0.0197 J0.
N8615 G1 X1.7932 Y-0.17
N8620 G2 X1.7843 Y-0.1722 I-0.0089 J0.0175
N8625 G1 X1.5708
N8630 G2 X1.5534 Y-0.1618 I0. J0.0197
N8635 G1 X1.5532 Y-0.1614
N8640 G2 X1.5509 Y-0.1521 I0.0173 J0.0094
N8645 G1 Y0.1274
N8650 G2 X1.5521 Y0.1343 I0.0197 J0.
N8655 G1 X1.5523 Y0.1349
N8660 G2 X1.5708 Y0.1477 I0.0184 J-0.0069
N8665 G1 X1.7843
N8670 G2 X1.796 Y0.1438 I0. J-0.0197
N8675 G1 X1.7968 Y0.1432
N8680 G2 X1.8048 Y0.1274 I-0.0117 J-0.0158
N8685 G1 Y0.0379
N8690 Y0.0378
N8695 X1.9326
N8700 X1.9327 Y0.0379
N8705 Y0.3976
N8710 X1.8048
N8715 Y0.3257
N8720 G2 X1.7967 Y0.3098 I-0.0197 J0.
N8725 G1 X1.7959 Y0.3092
N8730 G2 X1.7843 Y0.3054 I-0.0117 J0.0159
N8735 G1 X1.2052
N8740 G2 X1.1944 Y0.3087 I0. J0.0197
N8745 G1 X1.1935 Y0.3092
N8750 G2 X1.1846 Y0.3257 I0.0109 J0.0164
N8755 G1 Y0.3976
N8760 X1.1641 Y0.3977
N8765 X1.0587 Y0.3976
N8770 Y0.1871
N8775 G3 X1.0663 Y0.1857 I0.0039 J0.
N8780 G1 X1.0942 Y0.2592
N8785 G2 X1.1016 Y0.2566 I0.0037 J-0.0014
N8790 G3 X1.1727 Y0.2333 Z0.4959 I0.0355 J-0.0117
N8795 X1.1016 Y0.2566 Z0.4918 I-0.0355 J0.0117
N8800 X1.1727 Y0.2333 Z0.4877 I0.0355 J-0.0117
N8805 X1.1016 Y0.2566 Z0.4836 I-0.0355 J0.0117
N8810 X1.1727 Y0.2333 Z0.4795 I0.0355 J-0.0117
N8815 X1.1016 Y0.2566 Z0.4754 I-0.0355 J0.0117
N8820 X1.1727 Y0.2333 Z0.4713 I0.0355 J-0.0117
N8825 X1.1016 Y0.2566 Z0.4672 I-0.0355 J0.0117
N8830 X1.1727 Y0.2333 Z0.4631 I0.0355 J-0.0117
N8835 X1.1204 Y0.2784 Z0.46 I-0.0355 J0.0117
N8840 X1.1534 Y0.2124 I0.0165 J-0.033
N8845 G2 X1.1651 Y0.2173 I0.0423 J-0.0846
N8850 X1.1817 Y0.2205 I0.0197 J-0.0577
N8855 G1 X1.4301 Y0.2209
N8860 G2 X1.4549 Y0.2139 I-0.0037 J-0.0605
N8865 X1.4756 Y0.1985 I-0.0404 J-0.0759
N8870 G3 X1.5 Y0.1984 I0.0123 J0.0121
N8875 G2 X1.5226 Y0.2147 I0.0634 J-0.0639
N8880 X1.5498 Y0.2212 I0.0271 J-0.0534
N8885 G3 X1.6829 Y0.2251 I-0.0002 J2.2868
N8890 G2 X1.816 Y0.2195 I0.0387 J-0.6621
N8895 X1.8294 Y0.2156 I-0.0073 J-0.0506
N8900 X1.8417 Y0.2092 I-0.0433 J-0.0981
N8905 G3 X1.8609 Y0.22 I0.0065 J0.0108
N8910 G1 Y0.2331
N8915 G3 X1.8417 Y0.2439 I-0.0126 J0.
N8920 G2 X1.8242 Y0.2356 I-0.048 J0.0791
N8925 X1.8051 Y0.2324 I-0.0191 J0.0548
N8930 G1 X1.1746 Y0.2334
N8935 G2 X1.1618 Y0.2368 I0.0066 J0.0509
N8940 X1.1498 Y0.2426 I0.0413 J0.101
N8945 G3 X1.1305 Y0.2313 I-0.0063 J-0.0113
N8950 G1 Y0.2217
N8955 G3 X1.1497 Y0.2104 I0.0129 J0.
N8960 G2 X1.1534 Y0.2124 I0.0461 J-0.0827
N8965 G3 X1.1547 Y0.2132 Z0.4602 I-0.0035 J0.0071
N8970 X1.1558 Y0.2142 Z0.4606 I-0.0048 J0.0062
N8975 X1.1566 Y0.2153 Z0.4613 I-0.0059 J0.0052
N8980 X1.1572 Y0.2163 Z0.4623 I-0.0067 J0.0041
N8985 X1.1575 Y0.2173 Z0.4635 I-0.0072 J0.0031
N8990 X1.1577 Y0.218 Z0.4649 I-0.0076 J0.0022
N8995 Y0.2184 Z0.4663 I-0.0077 J0.0015
N9000 G1 Y0.2186 Z0.4679
N9005 G0 Z0.95
N9010 X1.1152 Y-0.3004
N9015 G1 Z0.5499 F20.
N9020 X1.1153 Y-0.3005 Z0.5484
N9025 G3 X1.1157 Y-0.3007 Z0.547 I0.0217 J0.0305
N9030 X1.1162 Y-0.3011 Z0.5457 I0.0214 J0.0307
N9035 X1.1169 Y-0.3016 Z0.5445 I0.0208 J0.0311
N9040 X1.1179 Y-0.3021 Z0.5436 I0.0201 J0.0316
N9045 X1.1189 Y-0.3028 Z0.5428 I0.0192 J0.0321
N9050 X1.1201 Y-0.3034 Z0.5423 I0.0181 J0.0327
N9055 X1.121 Y-0.3038 Z0.5421 I0.0169 J0.0334
N9060 X1.1218 Y-0.3042 Z0.542 I0.0161 J0.0338
N9065 X1.1522 Y-0.2359 Z0.5379 I0.0152 J0.0342
N9070 X1.1218 Y-0.3042 Z0.5338 I-0.0152 J-0.0342
N9075 X1.1522 Y-0.2359 Z0.5297 I0.0152 J0.0342
N9080 X1.1218 Y-0.3042 Z0.5256 I-0.0152 J-0.0342
N9085 X1.1522 Y-0.2359 Z0.5215 I0.0152 J0.0342
N9090 X1.1218 Y-0.3042 Z0.5174 I-0.0152 J-0.0342
N9095 X1.1522 Y-0.2359 Z0.5133 I0.0152 J0.0342
N9100 X1.1218 Y-0.3042 Z0.5092 I-0.0152 J-0.0342
N9105 X1.1522 Y-0.2359 Z0.5051 I0.0152 J0.0342
N9110 X1.1218 Y-0.3042 Z0.501 I-0.0152 J-0.0342
N9115 X1.1522 Y-0.2359 Z0.4969 I0.0152 J0.0342
N9120 X1.1218 Y-0.3042 Z0.4928 I-0.0152 J-0.0342
N9125 X1.1522 Y-0.2359 Z0.4887 I0.0152 J0.0342
N9130 X1.1218 Y-0.3042 Z0.4846 I-0.0152 J-0.0342
N9135 X1.1522 Y-0.2359 Z0.4805 I0.0152 J0.0342
N9140 X1.1218 Y-0.3042 Z0.4763 I-0.0152 J-0.0342
N9145 X1.1522 Y-0.2359 Z0.4722 I0.0152 J0.0342
N9150 X1.1218 Y-0.3042 Z0.4681 I-0.0152 J-0.0342
N9155 X1.1522 Y-0.2359 Z0.464 I0.0152 J0.0342
N9160 X1.1201 Y-0.3034 Z0.46 I-0.0152 J-0.0342
N9165 X1.1536 Y-0.2372 I0.0167 J0.0331
N9170 G2 X1.1499 Y-0.2353 I0.0431 J0.0852
N9175 G3 X1.1307 Y-0.2465 I-0.0063 J-0.0112
N9180 G1 Y-0.2558
N9185 G3 X1.1499 Y-0.2672 I0.013 J0.
N9190 G2 X1.1652 Y-0.2605 I0.05 J-0.0933
N9195 X1.1817 Y-0.2573 I0.0195 J-0.0563
N9200 G1 X1.8092 Y-0.2574
N9205 G2 X1.826 Y-0.261 I-0.0044 J-0.0614
N9210 X1.8415 Y-0.2684 I-0.0312 J-0.0852
N9215 G3 X1.8606 Y-0.2575 I0.0065 J0.0109
N9220 G1 Y-0.245
N9225 G3 X1.8416 Y-0.2341 I-0.0127 J0.
N9230 G2 X1.8268 Y-0.2413 I-0.0552 J0.0942
N9235 X1.8107 Y-0.245 I-0.0199 J0.0499
N9240 G1 X1.5471 Y-0.2458
N9245 G2 X1.5215 Y-0.2388 I0.004 J0.065
N9250 X1.5 Y-0.2232 I0.0392 J0.0768
N9255 G3 X1.4757 Y-0.2233 I-0.0121 J-0.0123
N9260 G2 X1.4542 Y-0.2388 I-0.0596 J0.0598
N9265 X1.4286 Y-0.2458 I-0.0296 J0.0585
N9270 G1 X1.1801 Y-0.2451
N9275 G2 X1.1644 Y-0.2419 I0.0028 J0.0547
N9280 X1.1536 Y-0.2372 I0.0322 J0.0898
N9285 X1.1396 Y-0.2038 I0.0126 J0.0249
N9290 G3 X1.1453 Y-0.1681 I-0.1107 J0.0358
N9295 G1 Y-0.1036
N9300 X1.098
N9305 Y-0.3808
N9310 X1.1453
N9315 Y-0.3304
N9320 G2 Y-0.3297 I0.0197 J0.
N9325 G1 Y-0.3281
N9330 G2 X1.1455 Y-0.3265 I0.0197 J-0.0007
N9335 G1 X1.1457 Y-0.325
N9340 G2 X1.1459 Y-0.3234 I0.0196 J-0.0023
N9345 G1 X1.1462 Y-0.3218
N9350 G2 X1.1466 Y-0.3203 I0.0193 J-0.0039
N9355 G1 X1.147 Y-0.3187
N9360 G2 X1.1477 Y-0.3167 I0.0189 J-0.0054
N9365 G1 X1.1487 Y-0.3144
N9370 G2 X1.1497 Y-0.3123 I0.0182 J-0.0074
N9375 G1 X1.1507 Y-0.3105
N9380 G2 X1.1515 Y-0.3091 I0.0172 J-0.0095
N9385 G1 X1.1522 Y-0.308
N9390 G2 X1.153 Y-0.307 I0.0164 J-0.0109
N9395 G1 X1.1538 Y-0.3059
N9400 G2 X1.1546 Y-0.3049 I0.0156 J-0.012
N9405 G1 X1.1556 Y-0.3038
N9410 G2 X1.1566 Y-0.3027 I0.0148 J-0.013
N9415 G1 X1.1577 Y-0.3016
N9420 G2 X1.1589 Y-0.3006 I0.0137 J-0.0141
N9425 G1 X1.16 Y-0.2996
N9430 G2 X1.1616 Y-0.2985 I0.0126 J-0.0151
N9435 G1 X1.1636 Y-0.2971
N9440 G2 X1.1656 Y-0.2959 I0.011 J-0.0163
N9445 G1 X1.1675 Y-0.2949
N9450 G2 X1.1693 Y-0.2941 I0.0091 J-0.0175
N9455 G1 X1.1709 Y-0.2935
N9460 G2 X1.1725 Y-0.2929 I0.0073 J-0.0183
N9465 G1 X1.174 Y-0.2925
N9470 G2 X1.1756 Y-0.292 I0.0057 J-0.0188
N9475 G1 X1.1772 Y-0.2917
N9480 G2 X1.1787 Y-0.2914 I0.0041 J-0.0192
N9485 G1 X1.1803 Y-0.2912
N9490 G2 X1.1818 Y-0.2911 I0.0026 J-0.0195
N9495 G1 X1.1834 Y-0.291
N9500 G2 X1.1844 I0.001 J-0.0197
N9505 G1 X1.8054
N9510 G2 X1.8068 I0. J-0.0197
N9515 G1 X1.8083 Y-0.2912
N9520 G2 X1.8099 Y-0.2913 I-0.0014 J-0.0196
N9525 G1 X1.8115 Y-0.2916
N9530 G2 X1.813 Y-0.2919 I-0.003 J-0.0195
N9535 G1 X1.8146 Y-0.2922
N9540 G2 X1.8162 Y-0.2927 I-0.0045 J-0.0192
N9545 G1 X1.8177 Y-0.2932
N9550 G2 X1.8197 Y-0.294 I-0.0061 J-0.0187
N9555 G1 X1.822 Y-0.295
N9560 G2 X1.8241 Y-0.2961 I-0.0081 J-0.018
N9565 G1 X1.8259 Y-0.2972
N9570 G2 X1.8273 Y-0.2981 I-0.0101 J-0.0169
N9575 G1 X1.8283 Y-0.2988
N9580 G2 X1.8297 Y-0.2999 I-0.0115 J-0.016
N9585 G1 X1.8316 Y-0.3016
N9590 G2 X1.8333 Y-0.3032 I-0.013 J-0.0148
N9595 G1 X1.8349 Y-0.305
N9600 G2 X1.8363 Y-0.3069 I-0.0147 J-0.0131
N9605 G1 X1.8377 Y-0.3089
N9610 G2 X1.8389 Y-0.3107 I-0.0162 J-0.0112
N9615 G1 X1.8398 Y-0.3124
N9620 G2 X1.8407 Y-0.3144 I-0.0173 J-0.0094
N9625 G1 X1.8417 Y-0.3167
N9630 G2 X1.8424 Y-0.3187 I-0.0182 J-0.0074
N9635 G1 X1.8428 Y-0.3203
N9640 G2 X1.8432 Y-0.3218 I-0.0189 J-0.0054
N9645 G1 X1.8435 Y-0.3234
N9650 G2 X1.8438 Y-0.325 I-0.0193 J-0.0039
N9655 G1 X1.8439 Y-0.3265
N9660 G2 X1.8441 Y-0.3286 I-0.0196 J-0.0023
N9665 G1 Y-0.3333
N9670 Y-0.3335
N9675 Y-0.3808
N9680 X1.8933
N9685 Y-0.1036
N9690 X1.8441
N9695 Y-0.1724
N9700 G2 Y-0.1734 I-0.0197 J0.
N9705 G1 X1.844 Y-0.175
N9710 G2 X1.8439 Y-0.1766 I-0.0197 J0.001
N9715 G1 X1.8437 Y-0.1781
N9720 G2 X1.8434 Y-0.1797 I-0.0195 J0.0026
N9725 G1 X1.8431 Y-0.1813
N9730 G2 X1.8427 Y-0.1828 I-0.0192 J0.0042
N9735 G1 X1.8422 Y-0.1843
N9740 G2 X1.8415 Y-0.1863 I-0.0188 J0.0057
N9745 G1 X1.8405 Y-0.1886
N9750 G2 X1.8396 Y-0.1905 I-0.0181 J0.0077
N9755 G1 X1.8387 Y-0.1921
N9760 G2 X1.8377 Y-0.1937 I-0.0172 J0.0096
N9765 G1 X1.8365 Y-0.1954
N9770 G2 X1.8351 Y-0.1972 I-0.0162 J0.0112
N9775 G1 X1.8336 Y-0.1989
N9780 G2 X1.832 Y-0.2006 I-0.0148 J0.013
N9785 G1 X1.8303 Y-0.2021
N9790 G2 X1.8286 Y-0.2034 I-0.0132 J0.0146
N9795 G1 X1.8271 Y-0.2046
N9800 G2 X1.8255 Y-0.2056 I-0.0116 J0.0159
N9805 G1 X1.8238 Y-0.2066
N9810 G2 X1.8223 Y-0.2074 I-0.01 J0.017
N9815 G1 X1.821 Y-0.208
N9820 G2 X1.8196 Y-0.2086 I-0.0084 J0.0178
N9825 G1 X1.8183 Y-0.2091
N9830 G2 X1.8169 Y-0.2096 I-0.0071 J0.0184
N9835 G1 X1.8156 Y-0.21
N9840 G2 X1.8143 Y-0.2104 I-0.0058 J0.0188
N9845 G1 X1.8129 Y-0.2107
N9850 G2 X1.8115 Y-0.2109 I-0.0044 J0.0192
N9855 G1 X1.8099 Y-0.2112
N9860 G2 X1.8083 Y-0.2114 I-0.003 J0.0195
N9865 G1 X1.8068 Y-0.2115
N9870 G2 X1.8054 I-0.0014 J0.0196
N9875 G1 X1.5504
N9880 G2 X1.5492 I0. J0.0197
N9885 G1 X1.5476 Y-0.2114
N9890 G2 X1.5461 Y-0.2112 I0.0012 J0.0196
N9895 G1 X1.5445 Y-0.211
N9900 G2 X1.543 Y-0.2107 I0.0028 J0.0195
N9905 G1 X1.5414 Y-0.2104
N9910 G2 X1.5396 Y-0.2099 I0.0043 J0.0192
N9915 G1 X1.5376 Y-0.2092
N9920 G2 X1.5356 Y-0.2084 I0.0061 J0.0187
N9925 G1 X1.5336 Y-0.2075
N9930 G2 X1.5321 Y-0.2068 I0.0081 J0.0179
N9935 G1 X1.5309 Y-0.2061
N9940 G2 X1.5294 Y-0.2052 I0.0097 J0.0171
N9945 G1 X1.5276 Y-0.2039
N9950 G2 X1.526 Y-0.2026 I0.0112 J0.0162
N9955 G1 X1.5246 Y-0.2014
N9960 G2 X1.5235 Y-0.2005 I0.0128 J0.015
N9965 G1 X1.5228 Y-0.1998
N9970 G2 X1.5219 Y-0.1988 I0.0139 J0.014
N9975 G1 X1.5208 Y-0.1976
N9980 G2 X1.5198 Y-0.1964 I0.0148 J0.013
N9985 G1 X1.5189 Y-0.1952
N9990 G2 X1.5181 Y-0.1939 I0.0157 J0.0118
N9995 G1 X1.5173 Y-0.1927
N10000 G2 X1.5163 Y-0.191 I0.0166 J0.0106
N10005 G1 X1.5152 Y-0.1888
N10010 G2 X1.5143 Y-0.1868 I0.0176 J0.0089
N10015 G1 X1.5136 Y-0.1849
N10020 G2 X1.5131 Y-0.1835 I0.0185 J0.0069
N10025 G1 X1.5129 Y-0.1825
N10030 G2 X1.5126 Y-0.1813 I0.0189 J0.0054
N10035 G1 X1.5122 Y-0.1797
N10040 G2 X1.5119 Y-0.1781 I0.0192 J0.0042
N10045 G1 X1.5117 Y-0.1766
N10050 G2 X1.5116 Y-0.175 I0.0195 J0.0026
N10055 G1 X1.5115 Y-0.1734
N10060 G2 Y-0.1724 I0.0197 J0.001
N10065 G1 Y0.1483
N10070 G2 Y0.1497 I0.0197 J0.
N10075 G1 X1.5117 Y0.1513
N10080 G2 X1.5118 Y0.1528 I0.0196 J-0.0014
N10085 G1 X1.5121 Y0.1544
N10090 G2 X1.5124 Y0.156 I0.0195 J-0.003
N10095 G1 X1.5128 Y0.1575
N10100 G2 X1.5132 Y0.1591 I0.0192 J-0.0045
N10105 G1 X1.5137 Y0.1607
N10110 G2 X1.5144 Y0.1624 I0.0187 J-0.0061
N10115 G1 X1.5152 Y0.1642
N10120 G2 X1.5159 Y0.1657 I0.0181 J-0.0078
N10125 G1 X1.5165 Y0.1668
N10130 G2 X1.5171 Y0.1679 I0.0173 J-0.0093
N10135 G1 X1.5178 Y0.169
N10140 G2 X1.5185 Y0.1701 I0.0167 J-0.0104
N10145 G1 X1.5193 Y0.1712
N10150 G2 X1.5202 Y0.1723 I0.016 J-0.0115
N10155 G1 X1.5211 Y0.1734
N10160 G2 X1.5223 Y0.1748 I0.0151 J-0.0126
N10165 G1 X1.524 Y0.1764
N10170 G2 X1.5256 Y0.1779 I0.0139 J-0.014
N10175 G1 X1.5273 Y0.1792
N10180 G2 X1.5289 Y0.1803 I0.0122 J-0.0154
N10185 G1 X1.5304 Y0.1813
N10190 G2 X1.532 Y0.1822 I0.0106 J-0.0166
N10195 G1 X1.5336 Y0.183
N10200 G2 X1.5351 Y0.1838 I0.009 J-0.0175
N10205 G1 X1.5367 Y0.1844
N10210 G2 X1.5387 Y0.1851 I0.0075 J-0.0182
N10215 G1 X1.5412 Y0.1858
N10220 G2 X1.5434 Y0.1863 I0.0055 J-0.0189
N10225 G1 X1.5454 Y0.1867
N10230 G2 X1.547 Y0.1868 I0.0032 J-0.0194
N10235 G1 X1.5481 Y0.1869
N10240 G2 X1.5498 Y0.187 I0.0016 J-0.0196
N10245 G1 X1.8052
N10250 G2 X1.8063 I0. J-0.0197
N10255 G1 X1.8077 Y0.1869
N10260 G2 X1.8094 Y0.1868 I-0.0011 J-0.0197
N10265 G1 X1.8113 Y0.1865
N10270 G2 X1.813 Y0.1862 I-0.0028 J-0.0195
N10275 G1 X1.8146 Y0.1858
N10280 G2 X1.8162 Y0.1853 I-0.0045 J-0.0192
N10285 G1 X1.8177 Y0.1848
N10290 G2 X1.8197 Y0.1841 I-0.0061 J-0.0187
N10295 G1 X1.822 Y0.183
N10300 G2 X1.8242 Y0.1819 I-0.0081 J-0.018
N10305 G1 X1.8261 Y0.1807
N10310 G2 X1.8277 Y0.1797 I-0.0102 J-0.0168
N10315 G1 X1.8288 Y0.1788
N10320 G2 X1.83 Y0.1779 I-0.0118 J-0.0158
N10325 G1 X1.8312 Y0.1769
N10330 G2 X1.8323 Y0.1758 I-0.0129 J-0.0149
N10335 G1 X1.8335 Y0.1746
N10340 G2 X1.8345 Y0.1735 I-0.0141 J-0.0138
N10345 G1 X1.8354 Y0.1724
N10350 G2 X1.8362 Y0.1714 I-0.0151 J-0.0126
N10355 G1 X1.8369 Y0.1704
N10360 G2 X1.8379 Y0.1688 I-0.0159 J-0.0116
N10365 G1 X1.8392 Y0.1667
N10370 G2 X1.8403 Y0.1646 I-0.0169 J-0.0101
N10375 G1 X1.8412 Y0.1625
N10380 G2 X1.8419 Y0.1607 I-0.018 J-0.008
N10385 G1 X1.8424 Y0.1591
N10390 G2 X1.8429 Y0.1575 I-0.0187 J-0.0061
N10395 G1 X1.8432 Y0.156
N10400 G2 X1.8435 Y0.1544 I-0.0192 J-0.0045
N10405 G1 X1.8438 Y0.1528
N10410 G2 X1.844 Y0.1513 I-0.0195 J-0.003
N10415 G1 X1.8441 Y0.1497
N10420 G2 Y0.1483 I-0.0196 J-0.0014
N10425 G1 Y0.0772
N10430 X1.8933
N10435 Y0.3583
N10440 X1.8441
N10445 Y0.3047
N10450 G2 Y0.3033 I-0.0197 J0.
N10455 G1 X1.844 Y0.3018
N10460 G2 X1.8438 Y0.3002 I-0.0196 J0.0014
N10465 G1 X1.8435 Y0.2986
N10470 G2 X1.8432 Y0.2971 I-0.0195 J0.003
N10475 G1 X1.8429 Y0.2955
N10480 G2 X1.8424 Y0.2939 I-0.0192 J0.0046
N10485 G1 X1.8419 Y0.2924
N10490 G2 X1.8412 Y0.2905 I-0.0187 J0.0061
N10495 G1 X1.8403 Y0.2884
N10500 G2 X1.8392 Y0.2863 I-0.018 J0.008
N10505 G1 X1.8379 Y0.2842
N10510 G2 X1.8369 Y0.2827 I-0.0169 J0.0101
N10515 G1 X1.8362 Y0.2816
N10520 G2 X1.8353 Y0.2806 I-0.0159 J0.0116
N10525 G1 X1.8345 Y0.2796
N10530 G2 X1.8335 Y0.2785 I-0.0151 J0.0127
N10535 G1 X1.8323 Y0.2773
N10540 G2 X1.8312 Y0.2762 I-0.0141 J0.0138
N10545 G1 X1.83 Y0.2752
N10550 G2 X1.8288 Y0.2742 I-0.0129 J0.0149
N10555 G1 X1.8277 Y0.2734
N10560 G2 X1.8261 Y0.2723 I-0.0117 J0.0158
N10565 G1 X1.8242 Y0.2712
N10570 G2 X1.822 Y0.27 I-0.0102 J0.0168
N10575 G1 X1.8197 Y0.269
N10580 G2 X1.8177 Y0.2682 I-0.0081 J0.018
N10585 G1 X1.8162 Y0.2677
N10590 G2 X1.8144 Y0.2672 I-0.0061 J0.0187
N10595 G1 X1.8123 Y0.2668
N10600 G2 X1.8105 Y0.2664 I-0.0043 J0.0192
N10605 G1 X1.8091 Y0.2663
N10610 G2 X1.8077 Y0.2661 I-0.0025 J0.0195
N10615 G1 X1.8062 Y0.266
N10620 G2 X1.8051 I-0.0011 J0.0197
N10625 G1 X1.1844
N10630 G2 X1.1834 I0. J0.0197
N10635 G1 X1.1818 Y0.2661
N10640 G2 X1.1803 Y0.2663 I0.001 J0.0197
N10645 G1 X1.1789 Y0.2664
N10650 G2 X1.1769 Y0.2668 I0.0025 J0.0195
N10655 G1 X1.1745 Y0.2674
N10660 G2 X1.1728 Y0.2679 I0.0045 J0.0192
N10665 G1 X1.1716 Y0.2683
N10670 G2 X1.17 Y0.2689 I0.0062 J0.0187
N10675 G1 X1.168 Y0.2697
N10680 G2 X1.1662 Y0.2706 I0.0078 J0.0181
N10685 G1 X1.1646 Y0.2715
N10690 G2 X1.1631 Y0.2725 I0.0096 J0.0172
N10695 G1 X1.1615 Y0.2735
N10700 G2 X1.1599 Y0.2748 I0.0112 J0.0162
N10705 G1 X1.1584 Y0.2761
N10710 G2 X1.157 Y0.2773 I0.0128 J0.015
N10715 G1 X1.1559 Y0.2785
N10720 G2 X1.1547 Y0.2798 I0.0141 J0.0137
N10725 G1 X1.1534 Y0.2814
N10730 G2 X1.1523 Y0.283 I0.0153 J0.0124
N10735 G1 X1.1513 Y0.2845
N10740 G2 X1.1503 Y0.2861 I0.0164 J0.0108
N10745 G1 X1.1495 Y0.2877
N10750 G2 X1.1488 Y0.2892 I0.0174 J0.0093
N10755 G1 X1.1481 Y0.2908
N10760 G2 X1.1475 Y0.2924 I0.0181 J0.0077
N10765 G1 X1.147 Y0.2939
N10770 G2 X1.1465 Y0.2955 I0.0187 J0.0061
N10775 G1 X1.1462 Y0.2971
N10780 G2 X1.1459 Y0.2986 I0.0192 J0.0046
N10785 G1 X1.1456 Y0.3002
N10790 G2 X1.1455 Y0.3018 I0.0195 J0.003
N10795 G1 X1.1453 Y0.3033
N10800 G2 Y0.3047 I0.0196 J0.0014
N10805 G1 Y0.3583
N10810 X1.098
N10815 Y0.0772
N10820 X1.1453
N10825 Y0.1483
N10830 G2 Y0.1497 I0.0197 J0.
N10835 G1 X1.1454 Y0.1513
N10840 G2 X1.1456 Y0.1528 I0.0196 J-0.0014
N10845 G1 X1.1459 Y0.1544
N10850 G2 X1.1462 Y0.156 I0.0195 J-0.003
N10855 G1 X1.1465 Y0.1575
N10860 G2 X1.147 Y0.1591 I0.0192 J-0.0045
N10865 G1 X1.1475 Y0.1607
N10870 G2 X1.1483 Y0.1626 I0.0187 J-0.0061
N10875 G1 X1.1493 Y0.165
N10880 G2 X1.1503 Y0.1669 I0.018 J-0.0081
N10885 G1 X1.1512 Y0.1685
N10890 G2 X1.1523 Y0.1701 I0.0169 J-0.01
N10895 G1 X1.1534 Y0.1716
N10900 G2 X1.1545 Y0.173 I0.0159 J-0.0116
N10905 G1 X1.1555 Y0.1742
N10910 G2 X1.1568 Y0.1755 I0.0148 J-0.013
N10915 G1 X1.1584 Y0.177
N10920 G2 X1.1599 Y0.1783 I0.0135 J-0.0143
N10925 G1 X1.1615 Y0.1795
N10930 G2 X1.1631 Y0.1806 I0.012 J-0.0156
N10935 G1 X1.1646 Y0.1816
N10940 G2 X1.1662 Y0.1824 I0.0104 J-0.0167
N10945 G1 X1.1678 Y0.1832
N10950 G2 X1.1691 Y0.1839 I0.0088 J-0.0176
N10955 G1 X1.1703 Y0.1843
N10960 G2 X1.1721 Y0.185 I0.0075 J-0.0182
N10965 G1 X1.1745 Y0.1857
N10970 G2 X1.1762 Y0.1861 I0.0057 J-0.0188
N10975 G1 X1.1774 Y0.1864
N10980 G2 X1.1788 Y0.1866 I0.0039 J-0.0193
N10985 G1 X1.1803 Y0.1868
N10990 G2 X1.1818 Y0.1869 I0.0026 J-0.0195
N10995 G1 X1.1834 Y0.187
N11000 G2 X1.1844 I0.001 J-0.0197
N11005 G1 X1.4253
N11010 G2 X1.4265 I0. J-0.0197
N11015 G1 X1.4281 Y0.1869
N11020 G2 X1.4295 Y0.1868 I-0.0012 J-0.0196
N11025 G1 X1.4308 Y0.1866
N11030 G2 X1.4321 Y0.1864 I-0.0026 J-0.0195
N11035 G1 X1.4333 Y0.1861
N11040 G2 X1.4346 Y0.1858 I-0.0039 J-0.0193
N11045 G1 X1.4358 Y0.1855
N11050 G2 X1.437 Y0.1851 I-0.0052 J-0.019
N11055 G1 X1.4383 Y0.1847
N11060 G2 X1.4399 Y0.184 I-0.0064 J-0.0186
N11065 G1 X1.4419 Y0.1831
N11070 G2 X1.4437 Y0.1822 I-0.008 J-0.018
N11075 G1 X1.4453 Y0.1813
N11080 G2 X1.4468 Y0.1803 I-0.0098 J-0.0171
N11085 G1 X1.4484 Y0.1792
N11090 G2 X1.45 Y0.178 I-0.0114 J-0.0161
N11095 G1 X1.4515 Y0.1766
N11100 G2 X1.4531 Y0.1751 I-0.0129 J-0.0148
N11105 G1 X1.4547 Y0.1733
N11110 G2 X1.4561 Y0.1716 I-0.0145 J-0.0133
N11115 G1 X1.4572 Y0.1701
N11120 G2 X1.4583 Y0.1685 I-0.0159 J-0.0116
N11125 G1 X1.4592 Y0.1669
N11130 G2 X1.4602 Y0.165 I-0.0169 J-0.01
N11135 G1 X1.4613 Y0.1626
N11140 G2 X1.462 Y0.1607 I-0.018 J-0.0081
N11145 G1 X1.4625 Y0.1591
N11150 G2 X1.463 Y0.1575 I-0.0187 J-0.0061
N11155 G1 X1.4634 Y0.156
N11160 G2 X1.4637 Y0.1544 I-0.0192 J-0.0045
N11165 G1 X1.4639 Y0.1528
N11170 G2 X1.4641 Y0.1513 I-0.0195 J-0.003
N11175 G1 X1.4642 Y0.1497
N11180 G2 Y0.1483 I-0.0196 J-0.0014
N11185 G1 Y-0.1724
N11190 G2 Y-0.1734 I-0.0197 J0.
N11195 G1 X1.4641 Y-0.175
N11200 G2 X1.464 Y-0.1766 I-0.0197 J0.001
N11205 G1 X1.4638 Y-0.1781
N11210 G2 X1.4635 Y-0.1797 I-0.0195 J0.0026
N11215 G1 X1.4632 Y-0.1813
N11220 G2 X1.4628 Y-0.1828 I-0.0192 J0.0042
N11225 G1 X1.4623 Y-0.1844
N11230 G2 X1.4616 Y-0.1863 I-0.0188 J0.0057
N11235 G1 X1.4606 Y-0.1887
N11240 G2 X1.4596 Y-0.1906 I-0.0181 J0.0077
N11245 G1 X1.4587 Y-0.1922
N11250 G2 X1.4577 Y-0.1939 I-0.0172 J0.0096
N11255 G1 X1.4564 Y-0.1958
N11260 G2 X1.4549 Y-0.1976 I-0.0161 J0.0114
N11265 G1 X1.4533 Y-0.1993
N11270 G2 X1.4519 Y-0.2008 I-0.0146 J0.0132
N11275 G1 X1.4505 Y-0.202
N11280 G2 X1.4488 Y-0.2034 I-0.0132 J0.0146
N11285 G1 X1.4468 Y-0.2048
N11290 G2 X1.4447 Y-0.2062 I-0.0115 J0.016
N11295 G1 X1.4425 Y-0.2073
N11300 G2 X1.4406 Y-0.2082 I-0.0094 J0.0173
N11305 G1 X1.439 Y-0.2089
N11310 G2 X1.4374 Y-0.2095 I-0.0075 J0.0182
N11315 G1 X1.4359 Y-0.2099
N11320 G2 X1.4343 Y-0.2104 I-0.0059 J0.0188
N11325 G1 X1.4328 Y-0.2107
N11330 G2 X1.4312 Y-0.211 I-0.0043 J0.0192
N11335 G1 X1.4296 Y-0.2112
N11340 G2 X1.4281 Y-0.2114 I-0.0028 J0.0195
N11345 G1 X1.4265 Y-0.2115
N11350 G2 X1.4253 I-0.0012 J0.0196
N11355 G1 X1.1844
N11360 G2 X1.1834 I0. J0.0197
N11365 G1 X1.1818 Y-0.2114
N11370 G2 X1.1803 Y-0.2113 I0.001 J0.0197
N11375 G1 X1.1787 Y-0.2111
N11380 G2 X1.1772 Y-0.2108 I0.0026 J0.0195
N11385 G1 X1.1756 Y-0.2105
N11390 G2 X1.174 Y-0.2101 I0.0041 J0.0192
N11395 G1 X1.1725 Y-0.2096
N11400 G2 X1.1709 Y-0.209 I0.0057 J0.0188
N11405 G1 X1.1693 Y-0.2084
N11410 G2 X1.168 Y-0.2078 I0.0073 J0.0183
N11415 G1 X1.167 Y-0.2073
N11420 G2 X1.1658 Y-0.2067 I0.0086 J0.0177
N11425 G1 X1.1645 Y-0.206
N11430 G2 X1.1632 Y-0.2051 I0.0098 J0.0171
N11435 G1 X1.1619 Y-0.2043
N11440 G2 X1.1602 Y-0.203 I0.0111 J0.0163
N11445 G1 X1.1583 Y-0.2014
N11450 G2 X1.1565 Y-0.1996 I0.0127 J0.015
N11455 G1 X1.1548 Y-0.1978
N11460 G2 X1.1533 Y-0.1959 I0.0145 J0.0133
N11465 G1 X1.1519 Y-0.194
N11470 G2 X1.1508 Y-0.1922 I0.016 J0.0114
N11475 G1 X1.1499 Y-0.1906
N11480 G2 X1.1489 Y-0.1887 I0.0172 J0.0096
N11485 G1 X1.1479 Y-0.1863
N11490 G2 X1.1472 Y-0.1844 I0.0181 J0.0077
N11495 G1 X1.1468 Y-0.1828
N11500 G2 X1.1463 Y-0.1813 I0.0188 J0.0057
N11505 G1 X1.146 Y-0.1797
N11510 G2 X1.1457 Y-0.1781 I0.0192 J0.0042
N11515 G1 X1.1455 Y-0.1766
N11520 G2 X1.1454 Y-0.175 I0.0195 J0.0026
N11525 G1 X1.1453 Y-0.1734
N11530 G2 Y-0.1724 I0.0197 J0.001
N11535 G1 Y-0.1681
N11540 G3 X1.1412 Y-0.1641 I-0.0039 J0.
N11545 X1.1374 Y-0.1682 I0.0001 J-0.0039
N11550 G1 X1.1437 Y-0.3019
N11555 G3 X1.1488 Y-0.3055 I0.0039 J0.0002
N11560 X1.1252 Y-0.2345 Z0.4559 I-0.0118 J0.0355
N11565 X1.1488 Y-0.3055 Z0.4518 I0.0118 J-0.0355
N11570 X1.1252 Y-0.2345 Z0.4477 I-0.0118 J0.0355
N11575 X1.1488 Y-0.3055 Z0.4436 I0.0118 J-0.0355
N11580 X1.1252 Y-0.2345 Z0.4395 I-0.0118 J0.0355
N11585 X1.1488 Y-0.3055 Z0.4354 I0.0118 J-0.0355
N11590 X1.1252 Y-0.2345 Z0.4313 I-0.0118 J0.0355
N11595 X1.1488 Y-0.3055 Z0.4272 I0.0118 J-0.0355
N11600 X1.1252 Y-0.2345 Z0.4231 I-0.0118 J0.0355
N11605 X1.1201 Y-0.3034 Z0.42 I0.0118 J-0.0355
N11610 X1.1536 Y-0.2372 I0.0167 J0.0331
N11615 G2 X1.1499 Y-0.2353 I0.0431 J0.0852
N11620 G3 X1.1307 Y-0.2465 I-0.0063 J-0.0112
N11625 G1 Y-0.2558
N11630 G3 X1.1499 Y-0.2672 I0.013 J0.
N11635 G2 X1.1652 Y-0.2605 I0.05 J-0.0933
N11640 X1.1817 Y-0.2573 I0.0195 J-0.0563
N11645 G1 X1.8092 Y-0.2574
N11650 G2 X1.826 Y-0.261 I-0.0044 J-0.0614
N11655 X1.8415 Y-0.2684 I-0.0312 J-0.0852
N11660 G3 X1.8606 Y-0.2575 I0.0065 J0.0109
N11665 G1 Y-0.245
N11670 G3 X1.8416 Y-0.2341 I-0.0127 J0.
N11675 G2 X1.8268 Y-0.2413 I-0.0552 J0.0942
N11680 X1.8107 Y-0.245 I-0.0199 J0.0499
N11685 G1 X1.5471 Y-0.2458
N11690 G2 X1.5215 Y-0.2388 I0.004 J0.065
N11695 X1.5 Y-0.2232 I0.0392 J0.0768
N11700 G3 X1.4757 Y-0.2233 I-0.0121 J-0.0123
N11705 G2 X1.4542 Y-0.2388 I-0.0596 J0.0598
N11710 X1.4286 Y-0.2458 I-0.0296 J0.0585
N11715 G1 X1.1801 Y-0.2451
N11720 G2 X1.1644 Y-0.2419 I0.0028 J0.0547
N11725 X1.1536 Y-0.2372 I0.0322 J0.0898
N11730 G3 X1.1521 Y-0.2367 Z0.4202 I-0.0034 J-0.0071
N11735 X1.1507 Y-0.2365 Z0.4206 I-0.002 J-0.0076
N11740 X1.1493 Z0.4213 I-0.0005 J-0.0079
N11745 X1.1482 Y-0.2367 Z0.4223 I0.0008 J-0.0078
N11750 X1.1472 Y-0.237 Z0.4235 I0.002 J-0.0076
N11755 X1.1466 Y-0.2373 Z0.4249 I0.0029 J-0.0073
N11760 X1.1462 Y-0.2375 Z0.4263 I0.0036 J-0.007
N11765 G1 X1.146 Y-0.2376 Z0.4279
N11770 G0 Z0.95
N11775 X1.1258 Y0.2806
N11780 G1 Z0.5099 F20.
N11785 X1.1256 Y0.2805 Z0.5084
N11790 G3 X1.1252 Y0.2804 Z0.507 I0.0115 J-0.0356
N11795 X1.1246 Y0.2802 Z0.5057 I0.0119 J-0.0355
N11800 X1.1238 Y0.2799 Z0.5045 I0.0125 J-0.0352
N11805 X1.1228 Y0.2795 Z0.5036 I0.0133 J-0.0349
N11810 X1.1217 Y0.279 Z0.5028 I0.0143 J-0.0345
N11815 X1.1204 Y0.2784 Z0.5023 I0.0155 J-0.034
N11820 X1.1196 Y0.278 Z0.5021 I0.0167 J-0.0335
N11825 X1.1188 Y0.2775 Z0.502 I0.0175 J-0.033
N11830 X1.1555 Y0.2123 Z0.4979 I0.0183 J-0.0326
N11835 X1.1188 Y0.2775 Z0.4938 I-0.0183 J0.0326
N11840 X1.1555 Y0.2123 Z0.4897 I0.0183 J-0.0326
N11845 X1.1188 Y0.2775 Z0.4856 I-0.0183 J0.0326
N11850 X1.1555 Y0.2123 Z0.4815 I0.0183 J-0.0326
N11855 X1.1188 Y0.2775 Z0.4774 I-0.0183 J0.0326
N11860 X1.1555 Y0.2123 Z0.4733 I0.0183 J-0.0326
N11865 X1.1188 Y0.2775 Z0.4692 I-0.0183 J0.0326
N11870 X1.1555 Y0.2123 Z0.4651 I0.0183 J-0.0326
N11875 X1.1188 Y0.2775 Z0.461 I-0.0183 J0.0326
N11880 X1.1555 Y0.2123 Z0.4569 I0.0183 J-0.0326
N11885 X1.1188 Y0.2775 Z0.4528 I-0.0183 J0.0326
N11890 X1.1555 Y0.2123 Z0.4487 I0.0183 J-0.0326
N11895 X1.1188 Y0.2775 Z0.4446 I-0.0183 J0.0326
N11900 X1.1555 Y0.2123 Z0.4405 I0.0183 J-0.0326
N11905 X1.1188 Y0.2775 Z0.4363 I-0.0183 J0.0326
N11910 X1.1555 Y0.2123 Z0.4322 I0.0183 J-0.0326
N11915 X1.1188 Y0.2775 Z0.4281 I-0.0183 J0.0326
N11920 X1.1555 Y0.2123 Z0.424 I0.0183 J-0.0326
N11925 X1.1204 Y0.2784 Z0.42 I-0.0183 J0.0326
N11930 X1.1534 Y0.2124 I0.0165 J-0.033
N11935 G2 X1.1651 Y0.2173 I0.0423 J-0.0846
N11940 X1.1817 Y0.2205 I0.0197 J-0.0577
N11945 G1 X1.4301 Y0.2209
N11950 G2 X1.4549 Y0.2139 I-0.0037 J-0.0605
N11955 X1.4756 Y0.1985 I-0.0404 J-0.0759
N11960 G3 X1.5 Y0.1984 I0.0123 J0.0121
N11965 G2 X1.5226 Y0.2147 I0.0634 J-0.0639
N11970 X1.5498 Y0.2212 I0.0271 J-0.0534
N11975 G3 X1.6829 Y0.2251 I-0.0002 J2.2868
N11980 G2 X1.816 Y0.2195 I0.0387 J-0.6621
N11985 X1.8294 Y0.2156 I-0.0073 J-0.0506
N11990 X1.8417 Y0.2092 I-0.0433 J-0.0981
N11995 G3 X1.8609 Y0.22 I0.0065 J0.0108
N12000 G1 Y0.2331
N12005 G3 X1.8417 Y0.2439 I-0.0126 J0.
N12010 G2 X1.8242 Y0.2356 I-0.048 J0.0791
N12015 X1.8051 Y0.2324 I-0.0191 J0.0548
N12020 G1 X1.1746 Y0.2334
N12025 G2 X1.1618 Y0.2368 I0.0066 J0.0509
N12030 X1.1498 Y0.2426 I0.0413 J0.101
N12035 G3 X1.1305 Y0.2313 I-0.0063 J-0.0113
N12040 G1 Y0.2217
N12045 G3 X1.1497 Y0.2104 I0.0129 J0.
N12050 G2 X1.1534 Y0.2124 I0.0461 J-0.0827
N12055 X1.1862 Y0.2034 I0.0114 J-0.0228
N12060 G3 X1.2161 Y0.187 I0.0299 J0.0192
N12065 G1 X1.4253
N12070 G2 X1.4265 I0. J-0.0197
N12075 G1 X1.4281 Y0.1869
N12080 G2 X1.4295 Y0.1868 I-0.0012 J-0.0196
N12085 G1 X1.4308 Y0.1866
N12090 G2 X1.4321 Y0.1864 I-0.0026 J-0.0195
N12095 G1 X1.4333 Y0.1861
N12100 G2 X1.4346 Y0.1858 I-0.0039 J-0.0193
N12105 G1 X1.4358 Y0.1855
N12110 G2 X1.437 Y0.1851 I-0.0052 J-0.019
N12115 G1 X1.4383 Y0.1847
N12120 G2 X1.4399 Y0.184 I-0.0064 J-0.0186
N12125 G1 X1.4419 Y0.1831
N12130 G2 X1.4437 Y0.1822 I-0.008 J-0.018
N12135 G1 X1.4453 Y0.1813
N12140 G2 X1.4468 Y0.1803 I-0.0098 J-0.0171
N12145 G1 X1.4484 Y0.1792
N12150 G2 X1.45 Y0.178 I-0.0114 J-0.0161
N12155 G1 X1.4515 Y0.1766
N12160 G2 X1.4531 Y0.1751 I-0.0129 J-0.0148
N12165 G1 X1.4547 Y0.1733
N12170 G2 X1.4561 Y0.1716 I-0.0145 J-0.0133
N12175 G1 X1.4572 Y0.1701
N12180 G2 X1.4583 Y0.1685 I-0.0159 J-0.0116
N12185 G1 X1.4592 Y0.1669
N12190 G2 X1.4602 Y0.165 I-0.0169 J-0.01
N12195 G1 X1.4613 Y0.1626
N12200 G2 X1.462 Y0.1607 I-0.018 J-0.0081
N12205 G1 X1.4625 Y0.1591
N12210 G2 X1.463 Y0.1575 I-0.0187 J-0.0061
N12215 G1 X1.4634 Y0.156
N12220 G2 X1.4637 Y0.1544 I-0.0192 J-0.0045
N12225 G1 X1.4639 Y0.1528
N12230 G2 X1.4641 Y0.1513 I-0.0195 J-0.003
N12235 G1 X1.4642 Y0.1497
N12240 G2 Y0.1483 I-0.0196 J-0.0014
N12245 G1 Y-0.1724
N12250 G2 Y-0.1734 I-0.0197 J0.
N12255 G1 X1.4641 Y-0.175
N12260 G2 X1.464 Y-0.1766 I-0.0197 J0.001
N12265 G1 X1.4638 Y-0.1781
N12270 G2 X1.4635 Y-0.1797 I-0.0195 J0.0026
N12275 G1 X1.4632 Y-0.1813
N12280 G2 X1.4628 Y-0.1828 I-0.0192 J0.0042
N12285 G1 X1.4623 Y-0.1844
N12290 G2 X1.4616 Y-0.1863 I-0.0188 J0.0057
N12295 G1 X1.4606 Y-0.1887
N12300 G2 X1.4596 Y-0.1906 I-0.0181 J0.0077
N12305 G1 X1.4587 Y-0.1922
N12310 G2 X1.4577 Y-0.1939 I-0.0172 J0.0096
N12315 G1 X1.4564 Y-0.1958
N12320 G2 X1.4549 Y-0.1976 I-0.0161 J0.0114
N12325 G1 X1.4533 Y-0.1993
N12330 G2 X1.4519 Y-0.2008 I-0.0146 J0.0132
N12335 G1 X1.4505 Y-0.202
N12340 G2 X1.4488 Y-0.2034 I-0.0132 J0.0146
N12345 G1 X1.4468 Y-0.2048
N12350 G2 X1.4447 Y-0.2062 I-0.0115 J0.016
N12355 G1 X1.4425 Y-0.2073
N12360 G2 X1.4406 Y-0.2082 I-0.0094 J0.0173
N12365 G1 X1.439 Y-0.2089
N12370 G2 X1.4374 Y-0.2095 I-0.0075 J0.0182
N12375 G1 X1.4359 Y-0.2099
N12380 G2 X1.4343 Y-0.2104 I-0.0059 J0.0188
N12385 G1 X1.4328 Y-0.2107
N12390 G2 X1.4312 Y-0.211 I-0.0043 J0.0192
N12395 G1 X1.4296 Y-0.2112
N12400 G2 X1.4281 Y-0.2114 I-0.0028 J0.0195
N12405 G1 X1.4265 Y-0.2115
N12410 G2 X1.4253 I-0.0012 J0.0196
N12415 G1 X1.1844
N12420 G2 X1.1834 I0. J0.0197
N12425 G1 X1.1818 Y-0.2114
N12430 G2 X1.1803 Y-0.2113 I0.001 J0.0197
N12435 G1 X1.1787 Y-0.2111
N12440 G2 X1.1772 Y-0.2108 I0.0026 J0.0195
N12445 G1 X1.1756 Y-0.2105
N12450 G2 X1.174 Y-0.2101 I0.0041 J0.0192
N12455 G1 X1.1725 Y-0.2096
N12460 G2 X1.1709 Y-0.209 I0.0057 J0.0188
N12465 G1 X1.1693 Y-0.2084
N12470 G2 X1.168 Y-0.2078 I0.0073 J0.0183
N12475 G1 X1.167 Y-0.2073
N12480 G2 X1.1658 Y-0.2067 I0.0086 J0.0177
N12485 G1 X1.1645 Y-0.206
N12490 G2 X1.1632 Y-0.2051 I0.0098 J0.0171
N12495 G1 X1.1619 Y-0.2043
N12500 G2 X1.1602 Y-0.203 I0.0111 J0.0163
N12505 G1 X1.1583 Y-0.2014
N12510 G2 X1.1565 Y-0.1996 I0.0127 J0.015
N12515 G1 X1.1548 Y-0.1978
N12520 G2 X1.1533 Y-0.1959 I0.0145 J0.0133
N12525 G1 X1.1519 Y-0.194
N12530 G2 X1.1508 Y-0.1922 I0.016 J0.0114
N12535 G1 X1.1499 Y-0.1906
N12540 G2 X1.1489 Y-0.1887 I0.0172 J0.0096
N12545 G1 X1.1479 Y-0.1863
N12550 G2 X1.1472 Y-0.1844 I0.0181 J0.0077
N12555 G1 X1.1468 Y-0.1828
N12560 G2 X1.1463 Y-0.1813 I0.0188 J0.0057
N12565 G1 X1.146 Y-0.1797
N12570 G2 X1.1457 Y-0.1781 I0.0192 J0.0042
N12575 G1 X1.1455 Y-0.1766
N12580 G2 X1.1454 Y-0.175 I0.0195 J0.0026
N12585 G1 X1.1453 Y-0.1734
N12590 G2 Y-0.1724 I0.0197 J0.001
N12595 G1 Y-0.1036
N12600 X1.098
N12605 Y-0.3808
N12610 X1.1453
N12615 Y-0.3304
N12620 G2 Y-0.3297 I0.0197 J0.
N12625 G1 Y-0.3281
N12630 G2 X1.1455 Y-0.3265 I0.0197 J-0.0007
N12635 G1 X1.1457 Y-0.325
N12640 G2 X1.1459 Y-0.3234 I0.0196 J-0.0023
N12645 G1 X1.1462 Y-0.3218
N12650 G2 X1.1466 Y-0.3203 I0.0193 J-0.0039
N12655 G1 X1.147 Y-0.3187
N12660 G2 X1.1477 Y-0.3167 I0.0189 J-0.0054
N12665 G1 X1.1487 Y-0.3144
N12670 G2 X1.1497 Y-0.3123 I0.0182 J-0.0074
N12675 G1 X1.1507 Y-0.3105
N12680 G2 X1.1515 Y-0.3091 I0.0172 J-0.0095
N12685 G1 X1.1522 Y-0.308
N12690 G2 X1.153 Y-0.307 I0.0164 J-0.0109
N12695 G1 X1.1538 Y-0.3059
N12700 G2 X1.1546 Y-0.3049 I0.0156 J-0.012
N12705 G1 X1.1556 Y-0.3038
N12710 G2 X1.1566 Y-0.3027 I0.0148 J-0.013
N12715 G1 X1.1577 Y-0.3016
N12720 G2 X1.1589 Y-0.3006 I0.0137 J-0.0141
N12725 G1 X1.16 Y-0.2996
N12730 G2 X1.1616 Y-0.2985 I0.0126 J-0.0151
N12735 G1 X1.1636 Y-0.2971
N12740 G2 X1.1656 Y-0.2959 I0.011 J-0.0163
N12745 G1 X1.1675 Y-0.2949
N12750 G2 X1.1693 Y-0.2941 I0.0091 J-0.0175
N12755 G1 X1.1709 Y-0.2935
N12760 G2 X1.1725 Y-0.2929 I0.0073 J-0.0183
N12765 G1 X1.174 Y-0.2925
N12770 G2 X1.1756 Y-0.292 I0.0057 J-0.0188
N12775 G1 X1.1772 Y-0.2917
N12780 G2 X1.1787 Y-0.2914 I0.0041 J-0.0192
N12785 G1 X1.1803 Y-0.2912
N12790 G2 X1.1818 Y-0.2911 I0.0026 J-0.0195
N12795 G1 X1.1834 Y-0.291
N12800 G2 X1.1844 I0.001 J-0.0197
N12805 G1 X1.8054
N12810 G2 X1.8068 I0. J-0.0197
N12815 G1 X1.8083 Y-0.2912
N12820 G2 X1.8099 Y-0.2913 I-0.0014 J-0.0196
N12825 G1 X1.8115 Y-0.2916
N12830 G2 X1.813 Y-0.2919 I-0.003 J-0.0195
N12835 G1 X1.8146 Y-0.2922
N12840 G2 X1.8162 Y-0.2927 I-0.0045 J-0.0192
N12845 G1 X1.8177 Y-0.2932
N12850 G2 X1.8197 Y-0.294 I-0.0061 J-0.0187
N12855 G1 X1.822 Y-0.295
N12860 G2 X1.8241 Y-0.2961 I-0.0081 J-0.018
N12865 G1 X1.8259 Y-0.2972
N12870 G2 X1.8273 Y-0.2981 I-0.0101 J-0.0169
N12875 G1 X1.8283 Y-0.2988
N12880 G2 X1.8297 Y-0.2999 I-0.0115 J-0.016
N12885 G1 X1.8316 Y-0.3016
N12890 G2 X1.8333 Y-0.3032 I-0.013 J-0.0148
N12895 G1 X1.8349 Y-0.305
N12900 G2 X1.8363 Y-0.3069 I-0.0147 J-0.0131
N12905 G1 X1.8377 Y-0.3089
N12910 G2 X1.8389 Y-0.3107 I-0.0162 J-0.0112
N12915 G1 X1.8398 Y-0.3124
N12920 G2 X1.8407 Y-0.3144 I-0.0173 J-0.0094
N12925 G1 X1.8417 Y-0.3167
N12930 G2 X1.8424 Y-0.3187 I-0.0182 J-0.0074
N12935 G1 X1.8428 Y-0.3203
N12940 G2 X1.8432 Y-0.3218 I-0.0189 J-0.0054
N12945 G1 X1.8435 Y-0.3234
N12950 G2 X1.8438 Y-0.325 I-0.0193 J-0.0039
N12955 G1 X1.8439 Y-0.3265
N12960 G2 X1.8441 Y-0.3286 I-0.0196 J-0.0023
N12965 G1 Y-0.3333
N12970 Y-0.3335
N12975 Y-0.3808
N12980 X1.8933
N12985 Y-0.1036
N12990 X1.8441
N12995 Y-0.1724
N13000 G2 Y-0.1734 I-0.0197 J0.
N13005 G1 X1.844 Y-0.175
N13010 G2 X1.8439 Y-0.1766 I-0.0197 J0.001
N13015 G1 X1.8437 Y-0.1781
N13020 G2 X1.8434 Y-0.1797 I-0.0195 J0.0026
N13025 G1 X1.8431 Y-0.1813
N13030 G2 X1.8427 Y-0.1828 I-0.0192 J0.0042
N13035 G1 X1.8422 Y-0.1843
N13040 G2 X1.8415 Y-0.1863 I-0.0188 J0.0057
N13045 G1 X1.8405 Y-0.1886
N13050 G2 X1.8396 Y-0.1905 I-0.0181 J0.0077
N13055 G1 X1.8387 Y-0.1921
N13060 G2 X1.8377 Y-0.1937 I-0.0172 J0.0096
N13065 G1 X1.8365 Y-0.1954
N13070 G2 X1.8351 Y-0.1972 I-0.0162 J0.0112
N13075 G1 X1.8336 Y-0.1989
N13080 G2 X1.832 Y-0.2006 I-0.0148 J0.013
N13085 G1 X1.8303 Y-0.2021
N13090 G2 X1.8286 Y-0.2034 I-0.0132 J0.0146
N13095 G1 X1.8271 Y-0.2046
N13100 G2 X1.8255 Y-0.2056 I-0.0116 J0.0159
N13105 G1 X1.8238 Y-0.2066
N13110 G2 X1.8223 Y-0.2074 I-0.01 J0.017
N13115 G1 X1.821 Y-0.208
N13120 G2 X1.8196 Y-0.2086 I-0.0084 J0.0178
N13125 G1 X1.8183 Y-0.2091
N13130 G2 X1.8169 Y-0.2096 I-0.0071 J0.0184
N13135 G1 X1.8156 Y-0.21
N13140 G2 X1.8143 Y-0.2104 I-0.0058 J0.0188
N13145 G1 X1.8129 Y-0.2107
N13150 G2 X1.8115 Y-0.2109 I-0.0044 J0.0192
N13155 G1 X1.8099 Y-0.2112
N13160 G2 X1.8083 Y-0.2114 I-0.003 J0.0195
N13165 G1 X1.8068 Y-0.2115
N13170 G2 X1.8054 I-0.0014 J0.0196
N13175 G1 X1.5504
N13180 G2 X1.5492 I0. J0.0197
N13185 G1 X1.5476 Y-0.2114
N13190 G2 X1.5461 Y-0.2112 I0.0012 J0.0196
N13195 G1 X1.5445 Y-0.211
N13200 G2 X1.543 Y-0.2107 I0.0028 J0.0195
N13205 G1 X1.5414 Y-0.2104
N13210 G2 X1.5396 Y-0.2099 I0.0043 J0.0192
N13215 G1 X1.5376 Y-0.2092
N13220 G2 X1.5356 Y-0.2084 I0.0061 J0.0187
N13225 G1 X1.5336 Y-0.2075
N13230 G2 X1.5321 Y-0.2068 I0.0081 J0.0179
N13235 G1 X1.5309 Y-0.2061
N13240 G2 X1.5294 Y-0.2052 I0.0097 J0.0171
N13245 G1 X1.5276 Y-0.2039
N13250 G2 X1.526 Y-0.2026 I0.0112 J0.0162
N13255 G1 X1.5246 Y-0.2014
N13260 G2 X1.5235 Y-0.2005 I0.0128 J0.015
N13265 G1 X1.5228 Y-0.1998
N13270 G2 X1.5219 Y-0.1988 I0.0139 J0.014
N13275 G1 X1.5208 Y-0.1976
N13280 G2 X1.5198 Y-0.1964 I0.0148 J0.013
N13285 G1 X1.5189 Y-0.1952
N13290 G2 X1.5181 Y-0.1939 I0.0157 J0.0118
N13295 G1 X1.5173 Y-0.1927
N13300 G2 X1.5163 Y-0.191 I0.0166 J0.0106
N13305 G1 X1.5152 Y-0.1888
N13310 G2 X1.5143 Y-0.1868 I0.0176 J0.0089
N13315 G1 X1.5136 Y-0.1849
N13320 G2 X1.5131 Y-0.1835 I0.0185 J0.0069
N13325 G1 X1.5129 Y-0.1825
N13330 G2 X1.5126 Y-0.1813 I0.0189 J0.0054
N13335 G1 X1.5122 Y-0.1797
N13340 G2 X1.5119 Y-0.1781 I0.0192 J0.0042
N13345 G1 X1.5117 Y-0.1766
N13350 G2 X1.5116 Y-0.175 I0.0195 J0.0026
N13355 G1 X1.5115 Y-0.1734
N13360 G2 Y-0.1724 I0.0197 J0.001
N13365 G1 Y0.1483
N13370 G2 Y0.1497 I0.0197 J0.
N13375 G1 X1.5117 Y0.1513
N13380 G2 X1.5118 Y0.1528 I0.0196 J-0.0014
N13385 G1 X1.5121 Y0.1544
N13390 G2 X1.5124 Y0.156 I0.0195 J-0.003
N13395 G1 X1.5128 Y0.1575
N13400 G2 X1.5132 Y0.1591 I0.0192 J-0.0045
N13405 G1 X1.5137 Y0.1607
N13410 G2 X1.5144 Y0.1624 I0.0187 J-0.0061
N13415 G1 X1.5152 Y0.1642
N13420 G2 X1.5159 Y0.1657 I0.0181 J-0.0078
N13425 G1 X1.5165 Y0.1668
N13430 G2 X1.5171 Y0.1679 I0.0173 J-0.0093
N13435 G1 X1.5178 Y0.169
N13440 G2 X1.5185 Y0.1701 I0.0167 J-0.0104
N13445 G1 X1.5193 Y0.1712
N13450 G2 X1.5202 Y0.1723 I0.016 J-0.0115
N13455 G1 X1.5211 Y0.1734
N13460 G2 X1.5223 Y0.1748 I0.0151 J-0.0126
N13465 G1 X1.524 Y0.1764
N13470 G2 X1.5256 Y0.1779 I0.0139 J-0.014
N13475 G1 X1.5273 Y0.1792
N13480 G2 X1.5289 Y0.1803 I0.0122 J-0.0154
N13485 G1 X1.5304 Y0.1813
N13490 G2 X1.532 Y0.1822 I0.0106 J-0.0166
N13495 G1 X1.5336 Y0.183
N13500 G2 X1.5351 Y0.1838 I0.009 J-0.0175
N13505 G1 X1.5367 Y0.1844
N13510 G2 X1.5387 Y0.1851 I0.0075 J-0.0182
N13515 G1 X1.5412 Y0.1858
N13520 G2 X1.5434 Y0.1863 I0.0055 J-0.0189
N13525 G1 X1.5454 Y0.1867
N13530 G2 X1.547 Y0.1868 I0.0032 J-0.0194
N13535 G1 X1.5481 Y0.1869
N13540 G2 X1.5498 Y0.187 I0.0016 J-0.0196
N13545 G1 X1.8052
N13550 G2 X1.8063 I0. J-0.0197
N13555 G1 X1.8077 Y0.1869
N13560 G2 X1.8094 Y0.1868 I-0.0011 J-0.0197
N13565 G1 X1.8113 Y0.1865
N13570 G2 X1.813 Y0.1862 I-0.0028 J-0.0195
N13575 G1 X1.8146 Y0.1858
N13580 G2 X1.8162 Y0.1853 I-0.0045 J-0.0192
N13585 G1 X1.8177 Y0.1848
N13590 G2 X1.8197 Y0.1841 I-0.0061 J-0.0187
N13595 G1 X1.822 Y0.183
N13600 G2 X1.8242 Y0.1819 I-0.0081 J-0.018
N13605 G1 X1.8261 Y0.1807
N13610 G2 X1.8277 Y0.1797 I-0.0102 J-0.0168
N13615 G1 X1.8288 Y0.1788
N13620 G2 X1.83 Y0.1779 I-0.0118 J-0.0158
N13625 G1 X1.8312 Y0.1769
N13630 G2 X1.8323 Y0.1758 I-0.0129 J-0.0149
N13635 G1 X1.8335 Y0.1746
N13640 G2 X1.8345 Y0.1735 I-0.0141 J-0.0138
N13645 G1 X1.8354 Y0.1724
N13650 G2 X1.8362 Y0.1714 I-0.0151 J-0.0126
N13655 G1 X1.8369 Y0.1704
N13660 G2 X1.8379 Y0.1688 I-0.0159 J-0.0116
N13665 G1 X1.8392 Y0.1667
N13670 G2 X1.8403 Y0.1646 I-0.0169 J-0.0101
N13675 G1 X1.8412 Y0.1625
N13680 G2 X1.8419 Y0.1607 I-0.018 J-0.008
N13685 G1 X1.8424 Y0.1591
N13690 G2 X1.8429 Y0.1575 I-0.0187 J-0.0061
N13695 G1 X1.8432 Y0.156
N13700 G2 X1.8435 Y0.1544 I-0.0192 J-0.0045
N13705 G1 X1.8438 Y0.1528
N13710 G2 X1.844 Y0.1513 I-0.0195 J-0.003
N13715 G1 X1.8441 Y0.1497
N13720 G2 Y0.1483 I-0.0196 J-0.0014
N13725 G1 Y0.0772
N13730 X1.8933
N13735 Y0.3583
N13740 X1.8441
N13745 Y0.3047
N13750 G2 Y0.3033 I-0.0197 J0.
N13755 G1 X1.844 Y0.3018
N13760 G2 X1.8438 Y0.3002 I-0.0196 J0.0014
N13765 G1 X1.8435 Y0.2986
N13770 G2 X1.8432 Y0.2971 I-0.0195 J0.003
N13775 G1 X1.8429 Y0.2955
N13780 G2 X1.8424 Y0.2939 I-0.0192 J0.0046
N13785 G1 X1.8419 Y0.2924
N13790 G2 X1.8412 Y0.2905 I-0.0187 J0.0061
N13795 G1 X1.8403 Y0.2884
N13800 G2 X1.8392 Y0.2863 I-0.018 J0.008
N13805 G1 X1.8379 Y0.2842
N13810 G2 X1.8369 Y0.2827 I-0.0169 J0.0101
N13815 G1 X1.8362 Y0.2816
N13820 G2 X1.8353 Y0.2806 I-0.0159 J0.0116
N13825 G1 X1.8345 Y0.2796
N13830 G2 X1.8335 Y0.2785 I-0.0151 J0.0127
N13835 G1 X1.8323 Y0.2773
N13840 G2 X1.8312 Y0.2762 I-0.0141 J0.0138
N13845 G1 X1.83 Y0.2752
N13850 G2 X1.8288 Y0.2742 I-0.0129 J0.0149
N13855 G1 X1.8277 Y0.2734
N13860 G2 X1.8261 Y0.2723 I-0.0117 J0.0158
N13865 G1 X1.8242 Y0.2712
N13870 G2 X1.822 Y0.27 I-0.0102 J0.0168
N13875 G1 X1.8197 Y0.269
N13880 G2 X1.8177 Y0.2682 I-0.0081 J0.018
N13885 G1 X1.8162 Y0.2677
N13890 G2 X1.8144 Y0.2672 I-0.0061 J0.0187
N13895 G1 X1.8123 Y0.2668
N13900 G2 X1.8105 Y0.2664 I-0.0043 J0.0192
N13905 G1 X1.8091 Y0.2663
N13910 G2 X1.8077 Y0.2661 I-0.0025 J0.0195
N13915 G1 X1.8062 Y0.266
N13920 G2 X1.8051 I-0.0011 J0.0197
N13925 G1 X1.1844
N13930 G2 X1.1834 I0. J0.0197
N13935 G1 X1.1818 Y0.2661
N13940 G2 X1.1803 Y0.2663 I0.001 J0.0197
N13945 G1 X1.1789 Y0.2664
N13950 G2 X1.1769 Y0.2668 I0.0025 J0.0195
N13955 G1 X1.1745 Y0.2674
N13960 G2 X1.1728 Y0.2679 I0.0045 J0.0192
N13965 G1 X1.1716 Y0.2683
N13970 G2 X1.17 Y0.2689 I0.0062 J0.0187
N13975 G1 X1.168 Y0.2697
N13980 G2 X1.1662 Y0.2706 I0.0078 J0.0181
N13985 G1 X1.1646 Y0.2715
N13990 G2 X1.1631 Y0.2725 I0.0096 J0.0172
N13995 G1 X1.1615 Y0.2735
N14000 G2 X1.1599 Y0.2748 I0.0112 J0.0162
N14005 G1 X1.1584 Y0.2761
N14010 G2 X1.157 Y0.2773 I0.0128 J0.015
N14015 G1 X1.1559 Y0.2785
N14020 G2 X1.1547 Y0.2798 I0.0141 J0.0137
N14025 G1 X1.1534 Y0.2814
N14030 G2 X1.1523 Y0.283 I0.0153 J0.0124
N14035 G1 X1.1513 Y0.2845
N14040 G2 X1.1503 Y0.2861 I0.0164 J0.0108
N14045 G1 X1.1495 Y0.2877
N14050 G2 X1.1488 Y0.2892 I0.0174 J0.0093
N14055 G1 X1.1481 Y0.2908
N14060 G2 X1.1475 Y0.2924 I0.0181 J0.0077
N14065 G1 X1.147 Y0.2939
N14070 G2 X1.1465 Y0.2955 I0.0187 J0.0061
N14075 G1 X1.1462 Y0.2971
N14080 G2 X1.1459 Y0.2986 I0.0192 J0.0046
N14085 G1 X1.1456 Y0.3002
N14090 G2 X1.1455 Y0.3018 I0.0195 J0.003
N14095 G1 X1.1453 Y0.3033
N14100 G2 Y0.3047 I0.0196 J0.0014
N14105 G1 Y0.3583
N14110 X1.098
N14115 Y0.0772
N14120 X1.1453
N14125 Y0.1483
N14130 G2 Y0.1497 I0.0197 J0.
N14135 G1 X1.1454 Y0.1513
N14140 G2 X1.1456 Y0.1528 I0.0196 J-0.0014
N14145 G1 X1.1459 Y0.1544
N14150 G2 X1.1462 Y0.156 I0.0195 J-0.003
N14155 G1 X1.1465 Y0.1575
N14160 G2 X1.147 Y0.1591 I0.0192 J-0.0045
N14165 G1 X1.1475 Y0.1607
N14170 G2 X1.1483 Y0.1626 I0.0187 J-0.0061
N14175 G1 X1.1493 Y0.165
N14180 G2 X1.1503 Y0.1669 I0.018 J-0.0081
N14185 G1 X1.1512 Y0.1685
N14190 G2 X1.1523 Y0.1701 I0.0169 J-0.01
N14195 G1 X1.1534 Y0.1716
N14200 G2 X1.1545 Y0.173 I0.0159 J-0.0116
N14205 G1 X1.1555 Y0.1742
N14210 G2 X1.1568 Y0.1755 I0.0148 J-0.013
N14215 G1 X1.1584 Y0.177
N14220 G2 X1.1599 Y0.1783 I0.0135 J-0.0143
N14225 G1 X1.1615 Y0.1795
N14230 G2 X1.1631 Y0.1806 I0.012 J-0.0156
N14235 G1 X1.1646 Y0.1816
N14240 G2 X1.1662 Y0.1824 I0.0104 J-0.0167
N14245 G1 X1.1678 Y0.1832
N14250 G2 X1.1691 Y0.1839 I0.0088 J-0.0176
N14255 G1 X1.1703 Y0.1843
N14260 G2 X1.1721 Y0.185 I0.0075 J-0.0182
N14265 G1 X1.1745 Y0.1857
N14270 G2 X1.1762 Y0.1861 I0.0057 J-0.0188
N14275 G1 X1.1774 Y0.1864
N14280 G2 X1.1788 Y0.1866 I0.0039 J-0.0193
N14285 G1 X1.1803 Y0.1868
N14290 G2 X1.1818 Y0.1869 I0.0026 J-0.0195
N14295 G1 X1.1834 Y0.187
N14300 G2 X1.1844 I0.001 J-0.0197
N14305 G1 X1.2161
N14310 G3 X1.2174 Y0.1947 I0. J0.0039
N14315 G1 X1.1093 Y0.2322
N14320 G3 X1.1046 Y0.2265 I-0.0013 J-0.0037
N14325 X1.1697 Y0.2634 Z0.4159 I0.0325 J0.0184
N14330 X1.1046 Y0.2265 Z0.4118 I-0.0325 J-0.0184
N14335 X1.1697 Y0.2634 Z0.4077 I0.0325 J0.0184
N14340 X1.1046 Y0.2265 Z0.4036 I-0.0325 J-0.0184
N14345 X1.1697 Y0.2634 Z0.3995 I0.0325 J0.0184
N14350 X1.1204 Y0.2784 Z0.3975 I-0.0325 J-0.0184
N14355 X1.1534 Y0.2124 I0.0165 J-0.033
N14360 G2 X1.1651 Y0.2173 I0.0423 J-0.0846
N14365 X1.1817 Y0.2205 I0.0197 J-0.0577
N14370 G1 X1.4301 Y0.2209
N14375 G2 X1.4549 Y0.2139 I-0.0037 J-0.0605
N14380 X1.4756 Y0.1985 I-0.0404 J-0.0759
N14385 G3 X1.5 Y0.1984 I0.0123 J0.0121
N14390 G2 X1.5226 Y0.2147 I0.0634 J-0.0639
N14395 X1.5498 Y0.2212 I0.0271 J-0.0534
N14400 G3 X1.6829 Y0.2251 I-0.0002 J2.2868
N14405 G2 X1.816 Y0.2195 I0.0387 J-0.6621
N14410 X1.8294 Y0.2156 I-0.0073 J-0.0506
N14415 X1.8417 Y0.2092 I-0.0433 J-0.0981
N14420 G3 X1.8609 Y0.22 I0.0065 J0.0108
N14425 G1 Y0.2331
N14430 G3 X1.8417 Y0.2439 I-0.0126 J0.
N14435 G2 X1.8242 Y0.2356 I-0.048 J0.0791
N14440 X1.8051 Y0.2324 I-0.0191 J0.0548
N14445 G1 X1.1746 Y0.2334
N14450 G2 X1.1618 Y0.2368 I0.0066 J0.0509
N14455 X1.1498 Y0.2426 I0.0413 J0.101
N14460 G3 X1.1305 Y0.2313 I-0.0063 J-0.0113
N14465 G1 Y0.2217
N14470 G3 X1.1497 Y0.2104 I0.0129 J0.
N14475 G2 X1.1534 Y0.2124 I0.0461 J-0.0827
N14480 G3 X1.1547 Y0.2132 Z0.3977 I-0.0035 J0.0071
N14485 X1.1558 Y0.2142 Z0.3981 I-0.0048 J0.0062
N14490 X1.1566 Y0.2153 Z0.3988 I-0.0059 J0.0052
N14495 X1.1572 Y0.2163 Z0.3998 I-0.0067 J0.0041
N14500 X1.1575 Y0.2173 Z0.401 I-0.0072 J0.0031
N14505 X1.1577 Y0.218 Z0.4024 I-0.0076 J0.0022
N14510 Y0.2184 Z0.4038 I-0.0077 J0.0015
N14515 G1 Y0.2186 Z0.4054
N14520 G0 Z0.95
N14525 X1.1448 Y-0.3066
N14530 G1 Z0.4699 F20.
N14535 X1.145 Z0.4684
N14540 G3 X1.1454 Y-0.3065 Z0.4669 I-0.0079 J0.0365
N14545 X1.1461 Y-0.3063 Z0.4656 I-0.0084 J0.0365
N14550 X1.147 Y-0.3061 Z0.4644 I-0.009 J0.0363
N14555 X1.1481 Y-0.3057 Z0.4634 I-0.0099 J0.0361
N14560 X1.1493 Y-0.3053 Z0.4627 I-0.0111 J0.0357
N14565 X1.1507 Y-0.3048 Z0.4622 I-0.0123 J0.0353
N14570 X1.152 Y-0.3043 Z0.462 I-0.0136 J0.0348
N14575 X1.122 Y-0.2358 Z0.4579 I-0.015 J0.0343
N14580 X1.152 Y-0.3043 Z0.4538 I0.015 J-0.0343
N14585 X1.122 Y-0.2358 Z0.4497 I-0.015 J0.0343
N14590 X1.152 Y-0.3043 Z0.4456 I0.015 J-0.0343
N14595 X1.122 Y-0.2358 Z0.4415 I-0.015 J0.0343
N14600 X1.152 Y-0.3043 Z0.4374 I0.015 J-0.0343
N14605 X1.122 Y-0.2358 Z0.4333 I-0.015 J0.0343
N14610 X1.152 Y-0.3043 Z0.4292 I0.015 J-0.0343
N14615 X1.122 Y-0.2358 Z0.4251 I-0.015 J0.0343
N14620 X1.152 Y-0.3043 Z0.421 I0.015 J-0.0343
N14625 X1.122 Y-0.2358 Z0.4169 I-0.015 J0.0343
N14630 X1.152 Y-0.3043 Z0.4128 I0.015 J-0.0343
N14635 X1.122 Y-0.2358 Z0.4087 I-0.015 J0.0343
N14640 X1.152 Y-0.3043 Z0.4046 I0.015 J-0.0343
N14645 X1.122 Y-0.2358 Z0.4005 I-0.015 J0.0343
N14650 X1.1201 Y-0.3034 Z0.3975 I0.015 J-0.0343
N14655 X1.1536 Y-0.2372 I0.0167 J0.0331
N14660 G2 X1.1499 Y-0.2353 I0.0431 J0.0852
N14665 G3 X1.1307 Y-0.2465 I-0.0063 J-0.0112
N14670 G1 Y-0.2558
N14675 G3 X1.1499 Y-0.2672 I0.013 J0.
N14680 G2 X1.1652 Y-0.2605 I0.05 J-0.0933
N14685 X1.1817 Y-0.2573 I0.0195 J-0.0563
N14690 G1 X1.8092 Y-0.2574
N14695 G2 X1.826 Y-0.261 I-0.0044 J-0.0614
N14700 X1.8415 Y-0.2684 I-0.0312 J-0.0852
N14705 G3 X1.8606 Y-0.2575 I0.0065 J0.0109
N14710 G1 Y-0.245
N14715 G3 X1.8416 Y-0.2341 I-0.0127 J0.
N14720 G2 X1.8268 Y-0.2413 I-0.0552 J0.0942
N14725 X1.8107 Y-0.245 I-0.0199 J0.0499
N14730 G1 X1.5471 Y-0.2458
N14735 G2 X1.5215 Y-0.2388 I0.004 J0.065
N14740 X1.5 Y-0.2232 I0.0392 J0.0768
N14745 G3 X1.4757 Y-0.2233 I-0.0121 J-0.0123
N14750 G2 X1.4542 Y-0.2388 I-0.0596 J0.0598
N14755 X1.4286 Y-0.2458 I-0.0296 J0.0585
N14760 G1 X1.1801 Y-0.2451
N14765 G2 X1.1644 Y-0.2419 I0.0028 J0.0547
N14770 X1.1536 Y-0.2372 I0.0322 J0.0898
N14775 X1.1396 Y-0.2038 I0.0126 J0.0249
N14780 G3 X1.1453 Y-0.1681 I-0.1107 J0.0358
N14785 G1 Y-0.1036
N14790 X1.098
N14795 Y-0.3808
N14800 X1.1453
N14805 Y-0.3304
N14810 G2 Y-0.3297 I0.0197 J0.
N14815 G1 Y-0.3281
N14820 G2 X1.1455 Y-0.3265 I0.0197 J-0.0007
N14825 G1 X1.1457 Y-0.325
N14830 G2 X1.1459 Y-0.3234 I0.0196 J-0.0023
N14835 G1 X1.1462 Y-0.3218
N14840 G2 X1.1466 Y-0.3203 I0.0193 J-0.0039
N14845 G1 X1.147 Y-0.3187
N14850 G2 X1.1477 Y-0.3167 I0.0189 J-0.0054
N14855 G1 X1.1487 Y-0.3144
N14860 G2 X1.1497 Y-0.3123 I0.0182 J-0.0074
N14865 G1 X1.1507 Y-0.3105
N14870 G2 X1.1515 Y-0.3091 I0.0172 J-0.0095
N14875 G1 X1.1522 Y-0.308
N14880 G2 X1.153 Y-0.307 I0.0164 J-0.0109
