%
(HELENA_WAND)
(HELENA WAND TOP)
(T1  D=0.25 CR=0. - ZMIN=0.0001 - FLAT END MILL)
N10 G90 G94 G17 G91.1
N15 G20
N20 G53 G0 Z0.
(ADAPTIVE2)
N25 M9
N30 T1 M6
N35 S1700 M3
N40 G54
N45 M9
N55 G0 X-0.2672 Y-1.9774
N60 G43 Z1.85 H1
N65 G0 Z0.8
N70 G1 Z0.775 F60.
N75 X-0.2671 Y-1.9771 Z0.7711
N80 X-0.2669 Y-1.9763 Z0.7673
N85 X-0.2665 Y-1.9748 Z0.7637
N90 X-0.266 Y-1.9728 Z0.7603
N95 X-0.2654 Y-1.9704 Z0.7573
N100 X-0.2647 Y-1.9675 Z0.7548
N105 X-0.2638 Y-1.9642 Z0.7527
N110 X-0.2629 Y-1.9607 Z0.7512
N115 X-0.262 Y-1.957 Z0.7503
N120 X-0.261 Y-1.9532 Z0.75
N125 G3 X-0.2498 Y-1.8755 I-0.3532 J0.0905
N130 G2 X-0.2658 Y-1.0218 I8.1397 J0.5793
N135 G1 Y0.1056
N140 G2 X-0.2748 Y0.9751 I17.1533 J0.6118
N145 G1 Y1.6354
N150 G2 X-0.0337 Y1.7622 I0.2241 J-0.1334
N155 X0.7873 Y1.7748 I0.5624 J-9.9024
N160 G1 X16.1354
N165 G2 X16.2622 Y1.5337 I-0.1335 J-0.2241
N170 X16.2748 Y0.7126 I-9.9046 J-0.5623
N175 G1 Y-1.6387
N180 G2 X16.0147 Y-1.7642 I-0.2405 J0.1661
N185 X15.2097 Y-1.7748 I-0.5485 J11.0251
N190 G1 X-0.0176 Y-1.775
N195 G2 X-0.1515 Y-1.5399 I0.1131 J0.22
N200 X-0.1658 Y-0.7189 I8.7797 J0.5637
N205 G1 Y-0.0103
N210 G2 X-0.1748 Y1.0203 I29.6402 J0.7731
N215 G1 Y1.4874
N220 G2 X0.0697 Y1.6559 I0.2333 J-0.0768
N225 X1.0514 Y1.6748 I0.6593 J-8.714
N230 G1 X15.9969
N235 G2 X16.1572 Y1.4209 I-0.1034 J-0.2428
N240 X16.1748 Y0.5519 I-8.381 J-0.6043
N245 G1 Y-1.4935
N250 G2 X15.9243 Y-1.6568 I-0.2393 J0.0933
N255 X15.0875 Y-1.6748 I-0.6044 J8.6045
N260 G1 X14.862 Y-1.6749
N265 X0.1259 Y-1.675
N270 G2 X-0.0458 Y-1.4333 I0.0704 J0.2319
N275 X-0.0658 Y-0.4356 I8.7358 J0.6741
N280 G1 Y-0.0974
N285 X-0.0685 Y0.0614
N290 X-0.0708 Y0.2201
N295 X-0.0725 Y0.3788
N300 X-0.0738 Y0.5376
N305 X-0.0746 Y0.6963
N310 X-0.0749 Y0.855
N315 X-0.0747 Y1.0138
N320 X-0.0748 Y1.3681
N325 G2 X0.1762 Y1.5528 I0.2467 J-0.0724
N330 X1.206 Y1.5748 I0.6992 J-8.6086
N335 G1 X15.8615
N340 G2 X16.0517 Y1.3304 I-0.057 J-0.2405
N345 X16.0748 Y0.3168 I-8.0841 J-0.6912
N350 G1 Y-1.3742
N355 G2 X15.802 Y-1.5561 I-0.2587 J0.0925
N360 X14.8202 Y-1.5748 I-0.6694 J9.3566
N365 G1 X0.2452 Y-1.575
N370 G2 X0.0546 Y-1.3115 I0.0691 J0.2506
N375 X0.0342 Y-0.4748 I7.9598 J0.6125
N380 G1 Y-0.1848
N385 X0.0314 Y0.0022
N390 X0.0292 Y0.1892
N395 X0.0276 Y0.3762
N400 X0.0265 Y0.5632
N405 X0.0261 Y0.7502
N410 X0.0263 Y0.9373
N415 X0.027 Y1.1243
N420 X0.0284 Y1.3113
N425 G2 X0.4377 Y1.4627 I0.3546 J-0.3297
N430 X1.2433 Y1.4748 I0.5453 J-9.4443
N435 G1 X1.501
N440 X15.754
N445 G2 X15.9515 Y1.2163 I-0.0609 J-0.2513
N450 X15.9748 Y0.1866 I-8.2344 J-0.7015
N455 G1 Y-1.2468
N460 G2 X15.7235 Y-1.4503 I-0.2449 J0.0455
N465 X14.71 Y-1.4748 I-0.6939 J7.7094
N470 G1 X0.3604 Y-1.475
N475 G2 X0.1586 Y-1.2214 I0.0508 J0.2476
N480 X0.1381 Y0.0657 I11.4076 J0.8252
N485 X0.1308 Y1.2079 I16.309 J0.6762
N490 X0.5378 Y1.3619 I0.355 J-0.3232
N495 X1.3757 Y1.3748 I0.5703 J-9.8395
N500 G1 X1.6817
N505 X15.6447
N510 G2 X15.8488 Y1.1219 I-0.0514 J-0.2502
N515 X15.8748 Y0.1246 I-7.4853 J-0.694
N520 G1 Y-0.4069
N525 Y-1.1316
N530 G2 X15.6191 Y-1.3494 I-0.2506 J0.0353
N535 X14.5895 Y-1.3748 I-0.7317 J8.7521
N540 G1 X14.2513 Y-1.3749
N545 X0.4815 Y-1.375
N550 G2 X0.2605 Y-1.1228 I0.0288 J0.2481
N555 X0.2391 Y0.0513 I9.0511 J0.7526
N560 X0.2324 Y1.1123 I13.0035 J0.6117
N565 X0.6773 Y1.2633 I0.3815 J-0.3931
N570 X1.4831 Y1.2748 I0.5456 J-9.9815
N575 G1 X1.7246
N580 X15.5266
N585 G2 X15.7505 Y1.0057 I-0.0353 J-0.257
N590 X15.7748 Y-0.0884 I-8.7839 J-0.7424
N595 G1 Y-1.0386
N600 G2 X15.5098 Y-1.2498 I-0.2608 J0.0554
N605 X14.5446 Y-1.2748 I-0.6975 J8.2862
N610 G1 X14.3352 Y-1.2749
N615 X0.5815 Y-1.275
N620 G2 X0.3584 Y-1.0048 I0.0374 J0.2581
N625 X0.3328 Y1.0054 I27.2696 J1.3532
N630 X0.7558 Y1.1632 I0.3729 J-0.3537
N635 X1.7546 Y1.1748 I0.6531 J-13.2523
N640 G1 X15.4277
N645 G2 X15.6502 Y0.9031 I-0.0413 J-0.2607
N650 X15.6748 Y-0.0944 I-8.7971 J-0.7161
N655 G1 Y-0.9158
N660 G2 X15.4149 Y-1.1481 I-0.2515 J0.0198
N665 X14.4337 Y-1.1748 I-0.7071 J7.9438
N670 G1 X14.1599 Y-1.1749
N675 X0.68 Y-1.175
N680 G2 X0.4587 Y-0.9019 I0.0441 J0.262
N685 X0.4329 Y0.8994 I21.1239 J1.2036
N690 X0.8344 Y1.0605 I0.3533 J-0.2997
N695 X1.8654 Y1.0748 I0.6938 J-12.7998
N700 G1 X15.3131
N705 G2 X15.5473 Y0.8164 I-0.018 J-0.2515
N710 X15.5748 Y-0.2131 I-8.3686 J-0.7387
N715 G1 Y-0.4547
N720 Y-0.8251
N725 G2 X15.3047 Y-1.0494 I-0.2605 J0.0389
N730 X14.2428 Y-1.0748 I-0.7287 J8.2363
N735 G1 X13.9207 Y-1.0749
N740 X0.7953 Y-1.075
N745 G2 X0.5679 Y-0.8162 I0.0159 J0.2432
N750 X0.5354 Y0.5514 I8.632 J0.8892
N755 X0.5591 Y0.8344 I0.3475 J0.1134
N760 X0.9926 Y0.9653 I0.3808 J-0.4779
N765 X1.9752 Y0.9748 I0.6393 J-15.3108
N770 G1 X15.2135
N775 G2 X15.4471 Y0.7153 I-0.0203 J-0.2531
N780 X15.4748 Y-0.3625 I-8.8208 J-0.766
N785 G1 Y-0.7168
N790 G2 X15.2121 Y-0.9477 I-0.2555 J0.0258
N795 X14.0215 Y-0.9749 I-0.7984 J8.8919
N800 G1 X0.8961 Y-0.975
N805 G2 X0.6719 Y-0.7168 I0.0086 J0.2339
N810 X0.6357 Y-0.1696 I2.3951 J0.4332
N815 X0.6361 Y0.6986 I7.1385 J0.4314
N820 X1.0356 Y0.8603 I0.3518 J-0.295
N825 X2.0827 Y0.8748 I0.7078 J-13.2839
N830 G1 X15.1117
N835 G2 X15.3465 Y0.6165 I-0.0185 J-0.2527
N840 X15.3748 Y-0.3806 I-7.0309 J-0.698
N845 G1 Y-0.6222
N850 G2 X15.1062 Y-0.8485 I-0.2606 J0.0368
N855 X13.9156 Y-0.8749 I-0.7989 J9.1712
N860 G1 X0.9997 Y-0.875
N865 G2 X0.7693 Y-0.6191 I0.0114 J0.2419
N870 X0.7399 Y0.6168 I6.5372 J0.7741
N875 X1.2047 Y0.7649 I0.4035 J-0.463
N880 X2.1874 Y0.7748 I0.637 J-14.434
N885 G1 X15.007
N890 G2 X15.2423 Y0.5366 I-0.0091 J-0.2444
N895 X15.2652 Y-0.6033 I-6.6324 J-0.7036
N900 X14.8435 Y-0.7659 I-0.3798 J0.357
N905 X13.8129 Y-0.7749 I-0.6898 J20.0192
N910 G1 X1.0899 Y-0.775
N915 G2 X0.8642 Y-0.5248 I0.0292 J0.2532
N920 X0.8361 Y0.5026 I6.4267 J0.6899
N925 X1.2581 Y0.6658 I0.3803 J-0.3561
N930 X2.2887 Y0.6748 I0.6897 J-19.9092
N935 G1 X14.915
N940 G2 X15.1469 Y0.4126 I-0.0255 J-0.2562
N945 X15.166 Y-0.5024 I-5.4285 J-0.5708
N950 X14.7442 Y-0.6658 I-0.3804 J0.356
N955 X13.7136 Y-0.6749 I-0.6901 J19.7872
N960 G1 X1.2003 Y-0.675
N965 G2 X0.9694 Y-0.4191 I0.0118 J0.2428
N970 X0.9405 Y0.4144 I3.4823 J0.5379
N975 X1.4037 Y0.5647 I0.4022 J-0.4509
N980 X2.2254 Y0.5748 I0.5587 J-11.991
N985 G1 X2.4508
N990 X14.8034
N995 G2 X15.0476 Y0.308 I-0.015 J-0.2589
N1000 X15.0642 Y-0.4129 I-3.5765 J-0.4427
N1005 X14.5841 Y-0.5687 I-0.4178 J0.47
N1010 X13.634 Y-0.5749 I-0.6395 J25.4362
N1015 G1 X1.2975 Y-0.575
N1020 G2 X1.072 Y-0.3173 I0.0093 J0.2357
N1025 X1.0452 Y0.3228 I1.8683 J0.3988
N1030 X1.5301 Y0.4645 I0.4116 J-0.5082
N1035 X2.4968 Y0.4748 I0.6527 J-15.8193
N1040 G1 X14.7044
N1045 G2 X14.9478 Y0.2068 I-0.017 J-0.2599
N1050 X14.965 Y-0.3056 I-2.2258 J-0.3313
N1055 X14.5236 Y-0.4668 I-0.3915 J0.3868
N1060 X13.5091 Y-0.4749 I-0.6767 J21.3649
N1065 G1 X1.3981 Y-0.475
N1070 G2 X1.1716 Y-0.218 I0.0086 J0.2359
N1075 X1.1514 Y0.2284 I0.914 J0.2649
N1080 X1.6384 Y0.3649 I0.4133 J-0.5379
N1085 X2.589 Y0.3748 I0.6094 J-12.787
N1090 G1 X14.6033
N1095 G2 X14.8475 Y0.1078 I-0.0155 J-0.2593
N1100 X14.8525 Y-0.2259 I-0.805 J-0.1788
N1105 X14.3667 Y-0.3693 I-0.4228 J0.5376
N1110 X13.4005 Y-0.3749 I-0.6474 J28.5217
N1115 G1 X1.515 Y-0.375
N1120 G2 X1.2714 Y-0.1192 I-0.0096 J0.2348
N1125 X1.3157 Y0.1772 I0.204 J0.121
N1130 X1.8633 Y0.2699 I0.4542 J-1.0192
N1135 X2.556 Y0.2748 I0.4485 J-14.4151
N1140 G1 X2.7976
N1145 X14.5061
N1150 G2 X14.7355 Y0.0219 I-0.0024 J-0.2327
N1155 X14.5811 Y-0.2277 I-0.1713 J-0.0666
N1160 X13.6994 Y-0.2691 I-0.6208 J3.8125
N1165 G1 X13.6185 Y-0.2748
N1170 X13.5057
N1175 X13.393 Y-0.2749
N1180 X13.0548
N1185 X1.6042 Y-0.275
N1190 G2 X1.406 Y0.0649 I-0.0057 J0.2243
N1195 X1.9702 Y0.1686 I0.4619 J-0.9255
N1200 X2.5987 Y0.1748 I0.4281 J-11.5931
N1205 G1 X2.9852
N1210 X14.4039
N1215 G2 X14.6009 Y-0.0336 I0.0256 J-0.1731
N1220 X14.1466 Y-0.1693 I-0.3951 J0.4942
N1225 X13.1965 Y-0.1749 I-0.6315 J26.6591
N1230 G1 X2.5994
N1235 X2.5914 Y-0.1744
N1240 G3 X1.9193 Y-0.166 I-0.477 J-11.2969
N1245 G1 X1.6938
N1250 G2 X1.5598 Y-0.0834 I-0.0312 J0.0994
N1255 X1.8183 Y0.0481 I0.2471 J-0.1658
N1260 X2.929 Y0.0658 I0.7371 J-11.3867
N1265 G1 X14.2669
N1270 G2 X14.3583 Y0.0631 I0.0366 J-0.3102
N1275 G3 X14.3857 Y0.0974 I0.0043 J0.0246
N1280 G1 X14.3841 Y0.0999 Z0.7502
N1285 X14.3825 Y0.1024 Z0.7507
N1290 X14.3809 Y0.1048 Z0.7516
N1295 X14.3784 Y0.1067 Z0.7531
N1300 X14.376 Y0.1085 Z0.755
N1305 X14.3739 Y0.11 Z0.7573
N1310 X14.3717 Y0.1108 Z0.7599
N1315 X14.37 Y0.1114 Z0.7628
N1320 X14.3686 Y0.1119 Z0.7659
N1325 X14.3676 Y0.1122 Z0.7692
N1330 X14.3671 Y0.1123 Z0.7721
N1335 X14.3669 Z0.775
N1340 G0 Z1.45
N1345 X-0.2672 Y-1.9774
N1350 Z0.675
N1355 G1 Z0.65 F60.
N1360 X-0.2671 Y-1.9771 Z0.6461
N1365 X-0.2669 Y-1.9763 Z0.6423
N1370 X-0.2665 Y-1.9748 Z0.6387
N1375 X-0.266 Y-1.9728 Z0.6353
N1380 X-0.2654 Y-1.9704 Z0.6323
N1385 X-0.2647 Y-1.9675 Z0.6298
N1390 X-0.2638 Y-1.9642 Z0.6277
N1395 X-0.2629 Y-1.9607 Z0.6262
N1400 X-0.262 Y-1.957 Z0.6253
N1405 X-0.261 Y-1.9532 Z0.625
N1410 G3 X-0.2498 Y-1.8755 I-0.3532 J0.0905
N1415 G2 X-0.2658 Y-1.0218 I8.1397 J0.5793
N1420 G1 Y0.1056
N1425 G2 X-0.2748 Y0.9751 I17.1533 J0.6118
N1430 G1 Y1.6354
N1435 G2 X-0.0337 Y1.7622 I0.2241 J-0.1334
N1440 X0.7873 Y1.7748 I0.5624 J-9.9024
N1445 G1 X16.1354
N1450 G2 X16.2622 Y1.5337 I-0.1335 J-0.2241
N1455 X16.2748 Y0.7126 I-9.9046 J-0.5623
N1460 G1 Y-1.6387
N1465 G2 X16.0147 Y-1.7642 I-0.2405 J0.1661
N1470 X15.2097 Y-1.7748 I-0.5485 J11.0251
N1475 G1 X-0.0176 Y-1.775
N1480 G2 X-0.1515 Y-1.5399 I0.1131 J0.22
N1485 X-0.1658 Y-0.7189 I8.7797 J0.5637
N1490 G1 Y-0.0103
N1495 G2 X-0.1748 Y1.0203 I29.6402 J0.7731
N1500 G1 Y1.4874
N1505 G2 X0.0697 Y1.6559 I0.2333 J-0.0768
N1510 X1.0514 Y1.6748 I0.6593 J-8.714
N1515 G1 X15.9969
N1520 G2 X16.1572 Y1.4209 I-0.1034 J-0.2428
N1525 X16.1748 Y0.5519 I-8.381 J-0.6043
N1530 G1 Y-1.4935
N1535 G2 X15.9243 Y-1.6568 I-0.2393 J0.0933
N1540 X15.0875 Y-1.6748 I-0.6044 J8.6045
N1545 G1 X14.862 Y-1.6749
N1550 X0.1259 Y-1.675
N1555 G2 X-0.0458 Y-1.4333 I0.0704 J0.2319
N1560 X-0.0658 Y-0.4356 I8.7358 J0.6741
N1565 G1 Y-0.0974
N1570 X-0.0685 Y0.0614
N1575 X-0.0708 Y0.2201
N1580 X-0.0725 Y0.3788
N1585 X-0.0738 Y0.5376
N1590 X-0.0746 Y0.6963
N1595 X-0.0749 Y0.855
N1600 X-0.0747 Y1.0138
N1605 X-0.0748 Y1.3681
N1610 G2 X0.1762 Y1.5528 I0.2467 J-0.0724
N1615 X1.206 Y1.5748 I0.6992 J-8.6086
N1620 G1 X15.8615
N1625 G2 X16.0517 Y1.3304 I-0.057 J-0.2405
N1630 X16.0748 Y0.3168 I-8.0841 J-0.6912
N1635 G1 Y-1.3742
N1640 G2 X15.802 Y-1.5561 I-0.2587 J0.0925
N1645 X14.8202 Y-1.5748 I-0.6694 J9.3566
N1650 G1 X0.2452 Y-1.575
N1655 G2 X0.0546 Y-1.3115 I0.0691 J0.2506
N1660 X0.0342 Y-0.4748 I7.9598 J0.6125
N1665 G1 Y-0.1848
N1670 X0.0314 Y0.0022
N1675 X0.0292 Y0.1892
N1680 X0.0276 Y0.3762
N1685 X0.0265 Y0.5632
N1690 X0.0261 Y0.7502
N1695 X0.0263 Y0.9373
N1700 X0.027 Y1.1243
N1705 X0.0284 Y1.3113
N1710 G2 X0.4377 Y1.4627 I0.3546 J-0.3297
N1715 X1.2433 Y1.4748 I0.5453 J-9.4443
N1720 G1 X1.501
N1725 X15.754
N1730 G2 X15.9515 Y1.2163 I-0.0609 J-0.2513
N1735 X15.9748 Y0.1866 I-8.2344 J-0.7015
N1740 G1 Y-1.2468
N1745 G2 X15.7235 Y-1.4503 I-0.2449 J0.0455
N1750 X14.71 Y-1.4748 I-0.6939 J7.7094
N1755 G1 X0.3604 Y-1.475
N1760 G2 X0.1586 Y-1.2214 I0.0508 J0.2476
N1765 X0.1381 Y0.0657 I11.4076 J0.8252
N1770 X0.1308 Y1.2079 I16.309 J0.6762
N1775 X0.5378 Y1.3619 I0.355 J-0.3232
N1780 X1.3757 Y1.3748 I0.5703 J-9.8395
N1785 G1 X1.6817
N1790 X15.6447
N1795 G2 X15.8488 Y1.1219 I-0.0514 J-0.2502
N1800 X15.8748 Y0.1246 I-7.4853 J-0.694
N1805 G1 Y-0.4069
N1810 Y-1.1316
N1815 G2 X15.6191 Y-1.3494 I-0.2506 J0.0353
N1820 X14.5895 Y-1.3748 I-0.7317 J8.7521
N1825 G1 X14.2513 Y-1.3749
N1830 X0.4815 Y-1.375
N1835 G2 X0.2605 Y-1.1228 I0.0288 J0.2481
N1840 X0.2391 Y0.0513 I9.0511 J0.7526
N1845 X0.2324 Y1.1123 I13.0035 J0.6117
N1850 X0.6773 Y1.2633 I0.3815 J-0.3931
N1855 X1.4831 Y1.2748 I0.5456 J-9.9815
N1860 G1 X1.7246
N1865 X15.5266
N1870 G2 X15.7505 Y1.0057 I-0.0353 J-0.257
N1875 X15.7748 Y-0.0884 I-8.7839 J-0.7424
N1880 G1 Y-1.0386
N1885 G2 X15.5098 Y-1.2498 I-0.2608 J0.0554
N1890 X14.5446 Y-1.2748 I-0.6975 J8.2862
N1895 G1 X14.3352 Y-1.2749
N1900 X0.5815 Y-1.275
N1905 G2 X0.3584 Y-1.0048 I0.0374 J0.2581
N1910 X0.3328 Y1.0054 I27.2696 J1.3532
N1915 X0.7558 Y1.1632 I0.3729 J-0.3537
N1920 X1.7546 Y1.1748 I0.6531 J-13.2523
N1925 G1 X15.4277
N1930 G2 X15.6502 Y0.9031 I-0.0413 J-0.2607
N1935 X15.6748 Y-0.0944 I-8.7971 J-0.7161
N1940 G1 Y-0.9158
N1945 G2 X15.4149 Y-1.1481 I-0.2515 J0.0198
N1950 X14.4337 Y-1.1748 I-0.7071 J7.9438
N1955 G1 X14.1599 Y-1.1749
N1960 X0.68 Y-1.175
N1965 G2 X0.4587 Y-0.9019 I0.0441 J0.262
N1970 X0.4329 Y0.8994 I21.1239 J1.2036
N1975 X0.8344 Y1.0605 I0.3533 J-0.2997
N1980 X1.8654 Y1.0748 I0.6938 J-12.7998
N1985 G1 X15.3131
N1990 G2 X15.5473 Y0.8164 I-0.018 J-0.2515
N1995 X15.5748 Y-0.2131 I-8.3686 J-0.7387
N2000 G1 Y-0.4547
N2005 Y-0.8251
N2010 G2 X15.3047 Y-1.0494 I-0.2605 J0.0389
N2015 X14.2428 Y-1.0748 I-0.7287 J8.2363
N2020 G1 X13.9207 Y-1.0749
N2025 X0.7953 Y-1.075
N2030 G2 X0.5679 Y-0.8162 I0.0159 J0.2432
N2035 X0.5354 Y0.5514 I8.632 J0.8892
N2040 X0.5591 Y0.8344 I0.3475 J0.1134
N2045 X0.9926 Y0.9653 I0.3808 J-0.4779
N2050 X1.9752 Y0.9748 I0.6393 J-15.3108
N2055 G1 X15.2135
N2060 G2 X15.4471 Y0.7153 I-0.0203 J-0.2531
N2065 X15.4748 Y-0.3625 I-8.8208 J-0.766
N2070 G1 Y-0.7168
N2075 G2 X15.2121 Y-0.9477 I-0.2555 J0.0258
N2080 X14.0215 Y-0.9749 I-0.7984 J8.8919
N2085 G1 X0.8961 Y-0.975
N2090 G2 X0.6719 Y-0.7168 I0.0086 J0.2339
N2095 X0.6357 Y-0.1696 I2.3951 J0.4332
N2100 X0.6361 Y0.6986 I7.1385 J0.4314
N2105 X1.0356 Y0.8603 I0.3518 J-0.295
N2110 X2.0827 Y0.8748 I0.7078 J-13.2839
N2115 G1 X15.1117
N2120 G2 X15.3465 Y0.6165 I-0.0185 J-0.2527
N2125 X15.3748 Y-0.3806 I-7.0309 J-0.698
N2130 G1 Y-0.6222
N2135 G2 X15.1062 Y-0.8485 I-0.2606 J0.0368
N2140 X13.9156 Y-0.8749 I-0.7989 J9.1712
N2145 G1 X0.9997 Y-0.875
N2150 G2 X0.7693 Y-0.6191 I0.0114 J0.2419
N2155 X0.7399 Y0.6168 I6.5372 J0.7741
N2160 X1.2047 Y0.7649 I0.4035 J-0.463
N2165 X2.1874 Y0.7748 I0.637 J-14.434
N2170 G1 X15.007
N2175 G2 X15.2423 Y0.5366 I-0.0091 J-0.2444
N2180 X15.2652 Y-0.6033 I-6.6324 J-0.7036
N2185 X14.8435 Y-0.7659 I-0.3798 J0.357
N2190 X13.8129 Y-0.7749 I-0.6898 J20.0192
N2195 G1 X1.0899 Y-0.775
N2200 G2 X0.8642 Y-0.5248 I0.0292 J0.2532
N2205 X0.8361 Y0.5026 I6.4267 J0.6899
N2210 X1.2581 Y0.6658 I0.3803 J-0.3561
N2215 X2.2887 Y0.6748 I0.6897 J-19.9092
N2220 G1 X14.915
N2225 G2 X15.1469 Y0.4126 I-0.0255 J-0.2562
N2230 X15.166 Y-0.5024 I-5.4285 J-0.5708
N2235 X14.7442 Y-0.6658 I-0.3804 J0.356
N2240 X13.7136 Y-0.6749 I-0.6901 J19.7872
N2245 G1 X1.2003 Y-0.675
N2250 G2 X0.9694 Y-0.4191 I0.0118 J0.2428
N2255 X0.9405 Y0.4144 I3.4823 J0.5379
N2260 X1.4037 Y0.5647 I0.4022 J-0.4509
N2265 X2.2254 Y0.5748 I0.5587 J-11.991
N2270 G1 X2.4508
N2275 X14.8034
N2280 G2 X15.0476 Y0.308 I-0.015 J-0.2589
N2285 X15.0642 Y-0.4129 I-3.5765 J-0.4427
N2290 X14.5841 Y-0.5687 I-0.4178 J0.47
N2295 X13.634 Y-0.5749 I-0.6395 J25.4362
N2300 G1 X1.2975 Y-0.575
N2305 G2 X1.072 Y-0.3173 I0.0093 J0.2357
N2310 X1.0452 Y0.3228 I1.8683 J0.3988
N2315 X1.5301 Y0.4645 I0.4116 J-0.5082
N2320 X2.4968 Y0.4748 I0.6527 J-15.8193
N2325 G1 X14.7044
N2330 G2 X14.9478 Y0.2068 I-0.017 J-0.2599
N2335 X14.965 Y-0.3056 I-2.2258 J-0.3313
N2340 X14.5236 Y-0.4668 I-0.3915 J0.3868
N2345 X13.5091 Y-0.4749 I-0.6767 J21.3649
N2350 G1 X1.3981 Y-0.475
N2355 G2 X1.1716 Y-0.218 I0.0086 J0.2359
N2360 X1.1514 Y0.2284 I0.914 J0.2649
N2365 X1.6384 Y0.3649 I0.4133 J-0.5379
N2370 X2.589 Y0.3748 I0.6094 J-12.787
N2375 G1 X14.6033
N2380 G2 X14.8475 Y0.1078 I-0.0155 J-0.2593
N2385 X14.8525 Y-0.2259 I-0.805 J-0.1788
N2390 X14.3667 Y-0.3693 I-0.4228 J0.5376
N2395 X13.4005 Y-0.3749 I-0.6474 J28.5217
N2400 G1 X1.515 Y-0.375
N2405 G2 X1.2714 Y-0.1192 I-0.0096 J0.2348
N2410 X1.3157 Y0.1772 I0.204 J0.121
N2415 X1.8633 Y0.2699 I0.4542 J-1.0192
N2420 X2.556 Y0.2748 I0.4485 J-14.4151
N2425 G1 X2.7976
N2430 X14.5061
N2435 G2 X14.7355 Y0.0219 I-0.0024 J-0.2327
N2440 X14.5811 Y-0.2277 I-0.1713 J-0.0666
N2445 X13.6994 Y-0.2691 I-0.6208 J3.8125
N2450 G1 X13.6185 Y-0.2748
N2455 X13.5057
N2460 X13.393 Y-0.2749
N2465 X13.0548
N2470 X1.6042 Y-0.275
N2475 G2 X1.406 Y0.0649 I-0.0057 J0.2243
N2480 X1.9702 Y0.1686 I0.4619 J-0.9255
N2485 X2.5987 Y0.1748 I0.4281 J-11.5931
N2490 G1 X2.9852
N2495 X14.4039
N2500 G2 X14.6009 Y-0.0336 I0.0256 J-0.1731
N2505 X14.1466 Y-0.1693 I-0.3951 J0.4942
N2510 X13.1965 Y-0.1749 I-0.6315 J26.6591
N2515 G1 X2.5994
N2520 X2.5914 Y-0.1744
N2525 G3 X1.9193 Y-0.166 I-0.477 J-11.2969
N2530 G1 X1.6938
N2535 G2 X1.5598 Y-0.0834 I-0.0312 J0.0994
N2540 X1.8183 Y0.0481 I0.2471 J-0.1658
N2545 X2.929 Y0.0658 I0.7371 J-11.3867
N2550 G1 X14.2669
N2555 G2 X14.3583 Y0.0631 I0.0366 J-0.3102
N2560 G3 X14.3857 Y0.0974 I0.0043 J0.0246
N2565 G1 X14.3841 Y0.0999 Z0.6252
N2570 X14.3825 Y0.1024 Z0.6257
N2575 X14.3809 Y0.1048 Z0.6266
N2580 X14.3784 Y0.1067 Z0.6281
N2585 X14.376 Y0.1085 Z0.63
N2590 X14.3739 Y0.11 Z0.6323
N2595 X14.3717 Y0.1108 Z0.6349
N2600 X14.37 Y0.1114 Z0.6378
N2605 X14.3686 Y0.1119 Z0.6409
N2610 X14.3676 Y0.1122 Z0.6442
N2615 X14.3671 Y0.1123 Z0.6471
N2620 X14.3669 Z0.65
N2625 G0 Z1.45
N2630 X-0.2672 Y-1.9774
N2635 Z0.5501
N2640 G1 Z0.5251 F60.
N2645 X-0.2671 Y-1.9771 Z0.5212
N2650 X-0.2669 Y-1.9763 Z0.5174
N2655 X-0.2665 Y-1.9748 Z0.5138
N2660 X-0.266 Y-1.9728 Z0.5104
N2665 X-0.2654 Y-1.9704 Z0.5074
N2670 X-0.2647 Y-1.9675 Z0.5049
N2675 X-0.2638 Y-1.9642 Z0.5028
N2680 X-0.2629 Y-1.9607 Z0.5013
N2685 X-0.262 Y-1.957 Z0.5004
N2690 X-0.261 Y-1.9532 Z0.5001
N2695 G3 X-0.2498 Y-1.8755 I-0.3532 J0.0905
N2700 G2 X-0.2658 Y-1.0218 I8.1397 J0.5793
N2705 G1 Y0.1056
N2710 G2 X-0.2748 Y0.9751 I17.1533 J0.6118
N2715 G1 Y1.6354
N2720 G2 X-0.0337 Y1.7622 I0.2241 J-0.1334
N2725 X0.7873 Y1.7748 I0.5624 J-9.9024
N2730 G1 X16.1354
N2735 G2 X16.2622 Y1.5337 I-0.1335 J-0.2241
N2740 X16.2748 Y0.7126 I-9.9046 J-0.5623
N2745 G1 Y-1.6387
N2750 G2 X16.0147 Y-1.7642 I-0.2405 J0.1661
N2755 X15.2097 Y-1.7748 I-0.5485 J11.0251
N2760 G1 X-0.0176 Y-1.775
N2765 G2 X-0.1515 Y-1.5399 I0.1131 J0.22
N2770 X-0.1658 Y-0.7189 I8.7797 J0.5637
N2775 G1 Y-0.0103
N2780 G2 X-0.1748 Y1.0203 I29.6402 J0.7731
N2785 G1 Y1.4874
N2790 G2 X0.0697 Y1.6559 I0.2333 J-0.0768
N2795 X1.0514 Y1.6748 I0.6593 J-8.714
N2800 G1 X15.9969
N2805 G2 X16.1572 Y1.4209 I-0.1034 J-0.2428
N2810 X16.1748 Y0.5519 I-8.381 J-0.6043
N2815 G1 Y-1.4935
N2820 G2 X15.9243 Y-1.6568 I-0.2393 J0.0933
N2825 X15.0875 Y-1.6748 I-0.6044 J8.6045
N2830 G1 X14.862 Y-1.6749
N2835 X0.1259 Y-1.675
N2840 G2 X-0.0458 Y-1.4333 I0.0704 J0.2319
N2845 X-0.0658 Y-0.4356 I8.7358 J0.6741
N2850 G1 Y-0.0974
N2855 X-0.0685 Y0.0614
N2860 X-0.0708 Y0.2201
N2865 X-0.0725 Y0.3788
N2870 X-0.0738 Y0.5376
N2875 X-0.0746 Y0.6963
N2880 X-0.0749 Y0.855
N2885 X-0.0747 Y1.0138
N2890 X-0.0748 Y1.3681
N2895 G2 X0.1762 Y1.5528 I0.2467 J-0.0724
N2900 X1.206 Y1.5748 I0.6992 J-8.6086
N2905 G1 X15.8615
N2910 G2 X16.0517 Y1.3304 I-0.057 J-0.2405
N2915 X16.0748 Y0.3168 I-8.0841 J-0.6912
N2920 G1 Y-1.3742
N2925 G2 X15.802 Y-1.5561 I-0.2587 J0.0925
N2930 X14.8202 Y-1.5748 I-0.6694 J9.3566
N2935 G1 X0.2452 Y-1.575
N2940 G2 X0.0546 Y-1.3115 I0.0691 J0.2506
N2945 X0.0342 Y-0.4748 I7.9598 J0.6125
N2950 G1 Y-0.1848
N2955 X0.0314 Y0.0022
N2960 X0.0292 Y0.1892
N2965 X0.0276 Y0.3762
N2970 X0.0265 Y0.5632
N2975 X0.0261 Y0.7502
N2980 X0.0263 Y0.9373
N2985 X0.027 Y1.1243
N2990 X0.0284 Y1.3113
N2995 G2 X0.4377 Y1.4627 I0.3546 J-0.3297
N3000 X1.2433 Y1.4748 I0.5453 J-9.4443
N3005 G1 X1.501
N3010 X15.754
N3015 G2 X15.9515 Y1.2163 I-0.0609 J-0.2513
N3020 X15.9748 Y0.1866 I-8.2344 J-0.7015
N3025 G1 Y-1.2468
N3030 G2 X15.7235 Y-1.4503 I-0.2449 J0.0455
N3035 X14.71 Y-1.4748 I-0.6939 J7.7094
N3040 G1 X0.3604 Y-1.475
N3045 G2 X0.1586 Y-1.2214 I0.0508 J0.2476
N3050 X0.1381 Y0.0657 I11.4076 J0.8252
N3055 X0.1308 Y1.2079 I16.309 J0.6762
N3060 X0.5378 Y1.3619 I0.355 J-0.3232
N3065 X1.3757 Y1.3748 I0.5703 J-9.8395
N3070 G1 X1.6817
N3075 X15.6447
N3080 G2 X15.8488 Y1.1219 I-0.0514 J-0.2502
N3085 X15.8748 Y0.1246 I-7.4853 J-0.694
N3090 G1 Y-0.4069
N3095 Y-1.1316
N3100 G2 X15.6191 Y-1.3494 I-0.2506 J0.0353
N3105 X14.5895 Y-1.3748 I-0.7317 J8.7521
N3110 G1 X14.2513 Y-1.3749
N3115 X0.4815 Y-1.375
N3120 G2 X0.2605 Y-1.1228 I0.0288 J0.2481
N3125 X0.2391 Y0.0513 I9.0511 J0.7526
N3130 X0.2324 Y1.1123 I13.0035 J0.6117
N3135 X0.6773 Y1.2633 I0.3815 J-0.3931
N3140 X1.4831 Y1.2748 I0.5456 J-9.9815
N3145 G1 X1.7246
N3150 X15.5266
N3155 G2 X15.7505 Y1.0057 I-0.0353 J-0.257
N3160 X15.7799 Y0.426 I-6.5733 J-0.6244
N3165 G1 X15.7866 Y0.4155
N3170 X15.7955 Y0.4067
N3175 X15.8061 Y0.4002
N3180 G3 X15.831 Y0.4014 I0.0114 J0.0222
N3185 G2 X15.8517 Y0.4044 I0.0136 J-0.021
N3190 G1 X15.868 Y0.3995
N3195 G2 X15.8795 Y0.3922 I-0.0071 J-0.024
N3200 X15.8851 Y0.3695 I-0.0187 J-0.0166
N3205 G3 X15.8745 Y0.2917 I0.3538 J-0.0881
N3210 G1 Y0.2846
N3215 Y0.2771
N3220 Y-0.276
N3225 G2 X15.8012 Y-0.4378 I-0.2795 J0.0291
N3230 G3 X15.7753 Y-1.0846 I4.4593 J-0.5025
N3235 G2 X15.3997 Y-1.2632 I-0.3441 J0.2394
N3240 X14.4014 Y-1.2749 I-0.6707 J14.6311
N3245 G1 X0.5833 Y-1.275
N3250 G2 X0.3587 Y-1.0066 I0.0341 J0.2567
N3255 X0.3325 Y1.0038 I27.4236 J1.3636
N3260 X0.7378 Y1.161 I0.3563 J-0.3174
N3265 X1.7206 Y1.1748 I0.6508 J-11.3035
N3270 G1 X15.4259
N3275 G2 X15.6499 Y0.9048 I-0.0379 J-0.2593
N3280 G1 X15.6624 Y0.7537
N3285 X15.6753 Y0.6025
N3290 X15.6885 Y0.4514
N3295 G3 X15.7836 Y0.4091 I0.0944 J0.0839
N3300 X15.7973 Y0.4571 I0.0066 J0.0241
N3305 G1 X15.7938 Y0.4581 Z0.5003
N3310 X15.7904 Y0.459 Z0.501
N3315 X15.7871 Y0.4599 Z0.5022
N3320 X15.784 Y0.4608 Z0.5039
N3325 X15.7811 Y0.4615 Z0.506
N3330 X15.7786 Y0.4622 Z0.5085
N3335 X15.7765 Y0.4628 Z0.5114
N3340 X15.7748 Y0.4633 Z0.5146
N3345 X15.7735 Y0.4636 Z0.518
N3350 X15.7728 Y0.4638 Z0.5215
N3355 X15.7725 Y0.4639 Z0.5251
N3360 G0 Z1.45
N3365 X15.925 Y-0.3073
N3370 Z0.5501
N3375 G1 Z0.5251 F60.
N3380 X15.9248 Y-0.3075 Z0.5212
N3385 X15.924 Y-0.308 Z0.5174
N3390 X15.9228 Y-0.3088 Z0.5138
N3395 X15.921 Y-0.31 Z0.5104
N3400 X15.9189 Y-0.3114 Z0.5074
N3405 X15.9164 Y-0.313 Z0.5049
N3410 X15.9136 Y-0.3148 Z0.5028
N3415 X15.9106 Y-0.3168 Z0.5013
N3420 X15.9074 Y-0.3189 Z0.5004
N3425 X15.9041 Y-0.3211 Z0.5001
N3430 G3 X15.8435 Y-0.371 I0.2003 J-0.3046
N3435 G1 X15.8317 Y-0.3789
N3440 X15.8202 Y-0.3873
N3445 X15.8091 Y-0.3961
N3450 X15.7984 Y-0.4054
N3455 X15.788 Y-0.4151
N3460 X15.7781 Y-0.4252
N3465 X15.7686 Y-0.4357
N3470 X15.7595 Y-0.4467
N3475 X15.7509 Y-0.458
N3480 X15.7428 Y-0.4696
N3485 X15.7351 Y-0.4816
N3490 X15.728 Y-0.4938
N3495 X15.7214 Y-0.5064
N3500 X15.7153 Y-0.5192
N3505 X15.7098 Y-0.5323
N3510 X15.7048 Y-0.5456
N3515 X15.7003 Y-0.559
N3520 X15.6964 Y-0.5727
N3525 X15.6931 Y-0.5865
N3530 X15.6904 Y-0.6004
N3535 X15.6882 Y-0.6144
N3540 X15.6867 Y-0.6286
N3545 X15.6857 Y-0.6427
N3550 X15.6853 Y-0.6569
N3555 X15.6855 Y-0.6711
N3560 X15.6863 Y-0.6852
N3565 X15.6877 Y-0.6994
N3570 X15.6896 Y-0.7134
N3575 X15.6922 Y-0.7274
N3580 G2 X15.6564 Y-1.0157 I-3.1478 J0.2439
N3585 X15.2654 Y-1.1653 I-0.3568 J0.347
N3590 X14.3798 Y-1.1748 I-0.6114 J15.5589
N3595 G1 X14.106 Y-1.1749
N3600 X0.6906 Y-1.175
N3605 G2 X0.4665 Y-0.9126 I0.0217 J0.2454
N3610 X0.4367 Y0.3907 I8.8521 J0.8539
N3615 X0.4382 Y0.9197 I2.4072 J0.258
N3620 X0.9204 Y1.0646 I0.4077 J-0.4823
N3625 X1.8711 Y1.0748 I0.6081 J-12.3066
N3630 G1 X15.3188
N3635 G2 X15.5483 Y0.8108 I-0.0276 J-0.2557
N3640 G3 X15.5847 Y0.479 I13.0704 J1.268
N3645 X15.7192 Y0.429 I0.1752 J0.2652
N3650 X15.7329 Y0.4771 I0.0066 J0.0241
N3655 G1 X15.7294 Y0.478 Z0.5003
N3660 X15.726 Y0.4789 Z0.501
N3665 X15.7227 Y0.4798 Z0.5022
N3670 X15.7196 Y0.4807 Z0.5039
N3675 X15.7167 Y0.4815 Z0.506
N3680 X15.7142 Y0.4821 Z0.5085
N3685 X15.7121 Y0.4827 Z0.5114
N3690 X15.7104 Y0.4832 Z0.5146
N3695 X15.7092 Y0.4835 Z0.518
N3700 X15.7084 Y0.4837 Z0.5215
N3705 X15.7081 Y0.4838 Z0.5251
N3710 G0 Z1.45
N3715 X15.8993 Y-0.3803
N3720 Z0.5501
N3725 G1 Z0.5251 F60.
N3730 X15.899 Z0.5212
N3735 X15.8981 Y-0.3804 Z0.5174
N3740 X15.8966 Y-0.3807 Z0.5138
N3745 X15.8946 Y-0.381 Z0.5104
N3750 X15.892 Y-0.3813 Z0.5074
N3755 X15.8891 Y-0.3818 Z0.5049
N3760 X15.8858 Y-0.3823 Z0.5028
N3765 X15.8822 Y-0.3828 Z0.5013
N3770 X15.8784 Y-0.3833 Z0.5004
N3775 X15.8746 Y-0.3839 Z0.5001
N3780 G3 X15.7986 Y-0.4037 I0.0534 J-0.3606
N3785 G1 X15.7867 Y-0.4066
N3790 X15.7749 Y-0.4101
N3795 X15.7634 Y-0.4142
N3800 X15.752 Y-0.4188
N3805 X15.7409 Y-0.424
N3810 X15.7301 Y-0.4298
N3815 X15.7196 Y-0.436
N3820 X15.7094 Y-0.4428
N3825 X15.6995 Y-0.4501
N3830 X15.69 Y-0.4578
N3835 X15.681 Y-0.466
N3840 X15.6723 Y-0.4747
N3845 X15.664 Y-0.4837
N3850 X15.6563 Y-0.4932
N3855 X15.649 Y-0.503
N3860 X15.6422 Y-0.5132
N3865 X15.6359 Y-0.5237
N3870 X15.6301 Y-0.5345
N3875 X15.6249 Y-0.5456
N3880 X15.6202 Y-0.5569
N3885 X15.6161 Y-0.5685
N3890 X15.6126 Y-0.5802
N3895 X15.6096 Y-0.5921
N3900 X15.6072 Y-0.6041
N3905 X15.6055 Y-0.6162
N3910 X15.6043 Y-0.6284
N3915 X15.6038 Y-0.6406
N3920 Y-0.6529
N3925 X15.6045 Y-0.6651
N3930 X15.6057 Y-0.6773
N3935 G2 X15.5555 Y-0.9303 I-1.6198 J0.1899
N3940 X15.0714 Y-1.0697 I-0.4191 J0.545
N3945 X14.1695 Y-1.0749 I-0.6082 J27.4304
N3950 G1 X0.7863 Y-1.075
N3955 G2 X0.5657 Y-0.8074 I0.0318 J0.2509
N3960 X0.5356 Y0.7213 I10.9785 J0.9808
N3965 X0.6997 Y0.9255 I0.1915 J0.0141
N3970 X1.581 Y0.9688 I0.6197 J-3.6247
N3975 G1 X1.662 Y0.9748
N3980 X1.7747
N3985 X1.968
N3990 X15.2224
N3995 G2 X15.4487 Y0.7065 I-0.036 J-0.26
N4000 G3 X15.5067 Y0.4959 I0.3902 J-0.0059
N4005 G1 X15.5172 Y0.4915
N4010 X15.6205 Y0.4595
N4015 G3 X15.6343 Y0.5076 I0.0066 J0.0241
N4020 G1 X15.6308 Y0.5085 Z0.5003
N4025 X15.6273 Y0.5095 Z0.501
N4030 X15.624 Y0.5104 Z0.5022
N4035 X15.6209 Y0.5112 Z0.5039
N4040 X15.6181 Y0.512 Z0.506
N4045 X15.6156 Y0.5127 Z0.5085
N4050 X15.6134 Y0.5132 Z0.5114
N4055 X15.6117 Y0.5137 Z0.5146
N4060 X15.6105 Y0.514 Z0.518
N4065 X15.6097 Y0.5143 Z0.5215
N4070 X15.6095 Z0.5251
N4075 G0 Z1.45
N4080 X15.8414 Y-0.4277
N4085 Z0.5501
N4090 G1 Z0.5251 F60.
N4095 X15.8411 Y-0.4276 Z0.5212
N4100 X15.8402 Y-0.4274 Z0.5174
N4105 X15.8388 Y-0.4271 Z0.5138
N4110 X15.8368 Y-0.4266 Z0.5104
N4115 X15.8343 Y-0.426 Z0.5074
N4120 X15.8314 Y-0.4253 Z0.5049
N4125 X15.8281 Y-0.4245 Z0.5028
N4130 X15.8246 Y-0.4237 Z0.5013
N4135 X15.8209 Y-0.4228 Z0.5004
N4140 X15.8171 Y-0.4219 Z0.5001
N4145 G3 X15.7386 Y-0.423 I-0.0371 J-0.1539
N4150 X15.4971 Y-0.7386 I0.0672 J-0.3016
N4155 G2 X15.1746 Y-0.9548 I-0.3048 J0.106
N4160 X14.2251 Y-0.9748 I-0.6881 J10.1175
N4165 G1 X13.9674 Y-0.9749
N4170 X0.8902 Y-0.975
N4175 G2 X0.6668 Y-0.7105 I0.0264 J0.2489
N4180 X0.6342 Y-0.1959 I2.7179 J0.4307
N4185 G1 X0.6304 Y0.1426
N4190 G2 X0.633 Y0.7041 I7.402 J0.2471
N4195 X1.0734 Y0.8621 I0.3802 J-0.367
N4200 X1.9275 Y0.8748 I0.5795 J-10.2146
N4205 G1 X2.169
N4210 X15.1175
N4215 G2 X15.3524 Y0.6122 I-0.0328 J-0.2657
N4220 G3 X15.4086 Y0.5251 I0.0898 J-0.0037
N4225 G1 X15.5172 Y0.4915
N4230 G3 X15.531 Y0.5395 I0.0066 J0.0241
N4235 G1 X15.5275 Y0.5405 Z0.5003
N4240 X15.524 Y0.5414 Z0.501
N4245 X15.5207 Y0.5423 Z0.5022
N4250 X15.5176 Y0.5432 Z0.5039
N4255 X15.5148 Y0.5439 Z0.506
N4260 X15.5123 Y0.5446 Z0.5085
N4265 X15.5101 Y0.5452 Z0.5114
N4270 X15.5084 Y0.5457 Z0.5146
N4275 X15.5072 Y0.546 Z0.518
N4280 X15.5064 Y0.5462 Z0.5215
N4285 X15.5062 Y0.5463 Z0.5251
N4290 G0 Z1.45
N4295 X15.7561 Y-0.4541
N4300 Z0.5501
N4305 G1 Z0.5251 F60.
N4310 X15.7558 Y-0.454 Z0.5212
N4315 X15.7549 Y-0.4538 Z0.5174
N4320 X15.7534 Y-0.4535 Z0.5138
N4325 X15.7515 Y-0.453 Z0.5104
N4330 X15.749 Y-0.4524 Z0.5074
N4335 X15.7461 Y-0.4517 Z0.5049
N4340 X15.7428 Y-0.4509 Z0.5028
N4345 X15.7393 Y-0.4501 Z0.5013
N4350 X15.7356 Y-0.4492 Z0.5004
N4355 X15.7318 Y-0.4483 Z0.5001
N4360 G3 X15.6533 Y-0.4494 I-0.0371 J-0.1539
N4365 X15.4041 Y-0.6999 I0.0546 J-0.3035
N4370 G2 X14.9692 Y-0.8655 I-0.3914 J0.3743
N4375 X14.1318 Y-0.8748 I-0.5926 J15.5289
N4380 G1 X13.7614 Y-0.8749
N4385 X0.9902 Y-0.875
N4390 G2 X0.767 Y-0.61 I0.0276 J0.2498
N4395 X0.7381 Y0.6106 I7.0006 J0.7758
N4400 X1.1816 Y0.7626 I0.3829 J-0.3943
N4405 X2.1644 Y0.7748 I0.6599 J-13.5908
N4410 G1 X15.0162
N4415 G2 X15.2533 Y0.5668 I-0.0291 J-0.2724
N4420 G3 X15.3326 Y0.525 I0.0612 J0.0199
N4425 X15.3155 Y0.5719 I-0.0089 J0.0234
N4430 G1 X15.3121 Y0.5707 Z0.5003
N4435 X15.3088 Y0.5694 Z0.501
N4440 X15.3056 Y0.5682 Z0.5022
N4445 X15.3026 Y0.567 Z0.5039
N4450 X15.2998 Y0.566 Z0.506
N4455 X15.2974 Y0.5651 Z0.5085
N4460 X15.2954 Y0.5643 Z0.5114
N4465 X15.2937 Y0.5637 Z0.5146
N4470 X15.2925 Y0.5632 Z0.518
N4475 X15.2918 Y0.5629 Z0.5215
N4480 X15.2915 Y0.5628 Z0.5251
N4485 G0 Z1.45
N4490 X15.6614 Y-0.4834
N4495 Z0.5501
N4500 G1 Z0.5251 F60.
N4505 X15.6611 Y-0.4833 Z0.5212
N4510 X15.6602 Y-0.4831 Z0.5174
N4515 X15.6588 Y-0.4828 Z0.5138
N4520 X15.6568 Y-0.4823 Z0.5104
N4525 X15.6543 Y-0.4817 Z0.5074
N4530 X15.6514 Y-0.481 Z0.5049
N4535 X15.6482 Y-0.4802 Z0.5028
N4540 X15.6446 Y-0.4793 Z0.5013
N4545 X15.6409 Y-0.4785 Z0.5004
N4550 X15.6371 Y-0.4775 Z0.5001
N4555 G3 X15.5586 Y-0.4787 I-0.0371 J-0.1539
N4560 X15.307 Y-0.6508 I0.1126 J-0.4345
N4565 G2 X14.7172 Y-0.7717 I-0.5017 J0.9483
N4570 G1 X14.575 Y-0.7735
N4575 X14.4327 Y-0.7747
N4580 X14.2905 Y-0.7755
N4585 X14.1482 Y-0.7758
N4590 X14.006 Y-0.7756
N4595 X13.8637 Y-0.7749
N4600 X1.0924 Y-0.775
N4605 G2 X0.8716 Y-0.5126 I0.0157 J0.2373
N4610 X0.8331 Y0.1312 I3.1018 J0.5084
N4615 X0.8357 Y0.5004 I2.2515 J0.1686
N4620 X1.239 Y0.6601 I0.3564 J-0.311
N4625 X2.2861 Y0.6748 I0.7078 J-13.1151
N4630 G1 X14.9125
N4635 G2 X15.1718 Y0.5072 I-0.0343 J-0.3374
N4640 G3 X15.2988 Y0.5105 I0.0622 J0.0496
N4645 G1 X15.3017 Y0.5126
N4650 X15.3043 Y0.5152
N4655 X15.3064 Y0.5182
N4660 X15.3081 Y0.5215
N4665 X15.3092 Y0.525
N4670 X15.3098 Y0.5286
N4675 Y0.5324
N4680 X15.3092 Y0.5361
N4685 X15.308 Y0.5396
N4690 X15.3063 Y0.543
N4695 X15.3041 Y0.546
N4700 X15.3014 Y0.5487
N4705 X15.2983 Y0.5509
N4710 X15.2949 Y0.5527
N4715 X15.2912 Y0.5538
N4720 X15.2874 Y0.5544
N4725 X15.2835
N4730 X15.2797 Y0.5538
N4735 X15.276 Y0.5526
N4740 X15.2725 Y0.5508
N4745 X15.2695 Y0.5487 Z0.5003
N4750 X15.2666 Y0.5467 Z0.501
N4755 X15.2638 Y0.5447 Z0.5022
N4760 X15.2611 Y0.5429 Z0.5039
N4765 X15.2587 Y0.5412 Z0.506
N4770 X15.2566 Y0.5397 Z0.5085
N4775 X15.2547 Y0.5385 Z0.5114
N4780 X15.2533 Y0.5375 Z0.5146
N4785 X15.2522 Y0.5367 Z0.518
N4790 X15.2516 Y0.5363 Z0.5215
N4795 X15.2514 Y0.5361 Z0.5251
N4800 G0 Z1.45
N4805 X15.5715 Y-0.5112
N4810 Z0.5501
N4815 G1 Z0.5251 F60.
N4820 X15.5712 Z0.5212
N4825 X15.5703 Y-0.5109 Z0.5174
N4830 X15.5688 Y-0.5106 Z0.5138
N4835 X15.5668 Y-0.5101 Z0.5104
N4840 X15.5643 Y-0.5095 Z0.5074
N4845 X15.5614 Y-0.5088 Z0.5049
N4850 X15.5582 Y-0.508 Z0.5028
N4855 X15.5547 Y-0.5072 Z0.5013
N4860 X15.5509 Y-0.5063 Z0.5004
N4865 X15.5471 Y-0.5054 Z0.5001
N4870 G3 X15.4686 Y-0.5065 I-0.0371 J-0.1539
N4875 G2 X14.9161 Y-0.6672 I-1.3876 J3.7416
N4880 G1 X14.7526 Y-0.6698
N4885 X14.5891 Y-0.6719
N4890 X14.4255 Y-0.6735
N4895 X14.262 Y-0.6746
N4900 X14.0984 Y-0.6752
N4905 X13.9348 Y-0.6753
N4910 X13.7713 Y-0.6748
N4915 X1.1932 Y-0.675
N4920 G2 X0.9716 Y-0.4132 I0.0151 J0.2375
N4925 X0.9317 Y0.2306 I3.1547 J0.5187
N4930 X1.186 Y0.5378 I0.237 J0.0627
N4935 X2.1027 Y0.5666 I0.5949 J-4.3438
N4940 G1 X2.2321 Y0.5748
N4945 X2.4576
N4950 X14.8101
N4955 G2 X15.1224 Y0.4255 I-0.0656 J-0.5385
N4960 G1 X15.137 Y0.4187
N4965 X15.1521 Y0.4129
N4970 G3 X15.2632 Y0.4852 I-0.2391 J0.4887
N4975 X15.2351 Y0.5266 I-0.0143 J0.0205
N4980 G1 X15.2321 Y0.5245 Z0.5003
N4985 X15.2292 Y0.5225 Z0.501
N4990 X15.2264 Y0.5205 Z0.5022
N4995 X15.2238 Y0.5187 Z0.5039
N5000 X15.2214 Y0.517 Z0.506
N5005 X15.2192 Y0.5155 Z0.5085
N5010 X15.2174 Y0.5143 Z0.5114
N5015 X15.216 Y0.5133 Z0.5146
N5020 X15.2149 Y0.5125 Z0.518
N5025 X15.2143 Y0.5121 Z0.5215
N5030 X15.214 Y0.5119 Z0.5251
N5035 G0 Z1.45
N5040 X15.4869 Y-0.5387
N5045 Z0.5501
N5050 G1 Z0.5251 F60.
N5055 X15.4866 Z0.5212
N5060 X15.4857 Y-0.5385 Z0.5174
N5065 X15.4842 Y-0.5383 Z0.5138
N5070 X15.4822 Y-0.538 Z0.5104
N5075 X15.4797 Y-0.5375 Z0.5074
N5080 X15.4768 Y-0.5371 Z0.5049
N5085 X15.4735 Y-0.5365 Z0.5028
N5090 X15.4699 Y-0.5359 Z0.5013
N5095 X15.4661 Y-0.5353 Z0.5004
N5100 X15.4623 Y-0.5346 Z0.5001
N5105 G3 X15.3839 Y-0.5302 I-0.0599 J-0.3596
N5110 X15.0077 Y-0.545 I-0.1627 J-0.6503
N5115 G2 X13.7204 Y-0.5749 I-0.8873 J10.487
N5120 G1 X13.3499
N5125 X1.3031 Y-0.575
N5130 G2 X1.0729 Y-0.3229 I0.0017 J0.2327
N5135 X1.0437 Y0.3176 I1.9105 J0.408
N5140 X1.5083 Y0.4649 I0.4035 J-0.4666
N5145 X2.491 Y0.4748 I0.6375 J-14.4222
N5150 G1 X14.7145
N5155 G2 X15.0715 Y0.3396 I-0.0634 J-0.7067
N5160 G3 X15.137 Y0.3809 I-0.005 J0.0804
N5165 X15.0909 Y0.4002 I-0.0232 J0.0093
N5170 G1 X15.0895 Y0.3968 Z0.5003
N5175 X15.0882 Y0.3935 Z0.501
N5180 X15.0869 Y0.3903 Z0.5022
N5185 X15.0857 Y0.3873 Z0.5039
N5190 X15.0846 Y0.3846 Z0.506
N5195 X15.0836 Y0.3822 Z0.5085
N5200 X15.0828 Y0.3801 Z0.5114
N5205 X15.0822 Y0.3785 Z0.5146
N5210 X15.0817 Y0.3773 Z0.518
N5215 X15.0814 Y0.3766 Z0.5215
N5220 X15.0813 Y0.3763 Z0.5251
N5225 G0 Z1.45
N5230 X15.4104 Y-0.5783
N5235 Z0.5501
N5240 G1 Z0.5251 F60.
N5245 X15.4102 Y-0.5781 Z0.5212
N5250 X15.4095 Y-0.5776 Z0.5174
N5255 X15.4083 Y-0.5766 Z0.5138
N5260 X15.4067 Y-0.5754 Z0.5104
N5265 X15.4047 Y-0.5738 Z0.5074
N5270 X15.4023 Y-0.572 Z0.5049
N5275 X15.3997 Y-0.5699 Z0.5028
N5280 X15.3968 Y-0.5677 Z0.5013
N5285 X15.3938 Y-0.5654 Z0.5004
N5290 X15.3907 Y-0.563 Z0.5001
N5295 G3 X15.3239 Y-0.5217 I-0.2238 J-0.2878
N5300 X14.9622 Y-0.4596 I-0.2456 J-0.3462
N5305 G2 X13.6241 Y-0.4749 I-1.0287 J31.5836
N5310 G1 X1.4003 Y-0.475
N5315 G2 X1.1719 Y-0.2202 I0.0056 J0.2347
N5320 X1.1505 Y0.2264 I0.9294 J0.2683
N5325 X1.6361 Y0.3648 I0.4119 J-0.5245
N5330 X2.5223 Y0.3748 I0.597 J-13.563
N5335 G1 X2.8927
N5340 X14.6172
N5345 G2 X14.9984 Y0.2658 I-0.014 J-0.7703
N5350 G3 X15.1199 Y0.3021 I0.034 J0.1077
N5355 G1 X15.1237 Y0.3136
N5360 X15.125 Y0.3257
N5365 G3 X15.075 Y0.325 I-0.025 J-0.0007
N5370 G1 X15.0751 Y0.3213 Z0.5003
N5375 X15.0752 Y0.3178 Z0.501
N5380 X15.0753 Y0.3143 Z0.5022
N5385 X15.0754 Y0.3111 Z0.5039
N5390 X15.0755 Y0.3082 Z0.506
N5395 X15.0756 Y0.3056 Z0.5085
N5400 Y0.3034 Z0.5114
N5405 X15.0757 Y0.3016 Z0.5146
N5410 Y0.3003 Z0.518
N5415 Y0.2995 Z0.5215
N5420 X15.0758 Y0.2993 Z0.5251
N5425 G0 Z1.45
N5430 X15.3164 Y-0.5613
N5435 Z0.5501
N5440 G1 Z0.5251 F60.
N5445 X15.3163 Y-0.561 Z0.5212
N5450 X15.3159 Y-0.5602 Z0.5174
N5455 X15.3152 Y-0.5588 Z0.5138
N5460 X15.3143 Y-0.557 Z0.5104
N5465 X15.3132 Y-0.5547 Z0.5074
N5470 X15.3118 Y-0.552 Z0.5049
N5475 X15.3104 Y-0.549 Z0.5028
N5480 X15.3087 Y-0.5458 Z0.5013
N5485 X15.307 Y-0.5424 Z0.5004
N5490 X15.3053 Y-0.5389 Z0.5001
N5495 G3 X15.2541 Y-0.4793 I-0.1418 J-0.0703
N5500 X14.7747 Y-0.3659 I-0.3643 J-0.4696
N5505 G2 X13.5991 Y-0.3748 I-0.8493 J34.2341
N5510 G1 X13.1965 Y-0.3749
N5515 X1.5035 Y-0.375
N5520 G2 X1.272 Y-0.1242 I0.001 J0.2332
N5525 X1.3061 Y0.1786 I0.2359 J0.1268
N5530 X1.9383 Y0.2699 I0.5083 J-1.2847
N5535 X2.5023 Y0.2748 I0.3679 J-9.8744
N5540 G1 X2.76
N5545 X14.5171
N5550 G2 X14.9683 Y0.1771 I-0.0033 J-1.1068
N5555 G3 X15.1201 Y0.2229 I0.0365 J0.1537
N5560 G1 X15.1238 Y0.2343
N5565 X15.125 Y0.2462
N5570 Y0.3146
N5575 G3 X15.075 Y0.3135 I-0.025 J-0.0009
N5580 G1 X15.0751 Y0.3099 Z0.5003
N5585 X15.0753 Y0.3063 Z0.501
N5590 X15.0754 Y0.3029 Z0.5022
N5595 X15.0755 Y0.2997 Z0.5039
N5600 X15.0756 Y0.2967 Z0.506
N5605 X15.0757 Y0.2941 Z0.5085
N5610 X15.0758 Y0.2919 Z0.5114
N5615 Y0.2902 Z0.5146
N5620 X15.0759 Y0.2889 Z0.518
N5625 Y0.2881 Z0.5215
N5630 Y0.2878 Z0.5251
N5635 G0 Z1.45
N5640 X15.2247 Y-0.5038
N5645 Z0.5501
N5650 G1 Z0.5251 F60.
N5655 X15.2246 Y-0.5036 Z0.5212
N5660 X15.2241 Y-0.5028 Z0.5174
N5665 X15.2233 Y-0.5015 Z0.5138
N5670 X15.2223 Y-0.4997 Z0.5104
N5675 X15.221 Y-0.4975 Z0.5074
N5680 X15.2195 Y-0.495 Z0.5049
N5685 X15.2178 Y-0.4921 Z0.5028
N5690 X15.2159 Y-0.489 Z0.5013
N5695 X15.214 Y-0.4857 Z0.5004
N5700 X15.212 Y-0.4823 Z0.5001
N5705 G3 X15.165 Y-0.4194 I-0.3138 J-0.1856
N5710 G1 X15.1577 Y-0.4077
N5715 X15.1498 Y-0.3964
N5720 X15.1415 Y-0.3854
N5725 X15.1327 Y-0.3748
N5730 X15.1234 Y-0.3646
N5735 X15.1136 Y-0.3548
N5740 X15.1034 Y-0.3456
N5745 X15.0928 Y-0.3367
N5750 X15.0818 Y-0.3284
N5755 X15.0705 Y-0.3206
N5760 X15.0588 Y-0.3133
N5765 X15.0468 Y-0.3066
N5770 X15.0344 Y-0.3004
N5775 X15.0219 Y-0.2948
N5780 X15.009 Y-0.2897
N5785 X14.996 Y-0.2853
N5790 X14.9827 Y-0.2814
N5795 X14.9693 Y-0.2782
N5800 X14.9558 Y-0.2756
N5805 X14.9422 Y-0.2736
N5810 X14.9285 Y-0.2722
N5815 X14.9147 Y-0.2714
N5820 X14.9009 Y-0.2713
N5825 X14.8871 Y-0.2718
N5830 X14.8734 Y-0.2729
N5835 X14.8597 Y-0.2747
N5840 X14.8462 Y-0.2771
N5845 X14.8327 Y-0.2801
N5850 G3 X13.5421 Y-0.2749 I-0.7576 J-27.7584
N5855 G1 X13.1878
N5860 X1.6083 Y-0.275
N5865 G2 X1.414 Y0.0741 I-0.011 J0.2225
N5870 X2.0306 Y0.1702 I0.5016 J-1.1923
N5875 X2.8039 Y0.1748 I0.4811 J-15.8813
N5880 G1 X14.432
N5885 G2 X14.9516 Y0.0852 I-0.0074 J-1.5948
N5890 G3 X15.1148 Y0.1289 I0.0206 J0.2497
N5895 X15.125 Y0.2462 I-0.1385 J0.0711
N5900 X15.075 Y0.2451 I-0.025 J-0.0009
N5905 G1 X15.0751 Y0.2415 Z0.5003
N5910 X15.0753 Y0.238 Z0.501
N5915 X15.0754 Y0.2345 Z0.5022
N5920 X15.0755 Y0.2313 Z0.5039
N5925 X15.0756 Y0.2284 Z0.506
N5930 X15.0757 Y0.2258 Z0.5085
N5935 X15.0758 Y0.2236 Z0.5114
N5940 Y0.2218 Z0.5146
N5945 X15.0759 Y0.2205 Z0.518
N5950 Y0.2197 Z0.5215
N5955 Y0.2195 Z0.5251
N5960 G0 Z1.45
N5965 X15.1528 Y-0.4762
N5970 Z0.5501
N5975 G1 Z0.5251 F60.
N5980 Y-0.4759 Z0.5212
N5985 X15.1527 Y-0.475 Z0.5174
N5990 X15.1526 Y-0.4735 Z0.5138
N5995 X15.1524 Y-0.4715 Z0.5104
N6000 X15.1521 Y-0.4689 Z0.5074
N6005 X15.1518 Y-0.466 Z0.5049
N6010 X15.1515 Y-0.4626 Z0.5028
N6015 X15.1511 Y-0.459 Z0.5013
N6020 X15.1507 Y-0.4552 Z0.5004
N6025 X15.1503 Y-0.4513 Z0.5001
N6030 G3 X15.1341 Y-0.3745 I-0.3628 J-0.0363
N6035 G1 X15.1322 Y-0.3633
N6040 X15.1296 Y-0.3523
N6045 X15.1265 Y-0.3414
N6050 X15.1228 Y-0.3307
N6055 X15.1185 Y-0.3202
N6060 X15.1137 Y-0.3099
N6065 X15.1083 Y-0.2999
N6070 X15.1024 Y-0.2903
N6075 X15.0961 Y-0.2809
N6080 X15.0892 Y-0.2719
N6085 X15.0818 Y-0.2632
N6090 X15.0741 Y-0.255
N6095 X15.0658 Y-0.2472
N6100 X15.0572 Y-0.2398
N6105 X15.0482 Y-0.2329
N6110 X15.0389 Y-0.2265
N6115 X15.0292 Y-0.2206
N6120 X15.0193 Y-0.2152
N6125 X15.009 Y-0.2104
N6130 X14.9985 Y-0.2061
N6135 X14.9878 Y-0.2023
N6140 X14.977 Y-0.1991
N6145 X14.9659 Y-0.1966
N6150 X14.9548 Y-0.1945
N6155 X14.9435 Y-0.1931
N6160 X14.9322 Y-0.1923
N6165 X14.9209 Y-0.1921
N6170 X14.9096 Y-0.1925
N6175 X14.8983 Y-0.1935
N6180 X14.8871 Y-0.1951
N6185 G3 X14.001 Y-0.1828 I-0.5044 J-4.4401
N6190 X13.501 Y-0.1748 I-0.3609 J-6.9294
N6195 G1 X13.2111 Y-0.1749
N6200 X3.3065
N6205 G3 X2.4331 Y-0.166 I-0.6154 J-17.3625
N6210 G1 X1.7084
N6215 G2 X1.556 Y-0.0755 I-0.0423 J0.1023
N6220 X1.844 Y0.0516 I0.2667 J-0.2145
N6225 X2.9227 Y0.0658 I0.7158 J-13.3701
N6230 G1 X14.3412
N6235 G2 X14.9982 Y-0.0163 I-0.1583 J-3.938
N6240 G3 X15.1278 Y0.0523 I-0.0314 J0.2161
N6245 G1 X15.125 Y0.0671
N6250 Y0.1618
N6255 G3 X15.075 Y0.1607 I-0.025 J-0.0009
N6260 G1 X15.0751 Y0.1571 Z0.5003
N6265 X15.0753 Y0.1535 Z0.501
N6270 X15.0754 Y0.1501 Z0.5022
N6275 X15.0755 Y0.1469 Z0.5039
N6280 X15.0756 Y0.144 Z0.506
N6285 X15.0757 Y0.1414 Z0.5085
N6290 X15.0758 Y0.1392 Z0.5114
N6295 Y0.1374 Z0.5146
N6300 X15.0759 Y0.1361 Z0.518
N6305 Y0.1353 Z0.5215
N6310 Y0.1351 Z0.5251
N6315 G0 Z1.45
N6320 X15.113 Y-0.4356
N6325 Z0.5501
N6330 G1 Z0.5251 F60.
N6335 Y-0.4353 Z0.5212
N6340 X15.1132 Y-0.4344 Z0.5174
N6345 X15.1135 Y-0.4329 Z0.5138
N6350 X15.1139 Y-0.4309 Z0.5104
N6355 X15.1144 Y-0.4284 Z0.5074
N6360 X15.115 Y-0.4255 Z0.5049
N6365 X15.1157 Y-0.4222 Z0.5028
N6370 X15.1164 Y-0.4187 Z0.5013
N6375 X15.1172 Y-0.415 Z0.5004
N6380 X15.118 Y-0.4111 Z0.5001
N6385 G3 X15.1252 Y-0.3329 I-0.3573 J0.0726
N6390 G2 X15.1212 Y-0.1621 I2.3977 J0.1413
N6395 G1 X15.121 Y-0.1588
N6400 X15.1203 Y-0.1555
N6405 X15.1191 Y-0.1524
N6410 X15.1174 Y-0.1495
N6415 X15.1152 Y-0.1468
N6420 X15.1126 Y-0.1445
N6425 X15.1097 Y-0.1426
N6430 X15.1065 Y-0.1412
N6435 X15.1031 Y-0.1403
N6440 X15.0995 Y-0.1399
N6445 X15.0959 Y-0.1401
N6450 X15.0924 Y-0.1408
N6455 X15.0889 Y-0.1421
N6460 X15.0857 Y-0.1439
N6465 X15.0828 Y-0.1462
N6470 X15.0803 Y-0.1489
N6475 X15.0782 Y-0.1521
N6480 X15.0766 Y-0.1555
N6485 X15.0755 Y-0.1592
N6490 X15.075 Y-0.163
N6495 Y-0.1639
N6500 Y-0.2713
N6505 Y-0.2721
N6510 G3 X15.125 Y-0.273 I0.025 J0.
N6515 G1 Y0.0671
N6520 G3 X15.0858 Y0.0868 I-0.025 J-0.0009
N6525 G1 X15.0837 Y0.0847 Z0.5003
N6530 X15.0816 Y0.0826 Z0.5009
N6535 X15.0795 Y0.0806 Z0.5017
N6540 X15.0782 Y0.0777 Z0.5032
N6545 X15.077 Y0.0751 Z0.5051
N6550 X15.0758 Y0.0727 Z0.5074
N6555 X15.0756 Y0.0705 Z0.5099
N6560 X15.0753 Y0.0687 Z0.5126
N6565 X15.0752 Y0.0673 Z0.5155
N6570 X15.075 Y0.0663 Z0.5186
N6575 Y0.0656 Z0.5218
N6580 Y0.0654 Z0.5251
N6585 G0 Z1.45
N6590 X15.0669 Y0.279
N6595 Z0.5625
N6600 G1 Z0.5375 F60.
N6605 X15.0671 Y0.2792 Z0.5336
N6610 X15.0678 Y0.2798 Z0.5298
N6615 X15.0689 Y0.2808 Z0.5262
N6620 X15.0705 Y0.2821 Z0.5228
N6625 X15.0724 Y0.2838 Z0.5198
N6630 X15.0747 Y0.2857 Z0.5173
N6635 X15.0772 Y0.2879 Z0.5152
N6640 X15.08 Y0.2902 Z0.5137
N6645 X15.0829 Y0.2927 Z0.5128
N6650 X15.0859 Y0.2952 Z0.5125
N6655 G3 X15.1312 Y0.3594 I-0.1026 J0.1205
N6660 G2 X15.1841 Y0.4269 I0.1201 J-0.0396
N6665 X15.3561 Y0.5229 I0.246 J-0.2388
N6670 X15.4086 Y0.5179 I0.0146 J-0.1253
N6675 G1 X15.7386 Y0.4158
N6680 G2 X15.8283 Y0.2921 I-0.0357 J-0.1204
N6685 G1 Y-0.2921
N6690 G2 X15.8255 Y-0.3221 I-0.1417 J-0.0017
N6695 G1 X15.8252 Y-0.3255
N6700 X15.8255 Y-0.329
N6705 X15.8261 Y-0.3324
N6710 X15.8273 Y-0.3357
N6715 X15.8289 Y-0.3387
N6720 X15.8309 Y-0.3416
N6725 X15.8333 Y-0.3441
N6730 X15.836 Y-0.3463
N6735 X15.8591 Y-0.3623
N6740 G3 X15.8881 Y-0.3216 I0.0143 J0.0205
N6745 X15.8586 I-0.0148 J-0.0202
N6750 X15.8005 Y-0.3745 I0.215 J-0.2944
N6755 G2 X15.7386 Y-0.4158 I-0.0981 J0.0798
N6760 G1 X15.4086 Y-0.5179
N6765 G2 X15.2999 Y-0.5017 I-0.0377 J0.12
N6770 G1 X15.1841 Y-0.4269
N6775 X15.1795 Y-0.4237
N6780 G3 X15.1409 Y-0.4445 I-0.0136 J-0.021
N6785 G1 X15.1414 Y-0.4475 Z0.5127
N6790 X15.142 Y-0.4505 Z0.5133
N6795 X15.1425 Y-0.4533 Z0.5142
N6800 X15.1441 Y-0.4561 Z0.5157
N6805 X15.1456 Y-0.4586 Z0.5176
N6810 X15.1469 Y-0.4609 Z0.52
N6815 X15.1485 Y-0.4624 Z0.5225
N6820 X15.1499 Y-0.4636 Z0.5254
N6825 X15.151 Y-0.4646 Z0.5285
N6830 X15.1517 Y-0.4653 Z0.5317
N6835 X15.1521 Y-0.4656 Z0.5346
N6840 X15.1523 Z0.5375
N6845 G0 Z1.45
N6850 X15.0712 Y0.2507
N6855 Z0.575
N6860 G1 Z0.55 F60.
N6865 X15.0715 Y0.2509 Z0.5461
N6870 X15.0721 Y0.2516 Z0.5423
N6875 X15.0731 Y0.2526 Z0.5387
N6880 X15.0746 Y0.2541 Z0.5353
N6885 X15.0763 Y0.2559 Z0.5323
N6890 X15.0784 Y0.2581 Z0.5298
N6895 X15.0807 Y0.2605 Z0.5277
N6900 X15.0832 Y0.2631 Z0.5262
N6905 X15.0859 Y0.2659 Z0.5253
N6910 X15.0886 Y0.2687 Z0.525
N6915 G3 X15.1273 Y0.337 I-0.1141 J0.1097
N6920 G2 X15.1837 Y0.4194 I0.1237 J-0.0242
N6925 X15.3636 Y0.5163 I0.2356 J-0.2222
N6930 X15.4086 Y0.5107 I0.0075 J-0.1239
N6935 G1 X15.6861 Y0.4249
N6940 G2 X15.7817 Y0.2846 I-0.0326 J-0.1249
N6945 G1 Y-0.2921
N6950 G2 X15.7802 Y-0.3221 I-0.1851 J-0.0058
N6955 G1 X15.7801 Y-0.3256
N6960 X15.7805 Y-0.3291
N6965 X15.7814 Y-0.3325
N6970 X15.7828 Y-0.3358
N6975 X15.7846 Y-0.3388
N6980 X15.7868 Y-0.3416
N6985 X15.7894 Y-0.344
N6990 X15.7923 Y-0.346
N6995 X15.8186 Y-0.3615
N7000 G3 X15.844 Y-0.3184 I0.0127 J0.0215
N7005 X15.816 Y-0.3202 I-0.0127 J-0.0215
N7010 X15.7593 Y-0.3745 I0.2224 J-0.2889
N7015 G2 X15.6861 Y-0.4249 I-0.1052 J0.0745
N7020 G1 X15.4086 Y-0.5107
N7025 G2 X15.2749 Y-0.4764 I-0.0375 J0.1314
N7030 G1 X15.1837 Y-0.4194
N7035 G3 X15.1458 Y-0.4417 I-0.0128 J-0.0215
N7040 G1 X15.1465 Y-0.4446 Z0.5252
N7045 X15.1471 Y-0.4475 Z0.5257
N7050 X15.1477 Y-0.4503 Z0.5266
N7055 X15.1494 Y-0.453 Z0.5281
N7060 X15.1509 Y-0.4555 Z0.53
N7065 X15.1523 Y-0.4577 Z0.5323
N7070 X15.1541 Y-0.4592 Z0.5349
N7075 X15.1555 Y-0.4604 Z0.5378
N7080 X15.1566 Y-0.4613 Z0.5409
N7085 X15.1574 Y-0.462 Z0.5442
N7090 X15.1578 Y-0.4622 Z0.5471
N7095 X15.158 Y-0.4623 Z0.55
N7100 G0 Z1.45
N7105 X15.7246 Y0.5175
N7110 Z0.5875
N7115 G1 Z0.5625 F60.
N7120 X15.7244 Y0.5172 Z0.5586
N7125 X15.7238 Y0.5165 Z0.5548
N7130 X15.7229 Y0.5153 Z0.5512
N7135 X15.7216 Y0.5137 Z0.5478
N7140 X15.7201 Y0.5117 Z0.5448
N7145 X15.7182 Y0.5094 Z0.5423
N7150 X15.7161 Y0.5068 Z0.5402
N7155 X15.7139 Y0.5039 Z0.5387
N7160 X15.7115 Y0.5009 Z0.5378
N7165 X15.7091 Y0.4979 Z0.5375
N7170 G3 X15.6673 Y0.4314 I0.2859 J-0.2263
N7175 G2 X15.735 Y0.2996 I-0.0914 J-0.1303
N7180 G1 Y-0.2996
N7185 Y-0.3071
N7190 X15.7349 Y-0.3146
N7195 X15.7344 Y-0.3221
N7200 G3 X15.7477 Y-0.3451 I0.025 J-0.001
N7205 G1 X15.7736 Y-0.3588
N7210 G3 X15.7977 Y-0.315 I0.0117 J0.0221
N7215 X15.7686 Y-0.3181 I-0.0124 J-0.0217
N7220 X15.7161 Y-0.3765 I0.2432 J-0.2715
N7225 G2 X15.6319 Y-0.4344 I-0.1118 J0.0723
N7230 G1 X15.409 Y-0.5034
N7235 G2 X15.2879 Y-0.4788 I-0.038 J0.123
N7240 X15.1449 Y-0.367 I0.0763 J0.2449
N7245 X15.1313 Y-0.2996 I0.1177 J0.0589
N7250 G1 Y0.2996
N7255 G2 X15.1948 Y0.4194 I0.1278 J0.009
N7260 X15.3636 Y0.5091 I0.2196 J-0.2097
N7265 X15.4086 Y0.5035 I0.0075 J-0.1239
N7270 G1 X15.6336 Y0.4339
N7275 X15.6452 Y0.4303
N7280 G3 X15.6757 Y0.4618 I0.0066 J0.0241
N7285 G1 X15.6743 Y0.4645 Z0.5377
N7290 X15.673 Y0.4671 Z0.5382
N7295 X15.6717 Y0.4696 Z0.5391
N7300 X15.6693 Y0.4718 Z0.5406
N7305 X15.6671 Y0.4737 Z0.5425
N7310 X15.6652 Y0.4755 Z0.5448
N7315 X15.6631 Y0.4765 Z0.5474
N7320 X15.6614 Y0.4772 Z0.5503
N7325 X15.6601 Y0.4779 Z0.5534
N7330 X15.6591 Y0.4783 Z0.5567
N7335 X15.6587 Y0.4784 Z0.5596
N7340 X15.6585 Y0.4785 Z0.5625
N7345 G0 Z1.45
N7350 X15.6807 Y0.5233
N7355 Z0.6
N7360 G1 Z0.575 F60.
N7365 X15.6805 Y0.523 Z0.5711
N7370 X15.6799 Y0.5223 Z0.5673
N7375 X15.679 Y0.5211 Z0.5637
N7380 X15.6777 Y0.5195 Z0.5603
N7385 X15.6761 Y0.5176 Z0.5573
N7390 X15.6742 Y0.5153 Z0.5548
N7395 X15.6721 Y0.5127 Z0.5527
N7400 X15.6698 Y0.5098 Z0.5512
N7405 X15.6674 Y0.5069 Z0.5503
N7410 X15.665 Y0.5038 Z0.55
N7415 G3 X15.6224 Y0.4379 I0.2832 J-0.2296
N7420 G2 X15.6884 Y0.3146 I-0.1031 J-0.1345
N7425 G1 Y-0.3146
N7430 G2 X15.5961 Y-0.4382 I-0.1255 J-0.0026
N7435 X15.3711 Y-0.502 I-0.2651 J0.5061
N7440 X15.1567 Y-0.3445 I0.021 J0.2533
N7445 X15.1536 Y-0.3146 I0.1492 J0.0304
N7450 G1 Y0.3137
N7455 G2 X15.3043 Y0.4793 I0.1898 J-0.0214
N7460 X15.4086 Y0.4963 I0.0678 J-0.0877
N7465 G1 X15.5961 Y0.4383
N7470 G3 X15.6265 Y0.4699 I0.0066 J0.0241
N7475 G1 X15.6251 Y0.4726 Z0.5502
N7480 X15.6237 Y0.4752 Z0.5507
N7485 X15.6224 Y0.4777 Z0.5516
N7490 X15.6201 Y0.4798 Z0.5531
N7495 X15.6179 Y0.4818 Z0.555
N7500 X15.6159 Y0.4836 Z0.5573
N7505 X15.6138 Y0.4845 Z0.5599
N7510 X15.6121 Y0.4853 Z0.5628
N7515 X15.6108 Y0.4859 Z0.5659
N7520 X15.6099 Y0.4863 Z0.5692
N7525 X15.6094 Y0.4865 Z0.5721
N7530 X15.6092 Z0.575
N7535 G0 Z1.45
N7540 X15.6361 Y0.5295
N7545 Z0.6125
N7550 G1 Z0.5875 F60.
N7555 X15.6359 Y0.5292 Z0.5836
N7560 X15.6353 Y0.5285 Z0.5798
N7565 X15.6343 Y0.5273 Z0.5762
N7570 X15.633 Y0.5258 Z0.5728
N7575 X15.6314 Y0.5238 Z0.5698
N7580 X15.6295 Y0.5215 Z0.5673
N7585 X15.6274 Y0.5189 Z0.5652
N7590 X15.6251 Y0.5161 Z0.5637
N7595 X15.6227 Y0.5131 Z0.5628
N7600 X15.6202 Y0.5101 Z0.5625
N7605 G3 X15.5774 Y0.4443 I0.2824 J-0.2306
N7610 G2 X15.6417 Y0.3146 I-0.0974 J-0.1291
N7615 G1 Y-0.3146
N7620 Y-0.3221
N7625 X15.6416 Y-0.3295
N7630 X15.6411 Y-0.3368
N7635 G3 X15.6557 Y-0.3604 I0.025 J-0.0009
N7640 G1 X15.6826 Y-0.3727
N7645 G3 X15.7034 Y-0.3272 I0.0104 J0.0227
N7650 X15.6764 Y-0.3313 I-0.0104 J-0.0227
N7655 X15.6237 Y-0.3895 I0.2422 J-0.2725
N7660 G2 X15.5511 Y-0.4449 I-0.1076 J0.0655
N7665 X15.3561 Y-0.4941 I-0.1812 J0.3079
N7670 X15.1759 Y-0.3146 I0.0197 J0.2
N7675 G1 Y0.3146
N7680 G2 X15.4086 Y0.4891 I0.202 J-0.027
N7685 G1 X15.5511 Y0.445
N7690 G3 X15.5815 Y0.4766 I0.0066 J0.0241
N7695 G1 X15.5801 Y0.4793 Z0.5627
N7700 X15.5787 Y0.4819 Z0.5632
N7705 X15.5774 Y0.4844 Z0.5641
N7710 X15.575 Y0.4866 Z0.5656
N7715 X15.5729 Y0.4885 Z0.5675
N7720 X15.5709 Y0.4903 Z0.5698
N7725 X15.5688 Y0.4912 Z0.5724
N7730 X15.5671 Y0.492 Z0.5753
N7735 X15.5658 Y0.4926 Z0.5784
N7740 X15.5649 Y0.493 Z0.5817
N7745 X15.5644 Y0.4932 Z0.5846
N7750 X15.5642 Z0.5875
N7755 G0 Z1.45
N7760 X15.5966 Y0.5333
N7765 Z0.625
N7770 G1 Z0.6 F60.
N7775 X15.5964 Y0.5331 Z0.5961
N7780 X15.5958 Y0.5324 Z0.5923
N7785 X15.5948 Y0.5313 Z0.5887
N7790 X15.5934 Y0.5297 Z0.5853
N7795 X15.5917 Y0.5279 Z0.5823
N7800 X15.5897 Y0.5256 Z0.5798
N7805 X15.5875 Y0.5231 Z0.5777
N7810 X15.5851 Y0.5204 Z0.5762
N7815 X15.5826 Y0.5176 Z0.5753
N7820 X15.5799 Y0.5147 Z0.575
N7825 G3 X15.5342 Y0.4508 I0.2718 J-0.243
N7830 G2 X15.5951 Y0.3221 I-0.1158 J-0.1335
N7835 G1 Y-0.3199
N7840 G2 X15.4098 Y-0.4742 I-0.1607 J0.0046
N7845 X15.1982 Y-0.3221 I-0.0451 J0.1605
N7850 G1 Y0.3216
N7855 G2 X15.4086 Y0.4819 I0.1727 J-0.0084
N7860 G1 X15.5061 Y0.4517
N7865 G3 X15.5365 Y0.4833 I0.0066 J0.0241
N7870 G1 X15.5351 Y0.486 Z0.5752
N7875 X15.5338 Y0.4886 Z0.5757
N7880 X15.5324 Y0.4911 Z0.5766
N7885 X15.5301 Y0.4932 Z0.5781
N7890 X15.5279 Y0.4952 Z0.58
N7895 X15.5259 Y0.497 Z0.5823
N7900 X15.5239 Y0.4979 Z0.5849
N7905 X15.5222 Y0.4987 Z0.5878
N7910 X15.5208 Y0.4993 Z0.5909
N7915 X15.5199 Y0.4997 Z0.5942
N7920 X15.5194 Y0.4999 Z0.5971
N7925 X15.5192 Z0.6
N7930 G0 Z1.45
N7935 X15.5512 Y0.5396
N7940 Z0.6375
N7945 G1 Z0.6125 F60.
N7950 X15.551 Y0.5394 Z0.6086
N7955 X15.5504 Y0.5387 Z0.6048
N7960 X15.5494 Y0.5376 Z0.6012
N7965 X15.548 Y0.5361 Z0.5978
N7970 X15.5463 Y0.5342 Z0.5948
N7975 X15.5443 Y0.532 Z0.5923
N7980 X15.5421 Y0.5295 Z0.5902
N7985 X15.5396 Y0.5268 Z0.5887
N7990 X15.5371 Y0.524 Z0.5878
N7995 X15.5344 Y0.5211 Z0.5875
N8000 G3 X15.4883 Y0.4575 I0.2702 J-0.2447
N8005 G2 X15.5484 Y0.3295 I-0.1116 J-0.1306
N8010 G1 Y-0.3296
N8015 G2 X15.5468 Y-0.3595 I-0.1753 J-0.0052
N8020 G1 X15.5466 Y-0.3633
N8025 X15.5471 Y-0.367
N8030 X15.5481 Y-0.3707
N8035 X15.5496 Y-0.3741
N8040 X15.5517 Y-0.3773
N8045 X15.5542 Y-0.3801
N8050 X15.5571 Y-0.3825
N8055 X15.5603 Y-0.3845
N8060 X15.5638 Y-0.3859
N8065 X15.5675 Y-0.3868
N8070 X15.5713 Y-0.3872
N8075 G3 X15.6079 Y-0.3854 I0.0152 J0.0661
N8080 X15.5879 Y-0.3396 I-0.01 J0.0229
N8085 X15.5806 Y-0.3444 I0.01 J-0.0229
N8090 X15.53 Y-0.4044 I0.2517 J-0.2637
N8095 G2 X15.2205 Y-0.3295 I-0.1422 J0.0892
N8100 G1 X15.2206 Y0.3269
N8105 G2 X15.4588 Y0.4547 I0.1534 J0.
N8110 G1 X15.4629 Y0.454
N8115 X15.4671 Y0.4538
N8120 X15.4712 Y0.4542
N8125 X15.4752 Y0.4553
N8130 X15.4789 Y0.4569
N8135 X15.4824 Y0.459
N8140 X15.4854 Y0.4615
N8145 X15.4881 Y0.4645
N8150 X15.4902 Y0.4677
N8155 X15.4919 Y0.4712
N8160 X15.493 Y0.4749
N8165 X15.4935 Y0.4786
N8170 Y0.4824
N8175 X15.493 Y0.4861
N8180 X15.4919 Y0.4896
N8185 X15.4905 Y0.4922 Z0.5877
N8190 X15.4892 Y0.4949 Z0.5882
N8195 X15.4879 Y0.4974 Z0.5891
N8200 X15.4856 Y0.4996 Z0.5906
N8205 X15.4834 Y0.5016 Z0.5925
N8210 X15.4814 Y0.5034 Z0.5948
N8215 X15.4794 Y0.5043 Z0.5974
N8220 X15.4777 Y0.5051 Z0.6003
N8225 X15.4764 Y0.5057 Z0.6034
N8230 X15.4755 Y0.5062 Z0.6067
N8235 X15.475 Y0.5063 Z0.6096
N8240 X15.4748 Y0.5064 Z0.6125
N8245 G0 Z1.45
N8250 X15.5048 Y0.5471
N8255 Z0.65
N8260 G1 Z0.625 F60.
N8265 X15.5046 Y0.5469 Z0.6211
N8270 X15.504 Y0.5462 Z0.6173
N8275 X15.503 Y0.545 Z0.6137
N8280 X15.5016 Y0.5435 Z0.6103
N8285 X15.4999 Y0.5416 Z0.6073
N8290 X15.498 Y0.5393 Z0.6048
N8295 X15.4958 Y0.5368 Z0.6027
N8300 X15.4934 Y0.5341 Z0.6012
N8305 X15.4909 Y0.5312 Z0.6003
N8310 X15.4883 Y0.5283 Z0.6
N8315 G3 X15.4432 Y0.464 I0.2741 J-0.2404
N8320 G2 X15.5018 Y0.337 I-0.1307 J-0.1374
N8325 G1 Y-0.337
N8330 X15.5017 Y-0.3445
N8335 X15.5016 Y-0.352
N8340 X15.501 Y-0.3595
N8345 G3 X15.5509 Y-0.3627 I0.025 J-0.0013
N8350 G1 X15.5511 Y-0.3591 Z0.6002
N8355 X15.5513 Y-0.3555 Z0.6009
N8360 X15.5514 Y-0.3521 Z0.6021
N8365 X15.5516 Y-0.3489 Z0.6037
N8370 X15.5517 Y-0.346 Z0.6059
N8375 X15.5519 Y-0.3434 Z0.6084
N8380 X15.552 Y-0.3412 Z0.6113
N8385 X15.5521 Y-0.3394 Z0.6144
N8390 Y-0.3381 Z0.6178
N8395 X15.5522 Y-0.3373 Z0.6214
N8400 Y-0.3371 Z0.625
N8405 G0 Z1.45
N8410 X15.553 Y-0.348
N8415 Z0.65
N8420 G1 Z0.625 F60.
N8425 X15.5528 Y-0.3482 Z0.6211
N8430 X15.5521 Y-0.3488 Z0.6173
N8435 X15.5509 Y-0.3497 Z0.6137
N8440 X15.5493 Y-0.351 Z0.6103
N8445 X15.5473 Y-0.3526 Z0.6073
N8450 X15.545 Y-0.3545 Z0.6048
N8455 X15.5424 Y-0.3566 Z0.6027
N8460 X15.5396 Y-0.3589 Z0.6012
N8465 X15.5366 Y-0.3613 Z0.6003
N8470 X15.5336 Y-0.3637 Z0.6
N8475 G3 X15.4782 Y-0.4194 I0.2293 J-0.2834
N8480 G2 X15.2428 Y-0.337 I-0.1055 J0.076
N8485 G1 Y0.337
N8490 X15.2429 Y0.3445
N8495 X15.243 Y0.352
N8500 X15.2436 Y0.3595
N8505 G3 X15.2061 Y0.3823 I-0.025 J0.0012
N8510 G1 X15.2038 Y0.3804 Z0.6002
N8515 X15.2016 Y0.3785 Z0.6007
N8520 X15.1994 Y0.3766 Z0.6016
N8525 X15.1978 Y0.3738 Z0.6031
N8530 X15.1964 Y0.3713 Z0.605
N8535 X15.1951 Y0.369 Z0.6073
N8540 X15.1946 Y0.3668 Z0.6099
N8545 X15.1942 Y0.3649 Z0.6128
N8550 X15.1939 Y0.3635 Z0.6159
N8555 X15.1937 Y0.3625 Z0.6192
N8560 Y0.362 Z0.6221
N8565 Y0.3618 Z0.625
N8570 G0 Z1.45
N8575 X15.483 Y-0.5483
N8580 Z0.6625
N8585 G1 Z0.6375 F60.
N8590 Y-0.548 Z0.6336
N8595 X15.4827 Y-0.5471 Z0.6298
N8600 X15.4822 Y-0.5457 Z0.6262
N8605 X15.4816 Y-0.5437 Z0.6228
N8610 X15.4808 Y-0.5413 Z0.6198
N8615 X15.48 Y-0.5384 Z0.6173
N8620 X15.4789 Y-0.5352 Z0.6152
N8625 X15.4779 Y-0.5318 Z0.6137
N8630 X15.4767 Y-0.5282 Z0.6128
N8635 X15.4755 Y-0.5244 Z0.6125
N8640 G3 X15.444 Y-0.4525 I-0.3477 J-0.1095
N8645 G2 X15.3535 Y-0.001 I0.6313 J0.3614
N8650 X15.3521 Y0.2295 I19.3098 J0.236
N8655 G3 X15.3129 Y0.2493 I-0.025 J-0.0008
N8660 G1 X15.3108 Y0.2472 Z0.6127
N8665 X15.3087 Y0.2451 Z0.6132
N8670 X15.3067 Y0.2431 Z0.6141
N8675 X15.3053 Y0.2402 Z0.6156
N8680 X15.3041 Y0.2376 Z0.6175
N8685 X15.3029 Y0.2352 Z0.6198
N8690 X15.3027 Y0.233 Z0.6223
N8695 X15.3024 Y0.2312 Z0.6251
N8700 X15.3022 Y0.2298 Z0.6281
N8705 X15.3021 Y0.2287 Z0.6312
N8710 Y0.2281 Z0.6343
N8715 Y0.2279 Z0.6375
N8720 G0 Z1.45
N8725 X-0.2672 Y-1.9774
N8730 Z0.4251
N8735 G1 Z0.4001 F60.
N8740 X-0.2671 Y-1.9771 Z0.3962
N8745 X-0.2669 Y-1.9763 Z0.3924
N8750 X-0.2665 Y-1.9748 Z0.3888
N8755 X-0.266 Y-1.9728 Z0.3854
N8760 X-0.2654 Y-1.9704 Z0.3824
N8765 X-0.2647 Y-1.9675 Z0.3799
N8770 X-0.2638 Y-1.9642 Z0.3778
N8775 X-0.2629 Y-1.9607 Z0.3763
N8780 X-0.262 Y-1.957 Z0.3754
N8785 X-0.261 Y-1.9532 Z0.3751
N8790 G3 X-0.2498 Y-1.8755 I-0.3532 J0.0905
N8795 G2 X-0.2658 Y-1.0218 I8.1397 J0.5793
N8800 G1 Y0.1056
N8805 G2 X-0.2748 Y0.9751 I17.1533 J0.6118
N8810 G1 Y1.6354
N8815 G2 X-0.0337 Y1.7622 I0.2241 J-0.1334
N8820 X0.7873 Y1.7748 I0.5624 J-9.9024
N8825 G1 X16.1354
N8830 G2 X16.2622 Y1.5337 I-0.1335 J-0.2241
N8835 X16.2748 Y0.7126 I-9.9046 J-0.5623
N8840 G1 Y-1.6387
N8845 G2 X16.0147 Y-1.7642 I-0.2405 J0.1661
N8850 X15.2097 Y-1.7748 I-0.5485 J11.0251
N8855 G1 X-0.0176 Y-1.775
N8860 G2 X-0.1515 Y-1.5399 I0.1131 J0.22
N8865 X-0.1658 Y-0.7189 I8.7797 J0.5637
N8870 G1 Y-0.0103
N8875 G2 X-0.1748 Y1.0203 I29.6402 J0.7731
N8880 G1 Y1.4874
N8885 G2 X0.0697 Y1.6559 I0.2333 J-0.0768
N8890 X1.0514 Y1.6748 I0.6593 J-8.714
N8895 G1 X15.9969
N8900 G2 X16.1572 Y1.4209 I-0.1034 J-0.2428
N8905 X16.1748 Y0.5519 I-8.381 J-0.6043
N8910 G1 Y-1.4935
N8915 G2 X15.9243 Y-1.6568 I-0.2393 J0.0933
N8920 X15.0875 Y-1.6748 I-0.6044 J8.6045
N8925 G1 X14.862 Y-1.6749
N8930 X0.1259 Y-1.675
N8935 G2 X-0.0458 Y-1.4333 I0.0704 J0.2319
N8940 X-0.0658 Y-0.4356 I8.7358 J0.6741
N8945 G1 Y-0.0974
N8950 X-0.0685 Y0.0614
N8955 X-0.0708 Y0.2201
N8960 X-0.0725 Y0.3788
N8965 X-0.0738 Y0.5376
N8970 X-0.0746 Y0.6963
N8975 X-0.0749 Y0.855
N8980 X-0.0747 Y1.0138
N8985 X-0.0748 Y1.3681
N8990 G2 X0.1762 Y1.5528 I0.2467 J-0.0724
N8995 X1.206 Y1.5748 I0.6992 J-8.6086
N9000 G1 X15.8615
N9005 G2 X16.0517 Y1.3304 I-0.057 J-0.2405
N9010 X16.0841 Y0.3773 I-10.5685 J-0.8365
N9015 X16.125 Y0.2771 I-0.0935 J-0.0966
N9020 G1 Y-0.2771
N9025 G3 X16.0837 Y-0.9836 I2.1527 J-0.4801
N9030 G1 X16.0748 Y-1.0489
N9035 Y-1.1294
N9040 Y-1.371
N9045 G2 X15.8051 Y-1.5557 I-0.2557 J0.0841
N9050 X14.92 Y-1.5748 I-0.6392 J9.0835
N9055 G1 X14.6945 Y-1.5749
N9060 X0.2483 Y-1.575
N9065 G2 X0.0577 Y-1.3306 I0.0576 J0.2414
N9070 X0.0342 Y-0.4781 I7.141 J0.6231
N9075 G1 Y-0.172
N9080 X0.0314 Y0.013
N9085 X0.0292 Y0.1981
N9090 X0.0275 Y0.3831
N9095 X0.0264 Y0.5681
N9100 X0.0259 Y0.7532
N9105 X0.026 Y0.9382
N9110 X0.0266 Y1.1233
N9115 X0.0279 Y1.3083
N9120 G2 X0.4344 Y1.4625 I0.3519 J-0.3147
N9125 X1.2884 Y1.4748 I0.5892 J-11.218
N9130 G1 X1.836
N9135 X15.7507
N9140 G2 X15.9509 Y1.2196 I-0.0538 J-0.2484
N9145 X15.9833 Y0.4372 I-10.1843 J-0.8129
N9150 G3 X16.0318 Y0.4044 I0.0584 J0.0343
N9155 X16.0455 Y0.4525 I0.0066 J0.0241
N9160 G1 X16.042 Y0.4535 Z0.3753
N9165 X16.0386 Y0.4544 Z0.376
N9170 X16.0353 Y0.4553 Z0.3772
N9175 X16.0322 Y0.4561 Z0.3789
N9180 X16.0293 Y0.4569 Z0.381
N9185 X16.0268 Y0.4576 Z0.3835
N9190 X16.0247 Y0.4582 Z0.3864
N9195 X16.023 Y0.4586 Z0.3896
N9200 X16.0217 Y0.459 Z0.393
N9205 X16.021 Y0.4592 Z0.3965
N9210 X16.0207 Z0.4001
N9215 G0 Z1.45
N9220 X16.1723 Y-0.2504
N9225 Z0.4251
N9230 G1 Z0.4001 F60.
N9235 X16.1721 Y-0.2507 Z0.3962
N9240 X16.1715 Y-0.2514 Z0.3924
N9245 X16.1705 Y-0.2525 Z0.3888
N9250 X16.1692 Y-0.2541 Z0.3854
N9255 X16.1676 Y-0.2561 Z0.3824
N9260 X16.1657 Y-0.2584 Z0.3799
N9265 X16.1636 Y-0.261 Z0.3778
N9270 X16.1613 Y-0.2638 Z0.3763
N9275 X16.1589 Y-0.2667 Z0.3754
N9280 X16.1564 Y-0.2698 Z0.3751
N9285 G3 X16.1135 Y-0.3355 I0.2821 J-0.231
N9290 X15.9818 Y-0.6896 I0.2677 J-0.3011
N9295 G1 X15.9781 Y-0.8461
N9300 X15.974 Y-1.0026
N9305 X15.9695 Y-1.1592
N9310 X15.9647 Y-1.3157
N9315 G2 X15.5731 Y-1.4665 I-0.3526 J0.3316
N9320 X14.607 Y-1.4749 I-0.6452 J18.8271
N9325 G1 X0.354 Y-1.475
N9330 G2 X0.1575 Y-1.215 I0.0648 J0.2532
N9335 X0.1319 Y0.7003 I31.3503 J1.3769
N9340 X0.1386 Y1.2287 I2.3831 J0.234
N9345 X0.6246 Y1.3657 I0.4076 J-0.5154
N9350 X1.3659 Y1.3748 I0.4944 J-10.0963
N9355 G1 X1.6075
N9360 X15.635
N9365 G2 X15.847 Y1.1315 I-0.0323 J-0.2422
N9370 X15.8862 Y0.4702 I-10.3112 J-0.9422
N9375 G3 X16.0075 Y0.4119 I0.1119 J0.0774
N9380 X16.0213 Y0.46 I0.0066 J0.0241
N9385 G1 X16.0178 Y0.4609 Z0.3753
N9390 X16.0144 Y0.4619 Z0.376
N9395 X16.0111 Y0.4628 Z0.3772
N9400 X16.008 Y0.4636 Z0.3789
N9405 X16.0051 Y0.4644 Z0.381
N9410 X16.0026 Y0.4651 Z0.3835
N9415 X16.0005 Y0.4657 Z0.3864
N9420 X15.9988 Y0.4661 Z0.3896
N9425 X15.9975 Y0.4665 Z0.393
N9430 X15.9968 Y0.4667 Z0.3965
N9435 X15.9965 Z0.4001
N9440 G0 Z1.45
N9445 X16.1685 Y-0.3398
N9450 Z0.4251
N9455 G1 Z0.4001 F60.
N9460 X16.1682 Y-0.3399 Z0.3962
N9465 X16.1673 Y-0.3402 Z0.3924
N9470 X16.1659 Y-0.3407 Z0.3888
N9475 X16.164 Y-0.3415 Z0.3854
N9480 X16.1616 Y-0.3423 Z0.3824
N9485 X16.1588 Y-0.3434 Z0.3799
N9490 X16.1557 Y-0.3445 Z0.3778
N9495 X16.1523 Y-0.3458 Z0.3763
N9500 X16.1487 Y-0.3471 Z0.3754
N9505 X16.145 Y-0.3485 Z0.3751
N9510 G3 X16.0748 Y-0.3835 I0.1265 J-0.3419
N9515 G1 X16.0626 Y-0.3884
N9520 X16.0506 Y-0.3939
N9525 X16.0389 Y-0.3999
N9530 X16.0275 Y-0.4065
N9535 X16.0165 Y-0.4137
N9540 X16.0058 Y-0.4213
N9545 X15.9954 Y-0.4295
N9550 X15.9855 Y-0.4381
N9555 X15.976 Y-0.4472
N9560 X15.9669 Y-0.4567
N9565 X15.9583 Y-0.4666
N9570 X15.9502 Y-0.477
N9575 X15.9426 Y-0.4877
N9580 X15.9355 Y-0.4988
N9585 X15.9289 Y-0.5102
N9590 X15.9229 Y-0.5219
N9595 X15.9175 Y-0.5338
N9600 X15.9126 Y-0.546
N9605 X15.9083 Y-0.5585
N9610 X15.9046 Y-0.5711
N9615 X15.9015 Y-0.5839
N9620 X15.899 Y-0.5968
N9625 X15.8971 Y-0.6098
N9630 X15.8959 Y-0.6229
N9635 X15.8953 Y-0.636
N9640 Y-0.6492
N9645 X15.8959 Y-0.6623
N9650 X15.8971 Y-0.6754
N9655 X15.899 Y-0.6884
N9660 G3 X15.8646 Y-1.2035 I7.1619 J-0.7373
N9665 G2 X15.4987 Y-1.3639 I-0.3324 J0.2608
N9670 X14.4843 Y-1.3749 I-0.677 J15.7304
N9675 G1 X0.4729 Y-1.375
N9680 G2 X0.2619 Y-1.1303 I0.0352 J0.2437
N9685 X0.2348 Y0.6074 I19.5509 J1.1743
N9690 X0.2328 Y1.1056 I2.7995 J0.2601
N9695 X0.6377 Y1.2614 I0.3544 J-0.317
N9700 X1.4594 Y1.2748 I0.5641 J-9.3953
N9705 G1 X1.6687
N9710 X15.5352
N9715 G2 X15.7492 Y1.0132 I-0.0483 J-0.2579
N9720 X15.789 Y0.4993 I-23.0239 J-2.0397
N9725 G3 X15.8244 Y0.4686 I0.0527 J0.025
N9730 G1 X15.9221 Y0.4384
N9735 G3 X15.9359 Y0.4864 I0.0066 J0.0241
N9740 G1 X15.9324 Y0.4874 Z0.3753
N9745 X15.929 Y0.4883 Z0.376
N9750 X15.9257 Y0.4892 Z0.3772
N9755 X15.9225 Y0.4901 Z0.3789
N9760 X15.9197 Y0.4908 Z0.381
N9765 X15.9172 Y0.4915 Z0.3835
N9770 X15.9151 Y0.4921 Z0.3864
N9775 X15.9134 Y0.4925 Z0.3896
N9780 X15.9121 Y0.4929 Z0.393
N9785 X15.9114 Y0.4931 Z0.3965
N9790 X15.9111 Y0.4932 Z0.4001
N9795 G0 Z1.45
N9800 X16.1261 Y-0.3935
N9805 Z0.4251
N9810 G1 Z0.4001 F60.
N9815 X16.1257 Z0.3962
N9820 X16.1248 Z0.3924
N9825 X16.1233 Y-0.3936 Z0.3888
N9830 X16.1213 Y-0.3937 Z0.3854
N9835 X16.1187 Y-0.3938 Z0.3824
N9840 X16.1158 Y-0.394 Z0.3799
N9845 X16.1124 Y-0.3941 Z0.3778
N9850 X16.1088 Y-0.3943 Z0.3763
N9855 X16.105 Y-0.3945 Z0.3754
N9860 X16.1011 Y-0.3947 Z0.3751
N9865 G3 X16.0235 Y-0.407 I0.018 J-0.3641
N9870 X15.7974 Y-0.7033 I0.069 J-0.2872
N9875 G1 X15.7811 Y-0.9034
N9880 X15.7643 Y-1.1034
N9885 G2 X15.3974 Y-1.2634 I-0.3357 J0.2693
N9890 X14.3991 Y-1.2749 I-0.6707 J14.9388
N9895 G1 X0.581 Y-1.275
N9900 G2 X0.3584 Y-1.0044 I0.0384 J0.2585
N9905 X0.3329 Y1.0059 I27.2362 J1.3505
N9910 X0.7563 Y1.1633 I0.3733 J-0.3561
N9915 X1.594 Y1.1748 I0.5744 J-11.2924
N9920 G1 X2.3026
N9925 X15.4282
N9930 G2 X15.6502 Y0.9026 I-0.0422 J-0.2611
N9935 G3 X15.6885 Y0.5189 I11.5656 J0.9593
N9940 X15.8244 Y0.4686 I0.1813 J0.2808
N9945 X15.8382 Y0.5167 I0.0066 J0.0241
N9950 G1 X15.8347 Y0.5176 Z0.3753
N9955 X15.8313 Y0.5185 Z0.376
N9960 X15.828 Y0.5194 Z0.3772
N9965 X15.8249 Y0.5203 Z0.3789
N9970 X15.822 Y0.5211 Z0.381
N9975 X15.8195 Y0.5217 Z0.3835
N9980 X15.8174 Y0.5223 Z0.3864
N9985 X15.8157 Y0.5228 Z0.3896
N9990 X15.8144 Y0.5231 Z0.393
N9995 X15.8137 Y0.5233 Z0.3965
N10000 X15.8134 Y0.5234 Z0.4001
N10005 G0 Z1.45
N10010 X16.0514 Y-0.4349
N10015 Z0.4251
N10020 G1 Z0.4001 F60.
N10025 X16.0511 Y-0.4348 Z0.3962
N10030 X16.0502 Y-0.4346 Z0.3924
N10035 X16.0487 Y-0.4343 Z0.3888
N10040 X16.0467 Y-0.4338 Z0.3854
N10045 X16.0442 Y-0.4332 Z0.3824
N10050 X16.0413 Y-0.4325 Z0.3799
N10055 X16.0381 Y-0.4317 Z0.3778
N10060 X16.0346 Y-0.4309 Z0.3763
N10065 X16.0309 Y-0.43 Z0.3754
N10070 X16.0271 Y-0.4291 Z0.3751
N10075 G3 X15.9485 Y-0.4302 I-0.0371 J-0.1539
N10080 X15.6997 Y-0.7474 I0.0655 J-0.3076
N10085 G2 X15.6597 Y-1.0318 I-1.6511 J0.087
N10090 X15.1719 Y-1.1699 I-0.4235 J0.5658
N10095 X14.3506 Y-1.1748 I-0.5629 J25.0761
N10100 G1 X14.0285 Y-1.1749
N10105 X0.6774 Y-1.175
N10110 G2 X0.4583 Y-0.8993 I0.0492 J0.2641
N10115 X0.4331 Y-0.15 I6.3681 J0.589
N10120 X0.4158 Y0.1387 I0.1577 J0.1543
N10125 G3 X0.4266 Y0.8838 I-12.9994 J0.5612
N10130 G2 X0.8181 Y1.0589 I0.344 J-0.2442
N10135 X1.7847 Y1.0748 I0.6442 J-9.7432
N10140 G1 X15.3129
N10145 G2 X15.5473 Y0.8166 I-0.0176 J-0.2515
N10150 G3 X15.6023 Y0.5422 I0.9341 J0.0447
N10155 G1 X15.612 Y0.5355
N10160 X15.6228 Y0.531
N10165 X15.7161 Y0.5021
N10170 G3 X15.7298 Y0.5502 I0.0066 J0.0241
N10175 G1 X15.7263 Y0.5511 Z0.3753
N10180 X15.7229 Y0.5521 Z0.376
N10185 X15.7196 Y0.553 Z0.3772
N10190 X15.7165 Y0.5538 Z0.3789
N10195 X15.7136 Y0.5546 Z0.381
N10200 X15.7111 Y0.5553 Z0.3835
N10205 X15.709 Y0.5558 Z0.3864
N10210 X15.7073 Y0.5563 Z0.3896
N10215 X15.7061 Y0.5566 Z0.393
N10220 X15.7053 Y0.5569 Z0.3965
N10225 X15.705 Z0.4001
N10230 G0 Z1.45
N10235 X15.9614 Y-0.4628
N10240 Z0.4251
N10245 G1 Z0.4001 F60.
N10250 X15.9611 Y-0.4627 Z0.3962
N10255 X15.9602 Y-0.4625 Z0.3924
N10260 X15.9587 Y-0.4621 Z0.3888
N10265 X15.9567 Y-0.4616 Z0.3854
N10270 X15.9543 Y-0.461 Z0.3824
N10275 X15.9514 Y-0.4603 Z0.3799
N10280 X15.9481 Y-0.4596 Z0.3778
N10285 X15.9446 Y-0.4587 Z0.3763
N10290 X15.9409 Y-0.4578 Z0.3754
N10295 X15.9371 Y-0.4569 Z0.3751
N10300 G3 X15.8585 Y-0.458 I-0.0371 J-0.1539
N10305 X15.6035 Y-0.7763 I0.0666 J-0.3147
N10310 G1 X15.603 Y-0.7891
N10315 X15.6019 Y-0.8019
N10320 X15.6002 Y-0.8146
N10325 X15.5979 Y-0.8272
N10330 X15.595 Y-0.8397
N10335 X15.5915 Y-0.852
N10340 X15.5874 Y-0.8642
N10345 X15.5828 Y-0.8761
N10350 X15.5776 Y-0.8878
N10355 X15.5718 Y-0.8993
N10360 X15.5656 Y-0.9104
N10365 X15.5587 Y-0.9213
N10370 X15.5514 Y-0.9318
N10375 X15.5436 Y-0.942
N10380 X15.5353 Y-0.9518
N10385 X15.5266 Y-0.9611
N10390 X15.5174 Y-0.9701
N10395 X15.5078 Y-0.9786
N10400 X15.4979 Y-0.9866
N10405 X15.4875 Y-0.9942
N10410 X15.4768 Y-1.0013
N10415 X15.4658 Y-1.0078
N10420 X15.4545 Y-1.0138
N10425 X15.4429 Y-1.0193
N10430 X15.4311 Y-1.0242
N10435 X15.419 Y-1.0286
N10440 X15.4068 Y-1.0323
N10445 X15.3944 Y-1.0355
N10450 X15.3818 Y-1.0381
N10455 X15.3692 Y-1.0401
N10460 X15.3564 Y-1.0415
N10465 X15.3436 Y-1.0423
N10470 X15.3308 Y-1.0425
N10475 X15.318 Y-1.0421
N10480 X15.3052 Y-1.041
N10485 G2 X14.5168 Y-1.0653 I-0.4977 J3.3504
N10490 G1 X14.4355 Y-1.0748
N10495 X14.3228
N10500 X14.1295 Y-1.0749
N10505 X0.7947 Y-1.075
N10510 G2 X0.5677 Y-0.8156 I0.0169 J0.2437
N10515 X0.5239 Y-0.3902 I6.6498 J0.9007
N10520 G3 X0.4393 Y-0.1671 I-1.3678 J-0.3909
N10525 G1 X0.4362 Y-0.1646
N10530 X0.4327 Y-0.1626
N10535 X0.4291 Y-0.1612
N10540 X0.4252 Y-0.1604
N10545 X0.4214 Y-0.1601
N10550 X0.4175 Y-0.1604
N10555 X0.4138 Y-0.1613
N10560 G2 X0.3837 Y-0.1455 I-0.0065 J0.0241
N10565 G1 X0.3787 Y-0.1314
N10570 X0.3404 Y-0.0231
N10575 G2 X0.3443 Y0.0006 I0.0236 J0.0083
N10580 G3 X0.3856 Y0.0674 I-0.2876 J0.224
N10585 X0.5165 Y0.7469 I-0.8876 J0.5233
N10590 G2 X0.8669 Y0.9588 I0.3254 J-0.1422
N10595 G1 X0.8935 Y0.9585
N10600 X0.9202 Y0.9588
N10605 X0.9468 Y0.9597
N10610 X0.9734 Y0.9612
N10615 X0.9999 Y0.9634
N10620 X1.0264 Y0.9661
N10625 X1.0528 Y0.9695
N10630 X1.0792 Y0.9734
N10635 X1.1054 Y0.978
N10640 X1.1315 Y0.9832
N10645 X1.1575 Y0.989
N10650 X1.1834 Y0.9954
N10655 X1.2091 Y1.0024
N10660 X1.2346 Y1.0099
N10665 X1.26 Y1.0181
N10670 X1.2851 Y1.0268
N10675 X1.3101 Y1.0362
N10680 G2 X1.9074 Y0.977 I0.1772 J-1.2555
N10685 G1 X2.1982 Y0.976
N10690 X2.489 Y0.9753
N10695 X2.7798 Y0.9748
N10700 X15.2129
N10705 G2 X15.4493 Y0.7165 I-0.0211 J-0.2567
N10710 G3 X15.5148 Y0.5644 I0.1648 J-0.0192
N10715 G1 X15.6228 Y0.531
N10720 G3 X15.6365 Y0.5791 I0.0066 J0.0241
N10725 G1 X15.633 Y0.58 Z0.3753
N10730 X15.6296 Y0.5809 Z0.376
N10735 X15.6263 Y0.5818 Z0.3772
N10740 X15.6232 Y0.5827 Z0.3789
N10745 X15.6203 Y0.5835 Z0.381
N10750 X15.6178 Y0.5841 Z0.3835
N10755 X15.6157 Y0.5847 Z0.3864
N10760 X15.614 Y0.5852 Z0.3896
N10765 X15.6127 Y0.5855 Z0.393
N10770 X15.612 Y0.5857 Z0.3965
N10775 X15.6117 Y0.5858 Z0.4001
N10780 G0 Z1.45
N10785 X15.8714 Y-0.4906
N10790 Z0.4251
N10795 G1 Z0.4001 F60.
N10800 X15.8711 Y-0.4905 Z0.3962
N10805 X15.8702 Y-0.4903 Z0.3924
N10810 X15.8687 Y-0.49 Z0.3888
N10815 X15.8668 Y-0.4895 Z0.3854
N10820 X15.8643 Y-0.4889 Z0.3824
N10825 X15.8614 Y-0.4882 Z0.3799
N10830 X15.8581 Y-0.4874 Z0.3778
N10835 X15.8546 Y-0.4866 Z0.3763
N10840 X15.8509 Y-0.4857 Z0.3754
N10845 X15.8471 Y-0.4847 Z0.3751
N10850 G3 X15.7686 Y-0.4859 I-0.0371 J-0.1539
N10855 X15.5098 Y-0.7724 I0.0558 J-0.3105
N10860 G2 X15.1255 Y-0.9612 I-0.3539 J0.2349
N10865 X14.224 Y-0.9748 I-0.6347 J12.1965
N10870 G1 X13.918 Y-0.9749
N10875 X1.9005 Y-0.975
N10880 G2 X1.0982 Y-0.9767 I-0.4035 J1.0633
N10885 X0.7636 Y-0.9451 I-0.0993 J0.7346
N10890 G1 X0.752 Y-0.9269
N10895 X0.741 Y-0.9084
N10900 X0.7304 Y-0.8896
N10905 X0.7204 Y-0.8706
N10910 X0.7109 Y-0.8513
N10915 X0.7018 Y-0.8318
N10920 X0.6933 Y-0.812
N10925 X0.6853 Y-0.792
N10930 X0.6779 Y-0.7718
N10935 X0.671 Y-0.7514
N10940 X0.6646 Y-0.7309
N10945 X0.6588 Y-0.7101
N10950 X0.6535 Y-0.6893
N10955 X0.6488 Y-0.6683
N10960 X0.6446 Y-0.6472
N10965 X0.641 Y-0.6259
N10970 X0.6379 Y-0.6046
N10975 X0.6355 Y-0.5832
N10980 G2 X0.5309 Y-0.4055 I0.3266 J0.3119
N10985 G1 X0.5287 Y-0.4021
N10990 X0.526 Y-0.3991
N10995 X0.5229 Y-0.3966
N11000 X0.5195 Y-0.3946
N11005 X0.5158 Y-0.3931
N11010 X0.5119 Y-0.3923
N11015 X0.5079 Y-0.392
N11020 X0.504 Y-0.3924
N11025 X0.5001 Y-0.3934
N11030 X0.4965 Y-0.395
N11035 X0.4932 Y-0.3971
N11040 X0.4902 Y-0.3997
N11045 X0.4877 Y-0.4027
N11050 X0.4856 Y-0.4061
N11055 X0.4842 Y-0.4097
N11060 X0.4833 Y-0.4135
N11065 X0.483 Y-0.4174
N11070 X0.4833 Y-0.4213
N11075 X0.4843 Y-0.4251
N11080 X0.4858 Y-0.4287
N11085 X0.4875 Y-0.4319 Z0.3753
N11090 X0.4892 Y-0.4351 Z0.376
N11095 X0.4908 Y-0.4381 Z0.3772
N11100 X0.4923 Y-0.4409 Z0.3789
N11105 X0.4937 Y-0.4435 Z0.381
N11110 X0.4949 Y-0.4458 Z0.3835
N11115 X0.496 Y-0.4477 Z0.3864
N11120 X0.4968 Y-0.4493 Z0.3896
N11125 X0.4974 Y-0.4504 Z0.393
N11130 X0.4978 Y-0.4511 Z0.3965
N11135 X0.4979 Y-0.4514 Z0.4001
N11140 G0 Z1.45
N11145 X0.4096 Y0.1958
N11150 Z0.4251
N11155 G1 Z0.4001 F60.
N11160 X0.4098 Y0.196 Z0.3962
N11165 X0.4106 Y0.1965 Z0.3924
N11170 X0.4118 Y0.1974 Z0.3888
N11175 X0.4135 Y0.1985 Z0.3854
N11180 X0.4156 Y0.2 Z0.3824
N11185 X0.418 Y0.2017 Z0.3799
N11190 X0.4208 Y0.2036 Z0.3778
N11195 X0.4237 Y0.2057 Z0.3763
N11200 X0.4269 Y0.2079 Z0.3754
N11205 X0.4301 Y0.2101 Z0.3751
N11210 G3 X0.4813 Y0.2696 I-0.0906 J0.1298
N11215 X0.6279 Y0.6878 I-2.291 J1.0382
N11220 G2 X0.8936 Y0.8564 I0.3079 J-0.1914
N11225 X1.0863 Y0.9657 I0.4431 J-0.5566
N11230 G3 X1.0619 Y1.0093 I-0.0125 J0.0216
N11235 G1 X1.0587 Y1.0075 Z0.3753
N11240 X1.0556 Y1.0057 Z0.376
N11245 X1.0527 Y1.004 Z0.3772
N11250 X1.0499 Y1.0024 Z0.3789
N11255 X1.0473 Y1.0009 Z0.381
N11260 X1.0451 Y0.9996 Z0.3835
N11265 X1.0432 Y0.9985 Z0.3864
N11270 X1.0416 Y0.9976 Z0.3896
N11275 X1.0405 Y0.997 Z0.393
N11280 X1.0398 Y0.9966 Z0.3965
N11285 X1.0396 Y0.9965 Z0.4001
N11290 G0 Z1.45
N11295 X1.7011 Y1.0693
N11300 Z0.4251
N11305 G1 Z0.4001 F60.
N11310 X1.7013 Y1.0691 Z0.3962
N11315 X1.7019 Y1.0684 Z0.3924
N11320 X1.7029 Y1.0673 Z0.3888
N11325 X1.7043 Y1.0658 Z0.3854
N11330 X1.706 Y1.0639 Z0.3824
N11335 X1.7081 Y1.0617 Z0.3799
N11340 X1.7103 Y1.0592 Z0.3778
N11345 X1.7128 Y1.0565 Z0.3763
N11350 X1.7153 Y1.0537 Z0.3754
N11355 X1.718 Y1.0508 Z0.3751
N11360 G3 X1.7837 Y1.0078 I0.1169 J0.1067
N11365 X2.1955 Y0.8747 I0.9181 J2.1377
N11370 G1 X2.3472 Y0.8757
N11375 X2.4989 Y0.8762
N11380 X2.6506 Y0.8763
N11385 X2.8024 Y0.8758
N11390 X2.9541 Y0.8748
N11395 X15.1134
N11400 G2 X15.3574 Y0.6332 I-0.03 J-0.2744
N11405 G3 X15.5148 Y0.5644 I0.1626 J0.1575
N11410 X15.5286 Y0.6125 I0.0066 J0.0241
N11415 G1 X15.5251 Y0.6134 Z0.3753
N11420 X15.5216 Y0.6143 Z0.376
N11425 X15.5183 Y0.6152 Z0.3772
N11430 X15.5152 Y0.6161 Z0.3789
N11435 X15.5124 Y0.6169 Z0.381
N11440 X15.5099 Y0.6175 Z0.3835
N11445 X15.5077 Y0.6181 Z0.3864
N11450 X15.506 Y0.6186 Z0.3896
N11455 X15.5048 Y0.6189 Z0.393
N11460 X15.504 Y0.6191 Z0.3965
N11465 X15.5038 Y0.6192 Z0.4001
N11470 G0 Z1.45
N11475 X15.7739 Y-0.5208
N11480 Z0.4251
N11485 G1 Z0.4001 F60.
N11490 X15.7736 Y-0.5207 Z0.3962
N11495 X15.7727 Y-0.5205 Z0.3924
N11500 X15.7713 Y-0.5201 Z0.3888
N11505 X15.7693 Y-0.5196 Z0.3854
N11510 X15.7668 Y-0.519 Z0.3824
N11515 X15.7639 Y-0.5183 Z0.3799
N11520 X15.7606 Y-0.5176 Z0.3778
N11525 X15.7571 Y-0.5167 Z0.3763
N11530 X15.7534 Y-0.5158 Z0.3754
N11535 X15.7496 Y-0.5149 Z0.3751
N11540 G3 X15.6711 Y-0.516 I-0.0371 J-0.1539
N11545 X15.4227 Y-0.7176 I0.0619 J-0.3301
N11550 G2 X14.9282 Y-0.8683 I-0.4394 J0.5552
N11555 X13.9619 Y-0.8749 I-0.6495 J24.4277
N11560 G1 X2.0981 Y-0.875
N11565 G3 X1.9128 Y-0.9662 I0.097 J-0.431
N11570 X1.9369 Y-1.0099 I0.0124 J-0.0217
N11575 G1 X1.9401 Y-1.0081 Z0.3753
N11580 X1.9432 Y-1.0064 Z0.376
N11585 X1.9462 Y-1.0047 Z0.3772
N11590 X1.9489 Y-1.0031 Z0.3789
N11595 X1.9515 Y-1.0016 Z0.381
N11600 X1.9538 Y-1.0003 Z0.3835
N11605 X1.9557 Y-0.9993 Z0.3864
N11610 X1.9572 Y-0.9984 Z0.3896
N11615 X1.9583 Y-0.9977 Z0.393
N11620 X1.959 Y-0.9974 Z0.3965
N11625 X1.9592 Y-0.9972 Z0.4001
N11630 G0 Z1.45
N11635 X1.3038 Y-1.0708
N11640 Z0.4251
N11645 G1 Z0.4001 F60.
N11650 X1.3036 Y-1.0705 Z0.3962
N11655 X1.303 Y-1.0699 Z0.3924
N11660 X1.302 Y-1.0688 Z0.3888
N11665 X1.3006 Y-1.0672 Z0.3854
N11670 X1.2989 Y-1.0654 Z0.3824
N11675 X1.2969 Y-1.0632 Z0.3799
N11680 X1.2946 Y-1.0607 Z0.3778
N11685 X1.2922 Y-1.058 Z0.3763
N11690 X1.2896 Y-1.0552 Z0.3754
N11695 X1.2869 Y-1.0523 Z0.3751
N11700 G3 X1.2213 Y-1.0093 I-0.1169 J-0.1067
N11705 G2 X0.8325 Y-0.8129 I0.2481 J0.9742
N11710 G1 X0.83 Y-0.811
N11715 X0.8272 Y-0.8095
N11720 X0.8242 Y-0.8085
N11725 X0.821 Y-0.8079
N11730 X0.8177
N11735 X0.8144 Y-0.8083
N11740 X0.8111 Y-0.8093
N11745 X0.8081 Y-0.8109
N11750 X0.8052 Y-0.8128
N11755 X0.8027 Y-0.8153
N11760 X0.8006 Y-0.8181
N11765 X0.7989 Y-0.8213
N11770 X0.7978 Y-0.8247
N11775 X0.7971 Y-0.8283
N11780 Y-0.832
N11785 X0.7976 Y-0.8357
N11790 X0.7988 Y-0.8393
N11795 X0.8005 Y-0.8428
N11800 X0.8027 Y-0.8459
N11805 X0.8054 Y-0.8487
N11810 X0.8068 Y-0.8497
N11815 X0.9925 Y-0.9721
N11820 X0.9937 Y-0.9729
N11825 G3 X1.0188 Y-0.9296 I0.0125 J0.0216
N11830 G2 X0.6368 Y-0.5981 I0.4496 J0.904
N11835 G3 X0.5988 Y-0.6307 I-0.0188 J-0.0165
N11840 G1 X0.6012 Y-0.6334 Z0.3753
N11845 X0.6036 Y-0.6361 Z0.376
N11850 X0.6058 Y-0.6386 Z0.3772
N11855 X0.608 Y-0.641 Z0.3789
N11860 X0.6099 Y-0.6432 Z0.381
N11865 X0.6116 Y-0.6452 Z0.3835
N11870 X0.6131 Y-0.6469 Z0.3864
N11875 X0.6143 Y-0.6482 Z0.3896
N11880 X0.6151 Y-0.6491 Z0.393
N11885 X0.6156 Y-0.6497 Z0.3965
N11890 X0.6158 Y-0.6499 Z0.4001
N11895 G0 Z1.45
N11900 X0.4966 Y0.417
N11905 Z0.4251
N11910 G1 Z0.4001 F60.
N11915 X0.4968 Y0.4172 Z0.3962
N11920 X0.4976 Y0.4176 Z0.3924
N11925 X0.4989 Y0.4184 Z0.3888
N11930 X0.5006 Y0.4195 Z0.3854
N11935 X0.5028 Y0.4209 Z0.3824
N11940 X0.5053 Y0.4224 Z0.3799
N11945 X0.5082 Y0.4242 Z0.3778
N11950 X0.5113 Y0.4261 Z0.3763
N11955 X0.5145 Y0.4281 Z0.3754
N11960 X0.5178 Y0.4302 Z0.3751
N11965 G3 X0.5722 Y0.4868 I-0.0834 J0.1345
N11970 G2 X0.8945 Y0.8551 I0.8359 J-0.4064
N11975 G1 X0.8972 Y0.8579
N11980 X0.8995 Y0.8611
N11985 X0.9012 Y0.8646
N11990 X0.9025 Y0.8684
N11995 X0.9031 Y0.8722
N12000 X0.9032 Y0.8761
N12005 X0.9027 Y0.8799
N12010 X0.9016 Y0.8837
N12015 X0.9 Y0.8872
N12020 X0.8979 Y0.8904
N12025 X0.8954 Y0.8933
N12030 X0.8925 Y0.8957
N12035 X0.8892 Y0.8977
N12040 X0.8857 Y0.8992
N12045 X0.8821 Y0.9001
N12050 X0.8783 Y0.9005
N12055 X0.8745 Y0.9003
N12060 X0.8709 Y0.8996
N12065 X0.8673 Y0.8984
N12070 X0.864 Y0.8966
N12075 X0.8611 Y0.8944
N12080 X0.8583 Y0.892 Z0.3753
N12085 X0.8557 Y0.8896 Z0.376
N12090 X0.8531 Y0.8874 Z0.3772
N12095 X0.8507 Y0.8852 Z0.3789
N12100 X0.8485 Y0.8833 Z0.381
N12105 X0.8465 Y0.8816 Z0.3835
N12110 X0.8449 Y0.8801 Z0.3864
N12115 X0.8435 Y0.8789 Z0.3896
N12120 X0.8426 Y0.8781 Z0.393
N12125 X0.842 Y0.8776 Z0.3965
N12130 X0.8418 Y0.8774 Z0.4001
N12135 G0 Z1.45
N12140 X1.9097 Y1.0075
N12145 Z0.4251
N12150 G1 Z0.4001 F60.
N12155 X1.9098 Y1.0072 Z0.3962
N12160 X1.9103 Y1.0064 Z0.3924
N12165 X1.9111 Y1.0051 Z0.3888
N12170 X1.9121 Y1.0034 Z0.3854
N12175 X1.9134 Y1.0012 Z0.3824
N12180 X1.915 Y0.9986 Z0.3799
N12185 X1.9167 Y0.9958 Z0.3778
N12190 X1.9186 Y0.9927 Z0.3763
N12195 X1.9206 Y0.9894 Z0.3754
N12200 X1.9226 Y0.9861 Z0.3751
N12205 G3 X1.9786 Y0.931 I0.1355 J0.0818
N12210 X2.2965 Y0.7847 I0.5382 J0.7506
N12215 X3.2476 Y0.7748 I0.6945 J21.1963
N12220 G1 X15.0204
N12225 G2 X15.2613 Y0.5993 I-0.0404 J-0.3087
N12230 G3 X15.3199 Y0.5921 I0.0354 J0.0463
N12235 X15.2991 Y0.6376 I-0.0107 J0.0226
N12240 G1 X15.2958 Y0.636 Z0.3753
N12245 X15.2926 Y0.6345 Z0.376
N12250 X15.2895 Y0.633 Z0.3772
N12255 X15.2866 Y0.6317 Z0.3789
N12260 X15.2839 Y0.6304 Z0.381
N12265 X15.2816 Y0.6293 Z0.3835
N12270 X15.2796 Y0.6283 Z0.3864
N12275 X15.278 Y0.6276 Z0.3896
N12280 X15.2768 Y0.627 Z0.393
N12285 X15.2761 Y0.6267 Z0.3965
N12290 X15.2759 Y0.6266 Z0.4001
N12295 G0 Z1.45
N12300 X15.6839 Y-0.5486
N12305 Z0.4251
N12310 G1 Z0.4001 F60.
N12315 X15.6836 Y-0.5485 Z0.3962
N12320 X15.6827 Y-0.5483 Z0.3924
N12325 X15.6813 Y-0.548 Z0.3888
N12330 X15.6793 Y-0.5475 Z0.3854
N12335 X15.6768 Y-0.5469 Z0.3824
N12340 X15.6739 Y-0.5462 Z0.3799
N12345 X15.6707 Y-0.5454 Z0.3778
N12350 X15.6671 Y-0.5446 Z0.3763
N12355 X15.6634 Y-0.5437 Z0.3754
N12360 X15.6596 Y-0.5427 Z0.3751
N12365 G3 X15.5811 Y-0.5439 I-0.0371 J-0.1539
N12370 X15.2933 Y-0.6872 I0.4456 J-1.2549
N12375 G2 X14.5631 Y-0.7738 I-0.5978 J1.9193
N12380 G1 X14.3698 Y-0.7746
N12385 X14.1765 Y-0.775
N12390 X13.9833 Y-0.7748
N12395 X13.5484 Y-0.7749
N12400 X2.2265
N12405 G3 X2.1895 Y-0.7882 I0. J-0.0583
N12410 G1 X2.0986 Y-0.8628
N12415 X2.0945 Y-0.8661
N12420 G3 X2.1267 Y-0.9044 I0.0163 J-0.0189
N12425 G1 X2.1294 Y-0.902 Z0.3753
N12430 X2.1321 Y-0.8997 Z0.376
N12435 X2.1347 Y-0.8974 Z0.3772
N12440 X2.1371 Y-0.8953 Z0.3789
N12445 X2.1394 Y-0.8934 Z0.381
N12450 X2.1413 Y-0.8917 Z0.3835
N12455 X2.143 Y-0.8903 Z0.3864
N12460 X2.1443 Y-0.8891 Z0.3896
N12465 X2.1453 Y-0.8883 Z0.393
N12470 X2.1459 Y-0.8878 Z0.3965
N12475 X2.1461 Y-0.8876 Z0.4001
N12480 G0 Z1.45
N12485 X2.0568 Y0.9422
N12490 Z0.4251
N12495 G1 Z0.4001 F60.
N12500 X2.0569 Y0.942 Z0.3962
N12505 X2.0573 Y0.9411 Z0.3924
N12510 X2.0578 Y0.9397 Z0.3888
N12515 X2.0585 Y0.9378 Z0.3854
N12520 X2.0593 Y0.9354 Z0.3824
N12525 X2.0603 Y0.9326 Z0.3799
N12530 X2.0615 Y0.9294 Z0.3778
N12535 X2.0627 Y0.926 Z0.3763
N12540 X2.064 Y0.9224 Z0.3754
N12545 X2.0653 Y0.9187 Z0.3751
N12550 G3 X2.1096 Y0.8538 I0.1488 J0.0538
N12555 X2.5823 Y0.6797 I0.4276 J0.4321
N12560 X3.3876 Y0.6748 I0.5455 J23.7975
N12565 G1 X14.9027
N12570 G2 X15.1932 Y0.5373 I-0.0536 J-0.4888
N12575 G3 X15.2992 Y0.5822 I0.0142 J0.1139
N12580 G1 X15.3021 Y0.5845
N12585 X15.3047 Y0.5871
N12590 X15.3068 Y0.5902
N12595 X15.3085 Y0.5936
N12600 X15.3096 Y0.5972
N12605 X15.3101 Y0.6009
N12610 X15.31 Y0.6047
N12615 X15.3094 Y0.6084
N12620 X15.3081 Y0.612
N12625 X15.3063 Y0.6153
N12630 X15.304 Y0.6184
N12635 X15.3013 Y0.621
N12640 X15.2982 Y0.6233
N12645 X15.2947 Y0.6249
N12650 X15.291 Y0.6261
N12655 X15.2872 Y0.6266
N12660 X15.2833
N12665 X15.2795 Y0.6259
N12670 X15.2758 Y0.6247
N12675 X15.2723 Y0.6228
N12680 X15.2694 Y0.6208 Z0.3753
N12685 X15.2664 Y0.6187 Z0.376
N12690 X15.2636 Y0.6168 Z0.3772
N12695 X15.261 Y0.615 Z0.3789
N12700 X15.2586 Y0.6133 Z0.381
N12705 X15.2564 Y0.6118 Z0.3835
N12710 X15.2546 Y0.6105 Z0.3864
N12715 X15.2532 Y0.6095 Z0.3896
N12720 X15.2521 Y0.6088 Z0.393
N12725 X15.2514 Y0.6084 Z0.3965
N12730 X15.2512 Y0.6082 Z0.4001
N12735 G0 Z1.45
N12740 X15.5865 Y-0.5788
N12745 Z0.4251
N12750 G1 Z0.4001 F60.
N12755 X15.5862 Y-0.5787 Z0.3962
N12760 X15.5853 Y-0.5785 Z0.3924
N12765 X15.5838 Y-0.5781 Z0.3888
N12770 X15.5818 Y-0.5776 Z0.3854
N12775 X15.5793 Y-0.577 Z0.3824
N12780 X15.5764 Y-0.5763 Z0.3799
N12785 X15.5732 Y-0.5756 Z0.3778
N12790 X15.5697 Y-0.5747 Z0.3763
N12795 X15.5659 Y-0.5738 Z0.3754
N12800 X15.5621 Y-0.5729 Z0.3751
N12805 G3 X15.4836 Y-0.574 I-0.0371 J-0.1539
N12810 G2 X14.233 Y-0.6659 I-0.9478 J4.3454
N12815 X13.7976 Y-0.6749 I-0.2914 J3.5748
N12820 G1 X2.3308 Y-0.675
N12825 G3 X2.2336 Y-0.752 I0.1624 J-0.3048
N12830 G1 X2.2282 Y-0.7565
N12835 X2.1895 Y-0.7882
N12840 G3 X2.2221 Y-0.8262 I0.0165 J-0.0188
N12845 G1 X2.2248 Y-0.8238 Z0.3753
N12850 X2.2275 Y-0.8214 Z0.376
N12855 X2.23 Y-0.8191 Z0.3772
N12860 X2.2324 Y-0.817 Z0.3789
N12865 X2.2346 Y-0.8151 Z0.381
N12870 X2.2366 Y-0.8134 Z0.3835
N12875 X2.2383 Y-0.8119 Z0.3864
N12880 X2.2396 Y-0.8107 Z0.3896
N12885 X2.2406 Y-0.8099 Z0.393
N12890 X2.2411 Y-0.8094 Z0.3965
N12895 X2.2413 Y-0.8092 Z0.4001
N12900 G0 Z1.45
N12905 X15.4541 Y-0.6354
N12910 Z0.4251
N12915 G1 Z0.4001 F60.
N12920 X15.4538 Y-0.6353 Z0.3962
N12925 X15.453 Y-0.635 Z0.3924
N12930 X15.4516 Y-0.6344 Z0.3888
N12935 X15.4497 Y-0.6336 Z0.3854
N12940 X15.4474 Y-0.6325 Z0.3824
N12945 X15.4446 Y-0.6314 Z0.3799
N12950 X15.4416 Y-0.63 Z0.3778
N12955 X15.4382 Y-0.6286 Z0.3763
N12960 X15.4347 Y-0.6271 Z0.3754
N12965 X15.4311 Y-0.6255 Z0.3751
N12970 G3 X15.3561 Y-0.6022 I-0.1449 J-0.3345
N12975 G1 X15.3358 Y-0.5945
N12980 X15.3153 Y-0.5873
N12985 X15.2946 Y-0.5807
N12990 X15.2737 Y-0.5747
N12995 X15.2527 Y-0.5692
N13000 X15.2315 Y-0.5644
N13005 X15.2102 Y-0.5601
N13010 X15.1887 Y-0.5565
N13015 X15.1672 Y-0.5534
N13020 X15.1456 Y-0.5509
N13025 X15.124 Y-0.5491
N13030 X15.1023 Y-0.5478
N13035 X15.0806 Y-0.5471
N13040 X15.0588
N13045 X15.0371 Y-0.5477
N13050 X15.0154 Y-0.5488
N13055 X14.9937 Y-0.5506
N13060 X14.9721 Y-0.553
N13065 X14.9506 Y-0.5559
N13070 X14.9291 Y-0.5595
N13075 X14.9078 Y-0.5637
N13080 X14.8866 Y-0.5684
N13085 X14.8655 Y-0.5738
N13090 X14.6525 Y-0.5729
N13095 X14.4394 Y-0.5725
N13100 X14.2264 Y-0.5727
N13105 X14.0133 Y-0.5735
N13110 X13.8002 Y-0.5748
N13115 X13.3171 Y-0.5749
N13120 X2.4462
N13125 G3 X2.3623 Y-0.5992 I-0.0221 J-0.0806
N13130 G1 X2.2886 Y-0.6891
N13135 G3 X2.3279 Y-0.7199 I0.0199 J-0.0152
N13140 G1 X2.3301 Y-0.7171 Z0.3753
N13145 X2.3323 Y-0.7142 Z0.376
N13150 X2.3343 Y-0.7115 Z0.3772
N13155 X2.3363 Y-0.7089 Z0.3789
N13160 X2.3381 Y-0.7066 Z0.381
N13165 X2.3397 Y-0.7045 Z0.3835
N13170 X2.341 Y-0.7028 Z0.3864
N13175 X2.3421 Y-0.7014 Z0.3896
N13180 X2.3429 Y-0.7004 Z0.393
N13185 X2.3433 Y-0.6997 Z0.3965
N13190 X2.3435 Y-0.6995 Z0.4001
N13195 G0 Z1.45
N13200 X15.3725 Y-0.6485
N13205 Z0.4251
N13210 G1 Z0.4001 F60.
N13215 X15.3723 Y-0.6483 Z0.3962
N13220 X15.3716 Y-0.6476 Z0.3924
N13225 X15.3706 Y-0.6465 Z0.3888
N13230 X15.3692 Y-0.645 Z0.3854
N13235 X15.3675 Y-0.6432 Z0.3824
N13240 X15.3655 Y-0.641 Z0.3799
N13245 X15.3632 Y-0.6385 Z0.3778
N13250 X15.3607 Y-0.6359 Z0.3763
N13255 X15.3581 Y-0.6331 Z0.3754
N13260 X15.3555 Y-0.6302 Z0.3751
N13265 G3 X15.2961 Y-0.5787 I-0.2672 J-0.248
N13270 X14.8439 Y-0.4673 I-0.363 J-0.4998
N13275 G1 X14.7051 Y-0.47
N13280 X14.5662 Y-0.4721
N13285 X14.4273 Y-0.4738
N13290 X14.2884 Y-0.475
N13295 X14.1495 Y-0.4757
N13300 X14.0106 Y-0.4759
N13305 X13.8717 Y-0.4756
N13310 X13.7328 Y-0.4748
N13315 X13.2174 Y-0.4749
N13320 X2.5398
N13325 G3 X2.3784 Y-0.5767 I-0.0404 J-0.1147
N13330 X2.4222 Y-0.6008 I0.0221 J-0.0117
N13335 G1 X2.4239 Y-0.5976 Z0.3753
N13340 X2.4256 Y-0.5944 Z0.376
N13345 X2.4272 Y-0.5914 Z0.3772
N13350 X2.4287 Y-0.5886 Z0.3789
N13355 X2.4301 Y-0.586 Z0.381
N13360 X2.4313 Y-0.5837 Z0.3835
N13365 X2.4323 Y-0.5817 Z0.3864
N13370 X2.4332 Y-0.5802 Z0.3896
N13375 X2.4338 Y-0.579 Z0.393
N13380 X2.4341 Y-0.5783 Z0.3965
N13385 X2.4343 Y-0.5781 Z0.4001
N13390 G0 Z1.45
N13395 X15.2535 Y-0.5927
N13400 Z0.4251
N13405 G1 Z0.4001 F60.
N13410 X15.2534 Y-0.5925 Z0.3962
N13415 X15.253 Y-0.5916 Z0.3924
N13420 X15.2523 Y-0.5903 Z0.3888
N13425 X15.2514 Y-0.5885 Z0.3854
N13430 X15.2503 Y-0.5862 Z0.3824
N13435 X15.2489 Y-0.5835 Z0.3799
N13440 X15.2475 Y-0.5805 Z0.3778
N13445 X15.2458 Y-0.5773 Z0.3763
N13450 X15.2442 Y-0.5738 Z0.3754
N13455 X15.2424 Y-0.5703 Z0.3751
N13460 G3 X15.1912 Y-0.5108 I-0.1418 J-0.0703
N13465 X14.8645 Y-0.3742 I-0.2758 J-0.2004
N13470 G1 X14.7035 Y-0.3728
N13475 X14.5425 Y-0.3719
N13480 X14.3814 Y-0.3715
N13485 X14.2204 Y-0.3716
N13490 X14.0593 Y-0.3722
N13495 X13.8983 Y-0.3733
N13500 X13.7372 Y-0.3748
N13505 X13.5279 Y-0.3749
N13510 X2.6409
N13515 G3 X2.466 Y-0.4136 I-0.0534 J-0.1732
N13520 G1 X2.4158 Y-0.5076
N13525 G3 X2.4604 Y-0.5302 I0.0224 J-0.011
N13530 G1 X2.462 Y-0.5269 Z0.3753
N13535 X2.4636 Y-0.5237 Z0.376
N13540 X2.4651 Y-0.5206 Z0.3772
N13545 X2.4665 Y-0.5178 Z0.3789
N13550 X2.4678 Y-0.5151 Z0.381
N13555 X2.4689 Y-0.5128 Z0.3835
N13560 X2.4699 Y-0.5108 Z0.3864
N13565 X2.4707 Y-0.5092 Z0.3896
N13570 X2.4712 Y-0.5081 Z0.393
N13575 X2.4716 Y-0.5074 Z0.3965
N13580 X2.4717 Y-0.5071 Z0.4001
N13585 G0 Z1.45
N13590 X15.1757 Y-0.5624
N13595 Z0.4251
N13600 G1 Z0.4001 F60.
N13605 X15.1756 Y-0.5621 Z0.3962
N13610 X15.1754 Y-0.5613 Z0.3924
N13615 X15.175 Y-0.5598 Z0.3888
N13620 X15.1746 Y-0.5578 Z0.3854
N13625 X15.1739 Y-0.5553 Z0.3824
N13630 X15.1732 Y-0.5524 Z0.3799
N13635 X15.1724 Y-0.5492 Z0.3778
N13640 X15.1716 Y-0.5457 Z0.3763
N13645 X15.1707 Y-0.542 Z0.3754
N13650 X15.1697 Y-0.5382 Z0.3751
N13655 G3 X15.1429 Y-0.4644 I-0.354 J-0.087
N13660 G1 X15.1394 Y-0.4528
N13665 X15.1353 Y-0.4415
N13670 X15.1306 Y-0.4304
N13675 X15.1254 Y-0.4196
N13680 X15.1196 Y-0.409
N13685 X15.1133 Y-0.3987
N13690 X15.1065 Y-0.3888
N13695 X15.0992 Y-0.3792
N13700 X15.0915 Y-0.37
N13705 X15.0832 Y-0.3613
N13710 X15.0746 Y-0.3529
N13715 X15.0655 Y-0.345
N13720 X15.0561 Y-0.3375
N13725 X15.0462 Y-0.3306
N13730 X15.0361 Y-0.3241
N13735 X15.0256 Y-0.3182
N13740 X15.0148 Y-0.3128
N13745 X15.0038 Y-0.308
N13750 X14.9926 Y-0.3037
N13755 X14.9811 Y-0.3
N13760 X14.9695 Y-0.2969
N13765 X14.9577 Y-0.2944
N13770 X14.9458 Y-0.2925
N13775 X14.9339 Y-0.2911
N13780 X14.9219 Y-0.2904
N13785 X14.9098 Y-0.2903
N13790 X14.8978 Y-0.2908
N13795 X14.8858 Y-0.2919
N13800 X14.8739 Y-0.2937
N13805 G3 X13.8588 Y-0.2838 I-0.5666 J-6.1059
N13810 G1 X13.7454 Y-0.2748
N13815 X13.5683
N13820 X13.1979 Y-0.2749
N13825 X2.7295
N13830 G3 X2.5007 Y-0.3017 I-0.061 J-0.4701
N13835 G2 X2.4735 Y-0.3968 I-0.4732 J0.084
N13840 G3 X2.5204 Y-0.4141 I0.0236 J-0.0083
N13845 G1 X2.5216 Y-0.4107 Z0.3753
N13850 X2.5228 Y-0.4073 Z0.376
N13855 X2.524 Y-0.4041 Z0.3772
N13860 X2.525 Y-0.4011 Z0.3789
N13865 X2.526 Y-0.3983 Z0.381
N13870 X2.5269 Y-0.3958 Z0.3835
N13875 X2.5276 Y-0.3938 Z0.3864
N13880 X2.5282 Y-0.3921 Z0.3896
N13885 X2.5286 Y-0.3909 Z0.393
N13890 X2.5289 Y-0.3901 Z0.3965
N13895 X2.529 Y-0.3899 Z0.4001
N13900 G0 Z1.45
N13905 X2.1734 Y0.8466
N13910 Z0.4251
N13915 G1 Z0.4001 F60.
N13920 X2.1735 Y0.8463 Z0.3962
N13925 X2.1738 Y0.8455 Z0.3924
N13930 X2.1743 Y0.8441 Z0.3888
N13935 X2.175 Y0.8421 Z0.3854
N13940 X2.1758 Y0.8397 Z0.3824
N13945 X2.1769 Y0.8369 Z0.3799
N13950 X2.178 Y0.8338 Z0.3778
N13955 X2.1792 Y0.8304 Z0.3763
N13960 X2.1805 Y0.8268 Z0.3754
N13965 X2.1819 Y0.8231 Z0.3751
N13970 G3 X2.2261 Y0.7582 I0.1488 J0.0538
N13975 X2.6626 Y0.5908 I0.3528 J0.267
N13980 X3.4857 Y0.5748 I0.5382 J6.5435
N13985 G1 X14.8072
N13990 G2 X15.1164 Y0.4654 I-0.0387 J-0.6009
N13995 G3 X15.2423 Y0.5439 I-0.4425 J0.8495
N14000 X15.2143 Y0.5853 I-0.0143 J0.0205
N14005 G1 X15.2113 Y0.5832 Z0.3753
N14010 X15.2084 Y0.5812 Z0.376
N14015 X15.2056 Y0.5792 Z0.3772
N14020 X15.203 Y0.5774 Z0.3789
N14025 X15.2005 Y0.5757 Z0.381
N14030 X15.1984 Y0.5742 Z0.3835
N14035 X15.1966 Y0.573 Z0.3864
N14040 X15.1952 Y0.572 Z0.3896
N14045 X15.1941 Y0.5712 Z0.393
N14050 X15.1935 Y0.5708 Z0.3965
N14055 X15.1932 Y0.5706 Z0.4001
N14060 G0 Z1.45
N14065 X15.1232 Y-0.5228
N14070 Z0.4251
N14075 G1 Z0.4001 F60.
N14080 X15.1233 Y-0.5225 Z0.3962
N14085 X15.1234 Y-0.5216 Z0.3924
N14090 X15.1235 Y-0.5201 Z0.3888
N14095 X15.1238 Y-0.5181 Z0.3854
N14100 X15.1241 Y-0.5155 Z0.3824
N14105 X15.1244 Y-0.5126 Z0.3799
N14110 X15.1248 Y-0.5092 Z0.3778
N14115 X15.1252 Y-0.5056 Z0.3763
N14120 X15.1256 Y-0.5018 Z0.3754
N14125 X15.1261 Y-0.498 Z0.3751
N14130 G3 X15.1266 Y-0.4194 I-0.3622 J0.0418
N14135 X14.9067 Y-0.212 I-0.2004 J0.0078
N14140 X14.2953 Y-0.1743 I-0.4545 J-2.3922
N14145 G1 X14.086 Y-0.1745
N14150 X13.635 Y-0.1748
N14155 X13.2163 Y-0.1749
N14160 X2.8124
N14165 G3 X2.5494 Y-0.1931 I-0.0654 J-0.9688
N14170 X2.4989 Y-0.3217 I0.5406 J-0.2866
N14175 X2.5468 Y-0.336 I0.0241 J-0.0068
N14180 G1 X2.5478 Y-0.3325 Z0.3753
N14185 X2.5487 Y-0.3291 Z0.376
N14190 X2.5497 Y-0.3258 Z0.3772
N14195 X2.5505 Y-0.3227 Z0.3789
N14200 X2.5513 Y-0.3199 Z0.381
N14205 X2.5521 Y-0.3174 Z0.3835
N14210 X2.5527 Y-0.3153 Z0.3864
N14215 X2.5531 Y-0.3136 Z0.3896
N14220 X2.5535 Y-0.3123 Z0.393
N14225 X2.5537 Y-0.3116 Z0.3965
N14230 X2.5538 Y-0.3113 Z0.4001
N14235 G0 Z1.45
N14240 X2.2591 Y0.78
N14245 Z0.4251
N14250 G1 Z0.4001 F60.
N14255 X2.2592 Y0.7797 Z0.3962
N14260 X2.2593 Y0.7788 Z0.3924
N14265 X2.2595 Y0.7773 Z0.3888
N14270 X2.2598 Y0.7753 Z0.3854
N14275 X2.2602 Y0.7728 Z0.3824
N14280 X2.2607 Y0.7698 Z0.3799
N14285 X2.2612 Y0.7665 Z0.3778
N14290 X2.2617 Y0.7629 Z0.3763
N14295 X2.2623 Y0.7591 Z0.3754
N14300 X2.2629 Y0.7553 Z0.3751
N14305 G3 X2.2936 Y0.683 I0.1565 J0.0238
N14310 X2.7219 Y0.4833 I0.3851 J0.2669
N14315 X3.5593 Y0.4748 I0.5866 J16.6031
N14320 G1 X3.8008
N14325 X14.704
N14330 G2 X15.091 Y0.3875 I-0.1749 J-1.678
N14335 G3 X15.1299 Y0.4344 I-0.0615 J0.0906
N14340 X15.0819 Y0.4484 I-0.0241 J0.0067
N14345 G1 X15.081 Y0.4449 Z0.3753
N14350 X15.08 Y0.4415 Z0.376
N14355 X15.0791 Y0.4382 Z0.3772
N14360 X15.0782 Y0.4351 Z0.3789
N14365 X15.0774 Y0.4323 Z0.381
N14370 X15.0767 Y0.4298 Z0.3835
N14375 X15.0762 Y0.4276 Z0.3864
N14380 X15.0757 Y0.4259 Z0.3896
N14385 X15.0753 Y0.4247 Z0.393
N14390 X15.0751 Y0.4239 Z0.3965
N14395 Y0.4237 Z0.4001
N14400 G0 Z1.45
N14405 X15.0901 Y-0.4638
N14410 Z0.4251
N14415 G1 Z0.4001 F60.
N14420 X15.0902 Y-0.4636 Z0.3962
N14425 X15.0907 Y-0.4628 Z0.3924
N14430 X15.0915 Y-0.4615 Z0.3888
N14435 X15.0925 Y-0.4597 Z0.3854
N14440 X15.0938 Y-0.4575 Z0.3824
N14445 X15.0954 Y-0.455 Z0.3799
N14450 X15.0971 Y-0.4521 Z0.3778
N14455 X15.0989 Y-0.449 Z0.3763
N14460 X15.1009 Y-0.4457 Z0.3754
N14465 X15.1029 Y-0.4424 Z0.3751
N14470 G3 X15.125 Y-0.367 I-0.136 J0.0809
N14475 X15.1133 Y-0.2648 I-0.2699 J0.0209
N14480 X15.0666 Y-0.2823 I-0.0228 J-0.0103
N14485 G1 X15.0682 Y-0.2873
N14490 G3 X15.1169 Y-0.2771 I0.0238 J0.0077
N14495 G1 X15.1101 Y-0.2646
N14500 X15.1029 Y-0.2523
N14505 X15.095 Y-0.2404
N14510 X15.0867 Y-0.2288
N14515 X15.0779 Y-0.2177
N14520 X15.0686 Y-0.2069
N14525 X15.0588 Y-0.1965
N14530 X15.0486 Y-0.1865
N14535 X15.038 Y-0.1771
N14540 X15.027 Y-0.168
N14545 X15.0155 Y-0.1595
N14550 X15.0038 Y-0.1515
N14555 X14.9917 Y-0.144
N14560 X14.9792 Y-0.1371
N14565 X14.9665 Y-0.1306
N14570 X14.9535 Y-0.1248
N14575 X14.9403 Y-0.1195
N14580 X14.9268 Y-0.1148
N14585 X14.9132 Y-0.1107
N14590 X14.8994 Y-0.1072
N14595 X14.8854 Y-0.1044
N14600 X14.8713 Y-0.1021
N14605 X14.8572 Y-0.1004
N14610 X14.843 Y-0.0994
N14615 X14.8288 Y-0.0989
N14620 X14.8145 Y-0.0991
N14625 X14.8003 Y-0.1
N14630 X14.7861 Y-0.1014
N14635 G3 X14.1574 Y-0.0746 I-0.4685 J-3.5957
N14640 G1 X13.8836 Y-0.0747
N14645 X13.7386 Y-0.0748
N14650 X13.5776
N14655 X13.1911 Y-0.0749
N14660 X2.8838
N14665 G3 X2.6042 Y-0.0895 I-0.0692 J-1.3606
N14670 G2 X2.5422 Y-0.2097 I-3.6195 J1.7906
N14675 G3 X2.5903 Y-0.2235 I0.0241 J-0.0066
N14680 G1 X2.5912 Y-0.22 Z0.3753
N14685 X2.5922 Y-0.2166 Z0.376
N14690 X2.5931 Y-0.2133 Z0.3772
N14695 X2.5939 Y-0.2102 Z0.3789
N14700 X2.5947 Y-0.2073 Z0.381
N14705 X2.5954 Y-0.2048 Z0.3835
N14710 X2.596 Y-0.2027 Z0.3864
N14715 X2.5964 Y-0.201 Z0.3896
N14720 X2.5968 Y-0.1997 Z0.393
N14725 X2.597 Y-0.199 Z0.3965
N14730 Y-0.1987 Z0.4001
N14735 G0 Z1.45
N14740 X2.3364 Y0.6895
N14745 Z0.4251
N14750 G1 Z0.4001 F60.
N14755 Y0.6892 Z0.3962
N14760 X2.3365 Y0.6883 Z0.3924
N14765 X2.3367 Y0.6868 Z0.3888
N14770 X2.337 Y0.6848 Z0.3854
N14775 X2.3373 Y0.6823 Z0.3824
N14780 X2.3377 Y0.6793 Z0.3799
N14785 X2.3381 Y0.676 Z0.3778
N14790 X2.3385 Y0.6724 Z0.3763
N14795 X2.339 Y0.6686 Z0.3754
N14800 X2.3395 Y0.6647 Z0.3751
N14805 G3 X2.3684 Y0.5917 I0.157 J0.0199
N14810 X2.7244 Y0.399 I0.3031 J0.1349
N14815 X3.8208 Y0.3748 I0.7204 J7.7908
N14820 G1 X14.6112
N14825 G2 X15.0197 Y0.3007 I-0.0128 J-1.2345
N14830 G3 X15.125 Y0.3707 I0.0167 J0.0891
N14835 G1 Y0.397
N14840 G3 X15.075 Y0.396 I-0.025 J-0.0008
N14845 G1 X15.0751 Y0.3923 Z0.3753
N14850 X15.0753 Y0.3888 Z0.376
N14855 X15.0754 Y0.3854 Z0.3772
N14860 X15.0755 Y0.3821 Z0.3789
N14865 X15.0756 Y0.3792 Z0.381
N14870 X15.0757 Y0.3766 Z0.3835
N14875 Y0.3744 Z0.3864
N14880 X15.0758 Y0.3726 Z0.3896
N14885 Y0.3713 Z0.393
N14890 X15.0759 Y0.3706 Z0.3965
N14895 Y0.3703 Z0.4001
N14900 G0 Z1.45
N14905 X15.1145 Y-0.3575
N14910 Z0.4251
N14915 G1 Z0.4001 F60.
N14920 Y-0.3571 Z0.3962
N14925 X15.1146 Y-0.3562 Z0.3924
N14930 X15.1148 Y-0.3548 Z0.3888
N14935 X15.1151 Y-0.3527 Z0.3854
N14940 X15.1155 Y-0.3502 Z0.3824
N14945 X15.1159 Y-0.3472 Z0.3799
N14950 X15.1163 Y-0.3439 Z0.3778
N14955 X15.1168 Y-0.3403 Z0.3763
N14960 X15.1174 Y-0.3366 Z0.3754
N14965 X15.1179 Y-0.3327 Z0.3751
N14970 G3 X15.1091 Y-0.2546 I-0.1568 J0.0218
N14975 G1 X15.1044 Y-0.2404
N14980 X15.0992 Y-0.2263
N14985 X15.0934 Y-0.2125
N14990 X15.087 Y-0.199
N14995 X15.08 Y-0.1857
N15000 X15.0725 Y-0.1727
N15005 X15.0645 Y-0.16
N15010 X15.056 Y-0.1477
N15015 X15.047 Y-0.1357
N15020 X15.0374 Y-0.1241
N15025 X15.0275 Y-0.1129
N15030 X15.017 Y-0.1022
N15035 X15.0061 Y-0.0918
N15040 X14.9948 Y-0.082
N15045 X14.9831 Y-0.0726
N15050 X14.9711 Y-0.0637
N15055 X14.9586 Y-0.0553
N15060 X14.9459 Y-0.0474
N15065 X14.9328 Y-0.0401
N15070 X14.9194 Y-0.0333
N15075 X14.9058 Y-0.0271
N15080 X14.8919 Y-0.0214
N15085 X14.8778 Y-0.0163
N15090 X14.8635 Y-0.0118
N15095 X14.849 Y-0.0079
N15100 X14.8344 Y-0.0046
N15105 X14.8197 Y-0.0019
N15110 X14.8048 Y0.0002
N15115 X14.7899 Y0.0016
N15120 X14.7749 Y0.0025
N15125 X14.7599 Y0.0027
N15130 X14.7449 Y0.0023
N15135 X14.73 Y0.0013
N15140 X14.7151 Y-0.0003
N15145 G3 X14.0379 Y0.0253 I-0.4961 J-4.1585
N15150 G1 X13.6836 Y0.0252
N15155 X13.4742
N15160 X13.1199 Y0.0251
N15165 X2.9576
N15170 G3 X2.6443 Y0.0093 I-0.0782 J-1.5708
N15175 G2 X2.5917 Y-0.1152 I-1.1116 J0.3965
N15180 G3 X2.6374 Y-0.1353 I0.023 J-0.0098
N15185 G1 X2.6389 Y-0.132 Z0.3753
N15190 X2.6403 Y-0.1287 Z0.376
N15195 X2.6416 Y-0.1255 Z0.3772
N15200 X2.6428 Y-0.1226 Z0.3789
N15205 X2.644 Y-0.1199 Z0.381
N15210 X2.645 Y-0.1175 Z0.3835
N15215 X2.6459 Y-0.1154 Z0.3864
N15220 X2.6466 Y-0.1138 Z0.3896
N15225 X2.6471 Y-0.1126 Z0.393
N15230 X2.6474 Y-0.1119 Z0.3965
N15235 X2.6475 Y-0.1117 Z0.4001
N15240 G0 Z1.45
N15245 X2.3959 Y0.6187
N15250 Z0.4251
N15255 G1 Z0.4001 F60.
N15260 X2.3958 Y0.6183 Z0.3962
N15265 Y0.6174 Z0.3924
N15270 X2.3957 Y0.6159 Z0.3888
N15275 X2.3956 Y0.6139 Z0.3854
N15280 X2.3955 Y0.6113 Z0.3824
N15285 X2.3954 Y0.6084 Z0.3799
N15290 X2.3952 Y0.605 Z0.3778
N15295 X2.3951 Y0.6014 Z0.3763
N15300 X2.3949 Y0.5976 Z0.3754
N15305 X2.3947 Y0.5937 Z0.3751
N15310 G3 X2.4107 Y0.5168 I0.1581 J-0.0072
N15315 X2.7346 Y0.299 I0.2995 J0.0957
N15320 X3.5318 Y0.2717 I0.5367 J4.0218
N15325 G1 X3.6127 Y0.2659
N15330 X3.7254
N15335 X3.9187 Y0.2658
N15340 X14.5158
N15345 G2 X14.9901 Y0.2104 I-0.5264 J-6.5658
N15350 G1 X14.9984 Y0.2091
N15355 X15.0067 Y0.2084
N15360 X15.015 Y0.2083
N15365 X15.0234 Y0.2088
N15370 X15.0316 Y0.2099
N15375 X15.0398 Y0.2116
N15380 X15.0478 Y0.2138
N15385 X15.0557 Y0.2167
N15390 X15.0633 Y0.2201
N15395 X15.0707 Y0.224
N15400 X15.0777 Y0.2284
N15405 X15.0845 Y0.2333
N15410 X15.0908 Y0.2388
N15415 X15.0968 Y0.2446
N15420 X15.1023 Y0.2508
N15425 X15.1074 Y0.2575
N15430 X15.112 Y0.2645
N15435 X15.116 Y0.2717
N15440 X15.1195 Y0.2793
N15445 X15.1225 Y0.2871
N15450 X15.125 Y0.2951
N15455 X15.1268 Y0.3032
N15460 X15.128 Y0.3115
N15465 X15.1287 Y0.3198
N15470 X15.1288 Y0.3281
N15475 X15.1282 Y0.3364
N15480 X15.1271 Y0.3447
N15485 X15.1254 Y0.3529
N15490 X15.1231 Y0.3609
N15495 X15.1202 Y0.3687
N15500 X15.1204 Y0.3718
N15505 X15.1201 Y0.375
N15510 X15.1193 Y0.378
N15515 X15.118 Y0.381
N15520 X15.1162 Y0.3837
N15525 X15.1141 Y0.3862
N15530 X15.1115 Y0.3883
N15535 X15.1087 Y0.3901
N15540 X15.1056 Y0.3914
N15545 X15.1022 Y0.3922
N15550 X15.0988 Y0.3925
N15555 X15.0953 Y0.3923
N15560 X15.0919 Y0.3915
N15565 X15.0886 Y0.3902
N15570 X15.0855 Y0.3884
N15575 X15.0826 Y0.3861
N15580 X15.0802 Y0.3834
N15585 X15.0781 Y0.3804
N15590 X15.0765 Y0.377
N15595 X15.0755 Y0.3734
N15600 X15.075 Y0.3696
N15605 X15.0751 Y0.366 Z0.3753
N15610 X15.0753 Y0.3624 Z0.376
N15615 X15.0754 Y0.359 Z0.3772
N15620 X15.0755 Y0.3558 Z0.3789
N15625 X15.0756 Y0.3528 Z0.381
N15630 X15.0757 Y0.3502 Z0.3835
N15635 X15.0758 Y0.348 Z0.3864
N15640 Y0.3463 Z0.3896
N15645 X15.0759 Y0.345 Z0.393
N15650 Y0.3442 Z0.3965
N15655 Y0.3439 Z0.4001
N15660 G0 Z1.45
N15665 X15.0633 Y-0.2384
N15670 Z0.4251
N15675 G1 Z0.4001 F60.
N15680 Y-0.238 Z0.3962
N15685 X15.0634 Y-0.2371 Z0.3924
N15690 Y-0.2356 Z0.3888
N15695 X15.0635 Y-0.2336 Z0.3854
N15700 X15.0637 Y-0.231 Z0.3824
N15705 X15.0638 Y-0.2281 Z0.3799
N15710 X15.064 Y-0.2247 Z0.3778
N15715 X15.0641 Y-0.2211 Z0.3763
N15720 X15.0643 Y-0.2173 Z0.3754
N15725 X15.0645 Y-0.2134 Z0.3751
N15730 G3 X15.0487 Y-0.1364 I-0.1581 J0.0076
N15735 G2 X14.998 Y0.0422 I0.2064 J0.1551
N15740 G3 X15.1087 Y0.2537 I-1.9391 J1.1497
N15745 X15.0622 Y0.2721 I-0.0234 J0.0089
N15750 G1 X15.0609 Y0.2687 Z0.3753
N15755 X15.0596 Y0.2654 Z0.376
N15760 X15.0584 Y0.2622 Z0.3772
N15765 X15.0573 Y0.2592 Z0.3789
N15770 X15.0562 Y0.2564 Z0.381
N15775 X15.0553 Y0.254 Z0.3835
N15780 X15.0545 Y0.2519 Z0.3864
N15785 X15.0539 Y0.2503 Z0.3896
N15790 X15.0534 Y0.2491 Z0.393
N15795 X15.0532 Y0.2484 Z0.3965
N15800 X15.0531 Y0.2481 Z0.4001
N15805 G0 Z1.45
N15810 X2.4437 Y0.5292
N15815 Z0.4251
N15820 G1 Z0.4001 F60.
N15825 X2.4436 Y0.5289 Z0.3962
N15830 Y0.528 Z0.3924
N15835 X2.4435 Y0.5265 Z0.3888
N15840 X2.4434 Y0.5244 Z0.3854
N15845 X2.4433 Y0.5219 Z0.3824
N15850 X2.4432 Y0.5189 Z0.3799
N15855 X2.443 Y0.5156 Z0.3778
N15860 X2.4429 Y0.512 Z0.3763
N15865 X2.4427 Y0.5081 Z0.3754
N15870 X2.4425 Y0.5042 Z0.3751
N15875 G3 X2.4585 Y0.4273 I0.1581 J-0.0072
N15880 X2.7614 Y0.1973 I0.2841 J0.0596
N15885 G1 X2.7637 Y0.1963
N15890 X2.7662 Y0.1957
N15895 X2.7688 Y0.1955
N15900 X2.7714 Y0.1957
N15905 X2.7741 Y0.1964
N15910 X2.7767 Y0.1974
N15915 X2.7792 Y0.1989
N15920 X2.7815 Y0.2009
N15925 X2.7835 Y0.2032
N15930 X2.7851 Y0.2059
N15935 X2.7863 Y0.2088
N15940 X2.7871 Y0.212
N15945 X2.7874 Y0.2154
N15950 X2.7871 Y0.2188
N15955 X2.7863 Y0.2222
N15960 X2.785 Y0.2256
N15965 X2.7831 Y0.2287
N15970 X2.7807 Y0.2316
N15975 X2.7778 Y0.2341
N15980 X2.7698 Y0.2385
N15985 X2.5444 Y0.3639
N15990 X2.5274 Y0.3733
N15995 G3 X2.4912 Y0.3445 I-0.0122 J-0.0218
N16000 X2.5582 Y0.1798 I1.5064 J0.516
N16005 X2.6009 Y0.205 I0.0199 J0.0151
N16010 G1 X2.5986 Y0.2103
N16015 X2.5758 Y0.2616
N16020 X2.5746 Y0.2645
N16025 G3 X2.5278 Y0.2472 I-0.0229 J-0.0101
N16030 X2.6208 Y0.0524 I2.9142 J1.2731
N16035 X2.6647 Y0.0509 I0.0223 J0.0112
N16040 G1 X2.6657 Y0.0537 Z0.3753
N16045 X2.6668 Y0.0565 Z0.3759
N16050 X2.6678 Y0.0592 Z0.3767
N16055 X2.668 Y0.0615 Z0.3778
N16060 X2.6682 Y0.0637 Z0.379
N16065 X2.6677 Y0.0663 Z0.3809
N16070 X2.6673 Y0.0686 Z0.3832
N16075 X2.6669 Y0.0706 Z0.3858
N16080 X2.6666 Y0.0723 Z0.3886
N16085 X2.6661 Y0.0735 Z0.3914
N16090 X2.6658 Y0.0743 Z0.3943
N16095 X2.6656 Y0.0747 Z0.3972
N16100 X2.6655 Y0.0749 Z0.4001
N16105 G0 Z1.45
N16110 X16.1752 Y-0.2469
N16115 Z0.4375
N16120 G1 Z0.4125 F60.
N16125 X16.175 Y-0.2471 Z0.4086
N16130 X16.1744 Y-0.2478 Z0.4048
N16135 X16.1734 Y-0.249 Z0.4012
N16140 X16.172 Y-0.2505 Z0.3978
N16145 X16.1703 Y-0.2524 Z0.3948
N16150 X16.1684 Y-0.2546 Z0.3923
N16155 X16.1661 Y-0.2571 Z0.3902
N16160 X16.1637 Y-0.2598 Z0.3887
N16165 X16.1612 Y-0.2627 Z0.3878
N16170 X16.1586 Y-0.2656 Z0.3875
N16175 G3 X16.113 Y-0.3295 I0.2723 J-0.2424
N16180 G2 X16.0235 Y-0.3998 I-0.1169 J0.0567
N16185 G1 X15.4086 Y-0.5901
N16190 G2 X15.3037 Y-0.5764 I-0.0377 J0.1202
N16195 G1 X15.1883 Y-0.5018
N16200 X15.1837 Y-0.4988
N16205 G3 X15.1587 Y-0.4983 I-0.0129 J-0.0214
N16210 G2 X15.1243 Y-0.4877 I-0.0121 J0.0219
N16215 G1 X15.1188 Y-0.4769
N16220 X15.102 Y-0.4435
N16225 G2 X15.1029 Y-0.4195 I0.0223 J0.0112
N16230 G3 X15.125 Y-0.3441 I-0.136 J0.0809
N16235 X15.0505 Y-0.03 I-2.5765 J-0.4451
N16240 G2 X15.1169 Y0.2546 I0.9533 J-0.0722
N16245 G3 X15.125 Y0.3295 I-6.1303 J0.7047
N16250 X15.075 Y0.3285 I-0.025 J-0.0009
N16255 G1 X15.0751 Y0.3249 Z0.3877
N16260 X15.0753 Y0.3213 Z0.3884
N16265 X15.0754 Y0.3179 Z0.3896
N16270 X15.0755 Y0.3147 Z0.3912
N16275 X15.0756 Y0.3117 Z0.3934
N16280 X15.0757 Y0.3091 Z0.3959
N16285 X15.0758 Y0.3069 Z0.3988
N16290 Y0.3052 Z0.4019
N16295 X15.0759 Y0.3039 Z0.4053
N16300 Y0.3031 Z0.4089
N16305 Y0.3028 Z0.4125
N16310 G0 Z1.45
N16315 X15.0815 Y0.3409
N16320 Z0.4375
N16325 G1 Z0.4125 F60.
N16330 X15.0816 Y0.3412 Z0.4086
N16335 X15.0821 Y0.342 Z0.4048
N16340 X15.083 Y0.3432 Z0.4012
N16345 X15.0841 Y0.3449 Z0.3978
N16350 X15.0855 Y0.347 Z0.3948
N16355 X15.0871 Y0.3495 Z0.3923
N16360 X15.089 Y0.3523 Z0.3902
N16365 X15.091 Y0.3554 Z0.3887
N16370 X15.0931 Y0.3585 Z0.3878
N16375 X15.0952 Y0.3618 Z0.3875
N16380 G3 X15.1312 Y0.4316 I-0.3043 J0.2008
N16385 G2 X15.1883 Y0.5017 I0.1201 J-0.0397
N16390 X15.3561 Y0.5951 I0.2399 J-0.2336
N16395 X15.4086 Y0.5901 I0.0146 J-0.1253
N16400 G1 X16.0235 Y0.3998
N16405 X16.0328 Y0.397
N16410 G3 X16.0468 Y0.445 I0.0067 J0.0241
N16415 G1 X16.0433 Y0.4459 Z0.3877
N16420 X16.0398 Y0.4469 Z0.3884
N16425 X16.0365 Y0.4478 Z0.3895
N16430 X16.0334 Y0.4486 Z0.3912
N16435 X16.0306 Y0.4494 Z0.3934
N16440 X16.0281 Y0.4501 Z0.3959
N16445 X16.026 Y0.4507 Z0.3988
N16450 X16.0243 Y0.4512 Z0.4019
N16455 X16.023 Y0.4515 Z0.4053
N16460 X16.0223 Y0.4517 Z0.4089
N16465 X16.022 Y0.4518 Z0.4125
N16470 G0 Z1.45
N16475 X0.6749 Y-0.8068
N16480 Z0.4375
N16485 G1 Z0.4125 F60.
N16490 X0.6752 Y-0.8066 Z0.4086
N16495 X0.676 Y-0.8062 Z0.4048
N16500 X0.6772 Y-0.8054 Z0.4012
N16505 X0.679 Y-0.8043 Z0.3978
N16510 X0.6811 Y-0.8029 Z0.3948
N16515 X0.6837 Y-0.8014 Z0.3923
N16520 X0.6865 Y-0.7996 Z0.3902
N16525 X0.6896 Y-0.7977 Z0.3887
N16530 X0.6928 Y-0.7957 Z0.3878
N16535 X0.6961 Y-0.7936 Z0.3875
N16540 G3 X0.7579 Y-0.7451 I-0.1928 J0.3094
N16545 G1 X0.7385 Y-0.7224
N16550 X0.7196 Y-0.6992
N16555 X0.7012 Y-0.6757
N16560 X0.6832 Y-0.6518
N16565 X0.6658 Y-0.6275
N16570 X0.6489 Y-0.6028
N16575 X0.6325 Y-0.5778
N16580 X0.6166 Y-0.5525
N16585 X0.6013 Y-0.5268
N16590 X0.5865 Y-0.5008
N16595 X0.5722 Y-0.4746
N16600 X0.5585 Y-0.448
N16605 X0.5454 Y-0.4211
N16610 X0.5328 Y-0.394
N16615 X0.5208 Y-0.3666
N16620 X0.5094 Y-0.339
N16625 X0.4986 Y-0.3111
N16630 X0.4883 Y-0.2831
N16635 X0.4786 Y-0.2548
N16640 X0.4696 Y-0.2263
N16645 X0.4611 Y-0.1976
N16650 X0.4532 Y-0.1688
N16655 X0.4459 Y-0.1398
N16660 X0.4393 Y-0.1106
N16665 X0.4332 Y-0.0813
N16670 X0.4278 Y-0.052
N16675 X0.423 Y-0.0224
N16680 X0.4188 Y0.0072
N16685 X0.4152 Y0.0368
N16690 X0.4122 Y0.0666
N16695 G3 X0.5402 Y0.42 I-2.6876 J1.1731
N16700 G2 X2.5306 Y0.186 I0.9593 J-0.4227
N16705 X2.5844 Y-0.0374 I-0.316 J-0.1942
N16710 G1 X2.5735 Y-0.0765
N16715 X2.562 Y-0.1154
N16720 X2.55 Y-0.1541
N16725 X2.5374 Y-0.1926
N16730 X2.5243 Y-0.2309
N16735 X2.5106 Y-0.2691
