%
(FINGER)
(38 END MILL 3 MINUTES)
(T3  D=0.375 CR=0. - ZMIN=-0.28 - FLAT END MILL)
N10 G90 G94 G17 G91.1
N15 G20
N20 G53 G0 Z0.
(2D CONTOUR1)
N25 M9
N30 T3 M6
N35 S1500 M3
N40 G54
N45 M8
N55 G0 X0.3875 Y0.0875
N60 G43 Z0.3 H3
N65 G0 Z0.1894
N70 G1 Z-0.1125 F1.
N75 G19 G2 Y0.05 Z-0.15 J-0.0375 K0.
N80 G1 Y0.0125 F10.
N85 G17 G3 X0.425 Y-0.025 I0.0375 J0.
N90 G2 X0.7538 Y-0.1231 I0. J-0.6 F20.
N95 X0.6646 Y-1.1751 I-0.3288 J-0.5019
N100 G3 X0.6496 Y-1.198 I0.01 J-0.0229
N105 G1 X0.6483 Y-3.0003
N110 G2 X0.2983 Y-3.35 I-0.35 J0.0003
N115 G1 X0.175
N120 G2 X-0.175 Y-3. I0. J0.35
N125 G1 Y-0.625
N130 G2 X0.1322 Y-0.1013 I0.6 J0.
N135 X0.425 Y-0.025 I0.2928 J-0.5237
N140 G3 X0.4625 Y0.0125 I0. J0.0375 F10.
N145 G1 Y0.05
N150 G19 G3 Y0.0875 Z-0.1125 J0. K0.0375
N155 G0 Z0.1
N160 X0.3875
N165 G1 Z0.0394 F10.
N170 Z-0.2425 F1.
N175 G2 Y0.05 Z-0.28 J-0.0375 K0.
N180 G1 Y0.0125 F10.
N185 G17 G3 X0.425 Y-0.025 I0.0375 J0.
N190 G2 X0.6646 Y-1.1751 I0. J-0.6 F20.
N195 G3 X0.6496 Y-1.198 I0.01 J-0.0229
N200 G1 X0.6483 Y-3.0003
N205 G2 X0.2983 Y-3.35 I-0.35 J0.0003
N210 G1 X0.175
N215 G2 X-0.175 Y-3. I0. J0.35
N220 G1 Y-0.625
N225 G2 X0.425 Y-0.025 I0.6 J0.
N230 X0.4536 Y-0.0445 I0. J-0.0307
N235 G3 X0.4812 Y-0.0653 I0.0309 J0.0122
N240 G2 X0.7333 Y-0.1545 I-0.0562 J-0.5597
N245 X0.6496 Y-1.1407 I-0.3083 J-0.4705
N250 G3 X0.6121 Y-1.198 I0.025 J-0.0573
N255 G1 X0.6108 Y-3.0002
N260 G2 X0.2983 Y-3.3125 I-0.3125 J0.0002
N265 G1 X0.175
N270 G2 X-0.1375 Y-3. I0. J0.3125
N275 G1 Y-0.625
N280 G2 X0.1504 Y-0.1341 I0.5625 J0.
N285 X0.7333 Y-0.1545 I0.2746 J-0.4909
N290 X0.6496 Y-1.1407 I-0.3083 J-0.4705
N295 G3 X0.6121 Y-1.198 I0.025 J-0.0573
N300 G1 X0.6108 Y-3.0002
N305 G2 X0.2983 Y-3.3125 I-0.3125 J0.0002
N310 G1 X0.175
N315 G2 X-0.1375 Y-3. I0. J0.3125
N320 G1 Y-0.625
N325 G2 X0.1504 Y-0.1341 I0.5625 J0.
N330 X0.4812 Y-0.0653 I0.2746 J-0.4909
N335 G3 X0.5222 Y-0.0317 I0.0037 J0.0373 F10.
N340 G1 X0.526 Y0.0056
N345 X0.5264 Y0.0101 Z-0.2797
N350 X0.5268 Y0.0145 Z-0.2789
N355 X0.5273 Y0.0188 Z-0.2776
N360 X0.5277 Y0.0229 Z-0.2757
N365 X0.5281 Y0.0268 Z-0.2734
N370 X0.5284 Y0.0303 Z-0.2706
N375 X0.5288 Y0.0335 Z-0.2674
N380 X0.529 Y0.0363 Z-0.2638
N385 X0.5293 Y0.0386 Z-0.2599
N390 X0.5295 Y0.0405 Z-0.2558
N395 X0.5296 Y0.0418 Z-0.2515
N400 X0.5297 Y0.0426 Z-0.247
N405 Y0.0429 Z-0.2425
N410 G0 Z0.3
(FACE2)
N420 M8
N425 G0 Z0.6
N430 X0.6671 Y-2.9892
N435 Z0.2
N440 G1 Z0.0075 F10.
N445 G18 G3 X0.6296 Z-0.03 I-0.0375 K0.
N450 G1 X0.4235
N455 X0.05 F20.
N460 G17 G2 Y-2.6695 I0. J0.1598
N465 G1 X0.4237
N470 X0.4239
N475 G3 Y-2.3499 I0. J0.1598
N480 G1 X0.05
N485 G2 Y-2.0302 I0. J0.1598
N490 G1 X0.4241
N495 X0.4244
N500 G3 Y-1.7105 I0. J0.1598
N505 G1 X0.05
N510 G2 Y-1.3908 I0. J0.1598
N515 G1 X0.4246
N520 X0.6964
N525 G3 Y-1.0711 I0. J0.1598
N530 G1 X0.05
N535 G2 Y-0.7514 I0. J0.1598
N540 G1 X0.8
N545 G3 Y-0.4317 I0. J0.1598
N550 G1 X0.7998
N555 X0.0502
N560 G18 G3 X0.0127 Z0.0075 I0. K0.0375 F10.
N565 G0 Z0.6
N570 G17
N575 M9
N580 G53 G0 Z0.
N585 M30
%
