%
(FINGER)
(38 END MILL 3 MINUTES)
(T3  D=0.375 CR=0. - ZMIN=-0.28 - FLAT END MILL)
N10 G90 G94 G17 G91.1
N15 G20
N20 G53 G0 Z0.
(2D CONTOUR1)
N25 M9
N30 T3 M6
N35 S1500 M3
N40 G54
N45 M8
N55 G0 X-0.2375 Y0.3875
N60 G43 Z0.3 H3
N65 G0 Z0.1894
N70 G1 Z-0.1125 F1.
N75 G18 G2 X-0.2 Z-0.15 I0.0375 K0.
N80 G1 X-0.1625 F10.
N85 G17 G3 X-0.125 Y0.425 I0. J0.0375
N90 G2 X-0.0269 Y0.7538 I0.6 J0. F20.
N95 X1.0251 Y0.6646 I0.5019 J-0.3288
N100 G3 X1.048 Y0.6496 I0.0229 J0.01
N105 G1 X2.8503 Y0.6483
N110 G2 X3.2 Y0.2983 I-0.0003 J-0.35
N115 G1 Y0.175
N120 G2 X2.85 Y-0.175 I-0.35 J0.
N125 G1 X0.475
N130 G2 X-0.0487 Y0.1322 I0. J0.6
N135 X-0.125 Y0.425 I0.5237 J0.2928
N140 G3 X-0.1625 Y0.4625 I-0.0375 J0. F10.
N145 G1 X-0.2
N150 G18 G3 X-0.2375 Z-0.1125 I0. K0.0375
N155 G0 Z0.1
N160 Y0.3875
N165 G1 Z0.0394 F10.
N170 Z-0.2425 F1.
N175 G2 X-0.2 Z-0.28 I0.0375 K0.
N180 G1 X-0.1625 F10.
N185 G17 G3 X-0.125 Y0.425 I0. J0.0375
N190 G2 X1.0251 Y0.6646 I0.6 J0. F20.
N195 G3 X1.048 Y0.6496 I0.0229 J0.01
N200 G1 X2.8503 Y0.6483
N205 G2 X3.2 Y0.2983 I-0.0003 J-0.35
N210 G1 Y0.175
N215 G2 X2.85 Y-0.175 I-0.35 J0.
N220 G1 X0.475
N225 G2 X-0.125 Y0.425 I0. J0.6
N230 X-0.1055 Y0.4536 I0.0307 J0.
N235 G3 X-0.0847 Y0.4812 I-0.0122 J0.0309
N240 G2 X0.0045 Y0.7333 I0.5597 J-0.0562
N245 X0.9907 Y0.6496 I0.4705 J-0.3083
N250 G3 X1.048 Y0.6121 I0.0573 J0.025
N255 G1 X2.8502 Y0.6108
N260 G2 X3.1625 Y0.2983 I-0.0002 J-0.3125
N265 G1 Y0.175
N270 G2 X2.85 Y-0.1375 I-0.3125 J0.
N275 G1 X0.475
N280 G2 X-0.0159 Y0.1504 I0. J0.5625
N285 X0.0045 Y0.7333 I0.4909 J0.2746
N290 X0.9907 Y0.6496 I0.4705 J-0.3083
N295 G3 X1.048 Y0.6121 I0.0573 J0.025
N300 G1 X2.8502 Y0.6108
N305 G2 X3.1625 Y0.2983 I-0.0002 J-0.3125
N310 G1 Y0.175
N315 G2 X2.85 Y-0.1375 I-0.3125 J0.
N320 G1 X0.475
N325 G2 X-0.0159 Y0.1504 I0. J0.5625
N330 X-0.0847 Y0.4812 I0.4909 J0.2746
N335 G3 X-0.1183 Y0.5222 I-0.0373 J0.0037 F10.
N340 G1 X-0.1556 Y0.526
N345 X-0.1601 Y0.5264 Z-0.2797
N350 X-0.1645 Y0.5268 Z-0.2789
N355 X-0.1688 Y0.5273 Z-0.2776
N360 X-0.1729 Y0.5277 Z-0.2757
N365 X-0.1768 Y0.5281 Z-0.2734
N370 X-0.1803 Y0.5284 Z-0.2706
N375 X-0.1835 Y0.5288 Z-0.2674
N380 X-0.1863 Y0.529 Z-0.2638
N385 X-0.1886 Y0.5293 Z-0.2599
N390 X-0.1905 Y0.5295 Z-0.2558
N395 X-0.1918 Y0.5296 Z-0.2515
N400 X-0.1926 Y0.5297 Z-0.247
N405 X-0.1929 Z-0.2425
N410 G0 Z0.3
(FACE2)
N420 M8
N425 G0 Z0.6
N430 X3.2134 Y0.1168
N435 Z0.2
N440 G1 Z0.0075 F10.
N445 G18 G3 X3.1759 Z-0.03 I-0.0375 K0.
N450 G1 X2.975
N455 X0.1201 F20.
N460 X0.1
N465 G17 G2 Y0.3676 I0. J0.1254
N470 G1 X2.975
N475 G18 G2 X3.0125 Z0.0075 I0. K0.0375 F10.
N480 G0 Z0.2
N485 X2.9726 Y0.6183
N490 G1 Z0.0075 F10.
N495 G3 X2.9351 Z-0.03 I-0.0375 K0.
N500 G1 X0.993
N505 X0.1002 F20.
N510 G3 X0.0627 Z0.0075 I0. K0.0375 F10.
N515 G0 Z0.6
N520 G17
N525 M9
N530 G53 G0 Z0.
N535 M30
%
