%
(1)
(316 THEN 116 DRILL)
(T6  D=0.1875 CR=0. TAPER=118DEG - ZMIN=-0.3963 - DRILL)
(T7  D=0.0625 CR=0. TAPER=118DEG - ZMIN=-0.3588 - DRILL)
N10 G90 G94 G17 G91.1
N15 G20
N20 G53 G0 Z0.
(DRILL6 316)
N25 M9
N30 T6 M6
N35 T7
N40 S800 M3
N45 G54
N50 M8
N60 G0 X2.7316 Y0.6875
N65 G43 Z0.3 H6
N75 G0 Z0.1
N80 G98 G81 X2.7316 Y0.6875 Z-0.3963 R0.1 F3.
N85 G80
N90 G0 Z0.3
N100 M5
N105 G53 Z0.
(DRILL7 116)
N110 M9
N115 M1
N120 T7 M6
N125 T6
N130 S800 M3
N135 G54
N140 M8
N150 G0 X3.2316 Y0.6875
N155 G43 Z0.3 H7
N165 G0 Z0.1
N170 G81 X3.2316 Y0.6875 Z-0.3588 R0.1 F2.
N175 X2.2316
N180 G80
N185 G0 Z0.3
N195 M9
N200 G53 Z0.
N205 M30
%
