%
(1)
(14 END MILL)
(T8  D=0.25 CR=0. - ZMIN=-0.28 - FLAT END MILL)
N10 G90 G94 G17 G91.1
N15 G20
N20 G53 G0 Z0.
(2D ADAPTIVE1)
N25 M9
N30 T8 M6
N35 S1400 M3
N40 G54
N45 M9
N55 G0 X-0.0245 Y-0.2855
N60 G43 Z0.6 H8
N65 G0 Z0.2
N70 Z-0.0946
N75 G1 Z-0.1196 F4.
N80 X-0.0244 Y-0.2852 Z-0.1235
N85 X-0.0242 Y-0.2843 Z-0.1273
N90 X-0.0239 Y-0.2829 Z-0.131
N95 X-0.0233 Y-0.2809 Z-0.1343
N100 X-0.0227 Y-0.2784 Z-0.1373
N105 X-0.022 Y-0.2755 Z-0.1398
N110 X-0.0211 Y-0.2723 Z-0.1419
N115 X-0.0202 Y-0.2688 Z-0.1434
N120 X-0.0193 Y-0.2651 Z-0.1443
N125 X-0.0183 Y-0.2613 Z-0.1446
N130 G3 X0.0013 Y-0.1252 I-0.6183 J0.1584
N135 G1 X0.0012 Y-0.1192 F5.5
N140 X-0.0065 Y-0.081
N145 X-0.0119 Y-0.0424
N150 X-0.0157 Y-0.0036
N155 X-0.0182 Y0.0354
N160 X-0.02 Y0.0743
N165 X-0.0212 Y0.1133
N170 X-0.022 Y0.1523
N175 X-0.0226 Y0.1912
N180 X-0.0229 Y0.2302
N185 X-0.0232 Y0.2692
N190 X-0.0234 Y0.3082
N195 X-0.0236 Y0.3862
N200 X-0.0237 Y0.5032
N205 Y0.8151
N210 Y0.8833
N215 X-0.0205 Y0.9026
N220 X-0.0113 Y0.9197
N225 X0.0134 Y0.9499
N230 X0.0455 Y0.972
N235 X0.0811 Y0.9878
N240 X0.1185 Y0.9989
N245 X0.1567 Y1.0067
N250 X0.1954 Y1.012
N255 X0.2342 Y1.0157
N260 X0.2731 Y1.0183
N265 X0.312 Y1.02
N270 X0.351 Y1.0212
N275 X0.39 Y1.022
N280 X0.429 Y1.0226
N285 X0.468 Y1.0229
N290 X0.507 Y1.0232
N295 X0.5459 Y1.0234
N300 X0.6239 Y1.0236
N305 X0.7409 Y1.0237
N310 X0.8969
N315 X2.8854 Y1.0238
N320 X4.3865
N325 X4.4054 Y1.0188
N330 X4.4391 Y0.9993
N335 X4.4642 Y0.9694
N340 X4.4822 Y0.9348
N345 X4.495 Y0.898
N350 X4.504 Y0.86
N355 X4.5102 Y0.8216
N360 X4.5144 Y0.7828
N365 X4.5174 Y0.7439
N370 X4.5194 Y0.705
N375 X4.5208 Y0.666
N380 X4.5217 Y0.627
N385 X4.5224 Y0.588
N390 X4.5228 Y0.5491
N395 X4.5231 Y0.5101
N400 X4.5233 Y0.4711
N405 X4.5235 Y0.4321
N410 X4.5236 Y0.3541
N415 X4.5237 Y0.1981
N420 Y0.1202
N425 X4.5226 Y0.1105
N430 X4.5173 Y0.0917
N435 X4.4966 Y0.0587
N440 X4.4662 Y0.0342
N445 X4.4314 Y0.0166
N450 X4.3945 Y0.0042
N455 X4.3565 Y-0.0045
N460 X4.3179 Y-0.0105
N465 X4.2792 Y-0.0147
N470 X4.2403 Y-0.0176
N475 X4.2013 Y-0.0195
N480 X4.1624 Y-0.0209
N485 X4.1234 Y-0.0218
N490 X4.0844 Y-0.0224
N495 X4.0454 Y-0.0228
N500 X4.0064 Y-0.0231
N505 X3.9674 Y-0.0233
N510 X3.9284 Y-0.0235
N515 X3.8505 Y-0.0236
N520 X3.6945 Y-0.0237
N525 X3.0707
N530 X1.0821 Y-0.0238
N535 X0.2243
N540 X0.2051 Y-0.0204
N545 X0.1876 Y-0.0119
N550 X0.1565 Y0.0116
N555 X0.1332 Y0.0429
N560 X0.1164 Y0.0781
N565 X0.1043 Y0.1152
N570 X0.0958 Y0.1532
N575 X0.0899 Y0.1918
N580 X0.0857 Y0.2305
N585 X0.0828 Y0.2694
N590 X0.0808 Y0.3083
N595 X0.0794 Y0.3473
N600 X0.0784 Y0.3863
N605 X0.0777 Y0.4253
N610 X0.0773 Y0.4643
N615 X0.077 Y0.5032
N620 X0.0767 Y0.5422
N625 X0.0766 Y0.5812
N630 X0.0764 Y0.6592
N635 X0.0763 Y0.7372
N640 X0.0765 Y0.7567
N645 X0.0806 Y0.7757
N650 X0.0961 Y0.8115
N655 X0.1222 Y0.8405
N660 X0.1541 Y0.8629
N665 X0.1893 Y0.8797
N670 X0.1988 Y0.8852
N675 X0.2071 Y0.8923
N680 X0.214 Y0.9008
N685 X0.2166 Y0.9048
N690 X0.2185 Y0.9076
N695 X0.2254 Y0.9165
N700 X0.2332 Y0.9253
N705 X0.2597 Y0.9519
N710 X0.2609 Y0.953
N715 X0.2698 Y0.9607
N720 X0.2786 Y0.9682
N725 X0.2806 Y0.9696
N730 X0.2875 Y0.9741
N735 X0.314 Y0.9884
N740 X0.3229 Y0.9929
N745 X0.3318 Y0.9973
N750 X0.3406 Y1.0016
N755 X0.3495 Y1.005
N760 X0.3583 Y1.0079
N765 X0.3672 Y1.0103
N770 X0.3938 Y1.0149
N775 X0.4204 Y1.0188
N780 X0.4292 Y1.0194
N785 X0.447 Y1.0199
N790 X0.4558 Y1.02
N795 X3.805
N800 X3.8138 Y1.0199
N805 X3.8404 Y1.0179
N810 X3.8936 Y1.0124
N815 X3.9024 Y1.0113
N820 X3.9201 Y1.0083
N825 X3.929 Y1.0063
N830 X3.9556 Y0.9981
N835 X3.9822 Y0.9897
N840 X4.0087 Y0.9811
N845 X4.015 Y0.9784
N850 X4.0265 Y0.973
N855 X4.0566 Y0.9604
N860 X4.0841 Y0.9515
N865 X4.122 Y0.9424
N870 X4.1605 Y0.9364
N875 X4.1993 Y0.9323
N880 X4.2382 Y0.9296
N885 X4.2577 Y0.9286
N890 X4.2766 Y0.924
N895 X4.3121 Y0.9079
N900 X4.341 Y0.8816
N905 X4.3632 Y0.8496
N910 X4.3799 Y0.8144
N915 X4.3922 Y0.7774
N920 X4.4012 Y0.7394
N925 X4.4077 Y0.701
N930 X4.4123 Y0.6623
N935 X4.4157 Y0.6234
N940 X4.418 Y0.5845
N945 X4.4197 Y0.5455
N950 X4.4209 Y0.5066
N955 X4.4218 Y0.4676
N960 X4.4223 Y0.4286
N965 X4.4228 Y0.3896
N970 X4.4231 Y0.3506
N975 X4.4233 Y0.3116
N980 X4.4234 Y0.2726
N985 X4.4235 Y0.2337
N990 X4.4175 Y0.2151
N995 X4.3989 Y0.1808
N1000 X4.3711 Y0.1535
N1005 X4.3382 Y0.1325
N1010 X4.3025 Y0.1169
N1015 X4.2652 Y0.1054
N1020 X4.2272 Y0.0971
N1025 X4.1886 Y0.0911
N1030 X4.1499 Y0.0868
N1035 X4.1387 Y0.0859
N1040 X4.1291 Y0.0843
N1045 X4.1199 Y0.0811
N1050 X4.1113 Y0.0765
N1055 X4.0682 Y0.0481
N1060 X4.0619 Y0.0445
N1065 X4.0526 Y0.0393
N1070 X4.0442 Y0.0347
N1075 X4.0353 Y0.0311
N1080 X3.9733 Y0.0065
N1085 X3.9556 Y0.0002
N1090 X3.9467 Y-0.0018
N1095 X3.929 Y-0.0055
N1100 X3.9201 Y-0.0071
N1105 X3.8758 Y-0.0148
N1110 X3.867 Y-0.0162
N1115 X3.8493 Y-0.0182
N1120 X3.8404 Y-0.019
N1125 X3.8138 Y-0.0184
N1130 X3.7607 Y-0.0166
N1135 X3.7518 Y-0.0161
N1140 X3.7429 Y-0.0153
N1145 X3.7341 Y-0.0137
N1150 X3.7252 Y-0.0118
N1155 X3.6721 Y0.001
N1160 X3.6543 Y0.0054
N1165 X3.6455 Y0.0077
N1170 X3.6278 Y0.0149
N1175 X3.6189 Y0.0186
N1180 X3.6124 Y0.0216
N1185 X3.6012 Y0.0269
N1190 X3.5698 Y0.0399
N1195 X3.5422 Y0.0488
N1200 X3.5042 Y0.0577
N1205 X3.4657 Y0.0637
N1210 X3.4269 Y0.0678
N1215 X3.388 Y0.0705
N1220 X3.349 Y0.0723
N1225 X3.3101 Y0.0736
N1230 X3.2711 Y0.0744
N1235 X3.2321 Y0.075
N1240 X3.1931 Y0.0754
N1245 X3.1541 Y0.0757
N1250 X3.1151 Y0.0759
N1255 X3.0372 Y0.0761
N1260 X2.9202 Y0.0762
N1265 X2.6083
N1270 X1.6335 Y0.0763
N1275 X0.3468
N1280 X0.3277 Y0.0803
N1285 X0.2918 Y0.0954
N1290 X0.2624 Y0.121
N1295 X0.2396 Y0.1526
N1300 X0.2223 Y0.1876
N1305 X0.2095 Y0.2244
N1310 X0.2002 Y0.2623
N1315 X0.1934 Y0.3007
N1320 X0.1885 Y0.3394
N1325 X0.1849 Y0.3782
N1330 X0.1824 Y0.4171
N1335 X0.1806 Y0.456
N1340 X0.1793 Y0.495
N1345 X0.1784 Y0.534
N1350 X0.1782 Y0.5458
N1355 X0.1781 Y0.549
N1360 X0.1778 Y0.5522
N1365 X0.1773 Y0.5554
N1370 X0.1744 Y0.5709
N1375 X0.1729 Y0.5797
N1380 X0.1701 Y0.5975
N1385 X0.1688 Y0.6063
N1390 X0.1675 Y0.6329
N1395 Y0.6595
N1400 Y0.7481
N1405 X0.1682 Y0.7569
N1410 X0.1698 Y0.7747
N1415 X0.171 Y0.7835
N1420 X0.1738 Y0.8012
N1425 X0.1754 Y0.8101
N1430 X0.1791 Y0.8278
N1435 X0.1799 Y0.8308
N1440 X0.1823 Y0.8367
N1445 X0.19 Y0.855
N1450 X0.1939 Y0.8633
N1455 X0.2029 Y0.881
N1460 X0.2077 Y0.8902
N1465 X0.2126 Y0.8987
N1470 X0.214 Y0.9008
N1475 G3 X0.2173 Y0.91 I-0.0214 J0.013 F4.
N1480 G1 X0.2179 Y0.9139 Z-0.1443
N1485 X0.2185 Y0.9176 Z-0.1434
N1490 X0.2191 Y0.9212 Z-0.1419
N1495 X0.2196 Y0.9245 Z-0.1398
N1500 X0.22 Y0.9275 Z-0.1373
N1505 X0.2204 Y0.93 Z-0.1343
N1510 X0.2207 Y0.932 Z-0.131
N1515 X0.221 Y0.9335 Z-0.1273
N1520 X0.2211 Y0.9344 Z-0.1235
N1525 Y0.9347 Z-0.1196
N1530 G0 Z0.2
N1535 X3.5986 Y-0.0062
N1540 Z-0.0946
N1545 G1 Z-0.1196 F4.
N1550 X3.5987 Y-0.0059 Z-0.1235
N1555 X3.5989 Y-0.0051 Z-0.1273
N1560 X3.5993 Y-0.0036 Z-0.131
N1565 X3.5998 Y-0.0016 Z-0.1343
N1570 X3.6005 Y0.0008 Z-0.1373
N1575 X3.6013 Y0.0037 Z-0.1398
N1580 X3.6022 Y0.0069 Z-0.1419
N1585 X3.6031 Y0.0104 Z-0.1434
N1590 X3.6041 Y0.0141 Z-0.1443
N1595 X3.6051 Y0.0179 Z-0.1446
N1600 G3 X3.6012 Y0.0269 I-0.0075 J0.002
N1605 G1 X3.5657 Y0.0437 F5.5
N1610 X3.5565 Y0.0481
N1615 X3.548 Y0.0525
N1620 X3.5407 Y0.057
N1625 X3.5392 Y0.058
N1630 X3.5303 Y0.064
N1635 X3.4809 Y0.1013
N1640 X3.4617 Y0.1143
N1645 X3.4464 Y0.123
N1650 X3.4269 Y0.1322
N1655 X3.4014 Y0.1416
N1660 X3.3668 Y0.1514
N1665 X3.3286 Y0.159
N1670 X3.2899 Y0.1642
N1675 X3.2511 Y0.1679
N1680 X3.2122 Y0.1704
N1685 X3.1733 Y0.1722
N1690 X3.1343 Y0.1734
N1695 X3.0953 Y0.1743
N1700 X3.0563 Y0.1749
N1705 X3.0173 Y0.1753
N1710 X2.9783 Y0.1756
N1715 X2.9394 Y0.1758
N1720 X2.9004 Y0.1759
N1725 X2.8224 Y0.1761
N1730 X2.7054 Y0.1762
N1735 X2.3155
N1740 X1.4967
N1745 X0.4829
N1750 X0.4439 Y0.1765
N1755 X0.4071 Y0.1893
N1760 X0.3759 Y0.2126
N1765 X0.3509 Y0.2425
N1770 X0.3316 Y0.2764
N1775 X0.317 Y0.3125
N1780 X0.306 Y0.35
N1785 X0.3013 Y0.3724
N1790 X0.2982 Y0.3823
N1795 X0.2934 Y0.3916
N1800 X0.287 Y0.3999
N1805 X0.2793 Y0.4069
N1810 X0.2697 Y0.414
N1815 X0.2627 Y0.4203
N1820 X0.2609 Y0.422
N1825 X0.2343 Y0.4486
N1830 X0.2282 Y0.4557
N1835 X0.2166 Y0.47
N1840 X0.2077 Y0.4849
N1845 X0.2044 Y0.4911
N1850 X0.19 Y0.5196
N1855 X0.1867 Y0.5266
N1860 X0.1801 Y0.5443
N1865 X0.1777 Y0.5532
N1870 X0.1773 Y0.5554
N1875 G3 X0.1734 Y0.5643 I-0.0244 J-0.0054 F4.
N1880 G1 X0.1711 Y0.5675 Z-0.1443
N1885 X0.169 Y0.5707 Z-0.1434
N1890 X0.1669 Y0.5736 Z-0.1419
N1895 X0.165 Y0.5764 Z-0.1398
N1900 X0.1633 Y0.5788 Z-0.1373
N1905 X0.1618 Y0.5809 Z-0.1343
N1910 X0.1606 Y0.5826 Z-0.131
N1915 X0.1598 Y0.5838 Z-0.1273
N1920 X0.1592 Y0.5846 Z-0.1235
N1925 X0.1591 Y0.5848 Z-0.1196
N1930 G0 Z0.2
N1935 X3.4716 Y0.0694
N1940 Z-0.0946
N1945 G1 Z-0.1196 F4.
N1950 X3.4717 Y0.0697 Z-0.1235
N1955 X3.4721 Y0.0705 Z-0.1273
N1960 X3.4728 Y0.0718 Z-0.131
N1965 X3.4737 Y0.0737 Z-0.1343
N1970 X3.4749 Y0.0759 Z-0.1373
N1975 X3.4763 Y0.0786 Z-0.1398
N1980 X3.4778 Y0.0816 Z-0.1419
N1985 X3.4794 Y0.0848 Z-0.1434
N1990 X3.4811 Y0.0882 Z-0.1443
N1995 X3.4829 Y0.0917 Z-0.1446
N2000 G3 X3.4809 Y0.1013 I-0.007 J0.0035
N2005 G1 X3.4771 Y0.1041 F5.5
N2010 X3.4683 Y0.1112
N2015 X3.4588 Y0.119
N2020 X3.4499 Y0.1279
N2025 X3.4417 Y0.1371
N2030 X3.4063 Y0.1776
N2035 X3.3996 Y0.1847
N2040 X3.3901 Y0.1933
N2045 X3.3787 Y0.2021
N2050 X3.3642 Y0.2116
N2055 X3.3462 Y0.2213
N2060 X3.323 Y0.2315
N2065 X3.2932 Y0.2419
N2070 X3.2555 Y0.2517
N2075 X3.2171 Y0.2587
N2080 X3.1784 Y0.2637
N2085 X3.1396 Y0.2673
N2090 X3.1007 Y0.2699
N2095 X3.0617 Y0.2717
N2100 X3.0228 Y0.273
N2105 X2.9838 Y0.2739
N2110 X2.9448 Y0.2746
N2115 X2.9058 Y0.2751
N2120 X2.8668 Y0.2754
N2125 X2.8278 Y0.2757
N2130 X2.7889 Y0.2758
N2135 X2.7109 Y0.276
N2140 X2.5939 Y0.2762
N2145 X2.321
N2150 X1.4242
N2155 X0.5664 Y0.2763
N2160 X0.5279 Y0.2828
N2165 X0.4937 Y0.3014
N2170 X0.4655 Y0.3283
N2175 X0.4597 Y0.3356
N2180 X0.4517 Y0.3437
N2185 X0.4422 Y0.3501
N2190 X0.4316 Y0.3543
N2195 X0.4204 Y0.3562
N2200 X0.3938 Y0.3601
N2205 X0.3849 Y0.3615
N2210 X0.3761 Y0.363
N2215 X0.3672 Y0.3646
N2220 X0.3582 Y0.3671
N2225 X0.3495 Y0.37
N2230 X0.3406 Y0.3735
N2235 X0.314 Y0.3866
N2240 X0.3052 Y0.3912
N2245 X0.2875 Y0.4009
N2250 X0.285 Y0.4025
N2255 X0.2793 Y0.4069
N2260 G3 X0.2703 Y0.4108 I-0.0143 J-0.0205 F4.
N2265 G1 X0.2665 Y0.4116 Z-0.1443
N2270 X0.2628 Y0.4125 Z-0.1434
N2275 X0.2592 Y0.4132 Z-0.1419
N2280 X0.256 Y0.414 Z-0.1398
N2285 X0.2531 Y0.4146 Z-0.1373
N2290 X0.2506 Y0.4152 Z-0.1343
N2295 X0.2486 Y0.4156 Z-0.131
N2300 X0.2471 Y0.4159 Z-0.1273
N2305 X0.2462 Y0.4161 Z-0.1235
N2310 X0.2459 Y0.4162 Z-0.1196
N2315 G0 Z0.2
N2320 X3.3902 Y0.1485
N2325 Z-0.0946
N2330 G1 Z-0.1196 F4.
N2335 X3.3904 Y0.1488 Z-0.1235
N2340 X3.391 Y0.1495 Z-0.1273
N2345 X3.392 Y0.1506 Z-0.131
N2350 X3.3933 Y0.1522 Z-0.1343
N2355 X3.3949 Y0.1542 Z-0.1373
N2360 X3.3968 Y0.1565 Z-0.1398
N2365 X3.3989 Y0.1591 Z-0.1419
N2370 X3.4012 Y0.1619 Z-0.1434
N2375 X3.4037 Y0.1648 Z-0.1443
N2380 X3.4062 Y0.1678 Z-0.1446
N2385 G3 X3.4063 Y0.1776 I-0.006 J0.005
N2390 G1 X3.3958 Y0.1899 F5.5
N2395 X3.3888 Y0.1988
N2400 X3.383 Y0.2076
N2405 X3.3708 Y0.2287
N2410 X3.3677 Y0.2342
N2415 X3.362 Y0.2443
N2420 X3.3545 Y0.2561
N2425 X3.348 Y0.2648
N2430 X3.3404 Y0.2733
N2435 X3.3308 Y0.2826
N2440 X3.3185 Y0.2926
N2445 X3.3041 Y0.3026
N2450 X3.2855 Y0.3134
N2455 X3.2627 Y0.3242
N2460 X3.2334 Y0.3354
N2465 X3.196 Y0.3463
N2470 X3.1576 Y0.3543
N2475 X3.1547 Y0.3547
N2480 X3.1518 Y0.3549
N2485 X3.1488 Y0.355
N2490 G3 X3.1393 Y0.3528 I0.0009 J-0.025 F4.
N2495 X3.1383 Y0.3078 I0.0104 J-0.0227 F5.5
N2500 G1 X3.3284 Y0.2105
N2505 G3 X3.3647 Y0.235 I0.0114 J0.0223
N2510 X3.362 Y0.2443 I-0.0249 J-0.0022 F4.
N2515 G1 X3.3527 Y0.2608 F5.5
N2520 X3.3354 Y0.291
N2525 X3.3243 Y0.3101
N2530 X3.3214 Y0.3139
N2535 X3.3088 Y0.3273
N2540 X3.3062 Y0.3297
N2545 X3.3036 Y0.3317
N2550 X3.29 Y0.3405
N2555 X3.2861 Y0.3429
N2560 X3.2822 Y0.3445
N2565 X3.2687 Y0.3494
N2570 X3.2645 Y0.3508
N2575 X3.2556 Y0.3522
N2580 X3.2291 Y0.3546
N2585 X3.2202 Y0.355
N2590 X0.4558
N2595 X0.447 Y0.3551
N2600 X0.4292 Y0.3556
N2605 X0.4204 Y0.3562
N2610 G3 X0.4108 Y0.3545 I-0.0007 J-0.025 F4.
N2615 G1 X0.4071 Y0.3531 Z-0.1443
N2620 X0.4035 Y0.3517 Z-0.1434
N2625 X0.4002 Y0.3505 Z-0.1419
N2630 X0.397 Y0.3493 Z-0.1398
N2635 X0.3942 Y0.3482 Z-0.1373
N2640 X0.3919 Y0.3473 Z-0.1343
N2645 X0.39 Y0.3465 Z-0.131
N2650 X0.3886 Y0.346 Z-0.1273
N2655 X0.3877 Y0.3457 Z-0.1235
N2660 X0.3874 Y0.3456 Z-0.1196
N2665 G0 Z0.2
N2670 X4.0291 Y1.0061
N2675 Z-0.0946
N2680 G1 Z-0.1196 F4.
N2685 Y1.0058 Z-0.1235
N2690 X4.0288 Y1.0049 Z-0.1273
N2695 X4.0284 Y1.0035 Z-0.131
N2700 X4.0279 Y1.0015 Z-0.1343
N2705 X4.0272 Y0.999 Z-0.1373
N2710 X4.0264 Y0.9962 Z-0.1398
N2715 X4.0255 Y0.9929 Z-0.1419
N2720 X4.0246 Y0.9894 Z-0.1434
N2725 X4.0236 Y0.9858 Z-0.1443
N2730 X4.0225 Y0.982 Z-0.1446
N2735 G3 X4.0265 Y0.973 I0.0075 J-0.0021
N2740 G1 X4.0353 Y0.9688 F5.5
N2745 X4.0442 Y0.964
N2750 X4.0885 Y0.9391
N2755 X4.0973 Y0.9341
N2760 X4.1062 Y0.9287
N2765 X4.1115 Y0.9253
N2770 X4.1231 Y0.9164
N2775 X4.1416 Y0.9003
N2780 X4.153 Y0.8913
N2785 X4.1855 Y0.8698
N2790 X4.2151 Y0.8444
N2795 X4.24 Y0.8143
N2800 X4.2601 Y0.7809
N2805 X4.2759 Y0.7453
N2810 X4.288 Y0.7082
N2815 X4.289 Y0.7051
N2820 X4.2902 Y0.702
N2825 X4.2915 Y0.6989
N2830 G3 X4.2976 Y0.6913 I0.0222 J0.0115 F4.
N2835 X4.3338 Y0.7254 I0.0161 J0.0191 F5.5
N2840 G1 X4.1788 Y0.9335
N2845 G3 X4.136 Y0.9082 I-0.02 J-0.0149
N2850 X4.1416 Y0.9003 I0.0228 J0.0103 F4.
N2855 G1 X4.1771 Y0.8694 F5.5
N2860 X4.1837 Y0.8633
N2865 X4.1948 Y0.8524
N2870 X4.2073 Y0.8367
N2875 X4.2342 Y0.8012
N2880 X4.2391 Y0.7948
N2885 X4.2568 Y0.7696
N2890 X4.2593 Y0.7658
N2895 X4.2639 Y0.7569
N2900 X4.2934 Y0.6949
N2905 X4.2975 Y0.6861
N2910 X4.3008 Y0.6772
N2915 X4.3065 Y0.6595
N2920 X4.309 Y0.6506
N2925 X4.3219 Y0.5975
N2930 X4.3275 Y0.5709
N2935 X4.3277 Y0.5692
N2940 X4.3293 Y0.5443
N2945 X4.3299 Y0.5266
N2950 X4.3312 Y0.4911
N2955 X4.3313 Y0.4823
N2960 X4.3308 Y0.4646
N2965 X4.3303 Y0.4557
N2970 X4.3278 Y0.4168
N2975 X4.3264 Y0.3778
N2980 X4.3251 Y0.3389
N2985 X4.3109 Y0.3025
N2990 X4.2866 Y0.272
N2995 X4.284 Y0.27
N3000 X4.2787 Y0.2652
N3005 X4.2741 Y0.2599
N3010 X4.2701 Y0.254
N3015 G3 X4.2672 Y0.2446 I0.022 J-0.012 F4.
N3020 X4.316 Y0.2348 I0.0249 J-0.0026 F5.5
N3025 G1 X4.3787 Y0.4436
N3030 G3 X4.334 Y0.4647 I-0.0239 J0.0072
N3035 X4.3303 Y0.4557 I0.0208 J-0.0139 F4.
N3040 G1 X4.326 Y0.4291 F5.5
N3045 X4.3168 Y0.376
N3050 X4.3149 Y0.3671
N3055 X4.3127 Y0.3582
N3060 X4.3097 Y0.3494
N3065 X4.3064 Y0.3405
N3070 X4.2855 Y0.2874
N3075 X4.2741 Y0.2608
N3080 X4.2689 Y0.2519
N3085 X4.2657 Y0.2466
N3090 X4.2635 Y0.2431
N3095 X4.2391 Y0.2059
N3100 X4.2344 Y0.1988
N3105 X4.2214 Y0.1794
N3110 X4.2159 Y0.1722
N3115 X4.2083 Y0.1633
N3120 X4.1819 Y0.1367
N3125 X4.1553 Y0.1102
N3130 X4.1505 Y0.1054
N3135 X4.1351 Y0.0924
N3140 X4.1328 Y0.0908
N3145 X4.1239 Y0.0848
N3150 X4.1113 Y0.0765
N3155 X4.1098 Y0.0749 Z-0.1444 F4.
N3160 X4.1083 Y0.0735 Z-0.1436
N3165 X4.107 Y0.0721 Z-0.1425
N3170 X4.1059 Y0.071 Z-0.1409
N3175 X4.1051 Y0.0702 Z-0.1391
N3180 X4.1047 Y0.0696 Z-0.137
N3185 X4.1046 Y0.0694 Z-0.1348
N3190 G0 Z0.2
N3195 X-0.0245 Y-0.2855
N3200 Z-0.2
N3205 G1 Z-0.225 F4.
N3210 X-0.0244 Y-0.2852 Z-0.2289
N3215 X-0.0242 Y-0.2843 Z-0.2327
N3220 X-0.0239 Y-0.2829 Z-0.2363
N3225 X-0.0233 Y-0.2809 Z-0.2397
N3230 X-0.0227 Y-0.2784 Z-0.2427
N3235 X-0.022 Y-0.2755 Z-0.2452
N3240 X-0.0211 Y-0.2723 Z-0.2473
N3245 X-0.0202 Y-0.2688 Z-0.2488
N3250 X-0.0193 Y-0.2651 Z-0.2497
N3255 X-0.0183 Y-0.2613 Z-0.25
N3260 G3 X0.0013 Y-0.1252 I-0.6183 J0.1584
N3265 G1 X0.0012 Y-0.1192 F5.5
N3270 X-0.0065 Y-0.081
N3275 X-0.0119 Y-0.0424
N3280 X-0.0157 Y-0.0036
N3285 X-0.0182 Y0.0354
N3290 X-0.02 Y0.0743
N3295 X-0.0212 Y0.1133
N3300 X-0.022 Y0.1523
N3305 X-0.0226 Y0.1912
N3310 X-0.0229 Y0.2302
N3315 X-0.0232 Y0.2692
N3320 X-0.0234 Y0.3082
N3325 X-0.0236 Y0.3862
N3330 X-0.0237 Y0.5032
N3335 Y0.8151
N3340 Y0.8833
N3345 X-0.0205 Y0.9026
N3350 X-0.0113 Y0.9197
N3355 X0.0134 Y0.9499
N3360 X0.0455 Y0.972
N3365 X0.0811 Y0.9878
N3370 X0.1185 Y0.9989
N3375 X0.1567 Y1.0067
N3380 X0.1954 Y1.012
N3385 X0.2342 Y1.0157
N3390 X0.2731 Y1.0183
N3395 X0.312 Y1.02
N3400 X0.351 Y1.0212
N3405 X0.39 Y1.022
N3410 X0.429 Y1.0226
N3415 X0.468 Y1.0229
N3420 X0.507 Y1.0232
N3425 X0.5459 Y1.0234
N3430 X0.6239 Y1.0236
N3435 X0.7409 Y1.0237
N3440 X0.8969
N3445 X2.8854 Y1.0238
N3450 X4.3865
N3455 X4.4054 Y1.0188
N3460 X4.4391 Y0.9993
N3465 X4.4642 Y0.9694
N3470 X4.4822 Y0.9348
N3475 X4.495 Y0.898
N3480 X4.504 Y0.86
N3485 X4.5102 Y0.8216
N3490 X4.5144 Y0.7828
N3495 X4.5174 Y0.7439
N3500 X4.5194 Y0.705
N3505 X4.5208 Y0.666
N3510 X4.5217 Y0.627
N3515 X4.5224 Y0.588
N3520 X4.5228 Y0.5491
N3525 X4.5231 Y0.5101
N3530 X4.5233 Y0.4711
N3535 X4.5235 Y0.4321
N3540 X4.5236 Y0.3541
N3545 X4.5237 Y0.1981
N3550 Y0.1202
N3555 X4.5226 Y0.1105
N3560 X4.5173 Y0.0917
N3565 X4.4966 Y0.0587
N3570 X4.4662 Y0.0342
N3575 X4.4314 Y0.0166
N3580 X4.3945 Y0.0042
N3585 X4.3565 Y-0.0045
N3590 X4.3179 Y-0.0105
N3595 X4.2792 Y-0.0147
N3600 X4.2403 Y-0.0176
N3605 X4.2013 Y-0.0195
N3610 X4.1624 Y-0.0209
N3615 X4.1234 Y-0.0218
N3620 X4.0844 Y-0.0224
N3625 X4.0454 Y-0.0228
N3630 X4.0064 Y-0.0231
N3635 X3.9674 Y-0.0233
N3640 X3.9284 Y-0.0235
N3645 X3.8505 Y-0.0236
N3650 X3.6945 Y-0.0237
N3655 X3.0707
N3660 X1.0821 Y-0.0238
N3665 X0.2243
N3670 X0.2051 Y-0.0204
N3675 X0.1876 Y-0.0119
N3680 X0.1565 Y0.0116
N3685 X0.1332 Y0.0429
N3690 X0.1164 Y0.0781
N3695 X0.1043 Y0.1152
N3700 X0.0958 Y0.1532
N3705 X0.0899 Y0.1918
N3710 X0.0857 Y0.2305
N3715 X0.0828 Y0.2694
N3720 X0.0808 Y0.3083
N3725 X0.0794 Y0.3473
N3730 X0.0784 Y0.3863
N3735 X0.0777 Y0.4253
N3740 X0.0773 Y0.4643
N3745 X0.077 Y0.5032
N3750 X0.0767 Y0.5422
N3755 X0.0766 Y0.5812
N3760 X0.0764 Y0.6592
N3765 X0.0763 Y0.7372
N3770 X0.0765 Y0.7567
N3775 X0.0806 Y0.7757
N3780 X0.0961 Y0.8115
N3785 X0.1222 Y0.8405
N3790 X0.1541 Y0.8629
N3795 X0.1893 Y0.8797
N3800 X0.1988 Y0.8852
N3805 X0.2071 Y0.8923
N3810 X0.214 Y0.9008
N3815 X0.2166 Y0.9048
N3820 X0.2185 Y0.9076
N3825 X0.2254 Y0.9165
N3830 X0.2332 Y0.9253
N3835 X0.2597 Y0.9519
N3840 X0.2609 Y0.953
N3845 X0.2698 Y0.9607
N3850 X0.2786 Y0.9682
N3855 X0.2806 Y0.9696
N3860 X0.2875 Y0.9741
N3865 X0.314 Y0.9884
N3870 X0.3229 Y0.9929
N3875 X0.3318 Y0.9973
N3880 X0.3406 Y1.0016
N3885 X0.3495 Y1.005
N3890 X0.3583 Y1.0079
N3895 X0.3672 Y1.0103
N3900 X0.3938 Y1.0149
N3905 X0.4204 Y1.0188
N3910 X0.4292 Y1.0194
N3915 X0.447 Y1.0199
N3920 X0.4558 Y1.02
N3925 X3.805
N3930 X3.8138 Y1.0199
N3935 X3.8404 Y1.0179
N3940 X3.8936 Y1.0124
N3945 X3.9024 Y1.0113
N3950 X3.9201 Y1.0083
N3955 X3.929 Y1.0063
N3960 X3.9556 Y0.9981
N3965 X3.9822 Y0.9897
N3970 X4.0087 Y0.9811
N3975 X4.015 Y0.9784
N3980 X4.0265 Y0.973
N3985 X4.0566 Y0.9604
N3990 X4.0841 Y0.9515
N3995 X4.122 Y0.9424
N4000 X4.1605 Y0.9364
N4005 X4.1993 Y0.9323
N4010 X4.2382 Y0.9296
N4015 X4.2577 Y0.9286
N4020 X4.2766 Y0.924
N4025 X4.3121 Y0.9079
N4030 X4.341 Y0.8816
N4035 X4.3632 Y0.8496
N4040 X4.3799 Y0.8144
N4045 X4.3922 Y0.7774
N4050 X4.4012 Y0.7394
N4055 X4.4077 Y0.701
N4060 X4.4123 Y0.6623
N4065 X4.4157 Y0.6234
N4070 X4.418 Y0.5845
N4075 X4.4197 Y0.5455
N4080 X4.4209 Y0.5066
N4085 X4.4218 Y0.4676
N4090 X4.4223 Y0.4286
N4095 X4.4228 Y0.3896
N4100 X4.4231 Y0.3506
N4105 X4.4233 Y0.3116
N4110 X4.4234 Y0.2726
N4115 X4.4235 Y0.2337
N4120 X4.4175 Y0.2151
N4125 X4.3989 Y0.1808
N4130 X4.3711 Y0.1535
N4135 X4.3382 Y0.1325
N4140 X4.3025 Y0.1169
N4145 X4.2652 Y0.1054
N4150 X4.2272 Y0.0971
N4155 X4.1886 Y0.0911
N4160 X4.1499 Y0.0868
N4165 X4.1387 Y0.0859
N4170 X4.1291 Y0.0843
N4175 X4.1199 Y0.0811
N4180 X4.1113 Y0.0765
N4185 X4.0682 Y0.0481
N4190 X4.0619 Y0.0445
N4195 X4.0526 Y0.0393
N4200 X4.0442 Y0.0347
N4205 X4.0353 Y0.0311
N4210 X3.9733 Y0.0065
N4215 X3.9556 Y0.0002
N4220 X3.9467 Y-0.0018
N4225 X3.929 Y-0.0055
N4230 X3.9201 Y-0.0071
N4235 X3.8758 Y-0.0148
N4240 X3.867 Y-0.0162
N4245 X3.8493 Y-0.0182
N4250 X3.8404 Y-0.019
N4255 X3.8138 Y-0.0184
N4260 X3.7607 Y-0.0166
N4265 X3.7518 Y-0.0161
N4270 X3.7429 Y-0.0153
N4275 X3.7341 Y-0.0137
N4280 X3.7252 Y-0.0118
N4285 X3.6721 Y0.001
N4290 X3.6543 Y0.0054
N4295 X3.6455 Y0.0077
N4300 X3.6278 Y0.0149
N4305 X3.6189 Y0.0186
N4310 X3.6124 Y0.0216
N4315 X3.6012 Y0.0269
N4320 X3.5698 Y0.0399
N4325 X3.5422 Y0.0488
N4330 X3.5042 Y0.0577
N4335 X3.4657 Y0.0637
N4340 X3.4269 Y0.0678
N4345 X3.388 Y0.0705
N4350 X3.349 Y0.0723
N4355 X3.3101 Y0.0736
N4360 X3.2711 Y0.0744
N4365 X3.2321 Y0.075
N4370 X3.1931 Y0.0754
N4375 X3.1541 Y0.0757
N4380 X3.1151 Y0.0759
N4385 X3.0372 Y0.0761
N4390 X2.9202 Y0.0762
N4395 X2.6083
N4400 X1.6335 Y0.0763
N4405 X0.3468
N4410 X0.3277 Y0.0803
N4415 X0.2918 Y0.0954
N4420 X0.2624 Y0.121
N4425 X0.2396 Y0.1526
N4430 X0.2223 Y0.1876
N4435 X0.2095 Y0.2244
N4440 X0.2002 Y0.2623
N4445 X0.1934 Y0.3007
N4450 X0.1885 Y0.3394
N4455 X0.1849 Y0.3782
N4460 X0.1824 Y0.4171
N4465 X0.1806 Y0.456
N4470 X0.1793 Y0.495
N4475 X0.1784 Y0.534
N4480 X0.1782 Y0.5458
N4485 X0.1781 Y0.549
N4490 X0.1778 Y0.5522
N4495 X0.1773 Y0.5554
N4500 X0.1744 Y0.5709
N4505 X0.1729 Y0.5797
N4510 X0.1701 Y0.5975
N4515 X0.1688 Y0.6063
N4520 X0.1675 Y0.6329
N4525 Y0.6595
N4530 Y0.7481
N4535 X0.1682 Y0.7569
N4540 X0.1698 Y0.7747
N4545 X0.171 Y0.7835
N4550 X0.1738 Y0.8012
N4555 X0.1754 Y0.8101
N4560 X0.1791 Y0.8278
N4565 X0.1799 Y0.8308
N4570 X0.1823 Y0.8367
N4575 X0.19 Y0.855
N4580 X0.1939 Y0.8633
N4585 X0.2029 Y0.881
N4590 X0.2077 Y0.8902
N4595 X0.2126 Y0.8987
N4600 X0.214 Y0.9008
N4605 G3 X0.2173 Y0.91 I-0.0214 J0.013 F4.
N4610 G1 X0.2179 Y0.9139 Z-0.2497
N4615 X0.2185 Y0.9176 Z-0.2488
N4620 X0.2191 Y0.9212 Z-0.2473
N4625 X0.2196 Y0.9245 Z-0.2452
N4630 X0.22 Y0.9275 Z-0.2427
N4635 X0.2204 Y0.93 Z-0.2397
N4640 X0.2207 Y0.932 Z-0.2363
N4645 X0.221 Y0.9335 Z-0.2327
N4650 X0.2211 Y0.9344 Z-0.2289
N4655 Y0.9347 Z-0.225
N4660 G0 Z0.2
N4665 X3.5986 Y-0.0062
N4670 Z-0.2
N4675 G1 Z-0.225 F4.
N4680 X3.5987 Y-0.0059 Z-0.2289
N4685 X3.5989 Y-0.0051 Z-0.2327
N4690 X3.5993 Y-0.0036 Z-0.2363
N4695 X3.5998 Y-0.0016 Z-0.2397
N4700 X3.6005 Y0.0008 Z-0.2427
N4705 X3.6013 Y0.0037 Z-0.2452
N4710 X3.6022 Y0.0069 Z-0.2473
N4715 X3.6031 Y0.0104 Z-0.2488
N4720 X3.6041 Y0.0141 Z-0.2497
N4725 X3.6051 Y0.0179 Z-0.25
N4730 G3 X3.6012 Y0.0269 I-0.0075 J0.002
N4735 G1 X3.5657 Y0.0437 F5.5
N4740 X3.5565 Y0.0481
N4745 X3.548 Y0.0525
N4750 X3.5407 Y0.057
N4755 X3.5392 Y0.058
N4760 X3.5303 Y0.064
N4765 X3.4809 Y0.1013
N4770 X3.4617 Y0.1143
N4775 X3.4464 Y0.123
N4780 X3.4269 Y0.1322
N4785 X3.4014 Y0.1416
N4790 X3.3668 Y0.1514
N4795 X3.3286 Y0.159
N4800 X3.2899 Y0.1642
N4805 X3.2511 Y0.1679
N4810 X3.2122 Y0.1704
N4815 X3.1733 Y0.1722
N4820 X3.1343 Y0.1734
N4825 X3.0953 Y0.1743
N4830 X3.0563 Y0.1749
N4835 X3.0173 Y0.1753
N4840 X2.9783 Y0.1756
N4845 X2.9394 Y0.1758
N4850 X2.9004 Y0.1759
N4855 X2.8224 Y0.1761
N4860 X2.7054 Y0.1762
N4865 X2.3155
N4870 X1.4967
N4875 X0.4829
N4880 X0.4439 Y0.1765
N4885 X0.4071 Y0.1893
N4890 X0.3759 Y0.2126
N4895 X0.3509 Y0.2425
N4900 X0.3316 Y0.2764
N4905 X0.317 Y0.3125
N4910 X0.306 Y0.35
N4915 X0.3013 Y0.3724
N4920 X0.2982 Y0.3823
N4925 X0.2934 Y0.3916
N4930 X0.287 Y0.3999
N4935 X0.2793 Y0.4069
N4940 X0.2697 Y0.414
N4945 X0.2627 Y0.4203
N4950 X0.2609 Y0.422
N4955 X0.2343 Y0.4486
N4960 X0.2282 Y0.4557
N4965 X0.2166 Y0.47
N4970 X0.2077 Y0.4849
N4975 X0.2044 Y0.4911
N4980 X0.19 Y0.5196
N4985 X0.1867 Y0.5266
N4990 X0.1801 Y0.5443
N4995 X0.1777 Y0.5532
N5000 X0.1773 Y0.5554
N5005 G3 X0.1734 Y0.5643 I-0.0244 J-0.0054 F4.
N5010 G1 X0.1711 Y0.5675 Z-0.2497
N5015 X0.169 Y0.5707 Z-0.2488
N5020 X0.1669 Y0.5736 Z-0.2473
N5025 X0.165 Y0.5764 Z-0.2452
N5030 X0.1633 Y0.5788 Z-0.2427
N5035 X0.1618 Y0.5809 Z-0.2397
N5040 X0.1606 Y0.5826 Z-0.2363
N5045 X0.1598 Y0.5838 Z-0.2327
N5050 X0.1592 Y0.5846 Z-0.2289
N5055 X0.1591 Y0.5848 Z-0.225
N5060 G0 Z0.2
N5065 X3.4716 Y0.0694
N5070 Z-0.2
N5075 G1 Z-0.225 F4.
N5080 X3.4717 Y0.0697 Z-0.2289
N5085 X3.4721 Y0.0705 Z-0.2327
N5090 X3.4728 Y0.0718 Z-0.2363
N5095 X3.4737 Y0.0737 Z-0.2397
N5100 X3.4749 Y0.0759 Z-0.2427
N5105 X3.4763 Y0.0786 Z-0.2452
N5110 X3.4778 Y0.0816 Z-0.2473
N5115 X3.4794 Y0.0848 Z-0.2488
N5120 X3.4811 Y0.0882 Z-0.2497
N5125 X3.4829 Y0.0917 Z-0.25
N5130 G3 X3.4809 Y0.1013 I-0.007 J0.0035
N5135 G1 X3.4771 Y0.1041 F5.5
N5140 X3.4683 Y0.1112
N5145 X3.4588 Y0.119
N5150 X3.4499 Y0.1279
N5155 X3.4417 Y0.1371
N5160 X3.4063 Y0.1776
N5165 X3.3996 Y0.1847
N5170 X3.3901 Y0.1933
N5175 X3.3787 Y0.2021
N5180 X3.3642 Y0.2116
N5185 X3.3462 Y0.2213
N5190 X3.323 Y0.2315
N5195 X3.2932 Y0.2419
N5200 X3.2555 Y0.2517
N5205 X3.2171 Y0.2587
N5210 X3.1784 Y0.2637
N5215 X3.1396 Y0.2673
N5220 X3.1007 Y0.2699
N5225 X3.0617 Y0.2717
N5230 X3.0228 Y0.273
N5235 X2.9838 Y0.2739
N5240 X2.9448 Y0.2746
N5245 X2.9058 Y0.2751
N5250 X2.8668 Y0.2754
N5255 X2.8278 Y0.2757
N5260 X2.7889 Y0.2758
N5265 X2.7109 Y0.276
N5270 X2.5939 Y0.2762
N5275 X2.321
N5280 X1.4242
N5285 X0.5664 Y0.2763
N5290 X0.5279 Y0.2828
N5295 X0.4937 Y0.3014
N5300 X0.4655 Y0.3283
N5305 X0.4597 Y0.3356
N5310 X0.4517 Y0.3437
N5315 X0.4422 Y0.3501
N5320 X0.4316 Y0.3543
N5325 X0.4204 Y0.3562
N5330 X0.3938 Y0.3601
N5335 X0.3849 Y0.3615
N5340 X0.3761 Y0.363
N5345 X0.3672 Y0.3646
N5350 X0.3582 Y0.3671
N5355 X0.3495 Y0.37
N5360 X0.3406 Y0.3735
N5365 X0.314 Y0.3866
N5370 X0.3052 Y0.3912
N5375 X0.2875 Y0.4009
N5380 X0.285 Y0.4025
N5385 X0.2793 Y0.4069
N5390 G3 X0.2703 Y0.4108 I-0.0143 J-0.0205 F4.
N5395 G1 X0.2665 Y0.4116 Z-0.2497
N5400 X0.2628 Y0.4125 Z-0.2488
N5405 X0.2592 Y0.4132 Z-0.2473
N5410 X0.256 Y0.414 Z-0.2452
N5415 X0.2531 Y0.4146 Z-0.2427
N5420 X0.2506 Y0.4152 Z-0.2397
N5425 X0.2486 Y0.4156 Z-0.2363
N5430 X0.2471 Y0.4159 Z-0.2327
N5435 X0.2462 Y0.4161 Z-0.2289
N5440 X0.2459 Y0.4162 Z-0.225
N5445 G0 Z0.2
N5450 X3.3902 Y0.1485
N5455 Z-0.2
N5460 G1 Z-0.225 F4.
N5465 X3.3904 Y0.1488 Z-0.2289
N5470 X3.391 Y0.1495 Z-0.2327
N5475 X3.392 Y0.1506 Z-0.2363
N5480 X3.3933 Y0.1522 Z-0.2397
N5485 X3.3949 Y0.1542 Z-0.2427
N5490 X3.3968 Y0.1565 Z-0.2452
N5495 X3.3989 Y0.1591 Z-0.2473
N5500 X3.4012 Y0.1619 Z-0.2488
N5505 X3.4037 Y0.1648 Z-0.2497
N5510 X3.4062 Y0.1678 Z-0.25
N5515 G3 X3.4063 Y0.1776 I-0.006 J0.005
N5520 G1 X3.3958 Y0.1899 F5.5
N5525 X3.3888 Y0.1988
N5530 X3.383 Y0.2076
N5535 X3.3708 Y0.2287
N5540 X3.3677 Y0.2342
N5545 X3.362 Y0.2443
N5550 X3.3545 Y0.2561
N5555 X3.348 Y0.2648
N5560 X3.3404 Y0.2733
N5565 X3.3308 Y0.2826
N5570 X3.3185 Y0.2926
N5575 X3.3041 Y0.3026
N5580 X3.2855 Y0.3134
N5585 X3.2627 Y0.3242
N5590 X3.2334 Y0.3354
N5595 X3.196 Y0.3463
N5600 X3.1576 Y0.3543
N5605 X3.1547 Y0.3547
N5610 X3.1518 Y0.3549
N5615 X3.1488 Y0.355
N5620 G3 X3.1393 Y0.3528 I0.0009 J-0.025 F4.
N5625 X3.1383 Y0.3078 I0.0104 J-0.0227 F5.5
N5630 G1 X3.3284 Y0.2105
N5635 G3 X3.3647 Y0.235 I0.0114 J0.0223
N5640 X3.362 Y0.2443 I-0.0249 J-0.0022 F4.
N5645 G1 X3.3527 Y0.2608 F5.5
N5650 X3.3354 Y0.291
N5655 X3.3243 Y0.3101
N5660 X3.3214 Y0.3139
N5665 X3.3088 Y0.3273
N5670 X3.3062 Y0.3297
N5675 X3.3036 Y0.3317
N5680 X3.29 Y0.3405
N5685 X3.2861 Y0.3429
N5690 X3.2822 Y0.3445
N5695 X3.2687 Y0.3494
N5700 X3.2645 Y0.3508
N5705 X3.2556 Y0.3522
N5710 X3.2291 Y0.3546
N5715 X3.2202 Y0.355
N5720 X0.4558
N5725 X0.447 Y0.3551
N5730 X0.4292 Y0.3556
N5735 X0.4204 Y0.3562
N5740 G3 X0.4108 Y0.3545 I-0.0007 J-0.025 F4.
N5745 G1 X0.4071 Y0.3531 Z-0.2497
N5750 X0.4035 Y0.3517 Z-0.2488
N5755 X0.4002 Y0.3505 Z-0.2473
N5760 X0.397 Y0.3493 Z-0.2452
N5765 X0.3942 Y0.3482 Z-0.2427
N5770 X0.3919 Y0.3473 Z-0.2397
N5775 X0.39 Y0.3465 Z-0.2363
N5780 X0.3886 Y0.346 Z-0.2327
N5785 X0.3877 Y0.3457 Z-0.2289
N5790 X0.3874 Y0.3456 Z-0.225
N5795 G0 Z0.2
N5800 X4.0291 Y1.0061
N5805 Z-0.2
N5810 G1 Z-0.225 F4.
N5815 Y1.0058 Z-0.2289
N5820 X4.0288 Y1.0049 Z-0.2327
N5825 X4.0284 Y1.0035 Z-0.2363
N5830 X4.0279 Y1.0015 Z-0.2397
N5835 X4.0272 Y0.999 Z-0.2427
N5840 X4.0264 Y0.9962 Z-0.2452
N5845 X4.0255 Y0.9929 Z-0.2473
N5850 X4.0246 Y0.9894 Z-0.2488
N5855 X4.0236 Y0.9858 Z-0.2497
N5860 X4.0225 Y0.982 Z-0.25
N5865 G3 X4.0265 Y0.973 I0.0075 J-0.0021
N5870 G1 X4.0353 Y0.9688 F5.5
N5875 X4.0442 Y0.964
N5880 X4.0885 Y0.9391
N5885 X4.0973 Y0.9341
N5890 X4.1062 Y0.9287
N5895 X4.1115 Y0.9253
N5900 X4.1231 Y0.9164
N5905 X4.1416 Y0.9003
N5910 X4.153 Y0.8913
N5915 X4.1855 Y0.8698
N5920 X4.2151 Y0.8444
N5925 X4.24 Y0.8143
N5930 X4.2601 Y0.7809
N5935 X4.2759 Y0.7453
N5940 X4.288 Y0.7082
N5945 X4.289 Y0.7051
N5950 X4.2902 Y0.702
N5955 X4.2915 Y0.6989
N5960 G3 X4.2976 Y0.6913 I0.0222 J0.0115 F4.
N5965 X4.3338 Y0.7254 I0.0161 J0.0191 F5.5
N5970 G1 X4.1788 Y0.9335
N5975 G3 X4.136 Y0.9082 I-0.02 J-0.0149
N5980 X4.1416 Y0.9003 I0.0228 J0.0103 F4.
N5985 G1 X4.1771 Y0.8694 F5.5
N5990 X4.1837 Y0.8633
N5995 X4.1948 Y0.8524
N6000 X4.2073 Y0.8367
N6005 X4.2342 Y0.8012
N6010 X4.2391 Y0.7948
N6015 X4.2568 Y0.7696
N6020 X4.2593 Y0.7658
N6025 X4.2639 Y0.7569
N6030 X4.2934 Y0.6949
N6035 X4.2975 Y0.6861
N6040 X4.3008 Y0.6772
N6045 X4.3065 Y0.6595
N6050 X4.309 Y0.6506
N6055 X4.3219 Y0.5975
N6060 X4.3275 Y0.5709
N6065 X4.3277 Y0.5692
N6070 X4.3293 Y0.5443
N6075 X4.3299 Y0.5266
N6080 X4.3312 Y0.4911
N6085 X4.3313 Y0.4823
N6090 X4.3308 Y0.4646
N6095 X4.3303 Y0.4557
N6100 X4.3278 Y0.4168
N6105 X4.3264 Y0.3778
N6110 X4.3251 Y0.3389
N6115 X4.3109 Y0.3025
N6120 X4.2866 Y0.272
N6125 X4.284 Y0.27
N6130 X4.2787 Y0.2652
N6135 X4.2741 Y0.2599
N6140 X4.2701 Y0.254
N6145 G3 X4.2672 Y0.2446 I0.022 J-0.012 F4.
N6150 X4.316 Y0.2348 I0.0249 J-0.0026 F5.5
N6155 G1 X4.3787 Y0.4436
N6160 G3 X4.334 Y0.4647 I-0.0239 J0.0072
N6165 X4.3303 Y0.4557 I0.0208 J-0.0139 F4.
N6170 G1 X4.326 Y0.4291 F5.5
N6175 X4.3168 Y0.376
N6180 X4.3149 Y0.3671
N6185 X4.3127 Y0.3582
N6190 X4.3097 Y0.3494
N6195 X4.3064 Y0.3405
N6200 X4.2855 Y0.2874
N6205 X4.2741 Y0.2608
N6210 X4.2689 Y0.2519
N6215 X4.2657 Y0.2466
N6220 X4.2635 Y0.2431
N6225 X4.2391 Y0.2059
N6230 X4.2344 Y0.1988
N6235 X4.2214 Y0.1794
N6240 X4.2159 Y0.1722
N6245 X4.2083 Y0.1633
N6250 X4.1819 Y0.1367
N6255 X4.1553 Y0.1102
N6260 X4.1505 Y0.1054
N6265 X4.1351 Y0.0924
N6270 X4.1328 Y0.0908
N6275 X4.1239 Y0.0848
N6280 X4.1113 Y0.0765
N6285 G3 X4.1046 Y0.0694 I0.0145 J-0.0204 F4.
N6290 G1 X4.1025 Y0.0661 Z-0.2497
N6295 X4.1005 Y0.0629 Z-0.2488
N6300 X4.0985 Y0.0598 Z-0.2473
N6305 X4.0968 Y0.057 Z-0.2452
N6310 X4.0952 Y0.0544 Z-0.2427
N6315 X4.0938 Y0.0523 Z-0.2397
N6320 X4.0927 Y0.0505 Z-0.2363
N6325 X4.0919 Y0.0493 Z-0.2327
N6330 X4.0914 Y0.0485 Z-0.2289
N6335 X4.0913 Y0.0482 Z-0.225
N6340 G0 Z0.6
(2D CONTOUR4)
N6350 M8
N6355 G0 X4.3875 Y0.525
N6360 Z0.6
N6365 Z0.2
N6370 G1 Z0.0394 F3.5
N6375 Z-0.255
N6380 G18 G3 X4.3625 Z-0.28 I-0.025 K0.
N6385 G1 X4.3375
N6390 G17 G3 X4.3125 Y0.5 I0. J-0.025
N6395 G2 X3.3542 Y0.3 I-0.5 J0.
N6400 G3 X3.2397 Y0.375 I-0.1146 J-0.05
N6405 G1 X0.4375
N6410 G2 X0.1875 Y0.625 I0. J0.25
N6415 G1 Y0.75
N6420 G2 X0.4375 Y1. I0.25 J0.
N6425 G1 X3.8125
N6430 G2 X4.3125 Y0.5 I0. J-0.5
N6435 G3 X4.3375 Y0.475 I0.025 J0.
N6440 G1 X4.3625
N6445 G18 G2 X4.3875 Z-0.255 I0. K0.025
N6450 G0 Z0.6
N6455 G17
N6460 M9
N6465 G53 G0 Z0.
N6470 M30
%
