%
(FINGER_CAM)
(38 END MILL 7 MINUTES)
(T3  D=0.375 CR=0. - ZMIN=-0.28 - FLAT END MILL)
N10 G90 G94 G17 G91.1
N15 G20
N20 G53 G0 Z0.
(2D CONTOUR1 2)
N25 M9
N30 T3 M6
N35 S1500 M3
N40 G54
N45 M8
N55 G0 X1.3392 Y-0.0489
N60 G43 Z0.3 H3
N65 G0 Z0.1294
N70 G1 Z-0.0525 F1.
N75 X1.3391 Y-0.0487 Z-0.057
N80 X1.3388 Y-0.0479 Z-0.0615
N85 X1.3382 Y-0.0467 Z-0.0658
N90 X1.3375 Y-0.045 Z-0.0699
N95 X1.3366 Y-0.0428 Z-0.0738
N100 X1.3355 Y-0.0402 Z-0.0774
N105 X1.3343 Y-0.0373 Z-0.0806
N110 X1.3329 Y-0.034 Z-0.0834
N115 X1.3315 Y-0.0304 Z-0.0857
N120 X1.3299 Y-0.0266 Z-0.0876
N125 X1.3282 Y-0.0226 Z-0.0889
N130 X1.3265 Y-0.0185 Z-0.0897
N135 X1.3248 Y-0.0143 Z-0.09
N140 X1.3104 Y0.0203 F5.
N145 G3 X1.2613 Y0.0405 I-0.0346 J-0.0144
N150 G2 X0.1185 Y-0.0465 I-0.7035 J1.6908 F10.
N155 X-0.1 Y0.2326 I0.069 J0.2791
N160 G1 Y0.8719
N165 G2 X0.1875 Y1.1594 I0.2875 J0.
N170 G1 X0.991
N175 G2 X1.3122 Y1.0344 I0. J-0.475
N180 G1 X2.2733
N185 G2 X2.71 Y0.3344 I0.2183 J-0.35
N190 X2.2733 I-0.2183 J0.35
N195 G1 X1.742
N200 G2 X1.2613 Y0.0405 I-1.1842 J1.3969
N205 G3 X1.2411 Y-0.0085 I0.0144 J-0.0346 F5.
N210 G1 X1.2555 Y-0.0431
N215 X1.2573 Y-0.0473 Z-0.0897
N220 X1.259 Y-0.0514 Z-0.0889
N225 X1.2606 Y-0.0554 Z-0.0876
N230 X1.2622 Y-0.0592 Z-0.0857
N235 X1.2637 Y-0.0628 Z-0.0834
N240 X1.2651 Y-0.0661 Z-0.0806
N245 X1.2663 Y-0.069 Z-0.0774
N250 X1.2674 Y-0.0716 Z-0.0738
N255 X1.2683 Y-0.0738 Z-0.0699
N260 X1.269 Y-0.0755 Z-0.0658
N265 X1.2695 Y-0.0768 Z-0.0615
N270 X1.2698 Y-0.0775 Z-0.057
N275 X1.2699 Y-0.0778 Z-0.0525
N280 G0 Z0.1
N285 X1.3392 Y-0.0489
N290 G1 Z0.0394 F5.
N295 Z-0.1425 F1.
N300 X1.3391 Y-0.0487 Z-0.147
N305 X1.3388 Y-0.0479 Z-0.1515
N310 X1.3382 Y-0.0467 Z-0.1558
N315 X1.3375 Y-0.045 Z-0.1599
N320 X1.3366 Y-0.0428 Z-0.1638
N325 X1.3355 Y-0.0402 Z-0.1674
N330 X1.3343 Y-0.0373 Z-0.1706
N335 X1.3329 Y-0.034 Z-0.1734
N340 X1.3315 Y-0.0304 Z-0.1757
N345 X1.3299 Y-0.0266 Z-0.1776
N350 X1.3282 Y-0.0226 Z-0.1789
N355 X1.3265 Y-0.0185 Z-0.1797
N360 X1.3248 Y-0.0143 Z-0.18
N365 X1.3104 Y0.0203 F5.
N370 G3 X1.2613 Y0.0405 I-0.0346 J-0.0144
N375 G2 X0.1185 Y-0.0465 I-0.7035 J1.6908 F10.
N380 X-0.1 Y0.2326 I0.069 J0.2791
N385 G1 Y0.8719
N390 G2 X0.1875 Y1.1594 I0.2875 J0.
N395 G1 X0.991
N400 G2 X1.3122 Y1.0344 I0. J-0.475
N405 G1 X2.2733
N410 G2 X2.71 Y0.3344 I0.2183 J-0.35
N415 X2.2733 I-0.2183 J0.35
N420 G1 X1.742
N425 G2 X1.2613 Y0.0405 I-1.1842 J1.3969
N430 G3 X1.2411 Y-0.0085 I0.0144 J-0.0346 F5.
N435 G1 X1.2555 Y-0.0431
N440 X1.2573 Y-0.0473 Z-0.1797
N445 X1.259 Y-0.0514 Z-0.1789
N450 X1.2606 Y-0.0554 Z-0.1776
N455 X1.2622 Y-0.0592 Z-0.1757
N460 X1.2637 Y-0.0628 Z-0.1734
N465 X1.2651 Y-0.0661 Z-0.1706
N470 X1.2663 Y-0.069 Z-0.1674
N475 X1.2674 Y-0.0716 Z-0.1638
N480 X1.2683 Y-0.0738 Z-0.1599
N485 X1.269 Y-0.0755 Z-0.1558
N490 X1.2695 Y-0.0768 Z-0.1515
N495 X1.2698 Y-0.0775 Z-0.147
N500 X1.2699 Y-0.0778 Z-0.1425
N505 G0 Z0.1
N510 X1.3392 Y-0.0489
N515 G1 Z-0.0506 F5.
N520 Z-0.1925 F1.
N525 X1.3391 Y-0.0487 Z-0.197
N530 X1.3388 Y-0.0479 Z-0.2015
N535 X1.3382 Y-0.0467 Z-0.2058
N540 X1.3375 Y-0.045 Z-0.2099
N545 X1.3366 Y-0.0428 Z-0.2138
N550 X1.3355 Y-0.0402 Z-0.2174
N555 X1.3343 Y-0.0373 Z-0.2206
N560 X1.3329 Y-0.034 Z-0.2234
N565 X1.3315 Y-0.0304 Z-0.2257
N570 X1.3299 Y-0.0266 Z-0.2276
N575 X1.3282 Y-0.0226 Z-0.2289
N580 X1.3265 Y-0.0185 Z-0.2297
N585 X1.3248 Y-0.0143 Z-0.23
N590 X1.3104 Y0.0203 F5.
N595 G3 X1.2613 Y0.0405 I-0.0346 J-0.0144
N600 G2 X0.1185 Y-0.0465 I-0.7035 J1.6908 F10.
N605 X-0.1 Y0.2326 I0.069 J0.2791
N610 G1 Y0.8719
N615 G2 X0.1875 Y1.1594 I0.2875 J0.
N620 G1 X0.991
N625 G2 X1.3122 Y1.0344 I0. J-0.475
N630 G1 X2.2733
N635 G2 X2.71 Y0.3344 I0.2183 J-0.35
N640 X2.2733 I-0.2183 J0.35
N645 G1 X1.742
N650 G2 X1.2613 Y0.0405 I-1.1842 J1.3969
N655 G3 X1.2411 Y-0.0085 I0.0144 J-0.0346 F5.
N660 G1 X1.2555 Y-0.0431
N665 X1.2573 Y-0.0473 Z-0.2297
N670 X1.259 Y-0.0514 Z-0.2289
N675 X1.2606 Y-0.0554 Z-0.2276
N680 X1.2622 Y-0.0592 Z-0.2257
N685 X1.2637 Y-0.0628 Z-0.2234
N690 X1.2651 Y-0.0661 Z-0.2206
N695 X1.2663 Y-0.069 Z-0.2174
N700 X1.2674 Y-0.0716 Z-0.2138
N705 X1.2683 Y-0.0738 Z-0.2099
N710 X1.269 Y-0.0755 Z-0.2058
N715 X1.2695 Y-0.0768 Z-0.2015
N720 X1.2698 Y-0.0775 Z-0.197
N725 X1.2699 Y-0.0778 Z-0.1925
N730 G0 Z0.1
N735 X1.3392 Y-0.0489
N740 G1 Z-0.1006 F5.
N745 Z-0.2425 F1.
N750 X1.3391 Y-0.0487 Z-0.247
N755 X1.3388 Y-0.0479 Z-0.2515
N760 X1.3382 Y-0.0467 Z-0.2558
N765 X1.3375 Y-0.045 Z-0.2599
N770 X1.3366 Y-0.0428 Z-0.2638
N775 X1.3355 Y-0.0402 Z-0.2674
N780 X1.3343 Y-0.0373 Z-0.2706
N785 X1.3329 Y-0.034 Z-0.2734
N790 X1.3315 Y-0.0304 Z-0.2757
N795 X1.3299 Y-0.0266 Z-0.2776
N800 X1.3282 Y-0.0226 Z-0.2789
N805 X1.3265 Y-0.0185 Z-0.2797
N810 X1.3248 Y-0.0143 Z-0.28
N815 X1.3104 Y0.0203 F5.
N820 G3 X1.2613 Y0.0405 I-0.0346 J-0.0144
N825 G2 X0.1185 Y-0.0465 I-0.7035 J1.6908 F10.
N830 X-0.1 Y0.2326 I0.069 J0.2791
N835 G1 Y0.8719
N840 G2 X0.1875 Y1.1594 I0.2875 J0.
N845 G1 X0.991
N850 G2 X1.3122 Y1.0344 I0. J-0.475
N855 G1 X2.2733
N860 G2 X2.71 Y0.3344 I0.2183 J-0.35
N865 X2.2733 I-0.2183 J0.35
N870 G1 X1.742
N875 G2 X1.2613 Y0.0405 I-1.1842 J1.3969
N880 X1.2279 Y0.0472 I-0.0117 J0.0282
N885 G3 X1.1947 Y0.0543 I-0.0222 J-0.0221
N890 G2 X0.1275 Y-0.0101 I-0.6368 J1.6769
N895 X-0.0625 Y0.2326 I0.06 J0.2427
N900 G1 Y0.8719
N905 G2 X0.1875 Y1.1219 I0.25 J0.
N910 G1 X0.991
N915 G2 X1.2972 Y0.9969 I0. J-0.4375
N920 G1 X2.2844
N925 G2 X2.6989 Y0.3719 I0.2073 J-0.3125
N930 X2.2844 I-0.2073 J0.3125
N935 G1 X1.7282
N940 G2 X0.1275 Y-0.0101 I-1.1704 J1.3594
N945 X-0.0625 Y0.2326 I0.06 J0.2427
N950 G1 Y0.8719
N955 G2 X0.1875 Y1.1219 I0.25 J0.
N960 G1 X0.991
N965 G2 X1.2972 Y0.9969 I0. J-0.4375
N970 G1 X2.2844
N975 G2 X2.6989 Y0.3719 I0.2073 J-0.3125
N980 X2.2844 I-0.2073 J0.3125
N985 G1 X1.7282
N990 G2 X1.1947 Y0.0543 I-1.1704 J1.3594
N995 G3 X1.1729 Y0.006 I0.0133 J-0.0351 F5.
N1000 G1 X1.1862 Y-0.0291
N1005 X1.1878 Y-0.0333 Z-0.2797
N1010 X1.1894 Y-0.0375 Z-0.2789
N1015 X1.191 Y-0.0415 Z-0.2776
N1020 X1.1924 Y-0.0454 Z-0.2757
N1025 X1.1938 Y-0.049 Z-0.2734
N1030 X1.1951 Y-0.0523 Z-0.2706
N1035 X1.1962 Y-0.0553 Z-0.2674
N1040 X1.1972 Y-0.0579 Z-0.2638
N1045 X1.198 Y-0.0601 Z-0.2599
N1050 X1.1987 Y-0.0619 Z-0.2558
N1055 X1.1992 Y-0.0631 Z-0.2515
N1060 X1.1994 Y-0.0639 Z-0.247
N1065 X1.1995 Y-0.0641 Z-0.2425
N1070 G0 Z0.3
(FACE2 2)
N1080 M8
N1085 G0 Z0.6
N1090 X1.5829 Y0.2116
N1095 Z0.2
N1100 G1 Z0.0075 F5.
N1105 G18 G3 X1.5454 Z-0.03 I-0.0375 K0.
N1110 G1 X1.4551
N1115 X0.125 F7.
N1120 G17 G2 Y0.4822 I0. J0.1353
N1125 G1 X2.6785
N1130 X2.6792
N1135 G3 Y0.7527 I0. J0.1353
N1140 G1 X0.125
N1145 G18 G3 X0.0875 Z0.0075 I0. K0.0375 F5.
N1150 G0 Z0.6
N1155 G17
N1160 M9
N1165 G53 G0 Z0.
N1170 M30
%
