%
(MOTOR_MOUNT_HALF_NEMA17_MOUNT_HOLES)
(18 1 MINUTE)
(T4  D=0.125 CR=0. TAPER=118DEG - ZMIN=-0.5026 - DRILL)
N10 G90 G94 G17 G91.1
N15 G20
N20 G53 G0 Z0.
(DRILL3)
N25 M9
N30 T4 M6
N35 S600 M3
N40 G54
N45 M8
N55 G0 X-8.61 Y0.61
N60 G43 Z0.6 H4
N70 G0 Z0.2
N75 G98 G81 X-8.61 Y0.61 Z-0.5026 R0.2 F20.
N80 X-7.39
N85 X-6.61
N90 X-5.39
N95 X-4.61
N100 X-3.39
N105 X-2.61
N110 X-1.39
N115 X-0.61
N120 X0.61
N125 Y-0.61
N130 X-0.61
N135 X-1.39
N140 X-2.61
N145 X-3.39
N150 X-4.61
N155 X-5.39
N160 X-6.61
N165 X-7.39
N170 X-8.61
N175 G80
N180 G0 Z0.6
N190 M9
N195 G53 Z0.
N200 M30
%
