%
(MOTOR LEVER)
(38 END MILL 22 MINUTES )
(T3  D=0.375 CR=0. - ZMIN=-0.4375 - FLAT END MILL)
N10 G90 G94 G17 G91.1
N15 G20
N20 G53 G0 Z0.
(ADAPTIVE1)
N25 M9
N30 T3 M6
N35 S1500 M3
N40 G54
N45 M8
N55 G0 X0.229 Y-0.2245
N60 G43 Z0.6 H3
N65 G0 Z0.2
N70 Z-0.075
N75 G1 Z-0.1125 F5.
N80 X0.2287 Z-0.117
N85 X0.2279 Y-0.2243 Z-0.1215
N90 X0.2266 Y-0.2242 Z-0.1258
N95 X0.2247 Y-0.2239 Z-0.1299
N100 X0.2224 Y-0.2236 Z-0.1338
N105 X0.2197 Y-0.2232 Z-0.1374
N110 X0.2165 Y-0.2227 Z-0.1406
N115 X0.213 Y-0.2222 Z-0.1434
N120 X0.2091 Y-0.2216 Z-0.1457
N125 X0.205 Y-0.2211 Z-0.1476
N130 X0.2008 Y-0.2204 Z-0.1489
N135 X0.1964 Y-0.2198 Z-0.1497
N140 X0.1919 Y-0.2192 Z-0.15
N145 X0.0005 Y-0.1917
N150 Y-0.1857 F7.
N155 X-0.0088 Y-0.14
N160 X-0.0158 Y-0.0938
N165 X-0.0211 Y-0.0474
N170 X-0.0251 Y-0.0009
N175 X-0.028 Y0.0457
N180 X-0.0303 Y0.0924
N185 X-0.0319 Y0.139
N190 X-0.0332 Y0.1857
N195 X-0.0341 Y0.2324
N200 X-0.0348 Y0.2791
N205 X-0.0353 Y0.3258
N210 X-0.0357 Y0.3724
N215 X-0.036 Y0.4191
N220 X-0.0362 Y0.4658
N225 X-0.0364 Y0.5125
N230 X-0.0366 Y0.6059
N235 X-0.0368 Y0.746
N240 X-0.0369 Y1.0261
N245 X-0.037 Y1.3296
N250 X-0.0313 Y1.3523
N255 X-0.01 Y1.3938
N260 X0.0227 Y1.4272
N265 X0.0614 Y1.4533
N270 X0.1035 Y1.4734
N275 X0.1476 Y1.4888
N280 X0.1927 Y1.5006
N285 X0.2386 Y1.5095
N290 X0.2848 Y1.5162
N295 X0.3312 Y1.5212
N300 X0.3777 Y1.525
N305 X0.4244 Y1.5279
N310 X0.471 Y1.53
N315 X0.5177 Y1.5316
N320 X0.5643 Y1.5328
N325 X0.611 Y1.5337
N330 X0.6577 Y1.5343
N335 X0.7044 Y1.5348
N340 X0.7511 Y1.5352
N345 X0.7978 Y1.5355
N350 X0.8445 Y1.5357
N355 X0.9379 Y1.536
N360 X1.0779 Y1.5362
N365 X1.3114 Y1.5363
N370 X2.3853 Y1.5365
N375 X2.4864
N380 X2.4972 Y1.5379
N385 X2.5072 Y1.5419
N390 X2.516 Y1.5483
N395 X2.5229 Y1.5567
N400 X2.5274 Y1.5666
N405 X2.5294 Y1.5773
N410 X2.5286 Y1.5881
N415 X2.5251 Y1.5984
N420 X2.5192 Y1.6075
N425 X2.5112 Y1.6148
N430 G3 X2.4974 Y1.6198 I-0.0193 J-0.0322 F5.
N435 G1 X2.4929 Y1.6204 Z-0.1497
N440 X2.4885 Y1.6211 Z-0.1489
N445 X2.4843 Y1.6217 Z-0.1476
N450 X2.4802 Y1.6223 Z-0.1457
N455 X2.4763 Y1.6229 Z-0.1434
N460 X2.4728 Y1.6234 Z-0.1406
N465 X2.4696 Y1.6239 Z-0.1374
N470 X2.4669 Y1.6243 Z-0.1338
N475 X2.4646 Y1.6247 Z-0.1299
N480 X2.4627 Y1.6249 Z-0.1258
N485 X2.4614 Y1.6251 Z-0.1215
N490 X2.4606 Y1.6253 Z-0.117
N495 X2.4603 Z-0.1125
N500 G0 Z0.2
N505 X2.1849 Y-0.226
N510 Z-0.075
N515 G1 Z-0.1125 F5.
N520 X2.1851 Z-0.117
N525 X2.186 Y-0.2259 Z-0.1215
N530 X2.1873 Y-0.2257 Z-0.1258
N535 X2.1891 Y-0.2255 Z-0.1299
N540 X2.1915 Y-0.2252 Z-0.1338
N545 X2.1942 Y-0.2249 Z-0.1374
N550 X2.1974 Y-0.2245 Z-0.1406
N555 X2.201 Y-0.2241 Z-0.1434
N560 X2.2048 Y-0.2236 Z-0.1457
N565 X2.2089 Y-0.2231 Z-0.1476
N570 X2.2132 Y-0.2226 Z-0.1489
N575 X2.2176 Y-0.2221 Z-0.1497
N580 X2.2221 Y-0.2216 Z-0.15
N585 G3 X2.3728 Y-0.1868 I-0.085 J0.713
N590 G1 X2.3764 Y-0.1854 F7.
N595 X2.3988 Y-0.176
N600 X2.4075 Y-0.1721
N605 X2.4325 Y-0.16
N610 X2.4438 Y-0.1544
N615 X2.455 Y-0.1484
N620 X2.4775 Y-0.1354
N625 X2.4787 Y-0.1346
N630 X2.4745 Y-0.1303
N635 X2.4675 Y-0.1253
N640 X2.4481 Y-0.1138
N645 X2.4231 Y-0.1015
N650 X2.3902 Y-0.0885
N655 X2.3458 Y-0.075
N660 X2.3002 Y-0.0651
N665 X2.2541 Y-0.0578
N670 X2.2077 Y-0.0524
N675 X2.1612 Y-0.0484
N680 X2.1146 Y-0.0454
N685 X2.0679 Y-0.0432
N690 X2.0213 Y-0.0416
N695 X1.9746 Y-0.0404
N700 X1.9279 Y-0.0395
N705 X1.8812 Y-0.0388
N710 X1.8345 Y-0.0384
N715 X1.7878 Y-0.038
N720 X1.7411 Y-0.0377
N725 X1.6944 Y-0.0375
N730 X1.6011 Y-0.0373
N735 X1.5077 Y-0.0372
N740 X1.3209 Y-0.0371
N745 X0.854 Y-0.0372
N750 X0.5271 Y-0.0373
N755 X0.3404
N760 X0.3172 Y-0.0349
N765 X0.2735 Y-0.0183
N770 X0.2376 Y0.0115
N775 X0.209 Y0.0484
N780 X0.1865 Y0.0893
N785 X0.1691 Y0.1326
N790 X0.1557 Y0.1774
N795 X0.1454 Y0.2229
N800 X0.1376 Y0.2689
N805 X0.1316 Y0.3153
N810 X0.1271 Y0.3617
N815 X0.1237 Y0.4083
N820 X0.1211 Y0.4549
N825 X0.1191 Y0.5016
N830 X0.1176 Y0.5482
N835 X0.1165 Y0.5949
N840 X0.1157 Y0.6416
N845 X0.115 Y0.6883
N850 X0.1145 Y0.735
N855 X0.1142 Y0.7817
N860 X0.1139 Y0.8284
N865 X0.1137 Y0.875
N870 X0.1134 Y0.9684
N875 X0.1132 Y1.1085
N880 X0.1147 Y1.1552
N885 X0.1315 Y1.1987
N890 X0.1592 Y1.2364
N895 X0.1939 Y1.2676
N900 X0.233 Y1.293
N905 X0.275 Y1.3134
N910 X0.3188 Y1.3296
N915 X0.3638 Y1.3423
N920 X0.4094 Y1.3523
N925 X0.4554 Y1.36
N930 X0.5017 Y1.3661
N935 X0.5482 Y1.3708
N940 X0.5947 Y1.3744
N945 X0.6413 Y1.3772
N950 X0.688 Y1.3793
N955 X0.7346 Y1.3809
N960 X0.7813 Y1.3822
N965 X0.828 Y1.3832
N970 X0.8747 Y1.3839
N975 X0.9214 Y1.3845
N980 X0.9681 Y1.3849
N985 X1.0148 Y1.3853
N990 X1.0614 Y1.3855
N995 X1.1081 Y1.3857
N1000 X1.2015 Y1.386
N1005 X1.3416 Y1.3862
N1010 X1.5751 Y1.3864
N1015 X2.3221 Y1.3865
N1020 X2.3688 Y1.3868
N1025 X2.4083 Y1.3889
N1030 X2.437 Y1.3928
N1035 X2.4621 Y1.3983
N1040 X2.4826 Y1.4045
N1045 X2.5016 Y1.412
N1050 X2.5176 Y1.4199
N1055 X2.5578 Y1.4438
N1060 X2.5692 Y1.45
N1065 X2.581 Y1.4582
N1070 X2.5908 Y1.4687
N1075 X2.5981 Y1.481
N1080 X2.6027 Y1.4946
N1085 X2.6043 Y1.5088
N1090 X2.6028 Y1.5231
N1095 X2.5984 Y1.5367
N1100 X2.5912 Y1.5491
N1105 X2.5815 Y1.5597
N1110 G3 X2.5686 Y1.5666 I-0.0238 J-0.029 F5.
N1115 G1 X2.5643 Y1.5679 Z-0.1497
N1120 X2.56 Y1.5692 Z-0.1489
N1125 X2.5559 Y1.5705 Z-0.1476
N1130 X2.5519 Y1.5717 Z-0.1457
N1135 X2.5482 Y1.5728 Z-0.1434
N1140 X2.5448 Y1.5738 Z-0.1406
N1145 X2.5417 Y1.5747 Z-0.1374
N1150 X2.5391 Y1.5756 Z-0.1338
N1155 X2.5368 Y1.5762 Z-0.1299
N1160 X2.535 Y1.5768 Z-0.1258
N1165 X2.5337 Y1.5772 Z-0.1215
N1170 X2.533 Y1.5774 Z-0.117
N1175 X2.5327 Y1.5775 Z-0.1125
N1180 G0 Z0.2
N1185 X2.427 Y-0.1258
N1190 Z-0.075
N1195 G1 Z-0.1125 F5.
N1200 X2.4272 Z-0.117
N1205 X2.428 Y-0.1261 Z-0.1215
N1210 X2.4293 Y-0.1265 Z-0.1258
N1215 X2.4311 Y-0.127 Z-0.1299
N1220 X2.4333 Y-0.1277 Z-0.1338
N1225 X2.436 Y-0.1285 Z-0.1374
N1230 X2.4391 Y-0.1295 Z-0.1406
N1235 X2.4425 Y-0.1305 Z-0.1434
N1240 X2.4462 Y-0.1317 Z-0.1457
N1245 X2.4501 Y-0.1329 Z-0.1476
N1250 X2.4542 Y-0.1342 Z-0.1489
N1255 X2.4585 Y-0.1355 Z-0.1497
N1260 X2.4628 Y-0.1368 Z-0.15
N1265 G3 X2.4775 Y-0.1354 I0.0057 J0.0183
N1270 G1 X2.4904 Y-0.1271 F7.
N1275 X2.5112 Y-0.1137
N1280 X2.5125 Y-0.1126
N1285 X2.5094 Y-0.1031
N1290 X2.5047 Y-0.0921
N1295 X2.4989 Y-0.081
N1300 X2.4911 Y-0.0686
N1305 X2.4809 Y-0.0549
N1310 X2.4692 Y-0.0416
N1315 X2.4537 Y-0.0266
N1320 X2.4358 Y-0.012
N1325 X2.4131 Y0.0039
N1330 X2.3858 Y0.0198
N1335 X2.3518 Y0.0361
N1340 X2.3084 Y0.0528
N1345 X2.2636 Y0.066
N1350 X2.2181 Y0.0763
N1355 X2.1721 Y0.0844
N1360 X2.1258 Y0.0908
N1365 X2.0794 Y0.0958
N1370 X2.0329 Y0.0997
N1375 X1.9863 Y0.1027
N1380 X1.9397 Y0.105
N1385 X1.893 Y0.1069
N1390 X1.8463 Y0.1083
N1395 X1.7997 Y0.1094
N1400 X1.753 Y0.1102
N1405 X1.7063 Y0.1109
N1410 X1.6596 Y0.1114
N1415 X1.6129 Y0.1117
N1420 X1.5662 Y0.112
N1425 X1.5195 Y0.1123
N1430 X1.4728 Y0.1124
N1435 X1.3794 Y0.1126
N1440 X1.2394 Y0.1128
N1445 X1.0059
N1450 X0.5857 Y0.1127
N1455 X0.539
N1460 X0.4925 Y0.1165
N1465 X0.4495 Y0.1347
N1470 X0.4124 Y0.1631
N1475 X0.3816 Y0.1982
N1480 X0.3565 Y0.2375
N1485 X0.3363 Y0.2796
N1490 X0.3202 Y0.3235
N1495 X0.3075 Y0.3684
N1500 X0.2976 Y0.414
N1505 X0.2898 Y0.4601
N1510 X0.2837 Y0.5064
N1515 X0.279 Y0.5528
N1520 X0.2754 Y0.5994
N1525 X0.2725 Y0.646
N1530 X0.2703 Y0.6926
N1535 X0.2687 Y0.7393
N1540 X0.2674 Y0.786
N1545 X0.2664 Y0.8326
N1550 X0.2656 Y0.8793
N1555 X0.265 Y0.926
N1560 X0.2646 Y0.9727
N1565 X0.2766 Y1.0178
N1570 X0.3 Y1.0582
N1575 X0.3314 Y1.0928
N1580 X0.3681 Y1.1216
N1585 X0.4084 Y1.1452
N1590 X0.451 Y1.1643
N1595 X0.4951 Y1.1796
N1600 X0.5402 Y1.1918
N1605 X0.5859 Y1.2014
N1610 X0.632 Y1.2091
N1615 X0.6783 Y1.215
N1620 X0.7247 Y1.2198
N1625 X0.7713 Y1.2234
N1630 X0.8179 Y1.2263
N1635 X0.8645 Y1.2286
N1640 X0.9112 Y1.2303
N1645 X0.9578 Y1.2317
N1650 X1.0045 Y1.2327
N1655 X1.0512 Y1.2336
N1660 X1.0979 Y1.2342
N1665 X1.1446 Y1.2347
N1670 X1.1913 Y1.2351
N1675 X1.238 Y1.2354
N1680 X1.2847 Y1.2356
N1685 X1.3313 Y1.2358
N1690 X1.4247 Y1.236
N1695 X1.5648 Y1.2363
N1700 X1.7983 Y1.2364
N1705 X2.1718 Y1.2365
N1710 X2.2185
N1715 X2.2652 Y1.237
N1720 X2.3119 Y1.2385
N1725 X2.3584 Y1.2418
N1730 X2.4047 Y1.2477
N1735 X2.4481 Y1.2566
N1740 X2.4929 Y1.2695
N1745 X2.532 Y1.2838
N1750 X2.5609 Y1.2972
N1755 X2.5837 Y1.3099
N1760 X2.6041 Y1.3237
N1765 X2.6209 Y1.337
N1770 X2.6361 Y1.3513
N1775 X2.6487 Y1.3652
N1780 X2.656 Y1.3746
N1785 X2.6639 Y1.387
N1790 X2.6697 Y1.4005
N1795 X2.6732 Y1.4148
N1800 X2.6742 Y1.4295
N1805 X2.6727 Y1.4441
N1810 X2.6688 Y1.4583
N1815 X2.6626 Y1.4716
N1820 X2.6542 Y1.4837
N1825 G3 X2.6425 Y1.4926 I-0.0281 J-0.0249 F5.
N1830 G1 X2.6385 Y1.4946 Z-0.1497
N1835 X2.6345 Y1.4965 Z-0.1489
N1840 X2.6306 Y1.4984 Z-0.1476
N1845 X2.6269 Y1.5002 Z-0.1457
N1850 X2.6234 Y1.5019 Z-0.1434
N1855 X2.6202 Y1.5035 Z-0.1406
N1860 X2.6173 Y1.5049 Z-0.1374
N1865 X2.6148 Y1.5061 Z-0.1338
N1870 X2.6127 Y1.5071 Z-0.1299
N1875 X2.611 Y1.508 Z-0.1258
N1880 X2.6098 Y1.5085 Z-0.1215
N1885 X2.6091 Y1.5089 Z-0.117
N1890 X2.6088 Y1.509 Z-0.1125
N1895 G0 Z0.2
N1900 X2.4603 Y-0.1066
N1905 Z-0.075
N1910 G1 Z-0.1125 F5.
N1915 X2.4605 Y-0.1067 Z-0.117
N1920 X2.4613 Y-0.1069 Z-0.1215
N1925 X2.4626 Y-0.1072 Z-0.1258
N1930 X2.4644 Y-0.1077 Z-0.1299
N1935 X2.4667 Y-0.1083 Z-0.1338
N1940 X2.4694 Y-0.109 Z-0.1374
N1945 X2.4725 Y-0.1097 Z-0.1406
N1950 X2.476 Y-0.1106 Z-0.1434
N1955 X2.4797 Y-0.1116 Z-0.1457
N1960 X2.4837 Y-0.1126 Z-0.1476
N1965 X2.4879 Y-0.1136 Z-0.1489
N1970 X2.4922 Y-0.1147 Z-0.1497
N1975 X2.4966 Y-0.1158 Z-0.15
N1980 G3 X2.5112 Y-0.1137 I0.0047 J0.0186
N1985 G1 X2.5224 Y-0.1057 F7.
N1990 X2.5449 Y-0.0889
N1995 X2.5538 Y-0.0822
N2000 X2.5549 Y-0.0812
N2005 X2.5547 Y-0.0694
N2010 X2.5535 Y-0.0569
N2015 X2.5511 Y-0.0434
N2020 X2.5472 Y-0.0288
N2025 X2.5418 Y-0.0135
N2030 X2.5344 Y0.0031
N2035 X2.5252 Y0.0199
N2040 X2.5131 Y0.0384
N2045 X2.499 Y0.0565
N2050 X2.4806 Y0.0766
N2055 X2.4601 Y0.0957
N2060 X2.4342 Y0.1162
N2065 X2.4039 Y0.1365
N2070 X2.3677 Y0.1567
N2075 X2.3252 Y0.176
N2080 X2.2814 Y0.1921
N2085 X2.2366 Y0.2054
N2090 X2.1913 Y0.2164
N2095 X2.1454 Y0.2254
N2100 X2.0993 Y0.2327
N2105 X2.053 Y0.2387
N2110 X2.0066 Y0.2435
N2115 X1.96 Y0.2474
N2120 X1.9135 Y0.2506
N2125 X1.8668 Y0.2531
N2130 X1.8202 Y0.2552
N2135 X1.7735 Y0.2568
N2140 X1.7269 Y0.2581
N2145 X1.6802 Y0.2591
N2150 X1.6335 Y0.2599
N2155 X1.5868 Y0.2606
N2160 X1.5401 Y0.2611
N2165 X1.4934 Y0.2615
N2170 X1.4467 Y0.2618
N2175 X1.4 Y0.2621
N2180 X1.3533 Y0.2622
N2185 X1.26 Y0.2625
N2190 X1.1199 Y0.2627
N2195 X0.9331 Y0.2628
N2200 X0.6997
N2205 X0.6534 Y0.2692
N2210 X0.6107 Y0.2879
N2215 X0.5733 Y0.316
N2220 X0.5418 Y0.3505
N2225 X0.5158 Y0.3892
N2230 X0.4946 Y0.4308
N2235 X0.4775 Y0.4743
N2240 X0.4638 Y0.5189
N2245 X0.4529 Y0.5643
N2250 X0.4443 Y0.6102
N2255 X0.4375 Y0.6564
N2260 X0.4322 Y0.7028
N2265 X0.428 Y0.7493
N2270 X0.4247 Y0.7959
N2275 X0.4307 Y0.8422
N2280 X0.4492 Y0.885
N2285 X0.477 Y0.9226
N2290 X0.5113 Y0.9543
N2295 X0.5499 Y0.9806
N2300 X0.5913 Y1.0021
N2305 X0.6346 Y1.0195
N2310 X0.6792 Y1.0334
N2315 X0.7245 Y1.0446
N2320 X0.7704 Y1.0535
N2325 X0.8165 Y1.0605
N2330 X0.8629 Y1.0661
N2335 X0.9094 Y1.0705
N2340 X0.9559 Y1.0739
N2345 X1.0026 Y1.0766
N2350 X1.0492 Y1.0788
N2355 X1.0959 Y1.0804
N2360 X1.1425 Y1.0817
N2365 X1.1892 Y1.0828
N2370 X1.2359 Y1.0836
N2375 X1.2826 Y1.0842
N2380 X1.3293 Y1.0847
N2385 X1.376 Y1.0851
N2390 X1.4227 Y1.0854
N2395 X1.4693 Y1.0856
N2400 X1.5627 Y1.0859
N2405 X1.6561 Y1.0861
N2410 X1.7962 Y1.0863
N2415 X2.0763 Y1.0865
N2420 X2.123 Y1.0866
N2425 X2.1697 Y1.087
N2430 X2.2164 Y1.088
N2435 X2.2631 Y1.09
N2440 X2.3096 Y1.0932
N2445 X2.3561 Y1.0982
N2450 X2.4022 Y1.1052
N2455 X2.448 Y1.1146
N2460 X2.4931 Y1.1264
N2465 X2.5374 Y1.1411
N2470 X2.578 Y1.1581
N2475 X2.6143 Y1.1768
N2480 X2.6448 Y1.1958
N2485 X2.6707 Y1.2149
N2490 X2.6915 Y1.2332
N2495 X2.7086 Y1.2506
N2500 X2.7236 Y1.2687
N2505 X2.727 Y1.2736
N2510 X2.735 Y1.2874
N2515 X2.7403 Y1.3026
N2520 X2.7427 Y1.3184
N2525 X2.7423 Y1.3344
N2530 X2.7389 Y1.3501
N2535 X2.7327 Y1.3648
N2540 X2.7246 Y1.38
N2545 X2.7186 Y1.391
N2550 X2.7134 Y1.3995
N2555 G3 X2.7032 Y1.41 I-0.0314 J-0.0205 F5.
N2560 G1 X2.6995 Y1.4125 Z-0.1497
N2565 X2.6958 Y1.415 Z-0.1489
N2570 X2.6922 Y1.4175 Z-0.1476
N2575 X2.6888 Y1.4198 Z-0.1457
N2580 X2.6856 Y1.422 Z-0.1434
N2585 X2.6827 Y1.424 Z-0.1406
N2590 X2.68 Y1.4258 Z-0.1374
N2595 X2.6777 Y1.4274 Z-0.1338
N2600 X2.6758 Y1.4287 Z-0.1299
N2605 X2.6743 Y1.4298 Z-0.1258
N2610 X2.6731 Y1.4305 Z-0.1215
N2615 X2.6725 Y1.431 Z-0.117
N2620 X2.6722 Y1.4312 Z-0.1125
N2625 G0 Z0.2
N2630 X2.5116 Y-0.0557
N2635 Z-0.075
N2640 G1 Z-0.1125 F5.
N2645 X2.5118 Y-0.0559 Z-0.117
N2650 X2.5124 Y-0.0565 Z-0.1215
N2655 X2.5134 Y-0.0574 Z-0.1258
N2660 X2.5147 Y-0.0586 Z-0.1299
N2665 X2.5165 Y-0.0602 Z-0.1338
N2670 X2.5185 Y-0.0621 Z-0.1374
N2675 X2.5209 Y-0.0643 Z-0.1406
N2680 X2.5235 Y-0.0667 Z-0.1434
N2685 X2.5263 Y-0.0694 Z-0.1457
N2690 X2.5294 Y-0.0722 Z-0.1476
N2695 X2.5325 Y-0.0751 Z-0.1489
N2700 X2.5358 Y-0.0781 Z-0.1497
N2705 X2.5391 Y-0.0812 Z-0.15
N2710 G3 X2.5538 Y-0.0822 I0.008 J0.0086
N2715 G1 X2.5595 Y-0.0774 F7.
N2720 X2.5674 Y-0.0709
N2725 X2.5898 Y-0.0511
N2730 X2.5973 Y-0.044
N2735 X2.5994 Y-0.0418
N2740 X2.602 Y-0.0306
N2745 X2.6039 Y-0.0188
N2750 X2.6049 Y-0.0051
N2755 X2.6048 Y0.0091
N2760 X2.6034 Y0.0252
N2765 X2.6005 Y0.042
N2770 X2.5959 Y0.0601
N2775 X2.5893 Y0.0796
N2780 X2.5807 Y0.0996
N2785 X2.569 Y0.1216
N2790 X2.5552 Y0.1431
N2795 X2.5374 Y0.1666
N2800 X2.5163 Y0.1901
N2805 X2.4913 Y0.2139
N2810 X2.4608 Y0.2385
N2815 X2.4249 Y0.2631
N2820 X2.3844 Y0.2863
N2825 X2.3422 Y0.3063
N2830 X2.2988 Y0.3234
N2835 X2.2545 Y0.3381
N2840 X2.2095 Y0.3506
N2845 X2.164 Y0.3611
N2850 X2.1181 Y0.37
N2855 X2.0721 Y0.3775
N2860 X2.0258 Y0.3838
N2865 X1.9794 Y0.389
N2870 X1.9329 Y0.3934
N2875 X1.8863 Y0.397
N2880 X1.8397 Y0.4
N2885 X1.7931 Y0.4024
N2890 X1.7465 Y0.4044
N2895 X1.6998 Y0.406
N2900 X1.6531 Y0.4074
N2905 X1.6065 Y0.4085
N2910 X1.5598 Y0.4094
N2915 X1.5131 Y0.4101
N2920 X1.4664 Y0.4106
N2925 X1.4197 Y0.4111
N2930 X1.373 Y0.4115
N2935 X1.3263 Y0.4118
N2940 X1.2796 Y0.412
N2945 X1.1863 Y0.4123
N2950 X1.0929 Y0.4125
N2955 X0.9528 Y0.4127
N2960 X0.8594
N2965 X0.8132 Y0.4195
N2970 X0.7702 Y0.4377
N2975 X0.7323 Y0.465
N2980 X0.7001 Y0.4988
N2985 X0.6732 Y0.5369
N2990 X0.6511 Y0.5781
N2995 X0.6332 Y0.6212
N3000 X0.6282 Y0.644
N3005 X0.6279 Y0.6673
N3010 X0.6358 Y0.7133
N3015 X0.6574 Y0.7547
N3020 X0.6879 Y0.7901
N3025 X0.7243 Y0.8194
N3030 X0.7644 Y0.8433
N3035 X0.8069 Y0.8626
N3040 X0.8509 Y0.8781
N3045 X0.8959 Y0.8905
N3050 X0.9416 Y0.9003
N3055 X0.9876 Y0.908
N3060 X1.0339 Y0.9141
N3065 X1.0804 Y0.9189
N3070 X1.1269 Y0.9227
N3075 X1.1735 Y0.9257
N3080 X1.2201 Y0.928
N3085 X1.2668 Y0.9299
N3090 X1.3135 Y0.9313
N3095 X1.3601 Y0.9324
N3100 X1.4068 Y0.9333
N3105 X1.4535 Y0.934
N3110 X1.5002 Y0.9345
N3115 X1.5469 Y0.9349
N3120 X1.5936 Y0.9353
N3125 X1.6403 Y0.9355
N3130 X1.687 Y0.9357
N3135 X1.7803 Y0.936
N3140 X1.9204 Y0.9363
N3145 X1.9671
N3150 X2.0138 Y0.9365
N3155 X2.0605 Y0.9367
N3160 X2.1072 Y0.9373
N3165 X2.1539 Y0.9384
N3170 X2.2005 Y0.9401
N3175 X2.2471 Y0.9428
N3180 X2.2937 Y0.9466
N3185 X2.3401 Y0.9518
N3190 X2.3863 Y0.9586
N3195 X2.4322 Y0.9672
N3200 X2.4776 Y0.9778
N3205 X2.5226 Y0.9905
N3210 X2.5667 Y1.0057
N3215 X2.6099 Y1.0235
N3220 X2.6517 Y1.0442
N3225 X2.691 Y1.0674
N3230 X2.7242 Y1.0909
N3235 X2.7502 Y1.1125
N3240 X2.7704 Y1.1324
N3245 X2.7715 Y1.1336
N3250 X2.7799 Y1.145
N3255 X2.7863 Y1.1575
N3260 X2.7906 Y1.1709
N3265 X2.7928 Y1.1849
N3270 X2.7926 Y1.1989
N3275 X2.7902 Y1.2128
N3280 X2.7849 Y1.2336
N3285 X2.7816 Y1.2448
N3290 X2.7782 Y1.256
N3295 X2.7745 Y1.2673
N3300 X2.7705 Y1.2785
N3305 X2.7576 Y1.3123
N3310 X2.7423 Y1.346
N3315 X2.7367 Y1.3573
N3320 X2.7327 Y1.3648
N3325 G3 X2.7231 Y1.3758 I-0.0325 J-0.0187 F5.
N3330 G1 X2.7195 Y1.3786 Z-0.1497
N3335 X2.716 Y1.3813 Z-0.1489
N3340 X2.7125 Y1.384 Z-0.1476
N3345 X2.7093 Y1.3865 Z-0.1457
N3350 X2.7062 Y1.3888 Z-0.1434
N3355 X2.7034 Y1.391 Z-0.1406
N3360 X2.7008 Y1.393 Z-0.1374
N3365 X2.6986 Y1.3947 Z-0.1338
N3370 X2.6968 Y1.3961 Z-0.1299
N3375 X2.6953 Y1.3972 Z-0.1258
N3380 X2.6942 Y1.398 Z-0.1215
N3385 X2.6936 Y1.3985 Z-0.117
N3390 X2.6934 Y1.3987 Z-0.1125
N3395 G0 Z0.2
N3400 X2.5475 Y-0.0341
N3405 Z-0.075
N3410 G1 Z-0.1125 F5.
N3415 X2.5478 Y-0.0342 Z-0.117
N3420 X2.5486 Y-0.0345 Z-0.1215
N3425 X2.5498 Y-0.0349 Z-0.1258
N3430 X2.5516 Y-0.0356 Z-0.1299
N3435 X2.5538 Y-0.0364 Z-0.1338
N3440 X2.5564 Y-0.0373 Z-0.1374
N3445 X2.5594 Y-0.0384 Z-0.1406
N3450 X2.5628 Y-0.0396 Z-0.1434
N3455 X2.5664 Y-0.0409 Z-0.1457
N3460 X2.5703 Y-0.0423 Z-0.1476
N3465 X2.5744 Y-0.0438 Z-0.1489
N3470 X2.5786 Y-0.0453 Z-0.1497
N3475 X2.5828 Y-0.0468 Z-0.15
N3480 G3 X2.5973 Y-0.044 I0.0049 J0.0136
N3485 G1 X2.6045 Y-0.0372 F7.
N3490 X2.6154 Y-0.0259
N3495 X2.6263 Y-0.0147
N3500 X2.6366 Y-0.0034
N3505 X2.646 Y0.0076
N3510 X2.6496 Y0.0124
N3515 X2.6523 Y0.0177
N3520 X2.6548 Y0.0232
N3525 X2.6571 Y0.0288
N3530 X2.6591 Y0.0344
N3535 X2.6608 Y0.0401
N3540 X2.6624 Y0.0459
N3545 X2.6638 Y0.0518
N3550 X2.6649 Y0.0577
N3555 X2.6658 Y0.0636
N3560 X2.6665 Y0.0696
N3565 X2.6671 Y0.0755
N3570 X2.6674 Y0.0815
N3575 X2.6676 Y0.0875
N3580 Y0.0935
N3585 X2.6675 Y0.0995
N3590 X2.6671 Y0.1055
N3595 X2.6667 Y0.1115
N3600 X2.666 Y0.1175
N3605 X2.6652 Y0.1234
N3610 X2.6643 Y0.1293
N3615 X2.6632 Y0.1352
N3620 X2.662 Y0.1411
N3625 X2.6607 Y0.147
N3630 X2.6592 Y0.1528
N3635 X2.6576 Y0.1586
N3640 X2.6558 Y0.1643
N3645 X2.654 Y0.17
N3650 X2.652 Y0.1757
N3655 X2.65 Y0.1813
N3660 X2.6478 Y0.1869
N3665 X2.6455 Y0.1925
N3670 X2.6431 Y0.198
N3675 X2.6406 Y0.2034
N3680 X2.638 Y0.2088
N3685 X2.6354 Y0.2142
N3690 X2.6326 Y0.2195
N3695 X2.6297 Y0.2248
N3700 X2.6268 Y0.23
N3705 X2.6237 Y0.2352
N3710 X2.6206 Y0.2403
N3715 X2.6174 Y0.2454
N3720 X2.6141 Y0.2504
N3725 X2.6108 Y0.2554
N3730 X2.6074 Y0.2603
N3735 X2.6039 Y0.2652
N3740 X2.6003 Y0.27
N3745 X2.5967 Y0.2748
N3750 X2.593 Y0.2795
N3755 X2.5892 Y0.2842
N3760 X2.5854 Y0.2888
N3765 X2.5815 Y0.2934
N3770 X2.5775 Y0.2979
N3775 X2.5735 Y0.3024
N3780 X2.5695 Y0.3068
N3785 X2.5653 Y0.3111
N3790 X2.5612 Y0.3154
N3795 X2.5569 Y0.3197
N3800 X2.5526 Y0.3239
N3805 X2.5483 Y0.328
N3810 X2.5439 Y0.3321
N3815 X2.5395 Y0.3362
N3820 X2.535 Y0.3402
N3825 X2.5305 Y0.3441
N3830 X2.526 Y0.348
N3835 X2.5213 Y0.3519
N3840 X2.5167 Y0.3557
N3845 X2.512 Y0.3594
N3850 X2.5073 Y0.3631
N3855 X2.5025 Y0.3668
N3860 X2.4977 Y0.3704
N3865 X2.4929 Y0.3739
N3870 X2.488 Y0.3774
N3875 X2.4831 Y0.3809
N3880 X2.4782 Y0.3843
N3885 X2.4732 Y0.3876
N3890 X2.4682 Y0.3909
N3895 X2.4632 Y0.3942
N3900 X2.4581 Y0.3974
N3905 X2.453 Y0.4006
N3910 X2.4479 Y0.4037
N3915 X2.4427 Y0.4068
N3920 X2.4376 Y0.4099
N3925 X2.4324 Y0.4128
N3930 X2.4271 Y0.4158
N3935 X2.4219 Y0.4187
N3940 X2.4166 Y0.4215
N3945 X2.4113 Y0.4244
N3950 X2.406 Y0.4271
N3955 X2.4006 Y0.4299
N3960 X2.3953 Y0.4326
N3965 X2.3899 Y0.4352
N3970 X2.3845 Y0.4378
N3975 X2.379 Y0.4404
N3980 X2.3732 Y0.4431
N3985 X2.3672 Y0.4458
N3990 X2.3614 Y0.4484
N3995 X2.3559 Y0.4509
N4000 X2.3502 Y0.4533
N4005 X2.3444 Y0.4557
N4010 X2.3383 Y0.4583
N4015 X2.3319 Y0.4608
N4020 X2.3252 Y0.4635
N4025 X2.3182 Y0.4662
N4030 X2.3118 Y0.4686
N4035 X2.3054 Y0.4709
N4040 X2.2987 Y0.4734
N4045 X2.2917 Y0.4758
N4050 X2.2844 Y0.4783
N4055 X2.2767 Y0.4809
N4060 X2.2688 Y0.4835
N4065 X2.2616 Y0.4858
N4070 X2.254 Y0.4882
N4075 X2.2461 Y0.4906
N4080 X2.2378 Y0.4931
N4085 X2.229 Y0.4956
N4090 X2.2201 Y0.4981
N4095 X2.2117 Y0.5004
N4100 X2.2029 Y0.5027
N4105 X2.1936 Y0.5051
N4110 X2.1838 Y0.5075
N4115 X2.1734 Y0.51
N4120 X2.1639 Y0.5123
N4125 X2.1537 Y0.5145
N4130 X2.1429 Y0.5169
N4135 X2.1314 Y0.5193
N4140 X2.1201 Y0.5216
N4145 X2.1086 Y0.5238
N4150 X2.0964 Y0.5261
N4155 X2.0833 Y0.5285
N4160 X2.0703 Y0.5307
N4165 X2.057 Y0.5329
N4170 X2.0425 Y0.5352
N4175 X2.0273 Y0.5375
N4180 X2.0123 Y0.5396
N4185 X1.9958 Y0.5418
N4190 X1.9784 Y0.544
N4195 X1.9608 Y0.5461
N4200 X1.9412 Y0.5483
N4205 X1.9213 Y0.5504
N4210 X1.8995 Y0.5525
N4215 X1.8763 Y0.5546
N4220 X1.8511 Y0.5567
N4225 X1.824 Y0.5587
N4230 X1.7936 Y0.5608
N4235 X1.7512 Y0.5633
N4240 X1.7131 Y0.5652
N4245 X1.6688 Y0.5672
N4250 X1.6222 Y0.5689
N4255 X1.5755 Y0.5703
N4260 X1.5288 Y0.5714
N4265 X1.4821 Y0.5724
N4270 X1.4355 Y0.5731
N4275 X1.3888 Y0.5737
N4280 X1.3421 Y0.5743
N4285 X1.2954 Y0.5747
N4290 X1.2487 Y0.575
N4295 X1.202 Y0.5753
N4300 X1.1553 Y0.5755
N4305 X1.0619 Y0.5758
N4310 X1.0152 Y0.5759
N4315 X1.0037 Y0.5779
N4320 X0.9981 Y0.5792
N4325 X0.9924 Y0.5808
N4330 G3 X0.9778 Y0.5812 I-0.0085 J-0.0365 F5.
N4335 X0.9727 Y0.5084 I0.0061 J-0.037 F7.
N4340 G1 X2.6072 Y-0.0028
N4345 G3 X2.6342 Y-0.001 I0.0112 J0.0358
N4350 X2.646 Y0.0076 I-0.0158 J0.034 F5.
N4355 G1 X2.6648 Y0.0303 F7.
N4360 X2.6685 Y0.0351
N4365 X2.6732 Y0.0415
N4370 X2.6971 Y0.0753
N4375 X2.7022 Y0.0831
N4380 X2.708 Y0.0927
N4385 X2.7138 Y0.1034
N4390 X2.7166 Y0.1087
N4395 X2.7191 Y0.1141
N4400 X2.7215 Y0.1196
N4405 X2.7236 Y0.1252
N4410 X2.7255 Y0.1309
N4415 X2.7271 Y0.1367
N4420 X2.7286 Y0.1425
N4425 X2.7299 Y0.1484
N4430 X2.731 Y0.1543
N4435 X2.7319 Y0.1602
N4440 X2.7326 Y0.1662
N4445 X2.7332 Y0.1721
N4450 X2.7336 Y0.1781
N4455 X2.7338 Y0.1841
N4460 Y0.1901
N4465 X2.7337 Y0.1961
N4470 X2.7335 Y0.2021
N4475 X2.7331 Y0.2081
N4480 X2.7326 Y0.2141
N4485 X2.7319 Y0.22
N4490 X2.7311 Y0.226
N4495 X2.7301 Y0.2319
N4500 X2.7291 Y0.2378
N4505 X2.7279 Y0.2437
N4510 X2.7266 Y0.2495
N4515 X2.7251 Y0.2554
N4520 X2.7236 Y0.2612
N4525 X2.7219 Y0.2669
N4530 X2.7201 Y0.2727
N4535 X2.7183 Y0.2784
N4540 X2.7163 Y0.284
N4545 X2.7142 Y0.2897
N4550 X2.712 Y0.2953
N4555 X2.7098 Y0.3008
N4560 X2.7074 Y0.3063
N4565 X2.705 Y0.3118
N4570 X2.7024 Y0.3172
N4575 X2.6998 Y0.3226
N4580 X2.6971 Y0.328
N4585 X2.6943 Y0.3333
N4590 X2.6914 Y0.3386
N4595 X2.6885 Y0.3438
N4600 X2.6854 Y0.349
N4605 X2.6823 Y0.3541
N4610 X2.6792 Y0.3592
N4615 X2.6759 Y0.3642
N4620 X2.6726 Y0.3693
N4625 X2.6692 Y0.3742
N4630 X2.6658 Y0.3791
N4635 X2.6623 Y0.384
N4640 X2.6587 Y0.3888
N4645 X2.6551 Y0.3936
N4650 X2.6514 Y0.3983
N4655 X2.6477 Y0.403
N4660 X2.6439 Y0.4077
N4665 X2.64 Y0.4122
N4670 X2.6361 Y0.4168
N4675 X2.6321 Y0.4213
N4680 X2.6281 Y0.4258
N4685 X2.624 Y0.4302
N4690 X2.6199 Y0.4345
N4695 X2.6158 Y0.4389
N4700 X2.6116 Y0.4431
N4705 X2.6073 Y0.4474
N4710 X2.603 Y0.4516
N4715 X2.5987 Y0.4557
N4720 X2.5943 Y0.4598
N4725 X2.5899 Y0.4639
N4730 X2.5854 Y0.4679
N4735 X2.5809 Y0.4718
N4740 X2.5763 Y0.4757
N4745 X2.5718 Y0.4796
N4750 X2.5672 Y0.4835
N4755 X2.5625 Y0.4872
N4760 X2.5578 Y0.491
N4765 X2.5531 Y0.4947
N4770 X2.5483 Y0.4984
N4775 X2.5436 Y0.502
N4780 X2.5387 Y0.5056
N4785 X2.5339 Y0.5091
N4790 X2.529 Y0.5126
N4795 X2.5241 Y0.516
N4800 X2.5192 Y0.5194
N4805 X2.5142 Y0.5228
N4810 X2.5092 Y0.5261
N4815 X2.5042 Y0.5294
N4820 X2.4991 Y0.5327
N4825 X2.4941 Y0.5359
N4830 X2.489 Y0.539
N4835 X2.4839 Y0.5422
N4840 X2.4787 Y0.5453
N4845 X2.4735 Y0.5483
N4850 X2.4683 Y0.5514
N4855 X2.4631 Y0.5544
N4860 X2.4577 Y0.5574
N4865 X2.4522 Y0.5604
N4870 X2.4467 Y0.5634
N4875 X2.4411 Y0.5664
N4880 X2.4353 Y0.5694
N4885 X2.4295 Y0.5724
N4890 X2.4235 Y0.5754
N4895 X2.4175 Y0.5784
N4900 X2.4083 Y0.5829
N4905 X2.402 Y0.5858
N4910 X2.3956 Y0.5888
N4915 X2.3891 Y0.5918
N4920 X2.3825 Y0.5947
N4925 X2.3757 Y0.5977
N4930 X2.3688 Y0.6006
N4935 X2.3619 Y0.6035
N4940 X2.3548 Y0.6065
N4945 X2.3475 Y0.6094
N4950 X2.3402 Y0.6123
N4955 X2.3326 Y0.6152
N4960 X2.3249 Y0.6181
N4965 X2.3171 Y0.621
N4970 X2.3091 Y0.6239
N4975 X2.301 Y0.6268
N4980 X2.2927 Y0.6296
N4985 X2.2842 Y0.6325
N4990 X2.2756 Y0.6353
N4995 X2.2667 Y0.6381
N5000 X2.2576 Y0.641
N5005 X2.2485 Y0.6438
N5010 X2.239 Y0.6466
N5015 X2.2293 Y0.6494
N5020 X2.2194 Y0.6521
N5025 X2.2092 Y0.6549
N5030 X2.1989 Y0.6576
N5035 X2.1882 Y0.6604
N5040 X2.1772 Y0.6631
N5045 X2.1661 Y0.6658
N5050 X2.1545 Y0.6685
N5055 X2.1426 Y0.6712
N5060 X2.1304 Y0.6738
N5065 X2.1176 Y0.6765
N5070 X2.1048 Y0.6791
N5075 X2.0913 Y0.6818
N5080 X2.0774 Y0.6843
N5085 X2.0631 Y0.6869
N5090 X2.048 Y0.6895
N5095 X2.0327 Y0.692
N5100 X2.0164 Y0.6946
N5105 X1.9999 Y0.6971
N5110 X1.9821 Y0.6996
N5115 X1.9705 Y0.7011
N5120 G3 X1.956 Y0.6997 I-0.0036 J-0.0373 F5.
N5125 X1.9439 Y0.6342 I0.0109 J-0.0359 F7.
N5130 G1 X2.6536 Y0.0836
N5135 G3 X2.6978 Y0.0823 I0.023 J0.0296
N5140 X2.708 Y0.0927 I-0.0212 J0.031 F5.
N5145 G1 X2.7179 Y0.109 F7.
N5150 X2.7241 Y0.1203
N5155 X2.7361 Y0.1427
N5160 X2.7418 Y0.154
N5165 X2.7571 Y0.1877
N5170 X2.7701 Y0.2215
N5175 X2.7741 Y0.2327
N5180 X2.7778 Y0.244
N5185 X2.7828 Y0.2635
N5190 X2.7842 Y0.2693
N5195 X2.7854 Y0.2752
N5200 X2.7864 Y0.2811
N5205 X2.7873 Y0.287
N5210 X2.7879 Y0.293
N5215 X2.7884 Y0.299
N5220 X2.7887 Y0.305
N5225 X2.7888 Y0.311
N5230 Y0.317
N5235 X2.7886 Y0.323
N5240 X2.7883 Y0.329
N5245 X2.7878 Y0.3349
N5250 X2.7871 Y0.3409
N5255 X2.7864 Y0.3469
N5260 X2.7855 Y0.3528
N5265 X2.7845 Y0.3587
N5270 X2.7833 Y0.3646
N5275 X2.782 Y0.3705
N5280 X2.7806 Y0.3763
N5285 X2.7791 Y0.3821
N5290 X2.7775 Y0.3879
N5295 X2.7758 Y0.3936
N5300 X2.774 Y0.3993
N5305 X2.772 Y0.405
N5310 X2.77 Y0.4107
N5315 X2.7679 Y0.4163
N5320 X2.7656 Y0.4218
N5325 X2.7633 Y0.4274
N5330 X2.7609 Y0.4329
N5335 X2.7584 Y0.4383
N5340 X2.7558 Y0.4437
N5345 X2.7532 Y0.4491
N5350 X2.7504 Y0.4545
N5355 X2.7476 Y0.4598
N5360 X2.7447 Y0.465
N5365 X2.7417 Y0.4702
N5370 X2.7387 Y0.4754
N5375 X2.7356 Y0.4805
N5380 X2.7324 Y0.4856
N5385 X2.7292 Y0.4907
N5390 X2.7259 Y0.4957
N5395 X2.7225 Y0.5006
N5400 X2.719 Y0.5055
N5405 X2.7156 Y0.5104
N5410 X2.712 Y0.5153
N5415 X2.7084 Y0.52
N5420 X2.7047 Y0.5248
N5425 X2.701 Y0.5295
N5430 X2.6972 Y0.5342
N5435 X2.6934 Y0.5388
N5440 X2.6895 Y0.5434
N5445 X2.6856 Y0.5479
N5450 X2.6816 Y0.5524
N5455 X2.6776 Y0.5568
N5460 X2.6735 Y0.5612
N5465 X2.6694 Y0.5656
N5470 X2.6652 Y0.5699
N5475 X2.661 Y0.5742
N5480 X2.6568 Y0.5784
N5485 X2.6525 Y0.5826
N5490 X2.6482 Y0.5868
N5495 X2.6438 Y0.5909
N5500 X2.6394 Y0.595
N5505 X2.6349 Y0.599
N5510 X2.6305 Y0.603
N5515 X2.626 Y0.607
N5520 X2.6214 Y0.6109
N5525 X2.6168 Y0.6148
N5530 X2.6122 Y0.6186
N5535 X2.6076 Y0.6224
N5540 X2.6029 Y0.6261
N5545 X2.5982 Y0.6299
N5550 X2.5934 Y0.6335
N5555 X2.5887 Y0.6372
N5560 X2.5839 Y0.6408
N5565 X2.579 Y0.6443
N5570 X2.5742 Y0.6479
N5575 X2.5647 Y0.6546
N5580 X2.5562 Y0.6626
N5585 X2.5488 Y0.6717
N5590 X2.5427 Y0.6816
N5595 X2.538 Y0.6923
N5600 X2.5347 Y0.7035
N5605 X2.533 Y0.7151
N5610 X2.5328 Y0.7267
N5615 X2.5341 Y0.7383
N5620 X2.537 Y0.7496
N5625 X2.5414 Y0.7604
N5630 X2.5472 Y0.7706
N5635 X2.5543 Y0.7799
N5640 X2.5873 Y0.8129
N5645 X2.6445 Y0.8479
N5650 X2.6637 Y0.8598
N5655 X2.6753 Y0.8671
N5660 X2.6843 Y0.8729
N5665 X2.6938 Y0.8791
N5670 X2.7039 Y0.8858
N5675 X2.7119 Y0.8911
N5680 X2.7182 Y0.8955
N5685 X2.7247 Y0.8999
N5690 X2.7314 Y0.9047
N5695 X2.7384 Y0.9097
N5700 X2.7444 Y0.9141
N5705 X2.7495 Y0.9178
N5710 X2.7543 Y0.9214
N5715 X2.7591 Y0.9251
N5720 X2.7638 Y0.9288
N5725 X2.7685 Y0.9325
N5730 X2.7732 Y0.9362
N5735 X2.7793 Y0.9412
N5740 X2.7901 Y0.952
N5745 X2.7989 Y0.9645
N5750 X2.8053 Y0.9784
N5755 X2.8093 Y0.9931
N5760 X2.8106 Y1.0084
N5765 Y1.0424
N5770 X2.8105 Y1.0536
N5775 X2.8095 Y1.0874
N5780 X2.8075 Y1.1099
N5785 X2.8066 Y1.1211
N5790 X2.8052 Y1.1323
N5795 X2.802 Y1.1548
N5800 X2.8002 Y1.1661
N5805 X2.7935 Y1.1998
N5810 X2.7902 Y1.2128
N5815 G3 X2.7834 Y1.2258 I-0.036 J-0.0106 F5.
N5820 G1 X2.7806 Y1.2293 Z-0.1497
N5825 X2.7778 Y1.2328 Z-0.1489
N5830 X2.7751 Y1.2361 Z-0.1476
N5835 X2.7725 Y1.2393 Z-0.1457
N5840 X2.77 Y1.2424 Z-0.1434
N5845 X2.7678 Y1.2451 Z-0.1406
N5850 X2.7658 Y1.2476 Z-0.1374
N5855 X2.764 Y1.2498 Z-0.1338
N5860 X2.7625 Y1.2516 Z-0.1299
N5865 X2.7614 Y1.2531 Z-0.1258
N5870 X2.7605 Y1.2541 Z-0.1215
N5875 X2.76 Y1.2547 Z-0.117
N5880 X2.7598 Y1.255 Z-0.1125
N5885 G0 Z0.2
N5890 X2.728 Y0.2418
N5895 Z-0.075
N5900 G1 Z-0.1125 F5.
N5905 X2.7283 Y0.2417 Z-0.117
N5910 X2.7291 Y0.2416 Z-0.1215
N5915 X2.7304 Y0.2414 Z-0.1258
N5920 X2.7323 Y0.2412 Z-0.1299
N5925 X2.7346 Y0.2408 Z-0.1338
N5930 X2.7374 Y0.2404 Z-0.1374
N5935 X2.7405 Y0.24 Z-0.1406
N5940 X2.7441 Y0.2395 Z-0.1434
N5945 X2.7479 Y0.2389 Z-0.1457
N5950 X2.752 Y0.2383 Z-0.1476
N5955 X2.7563 Y0.2377 Z-0.1489
N5960 X2.7607 Y0.2371 Z-0.1497
N5965 X2.7652 Y0.2364 Z-0.15
N5970 G3 X2.7778 Y0.244 I0.0017 J0.0116
N5975 G1 X2.7813 Y0.2552 F7.
N5980 X2.7845 Y0.2664
N5985 X2.7921 Y0.2954
N5990 X2.7933 Y0.3002
N5995 X2.8 Y0.3339
N6000 X2.8018 Y0.3452
N6005 X2.8051 Y0.3677
N6010 X2.8064 Y0.3789
N6015 X2.8084 Y0.4014
N6020 X2.8094 Y0.4126
N6025 X2.8105 Y0.4464
N6030 X2.8106 Y0.4576
N6035 Y0.4689
N6040 X2.8096 Y0.4885
N6045 X2.8072 Y0.507
N6050 X2.8029 Y0.5275
N6055 X2.7962 Y0.5498
N6060 X2.7921 Y0.5963
N6065 X2.801 Y0.6422
N6070 X2.8047 Y0.6516
N6075 X2.808 Y0.6619
N6080 X2.81 Y0.6725
N6085 X2.8106 Y0.6833
N6090 G3 X2.8073 Y0.6975 I-0.0375 J-0.0013 F5.
N6095 X2.7356 Y0.682 I-0.0341 J-0.0156 F7.
N6100 G1 Y0.4702
N6105 G3 X2.8073 Y0.4546 I0.0375 J0.
N6110 X2.8106 Y0.4689 I-0.0341 J0.0156 F5.
N6115 G1 Y1.0084 F7.
N6120 X2.8101 Y1.0113 Z-0.1497 F5.
N6125 X2.8096 Y1.0142 Z-0.1488
N6130 X2.8091 Y1.0167 Z-0.1473
N6135 X2.8087 Y1.019 Z-0.1452
N6140 X2.8081 Y1.0205 Z-0.1431
N6145 X2.8076 Y1.0217 Z-0.1406
N6150 X2.8074 Y1.0224 Z-0.138
N6155 X2.8073 Y1.0226 Z-0.1353
N6160 G0 Z0.2
N6165 X2.1849 Y-0.226
N6170 Z-0.225
N6175 G1 Z-0.2625 F5.
N6180 X2.1851 Z-0.267
N6185 X2.186 Y-0.2259 Z-0.2715
N6190 X2.1873 Y-0.2257 Z-0.2758
N6195 X2.1891 Y-0.2255 Z-0.2799
N6200 X2.1915 Y-0.2252 Z-0.2838
N6205 X2.1942 Y-0.2249 Z-0.2874
N6210 X2.1974 Y-0.2245 Z-0.2906
N6215 X2.201 Y-0.2241 Z-0.2934
N6220 X2.2048 Y-0.2236 Z-0.2957
N6225 X2.2089 Y-0.2231 Z-0.2976
N6230 X2.2132 Y-0.2226 Z-0.2989
N6235 X2.2176 Y-0.2221 Z-0.2997
N6240 X2.2221 Y-0.2216 Z-0.3
N6245 G3 X2.3728 Y-0.1868 I-0.085 J0.713
N6250 G1 X2.3764 Y-0.1854 F7.
N6255 X2.3988 Y-0.176
N6260 X2.4075 Y-0.1721
N6265 X2.4325 Y-0.16
N6270 X2.4438 Y-0.1544
N6275 X2.455 Y-0.1484
N6280 X2.4775 Y-0.1354
N6285 X2.4787 Y-0.1346
N6290 X2.4745 Y-0.1303
N6295 X2.4675 Y-0.1253
N6300 X2.4481 Y-0.1138
N6305 X2.4231 Y-0.1015
N6310 X2.3902 Y-0.0885
N6315 X2.3458 Y-0.075
N6320 X2.3002 Y-0.0651
N6325 X2.2541 Y-0.0578
N6330 X2.2077 Y-0.0524
N6335 X2.1612 Y-0.0484
N6340 X2.1146 Y-0.0454
N6345 X2.0679 Y-0.0432
N6350 X2.0213 Y-0.0416
N6355 X1.9746 Y-0.0404
N6360 X1.9279 Y-0.0395
N6365 X1.8812 Y-0.0388
N6370 X1.8345 Y-0.0384
N6375 X1.7878 Y-0.038
N6380 X1.7411 Y-0.0377
N6385 X1.6944 Y-0.0375
N6390 X1.6011 Y-0.0373
N6395 X1.5077 Y-0.0372
N6400 X1.3209 Y-0.0371
N6405 X0.854 Y-0.0372
N6410 X0.5271 Y-0.0373
N6415 X0.177 Y-0.0374
N6420 X0.1539 Y-0.034
N6425 X0.1111 Y-0.0152
N6430 X0.0766 Y0.0163
N6435 X0.0496 Y0.0543
N6440 X0.0286 Y0.096
N6445 X0.0126 Y0.1399
N6450 X0.0003 Y0.1849
N6455 X-0.0089 Y0.2307
N6460 X-0.0159 Y0.2769
N6465 X-0.0212 Y0.3233
N6470 X-0.0251 Y0.3698
N6475 X-0.0281 Y0.4164
N6480 X-0.0303 Y0.463
N6485 X-0.032 Y0.5097
N6490 X-0.0325 Y0.5277
N6495 X-0.0337 Y0.5403
N6500 X-0.0368 Y0.5526
N6505 X-0.0416 Y0.5643
N6510 X-0.0444 Y0.5701
N6515 X-0.0487 Y0.5813
N6520 X-0.0523 Y0.5926
N6525 X-0.0557 Y0.6038
N6530 X-0.0648 Y0.6375
N6535 X-0.0728 Y0.6677
N6540 X-0.0736 Y0.6713
N6545 X-0.077 Y0.6938
N6550 X-0.0783 Y0.705
N6555 X-0.08 Y0.7388
N6560 X-0.0812 Y0.7612
N6565 X-0.0815 Y0.7725
N6570 X-0.0812 Y0.795
N6575 X-0.0806 Y0.8062
N6580 X-0.0772 Y0.8287
N6585 X-0.0754 Y0.84
N6590 X-0.0716 Y0.8625
N6595 X-0.0696 Y0.8737
N6600 X-0.0675 Y0.8849
N6605 X-0.061 Y0.9312
N6610 X-0.0548 Y0.9775
N6615 X-0.0502 Y1.0239
N6620 X-0.0468 Y1.0705
N6625 X-0.0443 Y1.1171
N6630 X-0.0424 Y1.1638
N6635 X-0.0411 Y1.2105
N6640 X-0.04 Y1.2571
N6645 X-0.0393 Y1.3038
N6650 X-0.039 Y1.3272
N6655 X-0.034 Y1.35
N6660 X-0.0136 Y1.392
N6665 X0.0187 Y1.4257
N6670 X0.0572 Y1.4521
N6675 X0.0992 Y1.4725
N6680 X0.1432 Y1.4882
N6685 X0.1883 Y1.5001
N6690 X0.2342 Y1.5091
N6695 X0.2804 Y1.5159
N6700 X0.3268 Y1.521
N6705 X0.3733 Y1.5249
N6710 X0.4199 Y1.5277
N6715 X0.4665 Y1.5299
N6720 X0.5132 Y1.5315
N6725 X0.5599 Y1.5327
N6730 X0.6066 Y1.5336
N6735 X0.6533 Y1.5343
N6740 X0.6999 Y1.5348
N6745 X0.7466 Y1.5352
N6750 X0.7933 Y1.5355
N6755 X0.84 Y1.5357
N6760 X0.9334 Y1.536
N6765 X1.0268 Y1.5362
N6770 X1.2135 Y1.5363
N6775 X1.447 Y1.5364
N6780 X2.4864 Y1.5365
N6785 X2.4972 Y1.5379
N6790 X2.5072 Y1.5419
N6795 X2.516 Y1.5483
N6800 X2.5229 Y1.5567
N6805 X2.5274 Y1.5666
N6810 X2.5294 Y1.5773
N6815 X2.5286 Y1.5881
N6820 X2.5251 Y1.5984
N6825 X2.5192 Y1.6075
N6830 X2.5112 Y1.6148
N6835 G3 X2.4974 Y1.6198 I-0.0193 J-0.0322 F5.
N6840 G1 X2.4929 Y1.6204 Z-0.2997
N6845 X2.4885 Y1.6211 Z-0.2989
N6850 X2.4843 Y1.6217 Z-0.2976
N6855 X2.4802 Y1.6223 Z-0.2957
N6860 X2.4763 Y1.6229 Z-0.2934
N6865 X2.4728 Y1.6234 Z-0.2906
N6870 X2.4696 Y1.6239 Z-0.2874
N6875 X2.4669 Y1.6243 Z-0.2838
N6880 X2.4646 Y1.6247 Z-0.2799
N6885 X2.4627 Y1.6249 Z-0.2758
N6890 X2.4614 Y1.6251 Z-0.2715
N6895 X2.4606 Y1.6253 Z-0.267
N6900 X2.4603 Z-0.2625
N6905 G0 Z0.2
N6910 X2.427 Y-0.1258
N6915 Z-0.225
N6920 G1 Z-0.2625 F5.
N6925 X2.4272 Z-0.267
N6930 X2.428 Y-0.1261 Z-0.2715
N6935 X2.4293 Y-0.1265 Z-0.2758
N6940 X2.4311 Y-0.127 Z-0.2799
N6945 X2.4333 Y-0.1277 Z-0.2838
N6950 X2.436 Y-0.1285 Z-0.2874
N6955 X2.4391 Y-0.1295 Z-0.2906
N6960 X2.4425 Y-0.1305 Z-0.2934
N6965 X2.4462 Y-0.1317 Z-0.2957
N6970 X2.4501 Y-0.1329 Z-0.2976
N6975 X2.4542 Y-0.1342 Z-0.2989
N6980 X2.4585 Y-0.1355 Z-0.2997
N6985 X2.4628 Y-0.1368 Z-0.3
N6990 G3 X2.4775 Y-0.1354 I0.0057 J0.0183
N6995 G1 X2.4904 Y-0.1271 F7.
N7000 X2.5112 Y-0.1137
N7005 X2.5125 Y-0.1126
N7010 X2.5094 Y-0.1031
N7015 X2.5047 Y-0.0921
N7020 X2.4989 Y-0.081
N7025 X2.4911 Y-0.0686
N7030 X2.4809 Y-0.0549
N7035 X2.4692 Y-0.0416
N7040 X2.4537 Y-0.0266
N7045 X2.4358 Y-0.012
N7050 X2.4131 Y0.0039
N7055 X2.3858 Y0.0198
N7060 X2.3518 Y0.0361
N7065 X2.3084 Y0.0528
N7070 X2.2636 Y0.066
N7075 X2.2181 Y0.0763
N7080 X2.1721 Y0.0844
N7085 X2.1258 Y0.0908
N7090 X2.0794 Y0.0958
N7095 X2.0329 Y0.0997
N7100 X1.9863 Y0.1027
N7105 X1.9397 Y0.105
N7110 X1.893 Y0.1069
N7115 X1.8463 Y0.1083
N7120 X1.7997 Y0.1094
N7125 X1.753 Y0.1102
N7130 X1.7063 Y0.1109
N7135 X1.6596 Y0.1114
N7140 X1.6129 Y0.1117
N7145 X1.5662 Y0.112
N7150 X1.5195 Y0.1123
N7155 X1.4728 Y0.1124
N7160 X1.3794 Y0.1126
N7165 X1.2394 Y0.1128
N7170 X1.0059
N7175 X0.5857 Y0.1127
N7180 X0.3522
N7185 X0.3078 Y0.1271
N7190 X0.2691 Y0.1532
N7195 X0.2367 Y0.1868
N7200 X0.2104 Y0.2254
N7205 X0.1892 Y0.267
N7210 X0.1783 Y0.2952
N7215 X0.1729 Y0.3065
N7220 X0.1659 Y0.3168
N7225 X0.1575 Y0.3261
N7230 X0.1477 Y0.3339
N7235 X0.1406 Y0.3393
N7240 X0.1044 Y0.3677
N7245 X0.0957 Y0.3745
N7250 X0.0845 Y0.3836
N7255 X0.0777 Y0.3901
N7260 X0.0665 Y0.4014
N7265 X0.062 Y0.4062
N7270 X0.0472 Y0.4239
N7275 X0.0171 Y0.4602
N7280 X0.0104 Y0.4689
N7285 X0.0058 Y0.476
N7290 X-0.0101 Y0.5026
N7295 X-0.0167 Y0.5151
N7300 X-0.0279 Y0.5368
N7305 X-0.0416 Y0.5643
N7310 G2 X-0.0502 Y0.5762 I0.236 J0.1804 F5.
N7315 X-0.0693 Y0.6081 I0.2446 J0.1685 F7.
N7320 X-0.0734 Y0.6223 I0.0333 J0.0173
N7325 G1 X-0.0896 Y0.8225
N7330 G2 X-0.0878 Y0.8372 I0.0374 J0.003
N7335 X-0.0741 Y0.8718 I0.2823 J-0.0925
N7340 X-0.0675 Y0.8848 I0.2685 J-0.1271 F5.
N7345 G1 Y0.8849
N7350 X-0.0653 Y0.8962 F7.
N7355 X-0.062 Y0.9074
N7360 X-0.0545 Y0.9299
N7365 X-0.0501 Y0.9412
N7370 X-0.0412 Y0.9637
N7375 X-0.0319 Y0.9862
N7380 X-0.0273 Y0.9974
N7385 X-0.0215 Y1.0086
N7390 X-0.0154 Y1.0199
N7395 X-0.008 Y1.0311
N7400 X0.0147 Y1.0649
N7405 X0.0316 Y1.0929
N7410 X0.0445 Y1.1187
N7415 X0.0619 Y1.162
N7420 X0.0847 Y1.2027
N7425 X0.1151 Y1.2382
N7430 X0.1511 Y1.2679
N7435 X0.1908 Y1.2924
N7440 X0.2331 Y1.3123
N7445 X0.277 Y1.3283
N7450 X0.3219 Y1.3409
N7455 X0.3675 Y1.351
N7460 X0.4135 Y1.3589
N7465 X0.4598 Y1.365
N7470 X0.5063 Y1.3699
N7475 X0.5528 Y1.3736
N7480 X0.5994 Y1.3765
N7485 X0.646 Y1.3788
N7490 X0.6927 Y1.3805
N7495 X0.7394 Y1.3819
N7500 X0.7861 Y1.3829
N7505 X0.8327 Y1.3837
N7510 X0.8794 Y1.3843
N7515 X0.9261 Y1.3848
N7520 X0.9728 Y1.3852
N7525 X1.0195 Y1.3854
N7530 X1.0662 Y1.3857
N7535 X1.1596 Y1.386
N7540 X1.253 Y1.3861
N7545 X1.393 Y1.3863
N7550 X1.7199 Y1.3864
N7555 X1.86
N7560 X2.3269 Y1.3865
N7565 X2.3736 Y1.3869
N7570 X2.4117 Y1.3893
N7575 X2.4399 Y1.3934
N7580 X2.4643 Y1.3989
N7585 X2.4847 Y1.4053
N7590 X2.5034 Y1.4128
N7595 X2.5192 Y1.4208
N7600 X2.5591 Y1.445
N7605 X2.5689 Y1.4502
N7610 X2.5807 Y1.4583
N7615 X2.5905 Y1.4687
N7620 X2.5979 Y1.481
N7625 X2.6026 Y1.4946
N7630 X2.6042 Y1.5088
N7635 X2.6028 Y1.5231
N7640 X2.5984 Y1.5367
N7645 X2.5911 Y1.5491
N7650 X2.5815 Y1.5597
N7655 G3 X2.5686 Y1.5666 I-0.0238 J-0.029 F5.
N7660 G1 X2.5643 Y1.5679 Z-0.2997
N7665 X2.56 Y1.5692 Z-0.2989
N7670 X2.5559 Y1.5705 Z-0.2976
N7675 X2.5519 Y1.5717 Z-0.2957
N7680 X2.5482 Y1.5728 Z-0.2934
N7685 X2.5448 Y1.5738 Z-0.2906
N7690 X2.5417 Y1.5747 Z-0.2874
N7695 X2.5391 Y1.5756 Z-0.2838
N7700 X2.5368 Y1.5762 Z-0.2799
N7705 X2.535 Y1.5768 Z-0.2758
N7710 X2.5337 Y1.5772 Z-0.2715
N7715 X2.533 Y1.5774 Z-0.267
N7720 X2.5327 Y1.5775 Z-0.2625
N7725 G0 Z0.2
N7730 X2.4603 Y-0.1066
N7735 Z-0.225
N7740 G1 Z-0.2625 F5.
N7745 X2.4605 Y-0.1067 Z-0.267
N7750 X2.4613 Y-0.1069 Z-0.2715
N7755 X2.4626 Y-0.1072 Z-0.2758
N7760 X2.4644 Y-0.1077 Z-0.2799
N7765 X2.4667 Y-0.1083 Z-0.2838
N7770 X2.4694 Y-0.109 Z-0.2874
N7775 X2.4725 Y-0.1097 Z-0.2906
N7780 X2.476 Y-0.1106 Z-0.2934
N7785 X2.4797 Y-0.1116 Z-0.2957
N7790 X2.4837 Y-0.1126 Z-0.2976
N7795 X2.4879 Y-0.1136 Z-0.2989
N7800 X2.4922 Y-0.1147 Z-0.2997
N7805 X2.4966 Y-0.1158 Z-0.3
N7810 G3 X2.5112 Y-0.1137 I0.0047 J0.0186
N7815 G1 X2.5224 Y-0.1057 F7.
N7820 X2.5449 Y-0.0889
N7825 X2.5538 Y-0.0822
N7830 X2.5549 Y-0.0812
N7835 X2.5547 Y-0.0694
N7840 X2.5535 Y-0.0569
N7845 X2.5511 Y-0.0434
N7850 X2.5472 Y-0.0288
N7855 X2.5418 Y-0.0135
N7860 X2.5344 Y0.0031
N7865 X2.5252 Y0.0199
N7870 X2.5131 Y0.0384
N7875 X2.499 Y0.0565
N7880 X2.4806 Y0.0766
N7885 X2.4601 Y0.0957
N7890 X2.4342 Y0.1162
N7895 X2.4039 Y0.1365
N7900 X2.3677 Y0.1567
N7905 X2.3252 Y0.176
N7910 X2.2814 Y0.1921
N7915 X2.2366 Y0.2054
N7920 X2.1913 Y0.2164
N7925 X2.1454 Y0.2254
N7930 X2.0993 Y0.2327
N7935 X2.053 Y0.2387
N7940 X2.0066 Y0.2435
N7945 X1.96 Y0.2474
N7950 X1.9135 Y0.2506
N7955 X1.8668 Y0.2531
N7960 X1.8202 Y0.2552
N7965 X1.7735 Y0.2568
N7970 X1.7269 Y0.2581
N7975 X1.6802 Y0.2591
N7980 X1.6335 Y0.2599
N7985 X1.5868 Y0.2606
N7990 X1.5401 Y0.2611
N7995 X1.4934 Y0.2615
N8000 X1.4467 Y0.2618
N8005 X1.4 Y0.2621
N8010 X1.3533 Y0.2622
N8015 X1.26 Y0.2625
N8020 X1.1199 Y0.2627
N8025 X0.9331 Y0.2628
N8030 X0.6997
N8035 X0.577 Y0.2627
N8040 X0.5711 Y0.2625
N8045 X0.5653 Y0.2619
N8050 X0.5596 Y0.261
N8055 X0.5451 Y0.258
N8060 X0.5114 Y0.2514
N8065 X0.4889 Y0.2482
N8070 X0.4777 Y0.2468
N8075 X0.4552 Y0.2466
N8080 X0.444
N8085 X0.4215 Y0.247
N8090 X0.4103 Y0.2473
N8095 X0.3878 Y0.2481
N8100 X0.3766 Y0.2489
N8105 X0.3541 Y0.2526
N8110 X0.3429 Y0.2548
N8115 X0.2943 Y0.2664
N8120 X0.2867 Y0.2683
N8125 X0.2755 Y0.2712
N8130 X0.2642 Y0.275
N8135 X0.253 Y0.2792
N8140 X0.2417 Y0.2842
N8145 X0.2193 Y0.2949
N8150 X0.185 Y0.3114
N8155 X0.1743 Y0.3175
N8160 X0.1519 Y0.3311
N8165 X0.1477 Y0.3339
N8170 G3 X0.1341 Y0.3392 I-0.0202 J-0.0316 F5.
N8175 G1 X0.1296 Y0.34 Z-0.2997
N8180 X0.1252 Y0.3408 Z-0.2989
N8185 X0.121 Y0.3416 Z-0.2976
N8190 X0.1169 Y0.3423 Z-0.2957
N8195 X0.1131 Y0.343 Z-0.2934
N8200 X0.1096 Y0.3436 Z-0.2906
N8205 X0.1064 Y0.3442 Z-0.2874
N8210 X0.1037 Y0.3447 Z-0.2838
N8215 X0.1014 Y0.3451 Z-0.2799
N8220 X0.0996 Y0.3454 Z-0.2758
N8225 X0.0982 Y0.3456 Z-0.2715
N8230 X0.0974 Y0.3458 Z-0.267
N8235 X0.0972 Z-0.2625
N8240 G0 Z0.2
N8245 X-0.0349 Y1.0514
N8250 Z-0.225
N8255 G1 Z-0.2625 F5.
N8260 X-0.0346 Z-0.267
N8265 X-0.0338 Y1.0515 Z-0.2715
N8270 X-0.0325 Y1.0517 Z-0.2758
N8275 X-0.0307 Y1.052 Z-0.2799
N8280 X-0.0284 Y1.0524 Z-0.2838
N8285 X-0.0256 Y1.0528 Z-0.2874
N8290 X-0.0224 Y1.0533 Z-0.2906
N8295 X-0.0189 Y1.0539 Z-0.2934
N8300 X-0.0151 Y1.0545 Z-0.2957
N8305 X-0.011 Y1.0551 Z-0.2976
N8310 X-0.0067 Y1.0558 Z-0.2989
N8315 X-0.0023 Y1.0565 Z-0.2997
N8320 X0.0021 Y1.0572 Z-0.3
N8325 G3 X0.0147 Y1.0649 I-0.003 J0.019
N8330 G1 X0.0171 Y1.0684 F7.
N8335 X0.0225 Y1.0761
N8340 X0.0305 Y1.0874
N8345 X0.0388 Y1.0986
N8350 X0.0488 Y1.1099
N8355 X0.0508 Y1.112
N8360 X0.0732 Y1.1337
N8365 X0.0957 Y1.1551
N8370 X0.1069 Y1.1657
N8375 X0.1182 Y1.1751
N8380 X0.1406 Y1.1904
N8385 X0.1519 Y1.1977
N8390 X0.1856 Y1.2183
N8395 X0.1968 Y1.225
N8400 X0.208 Y1.2314
N8405 X0.2122 Y1.2336
N8410 X0.2193 Y1.2365
N8415 X0.2417 Y1.2451
N8420 X0.253 Y1.2481
N8425 X0.2755 Y1.2529
N8430 X0.2979 Y1.2544
N8435 X0.3092 Y1.255
N8440 X0.5451
N8445 X0.5563 Y1.2549
N8450 X0.5788 Y1.2546
N8455 X0.59 Y1.2537
N8460 X0.6013 Y1.2521
N8465 X0.6478 Y1.2479
N8470 X0.6943 Y1.2442
N8475 X0.7409 Y1.2417
N8480 X0.7876 Y1.2399
N8485 X0.8343 Y1.2387
N8490 X0.8809 Y1.2379
N8495 X0.9276 Y1.2373
N8500 X0.9743 Y1.2369
N8505 X1.021 Y1.2367
N8510 X1.0677 Y1.2365
N8515 X1.1144 Y1.2364
N8520 X1.2078 Y1.2363
N8525 X1.4412
N8530 X2.1883 Y1.2365
N8535 X2.235 Y1.2366
N8540 X2.2817 Y1.2373
N8545 X2.3283 Y1.2393
N8550 X2.3748 Y1.2435
N8555 X2.421 Y1.2506
N8560 X2.4437 Y1.2559
N8565 X2.4887 Y1.2684
N8570 X2.5292 Y1.2829
N8575 X2.5586 Y1.2962
N8580 X2.5817 Y1.309
N8585 X2.6024 Y1.3228
N8590 X2.6194 Y1.3361
N8595 X2.6348 Y1.3503
N8600 X2.6475 Y1.3641
N8605 X2.6555 Y1.3743
N8610 X2.6636 Y1.3867
N8615 X2.6695 Y1.4002
N8620 X2.673 Y1.4146
N8625 X2.674 Y1.4293
N8630 X2.6726 Y1.4441
N8635 X2.6687 Y1.4583
N8640 X2.6625 Y1.4717
N8645 X2.654 Y1.4839
N8650 G3 X2.6424 Y1.4928 I-0.0281 J-0.0249 F5.
N8655 G1 X2.6383 Y1.4947 Z-0.2997
N8660 X2.6343 Y1.4967 Z-0.2989
N8665 X2.6304 Y1.4986 Z-0.2976
N8670 X2.6267 Y1.5004 Z-0.2957
N8675 X2.6232 Y1.5021 Z-0.2934
N8680 X2.62 Y1.5036 Z-0.2906
N8685 X2.6172 Y1.505 Z-0.2874
N8690 X2.6147 Y1.5063 Z-0.2838
N8695 X2.6125 Y1.5073 Z-0.2799
N8700 X2.6109 Y1.5081 Z-0.2758
N8705 X2.6097 Y1.5087 Z-0.2715
N8710 X2.6089 Y1.5091 Z-0.267
N8715 X2.6087 Y1.5092 Z-0.2625
N8720 G0 Z0.2
N8725 X2.5116 Y-0.0557
N8730 Z-0.225
N8735 G1 Z-0.2625 F5.
N8740 X2.5118 Y-0.0559 Z-0.267
N8745 X2.5124 Y-0.0565 Z-0.2715
N8750 X2.5134 Y-0.0574 Z-0.2758
N8755 X2.5147 Y-0.0586 Z-0.2799
N8760 X2.5165 Y-0.0602 Z-0.2838
N8765 X2.5185 Y-0.0621 Z-0.2874
N8770 X2.5209 Y-0.0643 Z-0.2906
N8775 X2.5235 Y-0.0667 Z-0.2934
N8780 X2.5263 Y-0.0694 Z-0.2957
N8785 X2.5294 Y-0.0722 Z-0.2976
N8790 X2.5325 Y-0.0751 Z-0.2989
N8795 X2.5358 Y-0.0781 Z-0.2997
N8800 X2.5391 Y-0.0812 Z-0.3
N8805 G3 X2.5538 Y-0.0822 I0.008 J0.0086
N8810 G1 X2.5595 Y-0.0774 F7.
N8815 X2.5674 Y-0.0709
N8820 X2.5898 Y-0.0511
N8825 X2.5973 Y-0.044
N8830 X2.5994 Y-0.0418
N8835 X2.602 Y-0.0306
N8840 X2.6039 Y-0.0188
N8845 X2.6049 Y-0.0051
N8850 X2.6048 Y0.0091
N8855 X2.6034 Y0.0252
N8860 X2.6005 Y0.042
N8865 X2.5959 Y0.0601
N8870 X2.5893 Y0.0796
N8875 X2.5807 Y0.0996
N8880 X2.569 Y0.1216
N8885 X2.5552 Y0.1431
N8890 X2.5374 Y0.1666
N8895 X2.5163 Y0.1901
N8900 X2.4913 Y0.2139
N8905 X2.4608 Y0.2385
N8910 X2.4249 Y0.2631
N8915 X2.3844 Y0.2863
N8920 X2.3422 Y0.3063
N8925 X2.2988 Y0.3234
N8930 X2.2545 Y0.3381
N8935 X2.2095 Y0.3506
N8940 X2.164 Y0.3611
N8945 X2.1181 Y0.37
N8950 X2.0721 Y0.3775
N8955 X2.0484 Y0.3807
N8960 X2.0397 Y0.3815
N8965 X2.0311 Y0.3814
N8970 X2.0225 Y0.3804
N8975 X2.0169 Y0.3795
N8980 X1.9944 Y0.376
N8985 X1.9719 Y0.3728
N8990 X1.9607 Y0.3712
N8995 X1.9382 Y0.3705
N9000 X1.927 Y0.3707
N9005 X1.9045 Y0.373
N9010 X1.8933 Y0.3743
N9015 X1.8708 Y0.3773
N9020 X1.8593 Y0.3789
N9025 X1.8483 Y0.3806
N9030 X1.8371 Y0.3832
N9035 X1.8312 Y0.3845
N9040 X1.785 Y0.391
N9045 X1.7386 Y0.3959
N9050 X1.692 Y0.3998
N9055 X1.6454 Y0.4027
N9060 X1.5988 Y0.405
N9065 X1.5521 Y0.4068
N9070 X1.5055 Y0.4082
N9075 X1.4588 Y0.4092
N9080 X1.4121 Y0.4101
N9085 X1.3654 Y0.4107
N9090 X1.3187 Y0.4112
N9095 X1.272 Y0.4116
N9100 X1.2254 Y0.4119
N9105 X1.1787 Y0.4121
N9110 X1.132 Y0.4123
N9115 X1.0386 Y0.4125
N9120 X0.8985 Y0.4126
N9125 X0.8557 Y0.4127
N9130 X0.8415 Y0.4115
N9135 X0.8277 Y0.4081
N9140 X0.8147 Y0.4024
N9145 X0.8028 Y0.3947
N9150 X0.7923 Y0.3851
N9155 X0.781 Y0.3749
N9160 X0.772 Y0.3677
N9165 X0.7413 Y0.3452
N9170 X0.7098 Y0.3227
N9175 X0.7024 Y0.3182
N9180 X0.6906 Y0.3114
N9185 X0.6799 Y0.3054
N9190 X0.6681 Y0.3002
N9195 X0.635 Y0.2858
N9200 X0.6162 Y0.2777
N9205 G3 X0.6044 Y0.269 I0.0161 J-0.0339 F5.
N9210 X0.6355 Y0.2064 I0.0278 J-0.0252 F7.
N9215 G1 X1.8278 Y0.3105
N9220 G3 X1.8497 Y0.3757 I-0.0033 J0.0374
N9225 X1.8371 Y0.3832 I-0.0251 J-0.0279 F5.
N9230 G1 X1.8259 Y0.3867 F7.
N9235 X1.8034 Y0.3946
N9240 X1.7922 Y0.3994
N9245 X1.7623 Y0.4126
N9250 X1.7585 Y0.4145
N9255 X1.736 Y0.4254
N9260 X1.7247 Y0.4308
N9265 X1.7191 Y0.432
N9270 X1.7135 Y0.4325
N9275 X0.8597
N9280 X0.8484 Y0.4323
N9285 X0.8428 Y0.4312
N9290 X0.8372 Y0.4293
N9295 X0.8327 Y0.427
N9300 X0.8283 Y0.4239
N9305 X0.826 Y0.4218
N9310 X0.8175 Y0.4126
N9315 X0.8074 Y0.4014
N9320 X0.7923 Y0.3851
N9325 G3 X0.785 Y0.3724 I0.0283 J-0.0246 F5.
N9330 X0.8127 Y0.3238 I0.0356 J-0.0119 F7.
N9335 G1 X2.5645 Y-0.0527
N9340 G3 X2.5847 Y-0.0514 I0.0079 J0.0367
N9345 X2.5973 Y-0.044 I-0.0123 J0.0354 F5.
N9350 G1 X2.6045 Y-0.0372 F7.
N9355 X2.6154 Y-0.0259
N9360 X2.6263 Y-0.0147
N9365 X2.6366 Y-0.0034
N9370 X2.646 Y0.0076
N9375 X2.6496 Y0.0124
N9380 X2.654 Y0.0227
N9385 X2.6577 Y0.0339
N9390 X2.6609 Y0.0469
N9395 X2.6631 Y0.0609
N9400 X2.6644 Y0.0764
N9405 X2.6643 Y0.0936
N9410 X2.6629 Y0.1118
N9415 X2.6596 Y0.1322
N9420 X2.6545 Y0.1528
N9425 X2.6468 Y0.1758
N9430 X2.6368 Y0.1994
N9435 X2.6237 Y0.2243
N9440 X2.6067 Y0.2512
N9445 X2.5871 Y0.2773
N9450 X2.5624 Y0.3053
N9455 X2.5328 Y0.3339
N9460 X2.4987 Y0.3618
N9465 X2.4603 Y0.3884
N9470 X2.42 Y0.412
N9475 X2.3782 Y0.4329
N9480 X2.3353 Y0.4513
N9485 X2.2915 Y0.4674
N9490 X2.267 Y0.4751
N9495 X2.2526 Y0.4783
N9500 X2.2379 Y0.4791
N9505 X2.2233 Y0.4774
N9510 X2.2092 Y0.4733
N9515 X2.1959 Y0.4669
N9520 X2.184 Y0.4584
N9525 X2.1698 Y0.4464
N9530 X2.1629 Y0.441
N9535 X2.1543 Y0.4351
N9540 X2.1292 Y0.4211
N9545 X2.118 Y0.4154
N9550 X2.0955 Y0.4049
N9555 X2.0876 Y0.4014
N9560 X2.073 Y0.3953
N9565 G3 X2.0612 Y0.3866 I0.0157 J-0.034 F5.
N9570 X2.069 Y0.3293 I0.0276 J-0.0254 F7.
N9575 G1 X2.5986 Y0.0011
N9580 G3 X2.6342 Y-0.001 I0.0198 J0.0319
N9585 X2.646 Y0.0076 I-0.0158 J0.034 F5.
N9590 G1 X2.6648 Y0.0303 F7.
N9595 X2.6685 Y0.0351
N9600 X2.6732 Y0.0415
N9605 X2.6971 Y0.0753
N9610 X2.7022 Y0.0831
N9615 X2.71 Y0.0975
N9620 X2.7147 Y0.1079
N9625 X2.7189 Y0.1199
N9630 X2.7224 Y0.1333
N9635 X2.7251 Y0.1483
N9640 X2.7267 Y0.165
N9645 X2.727 Y0.1832
N9650 X2.7258 Y0.2034
N9655 X2.7227 Y0.2245
N9660 X2.7173 Y0.2484
N9665 X2.7097 Y0.2724
N9670 X2.6988 Y0.2993
N9675 X2.6849 Y0.3269
N9680 X2.6676 Y0.3556
N9685 X2.6453 Y0.3864
N9690 X2.6191 Y0.4171
N9695 X2.5881 Y0.448
N9700 X2.5525 Y0.4782
N9705 X2.5147 Y0.5057
N9710 X2.4751 Y0.5305
N9715 X2.4341 Y0.5528
N9720 X2.3998 Y0.5685
N9725 X2.3711 Y0.579
N9730 X2.3603 Y0.582
N9735 X2.3447 Y0.5848
N9740 X2.3288 Y0.5847
N9745 X2.3132 Y0.5818
N9750 X2.2984 Y0.5761
N9755 X2.2849 Y0.5679
N9760 X2.2731 Y0.5573
N9765 X2.2633 Y0.5448
N9770 X2.2528 Y0.5284
N9775 X2.2505 Y0.5251
N9780 X2.2415 Y0.5133
N9785 X2.2321 Y0.5026
N9790 X2.2214 Y0.4914
N9795 X2.2191 Y0.4892
N9800 X2.2078 Y0.4792
N9805 X2.1902 Y0.4638
N9810 X2.184 Y0.4584
N9815 G3 X2.1753 Y0.4466 I0.0253 J-0.0277 F5.
N9820 X2.1876 Y0.4 I0.0339 J-0.0159 F7.
N9825 G1 X2.6498 Y0.074
N9830 G3 X2.6916 Y0.073 I0.0216 J0.0306
N9835 X2.7022 Y0.0831 I-0.0201 J0.0316 F5.
N9840 G1 X2.7179 Y0.109 F7.
N9845 X2.7241 Y0.1203
N9850 X2.7361 Y0.1427
N9855 X2.7418 Y0.154
N9860 X2.7571 Y0.1877
N9865 X2.7696 Y0.2201
N9870 X2.7751 Y0.2368
N9875 X2.7784 Y0.2503
N9880 X2.7807 Y0.2653
N9885 X2.7821 Y0.2823
N9890 X2.782 Y0.3006
N9895 X2.7803 Y0.3215
N9900 X2.7766 Y0.3434
N9905 X2.7706 Y0.3677
N9910 X2.7618 Y0.3937
N9915 X2.7501 Y0.421
N9920 X2.7342 Y0.4512
N9925 X2.7153 Y0.481
N9930 X2.6912 Y0.513
N9935 X2.6615 Y0.5464
N9940 X2.6278 Y0.5787
N9945 X2.5918 Y0.6083
N9950 X2.5536 Y0.6353
N9955 X2.5189 Y0.6559
N9960 X2.4903 Y0.6699
N9965 X2.4637 Y0.6804
N9970 X2.4393 Y0.6879
N9975 X2.4171 Y0.6927
N9980 X2.3947 Y0.6958
N9985 X2.3922 Y0.6959
N9990 X2.3767 Y0.6953
N9995 X2.3616 Y0.6917
N10000 X2.3474 Y0.6853
N10005 X2.3347 Y0.6763
N10010 X2.324 Y0.6651
N10015 X2.3156 Y0.652
N10020 X2.3098 Y0.6375
N10025 X2.3021 Y0.6151
N10030 X2.2979 Y0.6038
N10035 X2.2863 Y0.5813
N10040 X2.2794 Y0.5701
N10045 X2.2633 Y0.5448
N10050 G3 X2.2585 Y0.531 I0.0323 J-0.0191 F5.
N10055 X2.2749 Y0.4944 I0.0371 J-0.0053 F7.
N10060 G1 X2.7144 Y0.2035
N10065 G3 X2.7613 Y0.208 I0.0207 J0.0313
N10070 X2.7696 Y0.2201 I-0.0262 J0.0268 F5.
N10075 G1 X2.7701 Y0.2215 F7.
N10080 X2.7741 Y0.2327
N10085 X2.7778 Y0.244
N10090 X2.7813 Y0.2552
N10095 X2.7845 Y0.2664
N10100 X2.7921 Y0.2954
N10105 X2.7933 Y0.3002
N10110 X2.8 Y0.3339
N10115 X2.8018 Y0.3452
N10120 X2.8051 Y0.3677
N10125 X2.8064 Y0.3789
N10130 X2.8084 Y0.4014
N10135 X2.8094 Y0.4126
N10140 X2.8101 Y0.4351
N10145 X2.8098 Y0.4532
N10150 X2.8081 Y0.4711
N10155 X2.8044 Y0.492
N10160 X2.7988 Y0.5132
N10165 X2.7901 Y0.538
N10170 X2.7789 Y0.563
N10175 X2.7638 Y0.5909
N10180 X2.7445 Y0.6203
N10185 X2.722 Y0.6495
N10190 X2.6951 Y0.6789
N10195 X2.6657 Y0.7064
N10200 X2.6344 Y0.7312
N10205 X2.602 Y0.7529
N10210 X2.5692 Y0.7712
N10215 X2.5393 Y0.7849
N10220 X2.5116 Y0.795
N10225 X2.4872 Y0.8017
N10230 X2.4644 Y0.8061
N10235 X2.4424 Y0.8085
N10240 X2.4224 Y0.809
N10245 X2.4023 Y0.808
N10250 X2.3883 Y0.8048
N10255 X2.375 Y0.7994
N10260 X2.3629 Y0.7917
N10265 X2.3522 Y0.782
N10270 X2.3434 Y0.7707
N10275 X2.3366 Y0.758
N10280 X2.3321 Y0.7444
N10285 X2.33 Y0.7302
N10290 X2.3299 Y0.7275
N10295 X2.3277 Y0.705
N10300 X2.3252 Y0.6938
N10305 X2.3197 Y0.6713
N10310 X2.3098 Y0.6375
N10315 G3 X2.309 Y0.6229 I0.0363 J-0.0093 F5.
N10320 X2.3309 Y0.5941 I0.0371 J0.0054 F7.
N10325 G1 X2.7574 Y0.4035
N10330 G3 X2.8063 Y0.421 I0.0153 J0.0342
N10335 X2.8101 Y0.4351 I-0.0336 J0.0167 F5.
N10340 G1 X2.8105 Y0.4464 F7.
N10345 X2.8106 Y0.4576
N10350 Y0.6151
N10355 X2.8099 Y0.6288
N10360 X2.8096 Y0.6348
N10365 X2.809 Y0.6407
N10370 X2.8083 Y0.6467
N10375 X2.8074 Y0.6526
N10380 X2.8063 Y0.6585
N10385 X2.8051 Y0.6644
N10390 X2.8037 Y0.6702
N10395 X2.8021 Y0.676
N10400 X2.8004 Y0.6818
N10405 X2.7986 Y0.6875
N10410 X2.7966 Y0.6931
N10415 X2.7945 Y0.6988
N10420 X2.7923 Y0.7043
N10425 X2.7899 Y0.7099
N10430 X2.7874 Y0.7153
N10435 X2.7849 Y0.7207
N10440 X2.7822 Y0.7261
N10445 X2.7794 Y0.7314
N10450 X2.7765 Y0.7367
N10455 X2.7735 Y0.7419
N10460 X2.7704 Y0.747
N10465 X2.7672 Y0.7521
N10470 X2.7639 Y0.7571
N10475 X2.7606 Y0.7621
N10480 X2.7571 Y0.767
N10485 X2.7536 Y0.7718
N10490 X2.75 Y0.7766
N10495 X2.7463 Y0.7814
N10500 X2.7425 Y0.786
N10505 X2.7387 Y0.7906
N10510 X2.7347 Y0.7952
N10515 X2.7308 Y0.7997
N10520 X2.7267 Y0.8041
N10525 X2.7226 Y0.8085
N10530 X2.7184 Y0.8128
N10535 X2.7141 Y0.817
N10540 X2.7098 Y0.8212
N10545 X2.7055 Y0.8253
N10550 X2.701 Y0.8293
N10555 X2.6965 Y0.8333
N10560 X2.692 Y0.8372
N10565 X2.6874 Y0.841
N10570 X2.6827 Y0.8448
N10575 X2.678 Y0.8485
N10580 X2.6732 Y0.8522
N10585 X2.6684 Y0.8557
N10590 X2.6635 Y0.8592
N10595 X2.6586 Y0.8627
N10600 X2.6536 Y0.866
N10605 X2.6486 Y0.8693
N10610 X2.6436 Y0.8725
N10615 X2.6384 Y0.8757
N10620 X2.6333 Y0.8788
N10625 X2.6281 Y0.8818
N10630 X2.6229 Y0.8847
N10635 X2.6176 Y0.8875
N10640 X2.6123 Y0.8903
N10645 X2.6069 Y0.893
N10650 X2.6015 Y0.8956
N10655 X2.5961 Y0.8982
N10660 X2.5906 Y0.9006
N10665 X2.5851 Y0.903
N10670 X2.5795 Y0.9053
N10675 X2.574 Y0.9075
N10680 X2.5684 Y0.9097
N10685 X2.5627 Y0.9117
N10690 X2.5571 Y0.9137
N10695 X2.5514 Y0.9156
N10700 X2.5456 Y0.9174
N10705 X2.5399 Y0.9191
N10710 X2.5341 Y0.9207
N10715 X2.5283 Y0.9222
N10720 X2.5225 Y0.9236
N10725 X2.5166 Y0.9249
N10730 X2.5107 Y0.9261
N10735 X2.5048 Y0.9272
N10740 X2.4989 Y0.9282
N10745 X2.493 Y0.9291
N10750 X2.487 Y0.9298
N10755 X2.4811 Y0.9304
N10760 X2.4751 Y0.9309
N10765 X2.4691 Y0.9313
N10770 X2.4631 Y0.9316
N10775 X2.4571 Y0.9317
N10780 X2.4511
N10785 X2.4451 Y0.9316
N10790 X2.4391 Y0.9313
N10795 X2.4331 Y0.9309
N10800 X2.4271 Y0.9304
N10805 X2.4212 Y0.9297
N10810 X2.4152 Y0.9289
N10815 X2.4093 Y0.9279
N10820 X2.4034 Y0.9268
N10825 X2.3976 Y0.9255
N10830 X2.3917 Y0.9241
N10835 X2.3859 Y0.9226
N10840 X2.3802 Y0.9209
N10845 X2.3745 Y0.919
N10850 X2.3621 Y0.9134
N10855 X2.3509 Y0.9055
N10860 X2.3414 Y0.8958
N10865 X2.3337 Y0.8846
N10870 X2.3283 Y0.8721
N10875 X2.3251 Y0.8588
N10880 X2.3245 Y0.8452
N10885 X2.3263 Y0.8317
N10890 X2.327 Y0.8287
N10895 X2.3297 Y0.8062
N10900 X2.3304 Y0.795
N10905 X2.3306 Y0.7725
N10910 Y0.7612
N10915 Y0.7388
N10920 X2.33 Y0.7302
N10925 G3 X2.3325 Y0.7157 I0.0375 J-0.0009 F5.
N10930 X2.3575 Y0.6931 I0.035 J0.0135 F7.
N10935 G1 X2.7631 Y0.5802
N10940 G3 X2.8073 Y0.6008 I0.0101 J0.0361
N10945 X2.8106 Y0.6151 I-0.0341 J0.0156 F5.
N10950 G1 Y0.7725 F7.
N10955 X2.81 Y0.7844
N10960 X2.8097 Y0.7904
N10965 X2.8091 Y0.7964
N10970 X2.8083 Y0.8023
N10975 X2.8074 Y0.8083
N10980 X2.8062 Y0.8141
N10985 X2.8048 Y0.82
N10990 X2.8033 Y0.8258
N10995 X2.8016 Y0.8315
N11000 X2.7997 Y0.8372
N11005 X2.7977 Y0.8429
N11010 X2.7956 Y0.8485
N11015 X2.7933 Y0.854
N11020 X2.7908 Y0.8595
N11025 X2.7883 Y0.8649
N11030 X2.7856 Y0.8703
N11035 X2.7827 Y0.8756
N11040 X2.7798 Y0.8808
N11045 X2.7767 Y0.886
N11050 X2.7736 Y0.8911
N11055 X2.7703 Y0.8961
N11060 X2.7669 Y0.9011
N11065 X2.7634 Y0.9059
N11070 X2.7599 Y0.9108
N11075 X2.7562 Y0.9155
N11080 X2.7524 Y0.9202
N11085 X2.7486 Y0.9248
N11090 X2.7447 Y0.9293
N11095 X2.7407 Y0.9338
N11100 X2.7366 Y0.9382
N11105 X2.7324 Y0.9425
N11110 X2.7282 Y0.9468
N11115 X2.7238 Y0.9509
N11120 X2.7195 Y0.955
N11125 X2.715 Y0.959
N11130 X2.7105 Y0.963
N11135 X2.7059 Y0.9669
N11140 X2.6975 Y0.975
N11145 X2.6903 Y0.9842
N11150 X2.6844 Y0.9942
N11155 X2.6798 Y1.005
N11160 X2.6768 Y1.0162
N11165 X2.6752 Y1.0278
N11170 Y1.0395
N11175 X2.6815 Y1.0858
N11180 X2.6842 Y1.0909
N11185 X2.7059 Y1.1323
N11190 X2.7262 Y1.1678
N11195 X2.7323 Y1.1787
N11200 X2.7368 Y1.1867
N11205 X2.7402 Y1.1931
N11210 X2.7431 Y1.1985
N11215 X2.7459 Y1.2038
N11220 X2.7486 Y1.2091
N11225 X2.7513 Y1.2145
N11230 X2.754 Y1.2199
N11235 X2.7566 Y1.2253
N11240 X2.7599 Y1.2324
N11245 X2.7647 Y1.2455
N11250 X2.7674 Y1.2592
N11255 X2.7679 Y1.2731
N11260 X2.7661 Y1.287
N11265 X2.7622 Y1.3004
N11270 X2.7576 Y1.3123
N11275 X2.7423 Y1.346
N11280 X2.7367 Y1.3573
N11285 X2.7246 Y1.38
N11290 X2.7186 Y1.391
N11295 X2.7134 Y1.3995
N11300 G3 X2.7032 Y1.41 I-0.0314 J-0.0205 F5.
N11305 G1 X2.6995 Y1.4125 Z-0.2997
N11310 X2.6958 Y1.415 Z-0.2989
N11315 X2.6922 Y1.4175 Z-0.2976
N11320 X2.6888 Y1.4198 Z-0.2957
N11325 X2.6856 Y1.422 Z-0.2934
N11330 X2.6827 Y1.424 Z-0.2906
N11335 X2.68 Y1.4258 Z-0.2874
N11340 X2.6777 Y1.4274 Z-0.2838
N11345 X2.6758 Y1.4287 Z-0.2799
N11350 X2.6743 Y1.4298 Z-0.2758
N11355 X2.6731 Y1.4305 Z-0.2715
N11360 X2.6725 Y1.431 Z-0.267
N11365 X2.6722 Y1.4312 Z-0.2625
N11370 G0 Z0.2
N11375 X2.777 Y0.7336
N11380 Z-0.225
N11385 G1 Z-0.2625 F5.
N11390 X2.7772 Y0.7338 Z-0.267
N11395 X2.7778 Y0.7343 Z-0.2715
N11400 X2.7788 Y0.7352 Z-0.2758
N11405 X2.7802 Y0.7365 Z-0.2799
N11410 X2.7819 Y0.7381 Z-0.2838
N11415 X2.7839 Y0.74 Z-0.2874
N11420 X2.7863 Y0.7422 Z-0.2906
N11425 X2.7889 Y0.7446 Z-0.2934
N11430 X2.7917 Y0.7472 Z-0.2957
N11435 X2.7948 Y0.75 Z-0.2976
N11440 X2.7979 Y0.753 Z-0.2989
N11445 X2.8012 Y0.756 Z-0.2997
N11450 X2.8045 Y0.7591 Z-0.3
N11455 G3 X2.8106 Y0.7725 I-0.0131 J0.0141
N11460 G1 Y1.0424 F7.
N11465 X2.8105 Y1.0536
N11470 X2.8095 Y1.0874
N11475 X2.8075 Y1.1099
N11480 X2.8066 Y1.1211
N11485 X2.8052 Y1.1323
N11490 X2.802 Y1.1548
N11495 X2.8002 Y1.1661
N11500 X2.7935 Y1.1998
N11505 X2.7878 Y1.2223
N11510 X2.7849 Y1.2336
N11515 X2.7816 Y1.2448
N11520 X2.7782 Y1.256
N11525 X2.7745 Y1.2673
N11530 X2.7705 Y1.2785
N11535 X2.7622 Y1.3004
N11540 G3 X2.7539 Y1.3125 I-0.0345 J-0.0146 F5.
N11545 G1 X2.7507 Y1.3156 Z-0.2997
N11550 X2.7475 Y1.3188 Z-0.2989
N11555 X2.7445 Y1.3218 Z-0.2976
N11560 X2.7415 Y1.3247 Z-0.2957
N11565 X2.7387 Y1.3274 Z-0.2934
N11570 X2.7362 Y1.3299 Z-0.2906
N11575 X2.7339 Y1.3321 Z-0.2874
N11580 X2.7319 Y1.3341 Z-0.2838
N11585 X2.7303 Y1.3357 Z-0.2799
N11590 X2.7289 Y1.337 Z-0.2758
N11595 X2.728 Y1.338 Z-0.2715
N11600 X2.7274 Y1.3386 Z-0.267
N11605 X2.7272 Y1.3388 Z-0.2625
N11610 G0 Z0.2
N11615 X0.5675 Y1.2909
N11620 Z-0.225
N11625 G1 Z-0.2625 F5.
N11630 X0.5676 Y1.2907 Z-0.267
N11635 X0.5681 Y1.29 Z-0.2715
N11640 X0.5689 Y1.2889 Z-0.2758
N11645 X0.5699 Y1.2874 Z-0.2799
N11650 X0.5713 Y1.2854 Z-0.2838
N11655 X0.5728 Y1.2831 Z-0.2874
N11660 X0.5747 Y1.2805 Z-0.2906
N11665 X0.5767 Y1.2776 Z-0.2934
N11670 X0.5789 Y1.2744 Z-0.2957
N11675 X0.5813 Y1.271 Z-0.2976
N11680 X0.5837 Y1.2675 Z-0.2989
N11685 X0.5863 Y1.2638 Z-0.2997
N11690 X0.5889 Y1.2601 Z-0.3
N11695 G3 X0.6013 Y1.2521 I0.0158 J0.011
N11700 G1 X0.6125 Y1.2505 F7.
N11705 X0.6237 Y1.2476
N11710 X0.635 Y1.2443
N11715 X0.6462 Y1.2408
N11720 X0.6687 Y1.2304
N11725 X0.6799 Y1.2242
N11730 X0.7136 Y1.2044
N11735 X0.7248 Y1.1978
N11740 X0.7361 Y1.1905
N11745 X0.7389 Y1.1886
N11750 X0.7435 Y1.185
N11755 X0.7575 Y1.1752
N11760 X0.778 Y1.1632
N11765 X0.8042 Y1.1506
N11770 X0.8386 Y1.1374
N11775 X0.8834 Y1.1241
N11780 X0.929 Y1.1144
N11785 X0.9751 Y1.1072
N11790 X1.0215 Y1.1018
N11795 X1.0681 Y1.0978
N11800 X1.0726 Y1.0976
N11805 X1.0762 Y1.0975
N11810 G3 X1.0905 Y1.1009 I-0.0013 J0.0375 F5.
N11815 X1.0842 Y1.1713 I-0.0156 J0.0341 F7.
N11820 G1 X0.7768 Y1.2501
N11825 G3 X0.7343 Y1.1964 I-0.0093 J-0.0363
N11830 X0.7435 Y1.185 I0.0332 J0.0174 F5.
N11835 G1 X0.7473 Y1.182 F7.
N11840 X0.7698 Y1.1634
N11845 X0.7928 Y1.1436
N11850 X0.8052 Y1.1323
N11855 X0.8147 Y1.1223
N11860 X0.826 Y1.1098
N11865 X0.8288 Y1.107
N11870 X0.8316 Y1.1048
N11875 X0.8344 Y1.1029
N11880 X0.8372 Y1.1014
N11885 X0.841 Y1.0998
N11890 X0.8447 Y1.0986
N11895 X0.8484 Y1.0979
N11900 X0.8597 Y1.0975
N11905 X1.7135
N11910 X1.718 Y1.0978
N11915 X1.7225 Y1.0986
N11920 X1.7247 Y1.0992
N11925 X1.736 Y1.1045
N11930 X1.7585 Y1.1153
N11935 X1.7697 Y1.1206
N11940 X1.7962 Y1.1323
N11945 X1.8034 Y1.1354
N11950 X1.8267 Y1.1436
N11955 X1.8371 Y1.1466
N11960 X1.8596 Y1.1509
N11965 X1.8708 Y1.1527
N11970 X1.8933 Y1.1557
N11975 X1.9045 Y1.157
N11980 X1.927 Y1.1593
N11985 X1.9382 Y1.1595
N11990 X1.9607 Y1.1588
N11995 X1.9719 Y1.1573
N12000 X1.9888 Y1.1548
N12005 X2.0169 Y1.1505
N12010 X2.0281 Y1.1487
N12015 X2.0506 Y1.1429
N12020 X2.0618 Y1.1395
N12025 X2.0843 Y1.13
N12030 X2.0955 Y1.1251
N12035 X2.118 Y1.1146
N12040 X2.1275 Y1.1099
N12045 X2.1517 Y1.0964
N12050 X2.1573 Y1.0931
N12055 X2.1629 Y1.0889
N12060 X2.1854 Y1.0704
N12065 X2.1918 Y1.0649
N12070 X2.2078 Y1.0507
N12075 X2.2191 Y1.0408
N12080 X2.2288 Y1.0311
N12085 X2.2303 Y1.0296
N12090 X2.2387 Y1.0199
N12095 X2.2475 Y1.0086
N12100 X2.2528 Y1.0016
N12105 X2.2555 Y0.9974
N12110 X2.2771 Y0.9637
N12115 X2.2842 Y0.9524
N12120 X2.2865 Y0.9484
N12125 X2.2963 Y0.9299
N12130 X2.2977 Y0.9263
N12135 X2.3047 Y0.9074
N12140 X2.3087 Y0.8962
N12145 X2.3153 Y0.8737
N12150 X2.3185 Y0.8625
N12155 X2.3244 Y0.84
N12160 X2.3263 Y0.8317
N12165 X2.3275 Y0.829 Z-0.2997 F5.
N12170 X2.3286 Y0.8263 Z-0.2988
N12175 X2.3297 Y0.8239 Z-0.2973
N12180 X2.3305 Y0.8218 Z-0.2952
N12185 X2.3315 Y0.8204 Z-0.2931
N12190 X2.3322 Y0.8194 Z-0.2906
N12195 X2.3326 Y0.8188 Z-0.288
N12200 X2.3327 Y0.8186 Z-0.2853
N12205 G0 Z0.2
N12210 X0.0977 Y0.0797
N12215 Z-0.105
N12220 G1 Z-0.1425 F5.
N12225 X0.0978 Y0.08 Z-0.147
N12230 X0.0981 Y0.0807 Z-0.1515
N12235 X0.0987 Y0.0819 Z-0.1558
N12240 X0.0995 Y0.0836 Z-0.1599
N12245 X0.1006 Y0.0857 Z-0.1638
N12250 X0.1018 Y0.0882 Z-0.1674
N12255 X0.1032 Y0.0911 Z-0.1706
N12260 X0.1047 Y0.0943 Z-0.1734
N12265 X0.1064 Y0.0978 Z-0.1757
N12270 X0.1082 Y0.1015 Z-0.1776
N12275 X0.1101 Y0.1054 Z-0.1789
N12280 X0.112 Y0.1094 Z-0.1797
N12285 X0.114 Y0.1135 Z-0.18
N12290 G3 X0.1832 Y0.3078 I-0.8621 J0.4164
N12295 G1 X0.1837 Y0.3107 F7.
N12300 X0.1829 Y0.3135
N12305 X0.1808 Y0.3155
N12310 X0.1743 Y0.3192
N12315 X0.1501 Y0.3339
N12320 X0.1406 Y0.3412
N12325 X0.1067 Y0.3677
N12330 X0.0957 Y0.3764
N12335 X0.0845 Y0.3856
N12340 X0.0797 Y0.3901
N12345 X0.0684 Y0.4014
N12350 X0.062 Y0.4085
N12355 X0.0491 Y0.4239
N12360 X0.0171 Y0.4625
N12365 X0.0122 Y0.4689
N12370 X0.0058 Y0.4789
N12375 X-0.0085 Y0.5026
N12380 X-0.0167 Y0.5183
N12385 X-0.026 Y0.5363
N12390 X-0.0428 Y0.5701
N12395 X-0.0473 Y0.5813
N12400 X-0.0508 Y0.5926
N12405 X-0.0542 Y0.6038
N12410 X-0.0633 Y0.6375
N12415 X-0.0693 Y0.66
N12420 X-0.0721 Y0.6713
N12425 X-0.0755 Y0.6938
N12430 X-0.0768 Y0.705
N12435 X-0.0786 Y0.7388
N12440 X-0.0797 Y0.7612
N12445 X-0.08 Y0.7725
N12450 X-0.0798 Y0.795
N12455 X-0.0789 Y0.8062
N12460 X-0.0756 Y0.8287
N12465 X-0.0739 Y0.84
N12470 X-0.0701 Y0.8625
N12475 X-0.0681 Y0.8737
N12480 X-0.0638 Y0.8962
N12485 X-0.0616 Y0.9042
N12490 X-0.0529 Y0.9299
N12495 X-0.0504 Y0.9366
N12500 X-0.0391 Y0.9649
N12505 X-0.0257 Y0.9974
N12510 X-0.0199 Y1.0086
N12515 X-0.0167 Y1.0147
N12520 X-0.0136 Y1.0199
N12525 X-0.0063 Y1.0311
N12530 X0.0171 Y1.0658
N12535 X0.0244 Y1.0761
N12540 X0.0395 Y1.0973
N12545 X0.0406 Y1.0986
N12550 X0.0508 Y1.1099
N12555 X0.074 Y1.1323
N12560 X0.1069 Y1.1638
N12565 X0.1095 Y1.1661
N12570 X0.1182 Y1.1733
N12575 X0.1407 Y1.1886
N12580 X0.1519 Y1.196
N12585 X0.1764 Y1.2111
N12590 X0.1856 Y1.2166
N12595 X0.2045 Y1.2278
N12600 X0.208 Y1.2298
N12605 X0.2156 Y1.2336
N12610 X0.2451 Y1.2448
N12615 X0.253 Y1.2466
N12620 X0.2755 Y1.2515
N12625 X0.2979 Y1.253
N12630 X0.3092 Y1.2535
N12635 X0.5451
N12640 X0.5563
N12645 X0.5788 Y1.2531
N12650 X0.59 Y1.2523
N12655 X0.6125 Y1.2491
N12660 X0.6237 Y1.2461
N12665 X0.635 Y1.2427
N12670 X0.6462 Y1.2392
N12675 X0.6687 Y1.2289
N12680 X0.6803 Y1.2223
N12685 X0.7248 Y1.1961
N12690 X0.7362 Y1.1886
N12695 X0.7473 Y1.1802
N12700 X0.7643 Y1.1661
N12705 X0.7698 Y1.1615
N12710 X0.7775 Y1.1548
N12715 X0.8035 Y1.1319
N12720 X0.8139 Y1.1211
N12725 X0.8238 Y1.1099
N12730 X0.826 Y1.1076
N12735 X0.8288 Y1.105
N12740 X0.8316 Y1.1029
N12745 X0.8372 Y1.0996
N12750 X0.8396 Y1.0986
N12755 X0.844 Y1.0972
N12760 X0.8484 Y1.0963
N12765 X0.8597 Y1.096
N12770 X1.7135
N12775 X1.7191 Y1.0964
N12780 X1.7247 Y1.0977
N12785 X1.7275 Y1.0986
N12790 X1.736 Y1.1029
N12795 X1.7585 Y1.1137
N12800 X1.7697 Y1.119
N12805 X1.7998 Y1.1323
N12810 X1.8034 Y1.1338
N12815 X1.8311 Y1.1436
N12820 X1.8371 Y1.1451
N12825 X1.8596 Y1.1494
N12830 X1.8708 Y1.1512
N12835 X1.8979 Y1.1548
N12840 X1.927 Y1.1579
N12845 X1.9382 Y1.158
N12850 X1.9607 Y1.1573
N12855 X1.9719 Y1.1558
N12860 X1.9791 Y1.1548
N12865 X1.9944 Y1.1525
N12870 X2.0169 Y1.149
N12875 X2.0281 Y1.1472
N12880 X2.0506 Y1.1414
N12885 X2.0618 Y1.1379
N12890 X2.0843 Y1.1284
N12895 X2.0955 Y1.1235
N12900 X2.118 Y1.113
N12905 X2.1246 Y1.1099
N12910 X2.1517 Y1.0946
N12915 X2.1623 Y1.0874
N12920 X2.1854 Y1.0684
N12925 X2.1896 Y1.0649
N12930 X2.2023 Y1.0536
N12935 X2.2191 Y1.0388
N12940 X2.2269 Y1.0311
N12945 X2.2303 Y1.0276
N12950 X2.2367 Y1.0199
N12955 X2.2455 Y1.0086
N12960 X2.2528 Y0.999
N12965 X2.2753 Y0.9637
N12970 X2.2824 Y0.9524
N12975 X2.2865 Y0.9455
N12980 X2.2947 Y0.9299
N12985 X2.2977 Y0.922
N12990 X2.3031 Y0.9074
N12995 X2.3072 Y0.8962
N13000 X2.317 Y0.8625
N13005 X2.3229 Y0.84
N13010 X2.3255 Y0.8287
N13015 X2.3282 Y0.8062
N13020 X2.3289 Y0.795
N13025 X2.3291 Y0.7725
N13030 Y0.7612
N13035 Y0.7388
N13040 X2.3284 Y0.7275
N13045 X2.3262 Y0.705
N13050 X2.3237 Y0.6938
N13055 X2.3181 Y0.6713
N13060 X2.3083 Y0.6375
N13065 X2.2977 Y0.6071
N13070 X2.2963 Y0.6038
N13075 X2.2865 Y0.5846
N13080 X2.2848 Y0.5813
N13085 X2.2777 Y0.5701
N13090 X2.2562 Y0.5363
N13095 X2.2528 Y0.531
N13100 X2.2485 Y0.5251
N13105 X2.24 Y0.5138
N13110 X2.2302 Y0.5026
N13115 X2.2191 Y0.4912
N13120 X2.2066 Y0.4801
N13125 X2.1938 Y0.4689
N13130 X2.1854 Y0.4615
N13135 X2.1675 Y0.4464
N13140 X2.1629 Y0.4427
N13145 X2.1517 Y0.4354
N13150 X2.1292 Y0.4227
N13155 X2.118 Y0.417
N13160 X2.0955 Y0.4065
N13165 X2.0838 Y0.4014
N13170 X2.0618 Y0.3921
N13175 X2.0564 Y0.3901
N13180 X2.0281 Y0.3828
N13185 X2.0169 Y0.3809
N13190 X1.9944 Y0.3775
N13195 X1.9719 Y0.3742
N13200 X1.9607 Y0.3727
N13205 X1.9382 Y0.372
N13210 X1.927 Y0.3721
N13215 X1.9045 Y0.3745
N13220 X1.8933 Y0.3758
N13225 X1.8596 Y0.3803
N13230 X1.8483 Y0.3825
N13235 X1.8371 Y0.3848
N13240 X1.8259 Y0.3883
N13245 X1.8034 Y0.3962
N13250 X1.7914 Y0.4014
N13255 X1.7659 Y0.4126
N13260 X1.7427 Y0.4239
N13265 X1.736 Y0.4271
N13270 X1.7247 Y0.4323
N13275 X1.7191 Y0.4336
N13280 X1.7135 Y0.434
N13285 X0.8597
N13290 X0.8484 Y0.4338
N13295 X0.8428 Y0.4329
N13300 X0.8372 Y0.431
N13305 X0.8316 Y0.4281
N13310 X0.8288 Y0.4262
N13315 X0.826 Y0.4239
N13320 X0.8147 Y0.4117
N13325 X0.8054 Y0.4014
N13330 X0.7923 Y0.3872
N13335 X0.7832 Y0.3789
N13340 X0.781 Y0.3769
N13345 X0.7695 Y0.3677
N13350 X0.7473 Y0.3514
N13355 X0.7361 Y0.3432
N13360 X0.7136 Y0.3271
N13365 X0.707 Y0.3227
N13370 X0.6799 Y0.3072
N13375 X0.6687 Y0.302
N13380 X0.635 Y0.2874
N13385 X0.6125 Y0.2777
N13390 X0.6013 Y0.2732
N13395 X0.5788 Y0.2664
N13400 X0.5451 Y0.2595
N13405 X0.5114 Y0.2529
N13410 X0.4889 Y0.2496
N13415 X0.4777 Y0.2482
N13420 X0.4552 Y0.248
N13425 X0.444
N13430 X0.4215 Y0.2485
N13435 X0.4103 Y0.2487
N13440 X0.3878 Y0.2496
N13445 X0.3766 Y0.2504
N13450 X0.3541 Y0.2541
N13455 X0.3476 Y0.2552
N13460 X0.3006 Y0.2664
N13465 X0.2867 Y0.2698
N13470 X0.2755 Y0.2727
N13475 X0.2642 Y0.2767
N13480 X0.253 Y0.2809
N13485 X0.2417 Y0.2858
N13490 X0.2117 Y0.3002
N13495 X0.1856 Y0.3128
N13500 X0.1808 Y0.3155
N13505 X0.1779 Y0.3165 Z-0.1797 F5.
N13510 X0.1752 Y0.3175 Z-0.1788
N13515 X0.1727 Y0.3184 Z-0.1773
N13520 X0.1706 Y0.3191 Z-0.1752
N13525 X0.1689 Y0.3194 Z-0.1731
N13530 X0.1677 Y0.3195 Z-0.1706
N13535 X0.167 Y0.3196 Z-0.168
N13540 X0.1667 Y0.3197 Z-0.1653
N13545 G0 Z0.2
N13550 X-0.0382 Y0.2422
N13555 Z-0.09
N13560 G1 Z-0.1275 F5.
N13565 X-0.0381 Y0.2425 Z-0.132
N13570 X-0.0379 Y0.2433 Z-0.1365
N13575 X-0.0376 Y0.2446 Z-0.1408
N13580 X-0.0371 Y0.2464 Z-0.1449
N13585 X-0.0365 Y0.2487 Z-0.1488
N13590 X-0.0358 Y0.2514 Z-0.1524
N13595 X-0.035 Y0.2545 Z-0.1556
N13600 X-0.0342 Y0.2579 Z-0.1584
N13605 X-0.0332 Y0.2617 Z-0.1607
N13610 X-0.0322 Y0.2657 Z-0.1626
N13615 X-0.0311 Y0.2699 Z-0.1639
N13620 X-0.03 Y0.2742 Z-0.1647
N13625 X-0.0289 Y0.2786 Z-0.165
N13630 G3 X0.0005 Y0.4827 I-0.9274 J0.2376
N13635 G1 Y0.4944 F7.
N13640 X0.0067 Y0.5407
N13645 X0.0139 Y0.5568
N13650 X0.0249 Y0.5878
N13655 X0.0369 Y0.6329
N13660 X0.0462 Y0.6786
N13665 X0.0553 Y0.7244
N13670 X0.0662 Y0.7699
N13675 X0.0796 Y0.8146
N13680 X0.0964 Y0.8581
N13685 X0.1174 Y0.8998
N13690 X0.1425 Y0.9392
N13695 X0.1718 Y0.9756
N13700 X0.2074 Y1.0058
N13705 X0.2477 Y1.0294
N13710 X0.2907 Y1.0475
N13715 X0.3353 Y1.0613
N13720 X0.3808 Y1.0718
N13725 X0.4268 Y1.0796
N13730 X0.4735 Y1.0805
N13735 X0.5197 Y1.0738
N13740 X0.5644 Y1.0602
N13745 X0.6073 Y1.0418
N13750 X0.6496 Y1.022
N13755 X0.6914 Y1.0037
N13760 X0.7305 Y0.9904
N13765 X0.7757 Y0.9788
N13770 X0.8216 Y0.9703
N13775 X0.8679 Y0.9641
N13780 X0.9143 Y0.9594
N13785 X0.9609 Y0.956
N13790 X1.0075 Y0.9535
N13795 X1.0542 Y0.9516
N13800 X1.1009 Y0.9502
N13805 X1.1475 Y0.9491
N13810 X1.1942 Y0.9483
N13815 X1.2409 Y0.9477
N13820 X1.2876 Y0.9473
N13825 X1.3343 Y0.947
N13830 X1.381 Y0.9467
N13835 X1.4277 Y0.9466
N13840 X1.5211 Y0.9463
N13845 X1.5678
N13850 X1.6204 Y0.9471
N13855 X1.6264 Y0.9473
N13860 X1.6324 Y0.9476
N13865 X1.6384 Y0.948
N13870 X1.6444 Y0.9484
N13875 X1.6504 Y0.9489
N13880 X1.6563 Y0.9495
N13885 X1.6623 Y0.9502
N13890 X1.6683 Y0.951
N13895 X1.6742 Y0.9518
N13900 X1.6801 Y0.9526
N13905 X1.6861 Y0.9535
N13910 X1.6934 Y0.9547
N13915 X1.7394 Y0.9626
N13920 X1.7854 Y0.9702
N13925 X1.8319 Y0.9752
N13930 X1.8786 Y0.9756
N13935 X1.9249 Y0.9698
N13940 X1.9697 Y0.9567
N13945 X2.0113 Y0.9354
N13950 X2.0474 Y0.9058
N13955 X2.0758 Y0.8687
N13960 X2.0943 Y0.8259
N13965 X2.1014 Y0.7797
N13970 X2.096 Y0.7333
N13975 X2.0782 Y0.6902
N13980 X2.0491 Y0.6537
N13985 X2.0108 Y0.627
N13990 X2.0052 Y0.6251
N13995 X1.9605 Y0.6117
N14000 X1.9142 Y0.6062
N14005 X1.8675 Y0.6039
N14010 X1.8209 Y0.6023
N14015 X1.7742 Y0.6011
N14020 X1.7275 Y0.6002
N14025 X1.6808 Y0.5995
N14030 X1.6341 Y0.599
N14035 X1.5874 Y0.5986
N14040 X1.5407 Y0.5983
N14045 X1.494 Y0.5981
N14050 X1.4474 Y0.5979
N14055 X1.354 Y0.5977
N14060 X1.2139 Y0.5976
N14065 X1.0271 Y0.5975
N14070 X1.0106
N14075 X1.0013 Y0.5974
N14080 X0.993 Y0.5972
N14085 X0.9861 Y0.5971
N14090 X0.9801 Y0.5969
N14095 X0.9741 Y0.5967
N14100 X0.9681 Y0.5964
N14105 X0.9621 Y0.596
N14110 X0.9561 Y0.5957
N14115 X0.9501 Y0.5952
N14120 X0.9441 Y0.5947
N14125 X0.9382 Y0.5941
N14130 X0.9322 Y0.5934
N14135 X0.9263 Y0.5927
N14140 X0.9203 Y0.5919
N14145 X0.9144 Y0.591
N14150 X0.9085 Y0.59
N14155 X0.9026 Y0.5889
N14160 X0.8967 Y0.5877
N14165 X0.8908 Y0.5864
N14170 X0.885 Y0.585
N14175 X0.8792 Y0.5835
N14180 X0.8734 Y0.5819
N14185 X0.8676 Y0.5802
N14190 X0.8619 Y0.5783
N14195 X0.8284 Y0.5639
N14200 X0.7871 Y0.5421
N14205 X0.7466 Y0.5188
N14210 X0.7058 Y0.4962
N14215 X0.6641 Y0.4751
N14220 X0.6211 Y0.4569
N14225 X0.5767 Y0.4425
N14230 X0.5312 Y0.4321
N14235 X0.4848 Y0.4269
N14240 X0.4381 Y0.4271
N14245 X0.3918 Y0.4327
N14250 X0.3691 Y0.4385
N14255 X0.358 Y0.442
N14260 X0.3369 Y0.452
N14265 X0.3014 Y0.4823
N14270 X0.276 Y0.5215
N14275 X0.2589 Y0.5649
N14280 X0.2491 Y0.6106
N14285 X0.2462 Y0.6572
N14290 X0.2505 Y0.7036
N14295 X0.2652 Y0.748
N14300 X0.2903 Y0.7874
N14305 X0.3229 Y0.8207
N14310 X0.3628 Y0.845
N14315 X0.4075 Y0.8584
N14320 X0.4539 Y0.8636
N14325 X0.5006 Y0.8631
N14330 X0.5472 Y0.859
N14335 X0.5703 Y0.856
N14340 X0.6281 Y0.8478
N14345 X0.6743 Y0.8409
N14350 X0.6974 Y0.8375
N14355 X0.7031 Y0.8367
N14360 G3 X0.7178 Y0.837 I0.0062 J0.0596 F5.
N14365 X0.7203 Y0.9553 I-0.0085 J0.0594 F7.
N14370 X0.5795 Y0.8695 I-0.0225 J-0.1215
N14375 X0.5761 Y0.8552 I0.1183 J-0.0357 F5.
N14380 G1 X0.5753 Y0.8493 F7.
N14385 X0.5767 Y0.8434
N14390 X0.5804 Y0.8324
N14395 X0.5826 Y0.8209
N14400 X0.5833 Y0.8092
N14405 X0.5815 Y0.786
N14410 X0.5741 Y0.7638
N14415 X0.5683 Y0.7537
N14420 X0.5649 Y0.7489
N14425 X0.5637 Y0.7462 Z-0.1647 F5.
N14430 X0.5625 Y0.7436 Z-0.1638
N14435 X0.5613 Y0.7412 Z-0.1623
N14440 X0.5604 Y0.7391 Z-0.1602
N14445 X0.56 Y0.7375 Z-0.1581
N14450 X0.5597 Y0.7363 Z-0.1556
N14455 X0.5595 Y0.7356 Z-0.153
N14460 Y0.7354 Z-0.1503
N14465 G0 Z0.2
N14470 X2.1849 Y-0.226
N14475 Z-0.3424
N14480 G1 Z-0.3798 F5.
N14485 X2.1851 Z-0.3844
N14490 X2.186 Y-0.2259 Z-0.3888
N14495 X2.1873 Y-0.2257 Z-0.3931
N14500 X2.1891 Y-0.2255 Z-0.3973
N14505 X2.1915 Y-0.2252 Z-0.4012
N14510 X2.1942 Y-0.2249 Z-0.4047
N14515 X2.1974 Y-0.2245 Z-0.4079
N14520 X2.201 Y-0.2241 Z-0.4107
N14525 X2.2048 Y-0.2236 Z-0.4131
N14530 X2.2089 Y-0.2231 Z-0.4149
N14535 X2.2132 Y-0.2226 Z-0.4163
N14540 X2.2176 Y-0.2221 Z-0.4171
N14545 X2.2221 Y-0.2216 Z-0.4173
N14550 G3 X2.3728 Y-0.1868 I-0.085 J0.713
N14555 G1 X2.3764 Y-0.1854 F7.
N14560 X2.3988 Y-0.176
N14565 X2.4075 Y-0.1721
N14570 X2.4325 Y-0.16
N14575 X2.4438 Y-0.1544
N14580 X2.455 Y-0.1484
N14585 X2.4775 Y-0.1354
N14590 X2.4787 Y-0.1346
N14595 X2.4745 Y-0.1303
N14600 X2.4675 Y-0.1253
N14605 X2.4481 Y-0.1138
N14610 X2.4231 Y-0.1015
N14615 X2.3902 Y-0.0885
N14620 X2.3458 Y-0.075
N14625 X2.3002 Y-0.0651
N14630 X2.2541 Y-0.0578
N14635 X2.2077 Y-0.0524
N14640 X2.1612 Y-0.0484
N14645 X2.1146 Y-0.0454
N14650 X2.0679 Y-0.0432
N14655 X2.0213 Y-0.0416
N14660 X1.9746 Y-0.0404
N14665 X1.9279 Y-0.0395
N14670 X1.8812 Y-0.0388
N14675 X1.8345 Y-0.0384
N14680 X1.7878 Y-0.038
N14685 X1.7411 Y-0.0377
N14690 X1.6944 Y-0.0375
N14695 X1.6011 Y-0.0373
N14700 X1.5077 Y-0.0372
N14705 X1.3209 Y-0.0371
N14710 X0.854 Y-0.0372
N14715 X0.5271 Y-0.0373
N14720 X0.177 Y-0.0374
N14725 X0.1539 Y-0.034
N14730 X0.1111 Y-0.0152
N14735 X0.0766 Y0.0163
N14740 X0.0496 Y0.0543
N14745 X0.0286 Y0.096
N14750 X0.0126 Y0.1399
N14755 X0.0003 Y0.1849
N14760 X-0.0089 Y0.2307
N14765 X-0.0159 Y0.2769
N14770 X-0.0212 Y0.3233
N14775 X-0.0251 Y0.3698
N14780 X-0.0281 Y0.4164
N14785 X-0.0303 Y0.463
N14790 X-0.032 Y0.5097
N14795 X-0.0325 Y0.5277
N14800 X-0.0337 Y0.5403
N14805 X-0.0368 Y0.5526
N14810 X-0.0416 Y0.5643
N14815 X-0.0444 Y0.5701
N14820 X-0.0487 Y0.5813
N14825 X-0.0523 Y0.5926
N14830 X-0.0557 Y0.6038
N14835 X-0.0648 Y0.6375
N14840 X-0.0728 Y0.6677
N14845 X-0.0736 Y0.6713
N14850 X-0.077 Y0.6938
N14855 X-0.0783 Y0.705
N14860 X-0.08 Y0.7388
N14865 X-0.0812 Y0.7612
N14870 X-0.0815 Y0.7725
N14875 X-0.0812 Y0.795
N14880 X-0.0806 Y0.8062
N14885 X-0.0772 Y0.8287
N14890 X-0.0754 Y0.84
N14895 X-0.0716 Y0.8625
N14900 X-0.0696 Y0.8737
N14905 X-0.0675 Y0.8849
N14910 X-0.061 Y0.9312
N14915 X-0.0548 Y0.9775
N14920 X-0.0502 Y1.0239
N14925 X-0.0468 Y1.0705
N14930 X-0.0443 Y1.1171
N14935 X-0.0424 Y1.1638
N14940 X-0.0411 Y1.2105
N14945 X-0.04 Y1.2571
N14950 X-0.0393 Y1.3038
N14955 X-0.039 Y1.3272
N14960 X-0.034 Y1.35
N14965 X-0.0136 Y1.392
N14970 X0.0187 Y1.4257
N14975 X0.0572 Y1.4521
N14980 X0.0992 Y1.4725
N14985 X0.1432 Y1.4882
N14990 X0.1883 Y1.5001
N14995 X0.2342 Y1.5091
N15000 X0.2804 Y1.5159
N15005 X0.3268 Y1.521
N15010 X0.3733 Y1.5249
N15015 X0.4199 Y1.5277
N15020 X0.4665 Y1.5299
N15025 X0.5132 Y1.5315
N15030 X0.5599 Y1.5327
N15035 X0.6066 Y1.5336
N15040 X0.6533 Y1.5343
N15045 X0.6999 Y1.5348
N15050 X0.7466 Y1.5352
N15055 X0.7933 Y1.5355
N15060 X0.84 Y1.5357
N15065 X0.9334 Y1.536
N15070 X1.0268 Y1.5362
N15075 X1.2135 Y1.5363
N15080 X1.447 Y1.5364
N15085 X2.4864 Y1.5365
N15090 X2.4972 Y1.5379
N15095 X2.5072 Y1.5419
N15100 X2.516 Y1.5483
N15105 X2.5229 Y1.5567
N15110 X2.5274 Y1.5666
N15115 X2.5294 Y1.5773
N15120 X2.5286 Y1.5881
N15125 X2.5251 Y1.5984
N15130 X2.5192 Y1.6075
N15135 X2.5112 Y1.6148
N15140 G3 X2.4974 Y1.6198 I-0.0193 J-0.0322 F5.
N15145 G1 X2.4929 Y1.6204 Z-0.4171
N15150 X2.4885 Y1.6211 Z-0.4163
N15155 X2.4843 Y1.6217 Z-0.4149
N15160 X2.4802 Y1.6223 Z-0.4131
N15165 X2.4763 Y1.6229 Z-0.4107
N15170 X2.4728 Y1.6234 Z-0.4079
N15175 X2.4696 Y1.6239 Z-0.4047
N15180 X2.4669 Y1.6243 Z-0.4012
N15185 X2.4646 Y1.6247 Z-0.3973
N15190 X2.4627 Y1.6249 Z-0.3931
N15195 X2.4614 Y1.6251 Z-0.3888
N15200 X2.4606 Y1.6253 Z-0.3844
N15205 X2.4603 Z-0.3798
N15210 G0 Z0.2
N15215 X2.427 Y-0.1258
N15220 Z-0.3424
N15225 G1 Z-0.3798 F5.
N15230 X2.4272 Z-0.3844
N15235 X2.428 Y-0.1261 Z-0.3888
N15240 X2.4293 Y-0.1265 Z-0.3931
N15245 X2.4311 Y-0.127 Z-0.3973
N15250 X2.4333 Y-0.1277 Z-0.4012
N15255 X2.436 Y-0.1285 Z-0.4047
N15260 X2.4391 Y-0.1295 Z-0.4079
N15265 X2.4425 Y-0.1305 Z-0.4107
N15270 X2.4462 Y-0.1317 Z-0.4131
N15275 X2.4501 Y-0.1329 Z-0.4149
N15280 X2.4542 Y-0.1342 Z-0.4163
N15285 X2.4585 Y-0.1355 Z-0.4171
N15290 X2.4628 Y-0.1368 Z-0.4173
N15295 G3 X2.4775 Y-0.1354 I0.0057 J0.0183
N15300 G1 X2.4904 Y-0.1271 F7.
N15305 X2.5112 Y-0.1137
N15310 X2.5125 Y-0.1126
N15315 X2.5094 Y-0.1031
N15320 X2.5047 Y-0.0921
N15325 X2.4989 Y-0.081
N15330 X2.4911 Y-0.0686
N15335 X2.4809 Y-0.0549
N15340 X2.4692 Y-0.0416
N15345 X2.4537 Y-0.0266
N15350 X2.4358 Y-0.012
N15355 X2.4131 Y0.0039
N15360 X2.3858 Y0.0198
N15365 X2.3518 Y0.0361
N15370 X2.3084 Y0.0528
N15375 X2.2636 Y0.066
N15380 X2.2181 Y0.0763
N15385 X2.1721 Y0.0844
N15390 X2.1258 Y0.0908
N15395 X2.0794 Y0.0958
N15400 X2.0329 Y0.0997
N15405 X1.9863 Y0.1027
N15410 X1.9397 Y0.105
N15415 X1.893 Y0.1069
N15420 X1.8463 Y0.1083
N15425 X1.7997 Y0.1094
N15430 X1.753 Y0.1102
N15435 X1.7063 Y0.1109
N15440 X1.6596 Y0.1114
N15445 X1.6129 Y0.1117
N15450 X1.5662 Y0.112
N15455 X1.5195 Y0.1123
N15460 X1.4728 Y0.1124
N15465 X1.3794 Y0.1126
N15470 X1.2394 Y0.1128
N15475 X1.0059
N15480 X0.5857 Y0.1127
N15485 X0.3522
N15490 X0.3078 Y0.1271
N15495 X0.2691 Y0.1532
N15500 X0.2367 Y0.1868
N15505 X0.2104 Y0.2254
N15510 X0.1892 Y0.267
N15515 X0.1783 Y0.2952
N15520 X0.1729 Y0.3065
N15525 X0.1659 Y0.3168
N15530 X0.1575 Y0.3261
N15535 X0.1477 Y0.3339
N15540 X0.1406 Y0.3393
N15545 X0.1044 Y0.3677
N15550 X0.0957 Y0.3745
N15555 X0.0845 Y0.3836
N15560 X0.0777 Y0.3901
N15565 X0.0665 Y0.4014
N15570 X0.062 Y0.4062
N15575 X0.0472 Y0.4239
N15580 X0.0171 Y0.4602
N15585 X0.0104 Y0.4689
N15590 X0.0058 Y0.476
N15595 X-0.0101 Y0.5026
N15600 X-0.0167 Y0.5151
N15605 X-0.0279 Y0.5368
N15610 X-0.0416 Y0.5643
N15615 G2 X-0.0502 Y0.5762 I0.236 J0.1804 F5.
N15620 X-0.0693 Y0.6081 I0.2446 J0.1685 F7.
N15625 X-0.0734 Y0.6223 I0.0333 J0.0173
N15630 G1 X-0.0896 Y0.8225
N15635 G2 X-0.0878 Y0.8372 I0.0374 J0.003
N15640 X-0.0741 Y0.8718 I0.2823 J-0.0925
N15645 X-0.0675 Y0.8848 I0.2685 J-0.1271 F5.
N15650 G1 Y0.8849
N15655 X-0.0653 Y0.8962 F7.
N15660 X-0.062 Y0.9074
N15665 X-0.0545 Y0.9299
N15670 X-0.0501 Y0.9412
N15675 X-0.0412 Y0.9637
N15680 X-0.0319 Y0.9862
N15685 X-0.0273 Y0.9974
N15690 X-0.0215 Y1.0086
N15695 X-0.0154 Y1.0199
N15700 X-0.008 Y1.0311
N15705 X0.0147 Y1.0649
N15710 X0.0316 Y1.0929
N15715 X0.0445 Y1.1187
N15720 X0.0619 Y1.162
N15725 X0.0847 Y1.2027
N15730 X0.1151 Y1.2382
N15735 X0.1511 Y1.2679
N15740 X0.1908 Y1.2924
N15745 X0.2331 Y1.3123
N15750 X0.277 Y1.3283
N15755 X0.3219 Y1.3409
N15760 X0.3675 Y1.351
N15765 X0.4135 Y1.3589
N15770 X0.4598 Y1.365
N15775 X0.5063 Y1.3699
N15780 X0.5528 Y1.3736
N15785 X0.5994 Y1.3765
N15790 X0.646 Y1.3788
N15795 X0.6927 Y1.3805
N15800 X0.7394 Y1.3819
N15805 X0.7861 Y1.3829
N15810 X0.8327 Y1.3837
N15815 X0.8794 Y1.3843
N15820 X0.9261 Y1.3848
N15825 X0.9728 Y1.3852
N15830 X1.0195 Y1.3854
N15835 X1.0662 Y1.3857
N15840 X1.1596 Y1.386
N15845 X1.253 Y1.3861
N15850 X1.393 Y1.3863
N15855 X1.7199 Y1.3864
N15860 X1.86
N15865 X2.3269 Y1.3865
N15870 X2.3736 Y1.3869
N15875 X2.4117 Y1.3893
N15880 X2.4399 Y1.3934
N15885 X2.4643 Y1.3989
N15890 X2.4847 Y1.4053
N15895 X2.5034 Y1.4128
N15900 X2.5192 Y1.4208
N15905 X2.5591 Y1.445
N15910 X2.5689 Y1.4502
N15915 X2.5807 Y1.4583
N15920 X2.5905 Y1.4687
N15925 X2.5979 Y1.481
N15930 X2.6026 Y1.4946
N15935 X2.6042 Y1.5088
N15940 X2.6028 Y1.5231
N15945 X2.5984 Y1.5367
N15950 X2.5911 Y1.5491
N15955 X2.5815 Y1.5597
N15960 G3 X2.5686 Y1.5666 I-0.0238 J-0.029 F5.
N15965 G1 X2.5643 Y1.5679 Z-0.4171
N15970 X2.56 Y1.5692 Z-0.4163
N15975 X2.5559 Y1.5705 Z-0.4149
N15980 X2.5519 Y1.5717 Z-0.4131
N15985 X2.5482 Y1.5728 Z-0.4107
N15990 X2.5448 Y1.5738 Z-0.4079
N15995 X2.5417 Y1.5747 Z-0.4047
N16000 X2.5391 Y1.5756 Z-0.4012
N16005 X2.5368 Y1.5762 Z-0.3973
N16010 X2.535 Y1.5768 Z-0.3931
N16015 X2.5337 Y1.5772 Z-0.3888
N16020 X2.533 Y1.5774 Z-0.3844
N16025 X2.5327 Y1.5775 Z-0.3798
N16030 G0 Z0.2
N16035 X2.4603 Y-0.1066
N16040 Z-0.3424
N16045 G1 Z-0.3798 F5.
N16050 X2.4605 Y-0.1067 Z-0.3844
N16055 X2.4613 Y-0.1069 Z-0.3888
N16060 X2.4626 Y-0.1072 Z-0.3931
N16065 X2.4644 Y-0.1077 Z-0.3973
N16070 X2.4667 Y-0.1083 Z-0.4012
N16075 X2.4694 Y-0.109 Z-0.4047
N16080 X2.4725 Y-0.1097 Z-0.4079
N16085 X2.476 Y-0.1106 Z-0.4107
N16090 X2.4797 Y-0.1116 Z-0.4131
N16095 X2.4837 Y-0.1126 Z-0.4149
N16100 X2.4879 Y-0.1136 Z-0.4163
N16105 X2.4922 Y-0.1147 Z-0.4171
N16110 X2.4966 Y-0.1158 Z-0.4173
N16115 G3 X2.5112 Y-0.1137 I0.0047 J0.0186
N16120 G1 X2.5224 Y-0.1057 F7.
N16125 X2.5449 Y-0.0889
N16130 X2.5538 Y-0.0822
N16135 X2.5549 Y-0.0812
N16140 X2.5547 Y-0.0694
N16145 X2.5535 Y-0.0569
N16150 X2.5511 Y-0.0434
N16155 X2.5472 Y-0.0288
N16160 X2.5418 Y-0.0135
N16165 X2.5344 Y0.0031
N16170 X2.5252 Y0.0199
N16175 X2.5131 Y0.0384
N16180 X2.499 Y0.0565
N16185 X2.4806 Y0.0766
N16190 X2.4601 Y0.0957
N16195 X2.4342 Y0.1162
N16200 X2.4039 Y0.1365
N16205 X2.3677 Y0.1567
N16210 X2.3252 Y0.176
N16215 X2.2814 Y0.1921
N16220 X2.2366 Y0.2054
N16225 X2.1913 Y0.2164
N16230 X2.1454 Y0.2254
N16235 X2.0993 Y0.2327
N16240 X2.053 Y0.2387
N16245 X2.0066 Y0.2435
N16250 X1.96 Y0.2474
N16255 X1.9135 Y0.2506
N16260 X1.8668 Y0.2531
N16265 X1.8202 Y0.2552
N16270 X1.7735 Y0.2568
N16275 X1.7269 Y0.2581
N16280 X1.6802 Y0.2591
N16285 X1.6335 Y0.2599
N16290 X1.5868 Y0.2606
N16295 X1.5401 Y0.2611
N16300 X1.4934 Y0.2615
N16305 X1.4467 Y0.2618
N16310 X1.4 Y0.2621
N16315 X1.3533 Y0.2622
N16320 X1.26 Y0.2625
N16325 X1.1199 Y0.2627
N16330 X0.9331 Y0.2628
N16335 X0.6997
N16340 X0.577 Y0.2627
N16345 X0.5711 Y0.2625
N16350 X0.5653 Y0.2619
N16355 X0.5596 Y0.261
N16360 X0.5451 Y0.258
N16365 X0.5114 Y0.2514
N16370 X0.4889 Y0.2482
N16375 X0.4777 Y0.2468
N16380 X0.4552 Y0.2466
N16385 X0.444
N16390 X0.4215 Y0.247
N16395 X0.4103 Y0.2473
N16400 X0.3878 Y0.2481
N16405 X0.3766 Y0.2489
N16410 X0.3541 Y0.2526
N16415 X0.3429 Y0.2548
N16420 X0.2943 Y0.2664
N16425 X0.2867 Y0.2683
N16430 X0.2755 Y0.2712
N16435 X0.2642 Y0.275
N16440 X0.253 Y0.2792
N16445 X0.2417 Y0.2842
N16450 X0.2193 Y0.2949
N16455 X0.185 Y0.3114
N16460 X0.1743 Y0.3175
N16465 X0.1519 Y0.3311
N16470 X0.1477 Y0.3339
N16475 G3 X0.1341 Y0.3392 I-0.0202 J-0.0316 F5.
N16480 G1 X0.1296 Y0.34 Z-0.4171
N16485 X0.1252 Y0.3408 Z-0.4163
N16490 X0.121 Y0.3416 Z-0.4149
N16495 X0.1169 Y0.3423 Z-0.4131
N16500 X0.1131 Y0.343 Z-0.4107
N16505 X0.1096 Y0.3436 Z-0.4079
N16510 X0.1064 Y0.3442 Z-0.4047
N16515 X0.1037 Y0.3447 Z-0.4012
N16520 X0.1014 Y0.3451 Z-0.3973
N16525 X0.0996 Y0.3454 Z-0.3931
N16530 X0.0982 Y0.3456 Z-0.3888
N16535 X0.0974 Y0.3458 Z-0.3844
N16540 X0.0972 Z-0.3798
N16545 G0 Z0.2
N16550 X-0.0349 Y1.0514
N16555 Z-0.3424
N16560 G1 Z-0.3798 F5.
N16565 X-0.0346 Z-0.3844
N16570 X-0.0338 Y1.0515 Z-0.3888
N16575 X-0.0325 Y1.0517 Z-0.3931
N16580 X-0.0307 Y1.052 Z-0.3973
N16585 X-0.0284 Y1.0524 Z-0.4012
N16590 X-0.0256 Y1.0528 Z-0.4047
N16595 X-0.0224 Y1.0533 Z-0.4079
N16600 X-0.0189 Y1.0539 Z-0.4107
N16605 X-0.0151 Y1.0545 Z-0.4131
N16610 X-0.011 Y1.0551 Z-0.4149
N16615 X-0.0067 Y1.0558 Z-0.4163
N16620 X-0.0023 Y1.0565 Z-0.4171
N16625 X0.0021 Y1.0572 Z-0.4173
N16630 G3 X0.0147 Y1.0649 I-0.003 J0.019
N16635 G1 X0.0171 Y1.0684 F7.
N16640 X0.0225 Y1.0761
N16645 X0.0305 Y1.0874
N16650 X0.0388 Y1.0986
N16655 X0.0488 Y1.1099
N16660 X0.0508 Y1.112
N16665 X0.0732 Y1.1337
N16670 X0.0957 Y1.1551
N16675 X0.1069 Y1.1657
N16680 X0.1182 Y1.1751
N16685 X0.1406 Y1.1904
N16690 X0.1519 Y1.1977
N16695 X0.1856 Y1.2183
N16700 X0.1968 Y1.225
N16705 X0.208 Y1.2314
N16710 X0.2122 Y1.2336
N16715 X0.2193 Y1.2365
N16720 X0.2417 Y1.2451
N16725 X0.253 Y1.2481
N16730 X0.2755 Y1.2529
N16735 X0.2979 Y1.2544
N16740 X0.3092 Y1.255
N16745 X0.5451
N16750 X0.5563 Y1.2549
N16755 X0.5788 Y1.2546
N16760 X0.59 Y1.2537
N16765 X0.6013 Y1.2521
N16770 X0.6478 Y1.2479
N16775 X0.6943 Y1.2442
N16780 X0.7409 Y1.2417
N16785 X0.7876 Y1.2399
N16790 X0.8343 Y1.2387
N16795 X0.8809 Y1.2379
N16800 X0.9276 Y1.2373
N16805 X0.9743 Y1.2369
N16810 X1.021 Y1.2367
N16815 X1.0677 Y1.2365
N16820 X1.1144 Y1.2364
N16825 X1.2078 Y1.2363
N16830 X1.4412
N16835 X2.1883 Y1.2365
N16840 X2.235 Y1.2366
N16845 X2.2817 Y1.2373
N16850 X2.3283 Y1.2393
N16855 X2.3748 Y1.2435
N16860 X2.421 Y1.2506
N16865 X2.4437 Y1.2559
N16870 X2.4887 Y1.2684
N16875 X2.5292 Y1.2829
N16880 X2.5586 Y1.2962
N16885 X2.5817 Y1.309
N16890 X2.6024 Y1.3228
N16895 X2.6194 Y1.3361
N16900 X2.6348 Y1.3503
N16905 X2.6475 Y1.3641
N16910 X2.6555 Y1.3743
N16915 X2.6636 Y1.3867
N16920 X2.6695 Y1.4002
N16925 X2.673 Y1.4146
N16930 X2.674 Y1.4293
N16935 X2.6726 Y1.4441
N16940 X2.6687 Y1.4583
N16945 X2.6625 Y1.4717
N16950 X2.654 Y1.4839
N16955 G3 X2.6424 Y1.4928 I-0.0281 J-0.0249 F5.
N16960 G1 X2.6383 Y1.4947 Z-0.4171
N16965 X2.6343 Y1.4967 Z-0.4163
N16970 X2.6304 Y1.4986 Z-0.4149
N16975 X2.6267 Y1.5004 Z-0.4131
N16980 X2.6232 Y1.5021 Z-0.4107
N16985 X2.62 Y1.5036 Z-0.4079
N16990 X2.6172 Y1.505 Z-0.4047
N16995 X2.6147 Y1.5063 Z-0.4012
N17000 X2.6125 Y1.5073 Z-0.3973
N17005 X2.6109 Y1.5081 Z-0.3931
N17010 X2.6097 Y1.5087 Z-0.3888
N17015 X2.6089 Y1.5091 Z-0.3844
N17020 X2.6087 Y1.5092 Z-0.3798
N17025 G0 Z0.2
N17030 X2.5116 Y-0.0557
N17035 Z-0.3424
N17040 G1 Z-0.3798 F5.
N17045 X2.5118 Y-0.0559 Z-0.3844
N17050 X2.5124 Y-0.0565 Z-0.3888
N17055 X2.5134 Y-0.0574 Z-0.3931
N17060 X2.5147 Y-0.0586 Z-0.3973
N17065 X2.5165 Y-0.0602 Z-0.4012
N17070 X2.5185 Y-0.0621 Z-0.4047
N17075 X2.5209 Y-0.0643 Z-0.4079
N17080 X2.5235 Y-0.0667 Z-0.4107
N17085 X2.5263 Y-0.0694 Z-0.4131
N17090 X2.5294 Y-0.0722 Z-0.4149
N17095 X2.5325 Y-0.0751 Z-0.4163
N17100 X2.5358 Y-0.0781 Z-0.4171
N17105 X2.5391 Y-0.0812 Z-0.4173
N17110 G3 X2.5538 Y-0.0822 I0.008 J0.0086
N17115 G1 X2.5595 Y-0.0774 F7.
N17120 X2.5674 Y-0.0709
N17125 X2.5898 Y-0.0511
N17130 X2.5973 Y-0.044
N17135 X2.5994 Y-0.0418
N17140 X2.602 Y-0.0306
N17145 X2.6039 Y-0.0188
N17150 X2.6049 Y-0.0051
N17155 X2.6048 Y0.0091
N17160 X2.6034 Y0.0252
N17165 X2.6005 Y0.042
N17170 X2.5959 Y0.0601
N17175 X2.5893 Y0.0796
N17180 X2.5807 Y0.0996
N17185 X2.569 Y0.1216
N17190 X2.5552 Y0.1431
N17195 X2.5374 Y0.1666
N17200 X2.5163 Y0.1901
N17205 X2.4913 Y0.2139
N17210 X2.4608 Y0.2385
N17215 X2.4249 Y0.2631
N17220 X2.3844 Y0.2863
N17225 X2.3422 Y0.3063
N17230 X2.2988 Y0.3234
N17235 X2.2545 Y0.3381
N17240 X2.2095 Y0.3506
N17245 X2.164 Y0.3611
N17250 X2.1181 Y0.37
N17255 X2.0721 Y0.3775
N17260 X2.0484 Y0.3807
N17265 X2.0397 Y0.3815
N17270 X2.0311 Y0.3814
N17275 X2.0225 Y0.3804
N17280 X2.0169 Y0.3795
N17285 X1.9944 Y0.376
N17290 X1.9719 Y0.3728
N17295 X1.9607 Y0.3712
N17300 X1.9382 Y0.3705
N17305 X1.927 Y0.3707
N17310 X1.9045 Y0.373
N17315 X1.8933 Y0.3743
N17320 X1.8708 Y0.3773
N17325 X1.8593 Y0.3789
N17330 X1.8483 Y0.3806
N17335 X1.8371 Y0.3832
N17340 X1.8312 Y0.3845
N17345 X1.785 Y0.391
N17350 X1.7386 Y0.3959
N17355 X1.692 Y0.3998
N17360 X1.6454 Y0.4027
N17365 X1.5988 Y0.405
N17370 X1.5521 Y0.4068
N17375 X1.5055 Y0.4082
N17380 X1.4588 Y0.4092
N17385 X1.4121 Y0.4101
N17390 X1.3654 Y0.4107
N17395 X1.3187 Y0.4112
N17400 X1.272 Y0.4116
N17405 X1.2254 Y0.4119
N17410 X1.1787 Y0.4121
N17415 X1.132 Y0.4123
N17420 X1.0386 Y0.4125
N17425 X0.8985 Y0.4126
N17430 X0.8557 Y0.4127
N17435 X0.8415 Y0.4115
N17440 X0.8277 Y0.4081
N17445 X0.8147 Y0.4024
N17450 X0.8028 Y0.3947
N17455 X0.7923 Y0.3851
N17460 X0.781 Y0.3749
N17465 X0.772 Y0.3677
N17470 X0.7413 Y0.3452
N17475 X0.7098 Y0.3227
N17480 X0.7024 Y0.3182
N17485 X0.6906 Y0.3114
N17490 X0.6799 Y0.3054
N17495 X0.6681 Y0.3002
N17500 X0.635 Y0.2858
N17505 X0.6162 Y0.2777
N17510 G3 X0.6044 Y0.269 I0.0161 J-0.0339 F5.
N17515 X0.6355 Y0.2064 I0.0278 J-0.0252 F7.
N17520 G1 X1.8278 Y0.3105
N17525 G3 X1.8497 Y0.3757 I-0.0033 J0.0374
N17530 X1.8371 Y0.3832 I-0.0251 J-0.0279 F5.
N17535 G1 X1.8259 Y0.3867 F7.
N17540 X1.8034 Y0.3946
N17545 X1.7922 Y0.3994
N17550 X1.7623 Y0.4126
N17555 X1.7585 Y0.4145
N17560 X1.736 Y0.4254
N17565 X1.7247 Y0.4308
N17570 X1.7191 Y0.432
N17575 X1.7135 Y0.4325
N17580 X0.8597
N17585 X0.8484 Y0.4323
N17590 X0.8428 Y0.4312
N17595 X0.8372 Y0.4293
N17600 X0.8327 Y0.427
N17605 X0.8283 Y0.4239
N17610 X0.826 Y0.4218
N17615 X0.8175 Y0.4126
N17620 X0.8074 Y0.4014
N17625 X0.7923 Y0.3851
N17630 G3 X0.785 Y0.3724 I0.0283 J-0.0246 F5.
N17635 X0.8127 Y0.3238 I0.0356 J-0.0119 F7.
N17640 G1 X2.5645 Y-0.0527
N17645 G3 X2.5847 Y-0.0514 I0.0079 J0.0367
N17650 X2.5973 Y-0.044 I-0.0123 J0.0354 F5.
N17655 G1 X2.6045 Y-0.0372 F7.
N17660 X2.6154 Y-0.0259
N17665 X2.6263 Y-0.0147
N17670 X2.6366 Y-0.0034
N17675 X2.646 Y0.0076
N17680 X2.6496 Y0.0124
N17685 X2.654 Y0.0227
N17690 X2.6577 Y0.0339
N17695 X2.6609 Y0.0469
N17700 X2.6631 Y0.0609
N17705 X2.6644 Y0.0764
N17710 X2.6643 Y0.0936
N17715 X2.6629 Y0.1118
N17720 X2.6596 Y0.1322
N17725 X2.6545 Y0.1528
N17730 X2.6468 Y0.1758
N17735 X2.6368 Y0.1994
N17740 X2.6237 Y0.2243
N17745 X2.6067 Y0.2512
N17750 X2.5871 Y0.2773
N17755 X2.5624 Y0.3053
N17760 X2.5328 Y0.3339
N17765 X2.4987 Y0.3618
N17770 X2.4603 Y0.3884
N17775 X2.42 Y0.412
N17780 X2.3782 Y0.4329
N17785 X2.3353 Y0.4513
N17790 X2.2915 Y0.4674
N17795 X2.267 Y0.4751
N17800 X2.2526 Y0.4783
N17805 X2.2379 Y0.4791
N17810 X2.2233 Y0.4774
N17815 X2.2092 Y0.4733
N17820 X2.1959 Y0.4669
N17825 X2.184 Y0.4584
N17830 X2.1698 Y0.4464
N17835 X2.1629 Y0.441
N17840 X2.1543 Y0.4351
N17845 X2.1292 Y0.4211
N17850 X2.118 Y0.4154
N17855 X2.0955 Y0.4049
N17860 X2.0876 Y0.4014
N17865 X2.073 Y0.3953
N17870 G3 X2.0612 Y0.3866 I0.0157 J-0.034 F5.
N17875 X2.069 Y0.3293 I0.0276 J-0.0254 F7.
N17880 G1 X2.5986 Y0.0011
N17885 G3 X2.6342 Y-0.001 I0.0198 J0.0319
N17890 X2.646 Y0.0076 I-0.0158 J0.034 F5.
N17895 G1 X2.6648 Y0.0303 F7.
N17900 X2.6685 Y0.0351
N17905 X2.6732 Y0.0415
N17910 X2.6971 Y0.0753
N17915 X2.7022 Y0.0831
N17920 X2.71 Y0.0975
N17925 X2.7147 Y0.1079
N17930 X2.7189 Y0.1199
N17935 X2.7224 Y0.1333
N17940 X2.7251 Y0.1483
N17945 X2.7267 Y0.165
N17950 X2.727 Y0.1832
N17955 X2.7258 Y0.2034
N17960 X2.7227 Y0.2245
N17965 X2.7173 Y0.2484
N17970 X2.7097 Y0.2724
N17975 X2.6988 Y0.2993
N17980 X2.6849 Y0.3269
N17985 X2.6676 Y0.3556
N17990 X2.6453 Y0.3864
N17995 X2.6191 Y0.4171
N18000 X2.5881 Y0.448
N18005 X2.5525 Y0.4782
N18010 X2.5147 Y0.5057
N18015 X2.4751 Y0.5305
N18020 X2.4341 Y0.5528
N18025 X2.3998 Y0.5685
N18030 X2.3711 Y0.579
N18035 X2.3603 Y0.582
N18040 X2.3447 Y0.5848
N18045 X2.3288 Y0.5847
N18050 X2.3132 Y0.5818
N18055 X2.2984 Y0.5761
N18060 X2.2849 Y0.5679
N18065 X2.2731 Y0.5573
N18070 X2.2633 Y0.5448
N18075 X2.2528 Y0.5284
N18080 X2.2505 Y0.5251
N18085 X2.2415 Y0.5133
N18090 X2.2321 Y0.5026
N18095 X2.2214 Y0.4914
N18100 X2.2191 Y0.4892
N18105 X2.2078 Y0.4792
N18110 X2.1902 Y0.4638
N18115 X2.184 Y0.4584
N18120 G3 X2.1753 Y0.4466 I0.0253 J-0.0277 F5.
N18125 X2.1876 Y0.4 I0.0339 J-0.0159 F7.
N18130 G1 X2.6498 Y0.074
N18135 G3 X2.6916 Y0.073 I0.0216 J0.0306
N18140 X2.7022 Y0.0831 I-0.0201 J0.0316 F5.
N18145 G1 X2.7179 Y0.109 F7.
N18150 X2.7241 Y0.1203
N18155 X2.7361 Y0.1427
N18160 X2.7418 Y0.154
N18165 X2.7571 Y0.1877
N18170 X2.7696 Y0.2201
N18175 X2.7751 Y0.2368
N18180 X2.7784 Y0.2503
N18185 X2.7807 Y0.2653
N18190 X2.7821 Y0.2823
N18195 X2.782 Y0.3006
N18200 X2.7803 Y0.3215
N18205 X2.7766 Y0.3434
N18210 X2.7706 Y0.3677
N18215 X2.7618 Y0.3937
N18220 X2.7501 Y0.421
N18225 X2.7342 Y0.4512
N18230 X2.7153 Y0.481
N18235 X2.6912 Y0.513
N18240 X2.6615 Y0.5464
N18245 X2.6278 Y0.5787
N18250 X2.5918 Y0.6083
N18255 X2.5536 Y0.6353
N18260 X2.5189 Y0.6559
N18265 X2.4903 Y0.6699
N18270 X2.4637 Y0.6804
N18275 X2.4393 Y0.6879
N18280 X2.4171 Y0.6927
N18285 X2.3947 Y0.6958
N18290 X2.3922 Y0.6959
N18295 X2.3767 Y0.6953
N18300 X2.3616 Y0.6917
N18305 X2.3474 Y0.6853
N18310 X2.3347 Y0.6763
N18315 X2.324 Y0.6651
N18320 X2.3156 Y0.652
N18325 X2.3098 Y0.6375
N18330 X2.3021 Y0.6151
N18335 X2.2979 Y0.6038
N18340 X2.2863 Y0.5813
N18345 X2.2794 Y0.5701
N18350 X2.2633 Y0.5448
N18355 G3 X2.2585 Y0.531 I0.0323 J-0.0191 F5.
N18360 X2.2749 Y0.4944 I0.0371 J-0.0053 F7.
N18365 G1 X2.7144 Y0.2035
N18370 G3 X2.7613 Y0.208 I0.0207 J0.0313
N18375 X2.7696 Y0.2201 I-0.0262 J0.0268 F5.
N18380 G1 X2.7701 Y0.2215 F7.
N18385 X2.7741 Y0.2327
N18390 X2.7778 Y0.244
N18395 X2.7813 Y0.2552
N18400 X2.7845 Y0.2664
N18405 X2.7921 Y0.2954
N18410 X2.7933 Y0.3002
N18415 X2.8 Y0.3339
N18420 X2.8018 Y0.3452
N18425 X2.8051 Y0.3677
N18430 X2.8064 Y0.3789
N18435 X2.8084 Y0.4014
N18440 X2.8094 Y0.4126
N18445 X2.8101 Y0.4351
N18450 X2.8098 Y0.4532
N18455 X2.8081 Y0.4711
N18460 X2.8044 Y0.492
N18465 X2.7988 Y0.5132
N18470 X2.7901 Y0.538
N18475 X2.7789 Y0.563
N18480 X2.7638 Y0.5909
N18485 X2.7445 Y0.6203
N18490 X2.722 Y0.6495
N18495 X2.6951 Y0.6789
N18500 X2.6657 Y0.7064
N18505 X2.6344 Y0.7312
N18510 X2.602 Y0.7529
N18515 X2.5692 Y0.7712
N18520 X2.5393 Y0.7849
N18525 X2.5116 Y0.795
N18530 X2.4872 Y0.8017
N18535 X2.4644 Y0.8061
N18540 X2.4424 Y0.8085
N18545 X2.4224 Y0.809
N18550 X2.4023 Y0.808
N18555 X2.3883 Y0.8048
N18560 X2.375 Y0.7994
N18565 X2.3629 Y0.7917
N18570 X2.3522 Y0.782
N18575 X2.3434 Y0.7707
N18580 X2.3366 Y0.758
N18585 X2.3321 Y0.7444
N18590 X2.33 Y0.7302
N18595 X2.3299 Y0.7275
N18600 X2.3277 Y0.705
N18605 X2.3252 Y0.6938
N18610 X2.3197 Y0.6713
N18615 X2.3098 Y0.6375
N18620 G3 X2.309 Y0.6229 I0.0363 J-0.0093 F5.
N18625 X2.3309 Y0.5941 I0.0371 J0.0054 F7.
N18630 G1 X2.7574 Y0.4035
N18635 G3 X2.8063 Y0.421 I0.0153 J0.0342
N18640 X2.8101 Y0.4351 I-0.0336 J0.0167 F5.
N18645 G1 X2.8105 Y0.4464 F7.
N18650 X2.8106 Y0.4576
N18655 Y0.6151
N18660 X2.8099 Y0.6288
N18665 X2.8096 Y0.6348
N18670 X2.809 Y0.6407
N18675 X2.8083 Y0.6467
N18680 X2.8074 Y0.6526
N18685 X2.8063 Y0.6585
N18690 X2.8051 Y0.6644
N18695 X2.8037 Y0.6702
N18700 X2.8021 Y0.676
N18705 X2.8004 Y0.6818
N18710 X2.7986 Y0.6875
N18715 X2.7966 Y0.6931
N18720 X2.7945 Y0.6988
N18725 X2.7923 Y0.7043
N18730 X2.7899 Y0.7099
N18735 X2.7874 Y0.7153
N18740 X2.7849 Y0.7207
N18745 X2.7822 Y0.7261
N18750 X2.7794 Y0.7314
N18755 X2.7765 Y0.7367
N18760 X2.7735 Y0.7419
N18765 X2.7704 Y0.747
N18770 X2.7672 Y0.7521
N18775 X2.7639 Y0.7571
N18780 X2.7606 Y0.7621
N18785 X2.7571 Y0.767
N18790 X2.7536 Y0.7718
N18795 X2.75 Y0.7766
N18800 X2.7463 Y0.7814
N18805 X2.7425 Y0.786
N18810 X2.7387 Y0.7906
N18815 X2.7347 Y0.7952
N18820 X2.7308 Y0.7997
N18825 X2.7267 Y0.8041
N18830 X2.7226 Y0.8085
N18835 X2.7184 Y0.8128
N18840 X2.7141 Y0.817
N18845 X2.7098 Y0.8212
N18850 X2.7055 Y0.8253
N18855 X2.701 Y0.8293
N18860 X2.6965 Y0.8333
N18865 X2.692 Y0.8372
N18870 X2.6874 Y0.841
N18875 X2.6827 Y0.8448
N18880 X2.678 Y0.8485
N18885 X2.6732 Y0.8522
N18890 X2.6684 Y0.8557
N18895 X2.6635 Y0.8592
N18900 X2.6586 Y0.8627
N18905 X2.6536 Y0.866
N18910 X2.6486 Y0.8693
N18915 X2.6436 Y0.8725
N18920 X2.6384 Y0.8757
N18925 X2.6333 Y0.8788
N18930 X2.6281 Y0.8818
N18935 X2.6229 Y0.8847
N18940 X2.6176 Y0.8875
N18945 X2.6123 Y0.8903
N18950 X2.6069 Y0.893
N18955 X2.6015 Y0.8956
N18960 X2.5961 Y0.8982
N18965 X2.5906 Y0.9006
N18970 X2.5851 Y0.903
N18975 X2.5795 Y0.9053
N18980 X2.574 Y0.9075
N18985 X2.5684 Y0.9097
N18990 X2.5627 Y0.9117
N18995 X2.5571 Y0.9137
N19000 X2.5514 Y0.9156
N19005 X2.5456 Y0.9174
N19010 X2.5399 Y0.9191
N19015 X2.5341 Y0.9207
N19020 X2.5283 Y0.9222
N19025 X2.5225 Y0.9236
N19030 X2.5166 Y0.9249
N19035 X2.5107 Y0.9261
N19040 X2.5048 Y0.9272
N19045 X2.4989 Y0.9282
N19050 X2.493 Y0.9291
N19055 X2.487 Y0.9298
N19060 X2.4811 Y0.9304
N19065 X2.4751 Y0.9309
N19070 X2.4691 Y0.9313
N19075 X2.4631 Y0.9316
N19080 X2.4571 Y0.9317
N19085 X2.4511
N19090 X2.4451 Y0.9316
N19095 X2.4391 Y0.9313
N19100 X2.4331 Y0.9309
N19105 X2.4271 Y0.9304
N19110 X2.4212 Y0.9297
N19115 X2.4152 Y0.9289
N19120 X2.4093 Y0.9279
N19125 X2.4034 Y0.9268
N19130 X2.3976 Y0.9255
N19135 X2.3917 Y0.9241
N19140 X2.3859 Y0.9226
N19145 X2.3802 Y0.9209
N19150 X2.3745 Y0.919
N19155 X2.3621 Y0.9134
N19160 X2.3509 Y0.9055
N19165 X2.3414 Y0.8958
N19170 X2.3337 Y0.8846
N19175 X2.3283 Y0.8721
N19180 X2.3251 Y0.8588
N19185 X2.3245 Y0.8452
N19190 X2.3263 Y0.8317
N19195 X2.327 Y0.8287
N19200 X2.3297 Y0.8062
N19205 X2.3304 Y0.795
N19210 X2.3306 Y0.7725
N19215 Y0.7612
N19220 Y0.7388
N19225 X2.33 Y0.7302
N19230 G3 X2.3325 Y0.7157 I0.0375 J-0.0009 F5.
N19235 X2.3575 Y0.6931 I0.035 J0.0135 F7.
N19240 G1 X2.7631 Y0.5802
N19245 G3 X2.8073 Y0.6008 I0.0101 J0.0361
N19250 X2.8106 Y0.6151 I-0.0341 J0.0156 F5.
N19255 G1 Y0.7725 F7.
N19260 X2.81 Y0.7844
N19265 X2.8097 Y0.7904
N19270 X2.8091 Y0.7964
N19275 X2.8083 Y0.8023
N19280 X2.8074 Y0.8083
N19285 X2.8062 Y0.8141
N19290 X2.8048 Y0.82
N19295 X2.8033 Y0.8258
N19300 X2.8016 Y0.8315
N19305 X2.7997 Y0.8372
N19310 X2.7977 Y0.8429
N19315 X2.7956 Y0.8485
N19320 X2.7933 Y0.854
N19325 X2.7908 Y0.8595
N19330 X2.7883 Y0.8649
N19335 X2.7856 Y0.8703
N19340 X2.7827 Y0.8756
N19345 X2.7798 Y0.8808
N19350 X2.7767 Y0.886
N19355 X2.7736 Y0.8911
N19360 X2.7703 Y0.8961
N19365 X2.7669 Y0.9011
N19370 X2.7634 Y0.9059
N19375 X2.7599 Y0.9108
N19380 X2.7562 Y0.9155
N19385 X2.7524 Y0.9202
N19390 X2.7486 Y0.9248
N19395 X2.7447 Y0.9293
N19400 X2.7407 Y0.9338
N19405 X2.7366 Y0.9382
N19410 X2.7324 Y0.9425
N19415 X2.7282 Y0.9468
N19420 X2.7238 Y0.9509
N19425 X2.7195 Y0.955
N19430 X2.715 Y0.959
N19435 X2.7105 Y0.963
N19440 X2.7059 Y0.9669
N19445 X2.6975 Y0.975
N19450 X2.6903 Y0.9842
N19455 X2.6844 Y0.9942
N19460 X2.6798 Y1.005
N19465 X2.6768 Y1.0162
N19470 X2.6752 Y1.0278
N19475 Y1.0395
N19480 X2.6815 Y1.0858
N19485 X2.6842 Y1.0909
N19490 X2.7059 Y1.1323
N19495 X2.7262 Y1.1678
N19500 X2.7323 Y1.1787
N19505 X2.7368 Y1.1867
N19510 X2.7402 Y1.1931
N19515 X2.7431 Y1.1985
N19520 X2.7459 Y1.2038
N19525 X2.7486 Y1.2091
N19530 X2.7513 Y1.2145
N19535 X2.754 Y1.2199
N19540 X2.7566 Y1.2253
N19545 X2.7599 Y1.2324
N19550 X2.7647 Y1.2455
N19555 X2.7674 Y1.2592
N19560 X2.7679 Y1.2731
N19565 X2.7661 Y1.287
N19570 X2.7622 Y1.3004
N19575 X2.7576 Y1.3123
N19580 X2.7423 Y1.346
N19585 X2.7367 Y1.3573
N19590 X2.7246 Y1.38
N19595 X2.7186 Y1.391
N19600 X2.7134 Y1.3995
N19605 G3 X2.7032 Y1.41 I-0.0314 J-0.0205 F5.
N19610 G1 X2.6995 Y1.4125 Z-0.4171
N19615 X2.6958 Y1.415 Z-0.4163
N19620 X2.6922 Y1.4175 Z-0.4149
N19625 X2.6888 Y1.4198 Z-0.4131
N19630 X2.6856 Y1.422 Z-0.4107
N19635 X2.6827 Y1.424 Z-0.4079
N19640 X2.68 Y1.4258 Z-0.4047
N19645 X2.6777 Y1.4274 Z-0.4012
N19650 X2.6758 Y1.4287 Z-0.3973
N19655 X2.6743 Y1.4298 Z-0.3931
N19660 X2.6731 Y1.4305 Z-0.3888
N19665 X2.6725 Y1.431 Z-0.3844
N19670 X2.6722 Y1.4312 Z-0.3798
N19675 G0 Z0.2
N19680 X2.777 Y0.7336
N19685 Z-0.3424
N19690 G1 Z-0.3798 F5.
N19695 X2.7772 Y0.7338 Z-0.3844
N19700 X2.7778 Y0.7343 Z-0.3888
N19705 X2.7788 Y0.7352 Z-0.3931
N19710 X2.7802 Y0.7365 Z-0.3973
N19715 X2.7819 Y0.7381 Z-0.4012
N19720 X2.7839 Y0.74 Z-0.4047
N19725 X2.7863 Y0.7422 Z-0.4079
N19730 X2.7889 Y0.7446 Z-0.4107
N19735 X2.7917 Y0.7472 Z-0.4131
N19740 X2.7948 Y0.75 Z-0.4149
N19745 X2.7979 Y0.753 Z-0.4163
N19750 X2.8012 Y0.756 Z-0.4171
N19755 X2.8045 Y0.7591 Z-0.4173
N19760 G3 X2.8106 Y0.7725 I-0.0131 J0.0141
N19765 G1 Y1.0424 F7.
N19770 X2.8105 Y1.0536
N19775 X2.8095 Y1.0874
N19780 X2.8075 Y1.1099
N19785 X2.8066 Y1.1211
N19790 X2.8052 Y1.1323
N19795 X2.802 Y1.1548
N19800 X2.8002 Y1.1661
N19805 X2.7935 Y1.1998
N19810 X2.7878 Y1.2223
N19815 X2.7849 Y1.2336
N19820 X2.7816 Y1.2448
N19825 X2.7782 Y1.256
N19830 X2.7745 Y1.2673
N19835 X2.7705 Y1.2785
N19840 X2.7622 Y1.3004
N19845 G3 X2.7539 Y1.3125 I-0.0345 J-0.0146 F5.
N19850 G1 X2.7507 Y1.3156 Z-0.4171
N19855 X2.7475 Y1.3188 Z-0.4163
N19860 X2.7445 Y1.3218 Z-0.4149
N19865 X2.7415 Y1.3247 Z-0.4131
N19870 X2.7387 Y1.3274 Z-0.4107
N19875 X2.7362 Y1.3299 Z-0.4079
N19880 X2.7339 Y1.3321 Z-0.4047
N19885 X2.7319 Y1.3341 Z-0.4012
N19890 X2.7303 Y1.3357 Z-0.3973
N19895 X2.7289 Y1.337 Z-0.3931
N19900 X2.728 Y1.338 Z-0.3888
N19905 X2.7274 Y1.3386 Z-0.3844
N19910 X2.7272 Y1.3388 Z-0.3798
N19915 G0 Z0.2
N19920 X0.5675 Y1.2909
N19925 Z-0.3424
N19930 G1 Z-0.3798 F5.
N19935 X0.5676 Y1.2907 Z-0.3844
N19940 X0.5681 Y1.29 Z-0.3888
N19945 X0.5689 Y1.2889 Z-0.3931
N19950 X0.5699 Y1.2874 Z-0.3973
N19955 X0.5713 Y1.2854 Z-0.4012
N19960 X0.5728 Y1.2831 Z-0.4047
N19965 X0.5747 Y1.2805 Z-0.4079
N19970 X0.5767 Y1.2776 Z-0.4107
N19975 X0.5789 Y1.2744 Z-0.4131
N19980 X0.5813 Y1.271 Z-0.4149
N19985 X0.5837 Y1.2675 Z-0.4163
N19990 X0.5863 Y1.2638 Z-0.4171
N19995 X0.5889 Y1.2601 Z-0.4173
N20000 G3 X0.6013 Y1.2521 I0.0158 J0.011
N20005 G1 X0.6125 Y1.2505 F7.
N20010 X0.6237 Y1.2476
N20015 X0.635 Y1.2443
N20020 X0.6462 Y1.2408
N20025 X0.6687 Y1.2304
N20030 X0.6799 Y1.2242
N20035 X0.7136 Y1.2044
N20040 X0.7248 Y1.1978
N20045 X0.7361 Y1.1905
N20050 X0.7389 Y1.1886
N20055 X0.7435 Y1.185
N20060 X0.7575 Y1.1752
N20065 X0.778 Y1.1632
N20070 X0.8042 Y1.1506
N20075 X0.8386 Y1.1374
N20080 X0.8834 Y1.1241
N20085 X0.929 Y1.1144
N20090 X0.9751 Y1.1072
N20095 X1.0215 Y1.1018
N20100 X1.0681 Y1.0978
N20105 X1.0726 Y1.0976
N20110 X1.0762 Y1.0975
N20115 G3 X1.0905 Y1.1009 I-0.0013 J0.0375 F5.
N20120 X1.0842 Y1.1713 I-0.0156 J0.0341 F7.
N20125 G1 X0.7768 Y1.2501
N20130 G3 X0.7343 Y1.1964 I-0.0093 J-0.0363
N20135 X0.7435 Y1.185 I0.0332 J0.0174 F5.
N20140 G1 X0.7473 Y1.182 F7.
N20145 X0.7698 Y1.1634
N20150 X0.7928 Y1.1436
N20155 X0.8052 Y1.1323
N20160 X0.8147 Y1.1223
N20165 X0.826 Y1.1098
N20170 X0.8288 Y1.107
N20175 X0.8316 Y1.1048
N20180 X0.8344 Y1.1029
N20185 X0.8372 Y1.1014
N20190 X0.841 Y1.0998
N20195 X0.8447 Y1.0986
N20200 X0.8484 Y1.0979
N20205 X0.8597 Y1.0975
N20210 X1.7135
N20215 X1.718 Y1.0978
N20220 X1.7225 Y1.0986
N20225 X1.7247 Y1.0992
N20230 X1.736 Y1.1045
N20235 X1.7585 Y1.1153
N20240 X1.7697 Y1.1206
N20245 X1.7962 Y1.1323
N20250 X1.8034 Y1.1354
N20255 X1.8267 Y1.1436
N20260 X1.8371 Y1.1466
N20265 X1.8596 Y1.1509
N20270 X1.8708 Y1.1527
N20275 X1.8933 Y1.1557
N20280 X1.9045 Y1.157
N20285 X1.927 Y1.1593
N20290 X1.9382 Y1.1595
N20295 X1.9607 Y1.1588
N20300 X1.9719 Y1.1573
N20305 X1.9888 Y1.1548
N20310 X2.0169 Y1.1505
N20315 X2.0281 Y1.1487
N20320 X2.0506 Y1.1429
N20325 X2.0618 Y1.1395
N20330 X2.0843 Y1.13
N20335 X2.0955 Y1.1251
N20340 X2.118 Y1.1146
N20345 X2.1275 Y1.1099
N20350 X2.1517 Y1.0964
N20355 X2.1573 Y1.0931
N20360 X2.1629 Y1.0889
N20365 X2.1854 Y1.0704
N20370 X2.1918 Y1.0649
N20375 X2.2078 Y1.0507
N20380 X2.2191 Y1.0408
N20385 X2.2288 Y1.0311
N20390 X2.2303 Y1.0296
N20395 X2.2387 Y1.0199
N20400 X2.2475 Y1.0086
N20405 X2.2528 Y1.0016
N20410 X2.2555 Y0.9974
N20415 X2.2771 Y0.9637
N20420 X2.2842 Y0.9524
N20425 X2.2865 Y0.9484
N20430 X2.2963 Y0.9299
N20435 X2.2977 Y0.9263
N20440 X2.3047 Y0.9074
N20445 X2.3087 Y0.8962
N20450 X2.3153 Y0.8737
N20455 X2.3185 Y0.8625
N20460 X2.3244 Y0.84
N20465 X2.3263 Y0.8317
N20470 G3 X2.3327 Y0.8186 I0.0362 J0.0096 F5.
N20475 G1 X2.3355 Y0.815 Z-0.4171
N20480 X2.3382 Y0.8115 Z-0.4163
N20485 X2.3408 Y0.808 Z-0.4149
N20490 X2.3433 Y0.8047 Z-0.4131
N20495 X2.3457 Y0.8017 Z-0.4107
N20500 X2.3478 Y0.7988 Z-0.4079
N20505 X2.3498 Y0.7963 Z-0.4047
N20510 X2.3515 Y0.7941 Z-0.4012
N20515 X2.3529 Y0.7922 Z-0.3973
N20520 X2.354 Y0.7907 Z-0.3931
N20525 X2.3548 Y0.7897 Z-0.3888
N20530 X2.3553 Y0.789 Z-0.3844
N20535 X2.3555 Y0.7888 Z-0.3798
N20540 G0 Z0.6
(2D CONTOUR3)
N20550 M8
N20555 G0 X0.1417 Y1.3027
N20560 Z0.6
N20565 Z0.2
N20570 G1 Z0.0394 F5.
N20575 Z-0.4 F1.
N20580 X0.1419 Y1.3024 Z-0.4045
N20585 X0.1422 Y1.3017 Z-0.409
N20590 X0.1428 Y1.3005 Z-0.4133
N20595 X0.1436 Y1.2988 Z-0.4174
N20600 X0.1446 Y1.2967 Z-0.4213
N20605 X0.1458 Y1.2941 Z-0.4249
N20610 X0.1471 Y1.2912 Z-0.4281
N20615 X0.1487 Y1.288 Z-0.4309
N20620 X0.1503 Y1.2845 Z-0.4332
N20625 X0.1521 Y1.2808 Z-0.4351
N20630 X0.1539 Y1.2769 Z-0.4364
N20635 X0.1558 Y1.2729 Z-0.4372
N20640 X0.1578 Y1.2688 Z-0.4375
N20645 X0.1738 Y1.2349 F5.
N20650 G3 X0.2237 Y1.217 I0.0339 J0.016
