%
(MOTOR_MOUNT_HALF_NEMA17_CLEAR_HOLES)
(18 1 MINUTE)
(T5  D=0.25 CR=0. TAPER=118DEG - ZMIN=-0.5401 - DRILL)
N10 G90 G94 G17 G91.1
N15 G20
N20 G53 G0 Z0.
(DRILL4)
N25 M9
N30 T5 M6
N35 S600 M3
N40 G54
N45 M8
N55 G0 X0. Y0.
N60 G43 Z0.6 H5
N70 G0 Z0.2
N75 G98 G81 X0. Y0. Z-0.5401 R0.2 F15.
N80 X-2.
N85 X-4.
N90 X-6.
N95 X-8.
N100 G80
N105 G0 Z0.6
N115 M9
N120 G53 Z0.
N125 M30
%
