%
(BRACKET)
(38 1500 RPM 15 MINUTES)
(T3  D=0.375 CR=0. - ZMIN=-0.4375 - FLAT END MILL)
N10 G90 G94 G17 G91.1
N15 G20
N20 G53 G0 Z0.
(ADAPTIVE1)
N25 M9
N30 T3 M6
N35 S1500 M3
N40 G54
N45 M8
N55 G0 X-0.0236 Y-0.3286
N60 G43 Z0.6 H3
N65 G0 Z0.2
N70 Z-0.075
N75 G1 Z-0.1125 F5.
N80 X-0.0235 Y-0.3284 Z-0.117
N85 X-0.0233 Y-0.3276 Z-0.1215
N90 X-0.023 Y-0.3263 Z-0.1258
N95 X-0.0225 Y-0.3245 Z-0.1299
N100 X-0.022 Y-0.3222 Z-0.1338
N105 X-0.0213 Y-0.3195 Z-0.1374
N110 X-0.0205 Y-0.3164 Z-0.1406
N115 X-0.0196 Y-0.3129 Z-0.1434
N120 X-0.0186 Y-0.3092 Z-0.1457
N125 X-0.0176 Y-0.3052 Z-0.1476
N130 X-0.0165 Y-0.301 Z-0.1489
N135 X-0.0154 Y-0.2967 Z-0.1497
N140 X-0.0143 Y-0.2923 Z-0.15
N145 G3 X0.0004 Y-0.1902 I-0.4637 J0.1188
N150 G1 Y-0.1842 F7.
N155 X-0.0088 Y-0.1385
N160 X-0.0158 Y-0.0923
N165 X-0.0211 Y-0.0459
N170 X-0.025 Y0.0006
N175 X-0.028 Y0.0472
N180 X-0.0302 Y0.0939
N185 X-0.0319 Y0.1405
N190 X-0.0331 Y0.1872
N195 X-0.034 Y0.2339
N200 X-0.0347 Y0.2806
N205 X-0.0353 Y0.3273
N210 X-0.0357 Y0.374
N215 X-0.036 Y0.4206
N220 X-0.0362 Y0.4673
N225 X-0.0364 Y0.514
N230 X-0.0366 Y0.6074
N235 X-0.0368 Y0.7475
N240 X-0.037 Y1.0276
N245 Y1.0743
N250 X-0.033 Y1.0973
N255 X-0.0135 Y1.1398
N260 X0.0183 Y1.1739
N265 X0.0565 Y1.2007
N270 X0.0984 Y1.2215
N275 X0.1423 Y1.2374
N280 X0.1874 Y1.2495
N285 X0.2332 Y1.2586
N290 X0.2793 Y1.2655
N295 X0.3257 Y1.2707
N300 X0.3723 Y1.2747
N305 X0.4189 Y1.2776
N310 X0.4655 Y1.2798
N315 X0.5122 Y1.2814
N320 X0.5588 Y1.2827
N325 X0.6055 Y1.2836
N330 X0.6522 Y1.2843
N335 X0.6989 Y1.2848
N340 X0.7456 Y1.2852
N345 X0.7923 Y1.2855
N350 X0.839 Y1.2857
N355 X0.8857 Y1.2859
N360 X0.979 Y1.2861
N365 X1.1191 Y1.2863
N370 X1.3993 Y1.2864
N375 X2.6133 Y1.2867
N380 X2.6599
N385 X2.6676 Y1.2879
N390 X2.6744 Y1.2914
N395 X2.6799 Y1.2969
N400 X2.6833 Y1.3038
N405 X2.6845 Y1.3114
N410 X2.6832 Y1.319
N415 X2.6797 Y1.3258
N420 G3 X2.6685 Y1.3353 I-0.0293 J-0.0234 F5.
N425 G1 X2.6645 Y1.3375 Z-0.1497
N430 X2.6606 Y1.3396 Z-0.1489
N435 X2.6569 Y1.3417 Z-0.1476
N440 X2.6532 Y1.3437 Z-0.1457
N445 X2.6498 Y1.3456 Z-0.1434
N450 X2.6467 Y1.3473 Z-0.1406
N455 X2.6439 Y1.3489 Z-0.1374
N460 X2.6415 Y1.3502 Z-0.1338
N465 X2.6394 Y1.3514 Z-0.1299
N470 X2.6378 Y1.3523 Z-0.1258
N475 X2.6366 Y1.3529 Z-0.1215
N480 X2.6359 Y1.3533 Z-0.117
N485 X2.6357 Y1.3534 Z-0.1125
N490 G0 Z0.2
N495 X2.402 Y-0.2982
N500 Z-0.0338
N505 G1 Z-0.0713 F5.
N510 Z-0.15
N515 G3 X2.5763 Y-0.1879 I-0.4216 J0.8595
N520 G1 X2.5806 Y-0.1843 F7.
N525 X2.5898 Y-0.1761
N530 X2.593 Y-0.173
N535 X2.6123 Y-0.1539
N540 X2.6141 Y-0.1519
N545 X2.604 Y-0.1426
N550 X2.591 Y-0.1324
N555 X2.5743 Y-0.1213
N560 X2.5528 Y-0.1095
N565 X2.5249 Y-0.0969
N570 X2.488 Y-0.0837
N575 X2.4429 Y-0.0716
N580 X2.3971 Y-0.0627
N585 X2.3508 Y-0.0561
N590 X2.3044 Y-0.0513
N595 X2.2579 Y-0.0477
N600 X2.2112 Y-0.045
N605 X2.1646 Y-0.043
N610 X2.1179 Y-0.0415
N615 X2.0712 Y-0.0404
N620 X2.0246 Y-0.0396
N625 X1.9779 Y-0.039
N630 X1.9312 Y-0.0385
N635 X1.8845 Y-0.0382
N640 X1.8378 Y-0.0379
N645 X1.7911 Y-0.0377
N650 X1.6977 Y-0.0375
N655 X1.5576 Y-0.0373
N660 X1.3242 Y-0.0372
N665 X0.6238 Y-0.037
N670 X0.3437
N675 X0.332 Y-0.0364
N680 X0.3091 Y-0.032
N685 X0.2667 Y-0.0123
N690 X0.2321 Y0.0191
N695 X0.2047 Y0.0568
N700 X0.1832 Y0.0983
N705 X0.1665 Y0.1419
N710 X0.1537 Y0.1868
N715 X0.1439 Y0.2324
N720 X0.1365 Y0.2785
N725 X0.1308 Y0.3249
N730 X0.1265 Y0.3714
N735 X0.1232 Y0.4179
N740 X0.1207 Y0.4646
N745 X0.1188 Y0.5112
N750 X0.1174 Y0.5579
N755 X0.1163 Y0.6046
N760 X0.1155 Y0.6513
N765 X0.1149 Y0.698
N770 X0.1144 Y0.7446
N775 X0.1141 Y0.7913
N780 X0.1138 Y0.838
N785 X0.1136 Y0.8847
N790 X0.1239 Y0.9302
N795 X0.1473 Y0.9707
N800 X0.1793 Y1.0047
N805 X0.2167 Y1.0327
N810 X0.2576 Y1.0551
N815 X0.3007 Y1.073
N820 X0.3452 Y1.0872
N825 X0.3906 Y1.0983
N830 X0.4365 Y1.1069
N835 X0.4827 Y1.1137
N840 X0.5291 Y1.1189
N845 X0.5756 Y1.1229
N850 X0.6222 Y1.1261
N855 X0.6688 Y1.1285
N860 X0.7154 Y1.1303
N865 X0.7621 Y1.1317
N870 X0.8088 Y1.1328
N875 X0.8555 Y1.1337
N880 X0.9022 Y1.1343
N885 X0.9489 Y1.1348
N890 X0.9955 Y1.1352
N895 X1.0422 Y1.1355
N900 X1.0889 Y1.1357
N905 X1.1823 Y1.136
N910 X1.2757 Y1.1362
N915 X1.4158 Y1.1363
N920 X1.7426 Y1.1365
N925 X2.4897 Y1.1367
N930 X2.5364 Y1.1368
N935 X2.5742 Y1.1387
N940 X2.6028 Y1.1424
N945 X2.6252 Y1.1472
N950 X2.6453 Y1.1532
N955 X2.6622 Y1.1597
N960 X2.6774 Y1.1671
N965 X2.7176 Y1.1907
N970 X2.7253 Y1.1965
N975 X2.7312 Y1.204
N980 X2.7351 Y1.2127
N985 X2.7366 Y1.2222
N990 X2.7358 Y1.2317
N995 X2.7325 Y1.2407
N1000 G3 X2.7231 Y1.2518 I-0.0328 J-0.0182 F5.
N1005 G1 X2.7195 Y1.2546 Z-0.1497
N1010 X2.716 Y1.2574 Z-0.1489
N1015 X2.7126 Y1.2601 Z-0.1476
N1020 X2.7094 Y1.2627 Z-0.1457
N1025 X2.7064 Y1.2651 Z-0.1434
N1030 X2.7036 Y1.2673 Z-0.1406
N1035 X2.7011 Y1.2693 Z-0.1374
N1040 X2.6989 Y1.271 Z-0.1338
N1045 X2.6971 Y1.2725 Z-0.1299
N1050 X2.6956 Y1.2736 Z-0.1258
N1055 X2.6945 Y1.2745 Z-0.1215
N1060 X2.6939 Y1.275 Z-0.117
N1065 X2.6937 Y1.2751 Z-0.1125
N1070 G0 Z0.2
N1075 X2.561 Y-0.1575
N1080 Z-0.075
N1085 G1 Z-0.1125 F5.
N1090 X2.5613 Z-0.117
N1095 X2.5621 Z-0.1215
N1100 X2.5634 Y-0.1576 Z-0.1258
N1105 X2.5653 Z-0.1299
N1110 X2.5676 Y-0.1577 Z-0.1338
N1115 X2.5704 Y-0.1578 Z-0.1374
N1120 X2.5736 Y-0.158 Z-0.1406
N1125 X2.5772 Y-0.1581 Z-0.1434
N1130 X2.5811 Y-0.1583 Z-0.1457
N1135 X2.5852 Y-0.1584 Z-0.1476
N1140 X2.5895 Y-0.1586 Z-0.1489
N1145 X2.594 Y-0.1588 Z-0.1497
N1150 X2.5985 Y-0.159 Z-0.15
N1155 G3 X2.6123 Y-0.1539 I0.0008 J0.0192
N1160 G1 X2.6235 Y-0.1427 F7.
N1165 X2.6267 Y-0.1393
N1170 X2.6366 Y-0.1281
N1175 X2.6418 Y-0.1221
N1180 X2.6427 Y-0.1209
N1185 X2.6392 Y-0.1103
N1190 X2.6346 Y-0.0992
N1195 X2.6283 Y-0.0872
N1200 X2.62 Y-0.0737
N1205 X2.6102 Y-0.0606
N1210 X2.5972 Y-0.0457
N1215 X2.5821 Y-0.0309
N1220 X2.563 Y-0.0151
N1225 X2.5405 Y0.0007
N1230 X2.5124 Y0.0172
N1235 X2.4777 Y0.034
N1240 X2.4342 Y0.0509
N1245 X2.3895 Y0.0643
N1250 X2.344 Y0.0749
N1255 X2.298 Y0.0832
N1260 X2.2518 Y0.0897
N1265 X2.2054 Y0.0948
N1270 X2.1589 Y0.0988
N1275 X2.1123 Y0.1019
N1280 X2.0656 Y0.1043
N1285 X2.019 Y0.1063
N1290 X1.9723 Y0.1077
N1295 X1.9256 Y0.1089
N1300 X1.879 Y0.1098
N1305 X1.8323 Y0.1105
N1310 X1.7856 Y0.111
N1315 X1.7389 Y0.1114
N1320 X1.6922 Y0.1118
N1325 X1.6455 Y0.112
N1330 X1.5988 Y0.1122
N1335 X1.5054 Y0.1125
N1340 X1.3654 Y0.1127
N1345 X1.1319 Y0.1128
N1350 X0.7117 Y0.1129
N1355 X0.5249 Y0.113
N1360 X0.479 Y0.1216
N1365 X0.4377 Y0.1434
N1370 X0.4026 Y0.1741
N1375 X0.3735 Y0.2107
N1380 X0.35 Y0.251
N1385 X0.3311 Y0.2937
N1390 X0.3161 Y0.3379
N1395 X0.3043 Y0.3831
N1400 X0.2951 Y0.4289
N1405 X0.2879 Y0.475
N1410 X0.2822 Y0.5213
N1415 X0.2778 Y0.5678
N1420 X0.2744 Y0.6144
N1425 X0.2718 Y0.661
N1430 X0.2698 Y0.7077
N1435 X0.2769 Y0.7538
N1440 X0.2967 Y0.7961
N1445 X0.3257 Y0.8327
N1450 X0.3609 Y0.8634
N1455 X0.4002 Y0.8886
N1460 X0.4421 Y0.909
N1465 X0.4859 Y0.9254
N1470 X0.5307 Y0.9385
N1475 X0.5762 Y0.9489
N1480 X0.6222 Y0.9571
N1485 X0.6684 Y0.9635
N1490 X0.7148 Y0.9686
N1495 X0.7614 Y0.9725
N1500 X0.8079 Y0.9756
N1505 X0.8546 Y0.978
N1510 X0.9012 Y0.9799
N1515 X0.9479 Y0.9814
N1520 X0.9946 Y0.9825
N1525 X1.0413 Y0.9834
N1530 X1.0879 Y0.9841
N1535 X1.1346 Y0.9846
N1540 X1.1813 Y0.985
N1545 X1.228 Y0.9853
N1550 X1.2747 Y0.9856
N1555 X1.3214 Y0.9858
N1560 X1.4148 Y0.9861
N1565 X1.5549 Y0.9863
N1570 X1.7883 Y0.9865
N1575 X2.3486 Y0.9866
N1580 X2.3953 Y0.9867
N1585 X2.442 Y0.9872
N1590 X2.4887 Y0.9889
N1595 X2.5352 Y0.9927
N1600 X2.5814 Y0.9994
N1605 X2.6247 Y1.0092
N1610 X2.6647 Y1.0217
N1615 X2.6923 Y1.0329
N1620 X2.7154 Y1.0444
N1625 X2.7337 Y1.0555
N1630 X2.7374 Y1.0582
N1635 X2.7495 Y1.0687
N1640 X2.7595 Y1.0813
N1645 X2.767 Y1.0955
N1650 X2.7718 Y1.1108
N1655 X2.7737 Y1.1267
N1660 X2.7727 Y1.1427
N1665 X2.7687 Y1.1583
N1670 X2.7665 Y1.1645
N1675 X2.7621 Y1.1758
N1680 G3 X2.7535 Y1.1876 I-0.0341 J-0.0156 F5.
N1685 G1 X2.7502 Y1.1907 Z-0.1497
N1690 X2.7469 Y1.1937 Z-0.1489
N1695 X2.7438 Y1.1967 Z-0.1476
N1700 X2.7407 Y1.1995 Z-0.1457
N1705 X2.7379 Y1.2021 Z-0.1434
N1710 X2.7353 Y1.2045 Z-0.1406
N1715 X2.7329 Y1.2067 Z-0.1374
N1720 X2.7309 Y1.2086 Z-0.1338
N1725 X2.7292 Y1.2102 Z-0.1299
N1730 X2.7278 Y1.2115 Z-0.1258
N1735 X2.7268 Y1.2124 Z-0.1215
N1740 X2.7262 Y1.2129 Z-0.117
N1745 X2.726 Y1.2131 Z-0.1125
N1750 G0 Z0.2
N1755 X2.5913 Y-0.1169
N1760 Z-0.075
N1765 G1 Z-0.1125 F5.
N1770 X2.5916 Y-0.117 Z-0.117
N1775 X2.5924 Y-0.1172 Z-0.1215
N1780 X2.5937 Y-0.1175 Z-0.1258
N1785 X2.5955 Y-0.118 Z-0.1299
N1790 X2.5977 Y-0.1185 Z-0.1338
N1795 X2.6004 Y-0.1192 Z-0.1374
N1800 X2.6035 Y-0.12 Z-0.1406
N1805 X2.607 Y-0.1209 Z-0.1434
N1810 X2.6107 Y-0.1219 Z-0.1457
N1815 X2.6147 Y-0.1229 Z-0.1476
N1820 X2.6189 Y-0.124 Z-0.1489
N1825 X2.6232 Y-0.1251 Z-0.1497
N1830 X2.6276 Y-0.1262 Z-0.15
N1835 G3 X2.6418 Y-0.1221 I0.0036 J0.014
N1840 G1 X2.6561 Y-0.1056 F7.
N1845 X2.665 Y-0.0944
N1850 X2.6734 Y-0.0831
N1855 X2.6742 Y-0.0819
N1860 X2.6744 Y-0.0713
N1865 X2.6737 Y-0.0598
N1870 X2.6719 Y-0.0473
N1875 X2.6689 Y-0.0337
N1880 X2.6644 Y-0.0192
N1885 X2.6581 Y-0.0036
N1890 X2.65 Y0.0127
N1895 X2.6394 Y0.0302
N1900 X2.6265 Y0.0481
N1905 X2.6103 Y0.0672
N1910 X2.5911 Y0.0865
N1915 X2.5674 Y0.1067
N1920 X2.5402 Y0.1263
N1925 X2.5068 Y0.1467
N1930 X2.4661 Y0.1671
N1935 X2.4228 Y0.1846
N1940 X2.3784 Y0.1991
N1945 X2.3333 Y0.2111
N1950 X2.2876 Y0.221
N1955 X2.2417 Y0.229
N1960 X2.1954 Y0.2356
N1965 X2.149 Y0.241
N1970 X2.1026 Y0.2453
N1975 X2.056 Y0.2488
N1980 X2.0094 Y0.2516
N1985 X1.9628 Y0.2539
N1990 X1.9161 Y0.2557
N1995 X1.8694 Y0.2572
N2000 X1.8227 Y0.2584
N2005 X1.7761 Y0.2593
N2010 X1.7294 Y0.26
N2015 X1.6827 Y0.2606
N2020 X1.636 Y0.2611
N2025 X1.5893 Y0.2615
N2030 X1.5426 Y0.2618
N2035 X1.4959 Y0.262
N2040 X1.4025 Y0.2623
N2045 X1.3092 Y0.2626
N2050 X1.1691 Y0.2627
N2055 X0.9356 Y0.2629
N2060 X0.8422
N2065 X0.7022
N2070 X0.6559 Y0.2689
N2075 X0.6129 Y0.2872
N2080 X0.5752 Y0.3148
N2085 X0.5435 Y0.349
N2090 X0.5172 Y0.3876
N2095 X0.4957 Y0.429
N2100 X0.4784 Y0.4724
N2105 X0.4646 Y0.517
N2110 X0.4598 Y0.5399
N2115 X0.4584 Y0.5865
N2120 X0.4731 Y0.6309
N2125 X0.4988 Y0.6698
N2130 X0.532 Y0.7027
N2135 X0.57 Y0.7298
N2140 X0.6112 Y0.7518
N2145 X0.6544 Y0.7695
N2150 X0.6989 Y0.7837
N2155 X0.7442 Y0.795
N2160 X0.79 Y0.8039
N2165 X0.8362 Y0.8109
N2170 X0.8826 Y0.8165
N2175 X0.929 Y0.8208
N2180 X0.9756 Y0.8242
N2185 X1.0222 Y0.8269
N2190 X1.0689 Y0.829
N2195 X1.1155 Y0.8307
N2200 X1.1622 Y0.8319
N2205 X1.2089 Y0.8329
N2210 X1.2556 Y0.8337
N2215 X1.3023 Y0.8343
N2220 X1.3489 Y0.8348
N2225 X1.3956 Y0.8352
N2230 X1.4423 Y0.8355
N2235 X1.489 Y0.8357
N2240 X1.5824 Y0.836
N2245 X1.6758 Y0.8362
N2250 X1.7692 Y0.8364
N2255 X2.0026 Y0.8365
N2260 X2.2361 Y0.8366
N2265 X2.2828 Y0.8367
N2270 X2.3295 Y0.837
N2275 X2.3762 Y0.8378
N2280 X2.4228 Y0.8395
N2285 X2.4694 Y0.8425
N2290 X2.5159 Y0.8473
N2295 X2.562 Y0.8542
N2300 X2.6078 Y0.8634
N2305 X2.6529 Y0.8754
N2310 X2.6901 Y0.8883
N2315 X2.7195 Y0.9012
N2320 X2.7448 Y0.9149
N2325 X2.7657 Y0.9284
N2330 X2.771 Y0.9325
N2335 X2.7821 Y0.9427
N2340 X2.7913 Y0.9545
N2345 X2.7983 Y0.9678
N2350 X2.8029 Y0.982
N2355 X2.8051 Y0.9969
N2360 X2.8046 Y1.0118
N2365 X2.8039 Y1.0184
N2370 X2.802 Y1.0296
N2375 X2.7982 Y1.0521
N2380 X2.7959 Y1.0634
N2385 X2.7908 Y1.0858
N2390 X2.788 Y1.0971
N2395 X2.7783 Y1.1308
N2400 X2.7745 Y1.142
N2405 X2.7687 Y1.1583
N2410 G3 X2.7608 Y1.1706 I-0.0349 J-0.0137 F5.
N2415 G1 X2.7577 Y1.1739 Z-0.1497
N2420 X2.7546 Y1.1771 Z-0.1489
N2425 X2.7516 Y1.1802 Z-0.1476
N2430 X2.7487 Y1.1831 Z-0.1457
N2435 X2.746 Y1.1859 Z-0.1434
N2440 X2.7436 Y1.1885 Z-0.1406
N2445 X2.7413 Y1.1908 Z-0.1374
N2450 X2.7394 Y1.1928 Z-0.1338
N2455 X2.7378 Y1.1945 Z-0.1299
N2460 X2.7365 Y1.1958 Z-0.1258
N2465 X2.7355 Y1.1968 Z-0.1215
N2470 X2.735 Y1.1974 Z-0.117
N2475 X2.7348 Y1.1976 Z-0.1125
N2480 G0 Z0.2
N2485 X2.6227 Y-0.0818
N2490 Z-0.075
N2495 G1 Z-0.1125 F5.
N2500 X2.623 Z-0.117
N2505 X2.6238 Y-0.082 Z-0.1215
N2510 X2.6251 Y-0.0822 Z-0.1258
N2515 X2.6269 Y-0.0825 Z-0.1299
N2520 X2.6292 Y-0.0829 Z-0.1338
N2525 X2.632 Y-0.0834 Z-0.1374
N2530 X2.6351 Y-0.084 Z-0.1406
N2535 X2.6386 Y-0.0846 Z-0.1434
N2540 X2.6425 Y-0.0853 Z-0.1457
N2545 X2.6465 Y-0.086 Z-0.1476
N2550 X2.6508 Y-0.0868 Z-0.1489
N2555 X2.6552 Y-0.0875 Z-0.1497
N2560 X2.6596 Y-0.0883 Z-0.15
N2565 G3 X2.6734 Y-0.0831 I0.0025 J0.0142
N2570 G1 X2.6817 Y-0.0719 F7.
N2575 X2.6896 Y-0.0606
N2580 X2.7022 Y-0.0419
N2585 X2.7045 Y-0.0382
N2590 X2.7083 Y-0.032
N2595 X2.7112 Y-0.0267
N2600 X2.7135 Y-0.0163
N2605 X2.7151 Y-0.0052
N2610 X2.7159 Y0.0077
N2615 X2.7157 Y0.0212
N2620 X2.7142 Y0.0366
N2625 X2.7113 Y0.0523
N2630 X2.7066 Y0.0703
N2635 X2.7002 Y0.0883
N2640 X2.6914 Y0.1082
N2645 X2.6802 Y0.1286
N2650 X2.6661 Y0.1501
N2655 X2.6485 Y0.1728
N2660 X2.6278 Y0.1954
N2665 X2.602 Y0.2194
N2670 X2.5722 Y0.243
N2675 X2.5368 Y0.2667
N2680 X2.496 Y0.2894
N2685 X2.4536 Y0.309
N2690 X2.41 Y0.3257
N2695 X2.3656 Y0.34
N2700 X2.3205 Y0.3522
N2705 X2.2749 Y0.3625
N2710 X2.2291 Y0.3711
N2715 X2.1829 Y0.3784
N2720 X2.1366 Y0.3845
N2725 X2.0902 Y0.3896
N2730 X2.0437 Y0.3938
N2735 X1.9972 Y0.3973
N2740 X1.9506 Y0.4002
N2745 X1.9039 Y0.4025
N2750 X1.8573 Y0.4045
N2755 X1.8106 Y0.4061
N2760 X1.7639 Y0.4074
N2765 X1.7173 Y0.4084
N2770 X1.6706 Y0.4093
N2775 X1.6239 Y0.41
N2780 X1.5772 Y0.4106
N2785 X1.5305 Y0.411
N2790 X1.4838 Y0.4114
N2795 X1.4371 Y0.4117
N2800 X1.3904 Y0.4119
N2805 X1.2971 Y0.4123
N2810 X1.2037 Y0.4125
N2815 X1.0636 Y0.4127
N2820 X0.9235 Y0.4128
N2825 X0.8768 Y0.4129
N2830 X0.8305 Y0.4189
N2835 X0.8197 Y0.4231
N2840 X0.8143 Y0.4256
N2845 X0.8091 Y0.4281
N2850 X0.7987 Y0.4335
N2855 X0.7887 Y0.4395
N2860 X0.7795 Y0.4467
N2865 X0.7714 Y0.4551
N2870 X0.7645 Y0.4645
N2875 X0.7589 Y0.4747
N2880 X0.7547 Y0.4856
N2885 X0.752 Y0.497
N2890 X0.7508 Y0.5086
N2895 X0.7512 Y0.5202
N2900 X0.7531 Y0.5317
N2905 X0.7565 Y0.5429
N2910 X0.7614 Y0.5535
N2915 X0.7677 Y0.5634
N2920 X0.7752 Y0.5723
N2925 X0.7838 Y0.5801
N2930 X0.8223 Y0.6067
N2935 X0.8669 Y0.6203
N2940 X0.9123 Y0.6313
N2945 X0.9582 Y0.64
N2950 X1.0043 Y0.647
N2955 X1.0507 Y0.6525
N2960 X1.0972 Y0.6568
N2965 X1.1438 Y0.6603
N2970 X1.1904 Y0.663
N2975 X1.237 Y0.6651
N2980 X1.2837 Y0.6668
N2985 X1.3303 Y0.6681
N2990 X1.377 Y0.6692
N2995 X1.4237 Y0.67
N3000 X1.4704 Y0.6706
N3005 X1.5171 Y0.6712
N3010 X1.5638 Y0.6716
N3015 X1.6105 Y0.6719
N3020 X1.6572 Y0.6721
N3025 X1.7038 Y0.6723
N3030 X1.7972 Y0.6726
N3035 X1.9373 Y0.6729
N3040 X2.1241 Y0.673
N3045 X2.1708 Y0.6731
N3050 X2.2175 Y0.6733
N3055 X2.2641 Y0.6738
N3060 X2.3108 Y0.6747
N3065 X2.3575 Y0.6763
N3070 X2.4041 Y0.6787
N3075 X2.4274 Y0.6805
N3080 X2.4398 Y0.6816
N3085 X2.4531 Y0.6829
N3090 X2.499 Y0.6912
N3095 X2.5448 Y0.7004
N3100 X2.5903 Y0.7107
N3105 X2.6355 Y0.7228
N3110 X2.6799 Y0.7371
N3115 X2.7233 Y0.7541
N3120 X2.7555 Y0.7698
N3125 X2.7676 Y0.7769
N3130 X2.7799 Y0.7857
N3135 X2.7905 Y0.7965
N3140 X2.7991 Y0.8089
N3145 X2.8054 Y0.8226
N3150 X2.8093 Y0.8372
N3155 X2.8106 Y0.8523
N3160 Y0.906
N3165 X2.8103 Y0.9397
N3170 X2.8099 Y0.951
N3175 X2.8086 Y0.9734
N3180 X2.8077 Y0.9847
N3185 X2.8046 Y1.0118
N3190 G3 X2.7997 Y1.0256 I-0.0371 J-0.0056 F5.
N3195 G1 X2.7974 Y1.0295 Z-0.1497
N3200 X2.7951 Y1.0333 Z-0.1489
N3205 X2.7928 Y1.037 Z-0.1476
N3210 X2.7907 Y1.0405 Z-0.1457
N3215 X2.7887 Y1.0439 Z-0.1434
N3220 X2.7869 Y1.0469 Z-0.1406
N3225 X2.7852 Y1.0497 Z-0.1374
N3230 X2.7838 Y1.0521 Z-0.1338
N3235 X2.7826 Y1.0541 Z-0.1299
N3240 X2.7816 Y1.0557 Z-0.1258
N3245 X2.7809 Y1.0568 Z-0.1215
N3250 X2.7805 Y1.0575 Z-0.117
N3255 X2.7804 Y1.0578 Z-0.1125
N3260 G0 Z0.2
N3265 X2.6577 Y-0.0352
N3270 Z-0.075
N3275 G1 Z-0.1125 F5.
N3280 X2.658 Y-0.0353 Z-0.117
N3285 X2.6588 Z-0.1215
N3290 X2.6601 Y-0.0354 Z-0.1258
N3295 X2.662 Y-0.0356 Z-0.1299
N3300 X2.6643 Y-0.0358 Z-0.1338
N3305 X2.6671 Y-0.036 Z-0.1374
N3310 X2.6703 Y-0.0363 Z-0.1406
N3315 X2.6738 Y-0.0366 Z-0.1434
N3320 X2.6777 Y-0.0369 Z-0.1457
N3325 X2.6818 Y-0.0373 Z-0.1476
N3330 X2.6861 Y-0.0376 Z-0.1489
N3335 X2.6905 Y-0.038 Z-0.1497
N3340 X2.6951 Y-0.0384 Z-0.15
N3345 G3 X2.7083 Y-0.032 I0.0012 J0.0144
N3350 G1 X2.7114 Y-0.0269 F7.
N3355 X2.7306 Y0.0068
N3360 X2.7364 Y0.018
N3365 X2.7419 Y0.0293
N3370 X2.7473 Y0.0405
N3375 X2.7522 Y0.0518
N3380 X2.7551 Y0.0599
N3385 X2.7571 Y0.0655
N3390 X2.7588 Y0.0713
N3395 X2.7603 Y0.0771
N3400 X2.7615 Y0.083
N3405 X2.7625 Y0.0889
N3410 X2.7633 Y0.0948
N3415 X2.7639 Y0.1008
N3420 X2.7642 Y0.1068
N3425 X2.7644 Y0.1128
N3430 X2.7643 Y0.1188
N3435 X2.7641 Y0.1248
N3440 X2.7637 Y0.1308
N3445 X2.7631 Y0.1367
N3450 X2.7624 Y0.1427
N3455 X2.7615 Y0.1486
N3460 X2.7604 Y0.1545
N3465 X2.7592 Y0.1604
N3470 X2.7578 Y0.1662
N3475 X2.7563 Y0.172
N3480 X2.7547 Y0.1778
N3485 X2.7529 Y0.1836
N3490 X2.751 Y0.1893
N3495 X2.749 Y0.1949
N3500 X2.7469 Y0.2005
N3505 X2.7446 Y0.2061
N3510 X2.7422 Y0.2116
N3515 X2.7398 Y0.217
N3520 X2.7372 Y0.2225
N3525 X2.7345 Y0.2278
N3530 X2.7317 Y0.2331
N3535 X2.7288 Y0.2384
N3540 X2.7258 Y0.2436
N3545 X2.7228 Y0.2488
N3550 X2.7196 Y0.2539
N3555 X2.7164 Y0.2589
N3560 X2.7131 Y0.2639
N3565 X2.7097 Y0.2689
N3570 X2.7062 Y0.2737
N3575 X2.7026 Y0.2786
N3580 X2.699 Y0.2833
N3585 X2.6953 Y0.2881
N3590 X2.6915 Y0.2927
N3595 X2.6877 Y0.2973
N3600 X2.6838 Y0.3019
N3605 X2.6798 Y0.3064
N3610 X2.6758 Y0.3109
N3615 X2.6717 Y0.3153
N3620 X2.6675 Y0.3196
N3625 X2.6633 Y0.3239
N3630 X2.6591 Y0.3281
N3635 X2.6548 Y0.3323
N3640 X2.6504 Y0.3364
N3645 X2.646 Y0.3404
N3650 X2.6415 Y0.3445
N3655 X2.637 Y0.3484
N3660 X2.6325 Y0.3523
N3665 X2.6279 Y0.3562
N3670 X2.6232 Y0.36
N3675 X2.6185 Y0.3637
N3680 X2.6093 Y0.3709
N3685 X2.6012 Y0.3792
N3690 X2.5942 Y0.3886
N3695 X2.5885 Y0.3988
N3700 X2.5843 Y0.4097
N3705 X2.5815 Y0.421
N3710 X2.5802 Y0.4326
N3715 X2.5806 Y0.4443
N3720 X2.5824 Y0.4558
N3725 X2.5858 Y0.467
N3730 X2.5906 Y0.4776
N3735 X2.5969 Y0.4875
N3740 X2.6043 Y0.4965
N3745 X2.6387 Y0.528
N3750 X2.6804 Y0.5491
N3755 X2.6955 Y0.5568
N3760 X2.7044 Y0.5614
N3765 X2.7131 Y0.566
N3770 X2.721 Y0.5702
N3775 X2.7272 Y0.5736
N3780 X2.7325 Y0.5766
N3785 X2.7378 Y0.5795
N3790 X2.743 Y0.5825
N3795 X2.7481 Y0.5855
N3800 X2.7533 Y0.5886
N3805 X2.7584 Y0.5918
N3810 X2.7635 Y0.5949
N3815 X2.7685 Y0.5982
N3820 X2.771 Y0.5998
N3825 X2.7824 Y0.6087
N3830 X2.7922 Y0.6193
N3835 X2.8001 Y0.6314
N3840 X2.8059 Y0.6446
N3845 X2.8094 Y0.6586
N3850 X2.8106 Y0.673
N3855 Y0.8523
N3860 G3 X2.8073 Y0.8665 I-0.0375 J-0.0013 F5.
N3865 G1 X2.8054 Y0.8706 Z-0.1497
N3870 X2.8035 Y0.8747 Z-0.1489
N3875 X2.8017 Y0.8786 Z-0.1476
N3880 X2.8 Y0.8824 Z-0.1457
N3885 X2.7984 Y0.8859 Z-0.1434
N3890 X2.797 Y0.8891 Z-0.1406
N3895 X2.7956 Y0.8921 Z-0.1374
N3900 X2.7945 Y0.8946 Z-0.1338
N3905 X2.7935 Y0.8967 Z-0.1299
N3910 X2.7927 Y0.8984 Z-0.1258
N3915 X2.7922 Y0.8996 Z-0.1215
N3920 X2.7918 Y0.9004 Z-0.117
N3925 X2.7917 Y0.9006 Z-0.1125
N3930 G0 Z0.2
N3935 X2.7024 Y0.0542
N3940 Z-0.075
N3945 G1 Z-0.1125 F5.
N3950 X2.7027 Y0.0541 Z-0.117
N3955 X2.7035 Y0.054 Z-0.1215
N3960 X2.7048 Y0.0536 Z-0.1258
N3965 X2.7066 Y0.0532 Z-0.1299
N3970 X2.7089 Y0.0527 Z-0.1338
N3975 X2.7116 Y0.052 Z-0.1374
N3980 X2.7147 Y0.0513 Z-0.1406
N3985 X2.7182 Y0.0504 Z-0.1434
N3990 X2.7219 Y0.0495 Z-0.1457
N3995 X2.726 Y0.0485 Z-0.1476
N4000 X2.7302 Y0.0475 Z-0.1489
N4005 X2.7345 Y0.0465 Z-0.1497
N4010 X2.7389 Y0.0454 Z-0.15
N4015 G3 X2.7522 Y0.0518 I0.0027 J0.0114
N4020 G1 X2.7616 Y0.0742 F7.
N4025 X2.7661 Y0.0855
N4030 X2.774 Y0.108
N4035 X2.7779 Y0.1192
N4040 X2.7877 Y0.1529
N4045 X2.7905 Y0.1642
N4050 X2.7956 Y0.1866
N4055 X2.798 Y0.1979
N4060 X2.8005 Y0.2186
N4065 X2.8023 Y0.2653
N4070 X2.8092 Y0.3063
N4075 X2.8098 Y0.3108
N4080 X2.8102 Y0.3153
N4085 X2.8104 Y0.3199
N4090 G3 X2.8072 Y0.3341 I-0.0375 J-0.0009 F5.
N4095 X2.7356 Y0.3227 I-0.0343 J-0.0152 F7.
N4100 G1 X2.7242 Y0.2106
N4105 G3 X2.7918 Y0.1846 I0.0373 J-0.0038
N4110 X2.798 Y0.1979 I-0.0302 J0.0222 F5.
N4115 G1 X2.8033 Y0.2289 F7.
N4120 X2.8037 Y0.2316
N4125 X2.8076 Y0.2653
N4130 X2.8085 Y0.2766
N4135 X2.8098 Y0.299
N4140 X2.8103 Y0.3103
N4145 X2.8106 Y0.344
N4150 Y0.673
N4155 X2.8101 Y0.676 Z-0.1497 F5.
N4160 X2.8096 Y0.6788 Z-0.1488
N4165 X2.8091 Y0.6814 Z-0.1473
N4170 X2.8087 Y0.6836 Z-0.1452
N4175 X2.8081 Y0.6852 Z-0.1431
N4180 X2.8076 Y0.6863 Z-0.1406
N4185 X2.8074 Y0.687 Z-0.138
N4190 X2.8073 Y0.6873 Z-0.1353
N4195 G0 Z0.2
N4200 X2.402 Y-0.2982
N4205 Z-0.1838
N4210 G1 Z-0.2213 F5.
N4215 Z-0.3
N4220 G3 X2.5763 Y-0.1879 I-0.4216 J0.8595
N4225 G1 X2.5806 Y-0.1843 F7.
N4230 X2.5898 Y-0.1761
N4235 X2.593 Y-0.173
N4240 X2.6123 Y-0.1539
N4245 X2.6141 Y-0.1519
N4250 X2.604 Y-0.1426
N4255 X2.591 Y-0.1324
N4260 X2.5743 Y-0.1213
N4265 X2.5528 Y-0.1095
N4270 X2.5249 Y-0.0969
N4275 X2.488 Y-0.0837
N4280 X2.4429 Y-0.0716
N4285 X2.3971 Y-0.0627
N4290 X2.3508 Y-0.0561
N4295 X2.3044 Y-0.0513
N4300 X2.2579 Y-0.0477
N4305 X2.2112 Y-0.045
N4310 X2.1646 Y-0.043
N4315 X2.1179 Y-0.0415
N4320 X2.0712 Y-0.0404
N4325 X2.0246 Y-0.0396
N4330 X1.9779 Y-0.039
N4335 X1.9312 Y-0.0385
N4340 X1.8845 Y-0.0382
N4345 X1.8378 Y-0.0379
N4350 X1.7911 Y-0.0377
N4355 X1.6977 Y-0.0375
N4360 X1.5576 Y-0.0373
N4365 X1.3242 Y-0.0372
N4370 X0.6238 Y-0.037
N4375 X0.1802
N4380 X0.1686 Y-0.0359
N4385 X0.1459 Y-0.0306
N4390 X0.1046 Y-0.0089
N4395 X0.0715 Y0.0241
N4400 X0.0456 Y0.0629
N4405 X0.0256 Y0.1051
N4410 X0.0102 Y0.1492
N4415 X-0.0014 Y0.1944
N4420 X-0.0102 Y0.2403
N4425 X-0.0169 Y0.2865
N4430 X-0.0219 Y0.3329
N4435 X-0.0257 Y0.3794
N4440 X-0.0265 Y0.3929
N4445 X-0.0279 Y0.4044
N4450 X-0.0309 Y0.4155
N4455 X-0.0353 Y0.4262
N4460 X-0.0391 Y0.434
N4465 X-0.0441 Y0.4452
N4470 X-0.0489 Y0.4564
N4475 X-0.0504 Y0.4606
N4480 X-0.0587 Y0.4901
N4485 X-0.0618 Y0.5014
N4490 X-0.0679 Y0.5238
N4495 X-0.0706 Y0.5351
N4500 X-0.0757 Y0.5576
N4505 X-0.077 Y0.5688
N4510 X-0.0789 Y0.5913
N4515 X-0.08 Y0.6138
N4520 X-0.0806 Y0.625
N4525 X-0.0819 Y0.6587
N4530 X-0.0814 Y0.67
N4535 X-0.0806 Y0.6812
N4540 X-0.0791 Y0.6924
N4545 X-0.0698 Y0.7486
N4550 X-0.0678 Y0.7599
N4555 X-0.0597 Y0.8059
N4560 X-0.0538 Y0.8522
N4565 X-0.0495 Y0.8987
N4570 X-0.0463 Y0.9453
N4575 X-0.044 Y0.9919
N4580 X-0.0422 Y1.0386
N4585 X-0.0409 Y1.0852
N4590 X-0.0338 Y1.1075
N4595 X-0.0107 Y1.1481
N4600 X0.0229 Y1.1805
N4605 X0.0621 Y1.2058
N4610 X0.1045 Y1.2254
N4615 X0.1487 Y1.2403
N4620 X0.194 Y1.2517
N4625 X0.2399 Y1.2603
N4630 X0.2861 Y1.2668
N4635 X0.3326 Y1.2717
N4640 X0.3791 Y1.2754
N4645 X0.4257 Y1.2781
N4650 X0.4724 Y1.2802
N4655 X0.519 Y1.2817
N4660 X0.5657 Y1.2829
N4665 X0.6124 Y1.2838
N4670 X0.6591 Y1.2844
N4675 X0.7058 Y1.2849
N4680 X0.7525 Y1.2853
N4685 X0.7992 Y1.2855
N4690 X0.8458 Y1.2857
N4695 X0.9392 Y1.286
N4700 X1.0793 Y1.2862
N4705 X1.3128 Y1.2864
N4710 X1.5462 Y1.2865
N4715 X2.5958 Y1.2867
N4720 X2.6083 Y1.2881
N4725 X2.6202 Y1.2923
N4730 X2.6308 Y1.2992
N4735 X2.6396 Y1.3082
N4740 X2.6461 Y1.319
N4745 X2.65 Y1.3309
N4750 X2.651 Y1.3435
N4755 X2.6492 Y1.356
N4760 X2.6447 Y1.3677
N4765 X2.6376 Y1.3781
N4770 G3 X2.6257 Y1.3867 I-0.0275 J-0.0255 F5.
N4775 G1 X2.6216 Y1.3885 Z-0.2997
N4780 X2.6176 Y1.3904 Z-0.2989
N4785 X2.6136 Y1.3922 Z-0.2976
N4790 X2.6099 Y1.3939 Z-0.2957
N4795 X2.6063 Y1.3955 Z-0.2934
N4800 X2.6031 Y1.397 Z-0.2906
N4805 X2.6002 Y1.3983 Z-0.2874
N4810 X2.5977 Y1.3995 Z-0.2838
N4815 X2.5955 Y1.4005 Z-0.2799
N4820 X2.5938 Y1.4013 Z-0.2758
N4825 X2.5926 Y1.4018 Z-0.2715
N4830 X2.5919 Y1.4022 Z-0.267
N4835 X2.5916 Y1.4023 Z-0.2625
N4840 G0 Z0.2
N4845 X2.561 Y-0.1575
N4850 Z-0.225
N4855 G1 Z-0.2625 F5.
N4860 X2.5613 Z-0.267
N4865 X2.5621 Z-0.2715
N4870 X2.5634 Y-0.1576 Z-0.2758
N4875 X2.5653 Z-0.2799
N4880 X2.5676 Y-0.1577 Z-0.2838
N4885 X2.5704 Y-0.1578 Z-0.2874
N4890 X2.5736 Y-0.158 Z-0.2906
N4895 X2.5772 Y-0.1581 Z-0.2934
N4900 X2.5811 Y-0.1583 Z-0.2957
N4905 X2.5852 Y-0.1584 Z-0.2976
N4910 X2.5895 Y-0.1586 Z-0.2989
N4915 X2.594 Y-0.1588 Z-0.2997
N4920 X2.5985 Y-0.159 Z-0.3
N4925 G3 X2.6123 Y-0.1539 I0.0008 J0.0192
N4930 G1 X2.6235 Y-0.1427 F7.
N4935 X2.6267 Y-0.1393
N4940 X2.6366 Y-0.1281
N4945 X2.6418 Y-0.1221
N4950 X2.6427 Y-0.1209
N4955 X2.6392 Y-0.1103
N4960 X2.6346 Y-0.0992
N4965 X2.6283 Y-0.0872
N4970 X2.62 Y-0.0737
N4975 X2.6102 Y-0.0606
N4980 X2.5972 Y-0.0457
N4985 X2.5821 Y-0.0309
N4990 X2.563 Y-0.0151
N4995 X2.5405 Y0.0007
N5000 X2.5124 Y0.0172
N5005 X2.4777 Y0.034
N5010 X2.4342 Y0.0509
N5015 X2.3895 Y0.0643
N5020 X2.344 Y0.0749
N5025 X2.298 Y0.0832
N5030 X2.2518 Y0.0897
N5035 X2.2054 Y0.0948
N5040 X2.1589 Y0.0988
N5045 X2.1123 Y0.1019
N5050 X2.0656 Y0.1043
N5055 X2.019 Y0.1063
N5060 X1.9723 Y0.1077
N5065 X1.9256 Y0.1089
N5070 X1.879 Y0.1098
N5075 X1.8323 Y0.1105
N5080 X1.7856 Y0.111
N5085 X1.7389 Y0.1114
N5090 X1.6922 Y0.1118
N5095 X1.6455 Y0.112
N5100 X1.5988 Y0.1122
N5105 X1.5054 Y0.1125
N5110 X1.3654 Y0.1127
N5115 X1.1319 Y0.1128
N5120 X0.7117 Y0.1129
N5125 X0.3848 Y0.113
N5130 X0.3383 Y0.1167
N5135 X0.2954 Y0.1352
N5140 X0.288 Y0.1403
N5145 X0.2801 Y0.1445
N5150 X0.2717 Y0.1479
N5155 X0.253 Y0.1544
N5160 X0.2417 Y0.1592
N5165 X0.2305 Y0.1645
N5170 X0.1846 Y0.1866
N5175 X0.1743 Y0.1921
N5180 X0.1638 Y0.1979
N5185 X0.1519 Y0.2059
N5190 X0.1475 Y0.2091
N5195 X0.1182 Y0.2319
N5200 X0.0845 Y0.2587
N5205 X0.0773 Y0.2653
N5210 X0.0569 Y0.2878
N5215 X0.0508 Y0.2946
N5220 X0.019 Y0.3328
N5225 X0.0171 Y0.3353
N5230 X0.0031 Y0.3552
N5235 X-0.0041 Y0.3665
N5240 X-0.0101 Y0.3777
N5245 X-0.0167 Y0.3901
N5250 X-0.0336 Y0.4227
N5255 X-0.0353 Y0.4262
N5260 G2 X-0.0439 Y0.4381 I0.2553 J0.1933 F5.
N5265 X-0.0766 Y0.4989 I0.2639 J0.1814 F7.
N5270 X-0.0792 Y0.5094 I0.0347 J0.0141
N5275 G1 X-0.0948 Y0.6698
N5280 G2 X-0.0943 Y0.6806 I0.0373 J0.0036
N5285 X-0.0739 Y0.7465 I0.3143 J-0.0611
N5290 X-0.0678 Y0.7598 I0.2939 J-0.127 F5.
N5295 G1 Y0.7599
N5300 X-0.0616 Y0.7842 F7.
N5305 X-0.0588 Y0.7936
N5310 X-0.0501 Y0.8161
N5315 X-0.0457 Y0.8273
N5320 X-0.0367 Y0.8498
N5325 X-0.032 Y0.861
N5330 X-0.0214 Y0.8835
N5335 X-0.0167 Y0.8928
N5340 X-0.0155 Y0.8948
N5345 X-0.0005 Y0.9172
N5350 X0.007 Y0.9285
N5355 X0.0222 Y0.951
N5360 X0.0283 Y0.9597
N5365 X0.0301 Y0.9622
N5370 X0.0387 Y0.9734
N5375 X0.0508 Y0.987
N5380 X0.0732 Y1.0087
N5385 X0.0845 Y1.0194
N5390 X0.0957 Y1.0298
N5395 X0.1182 Y1.0504
N5400 X0.1205 Y1.0521
N5405 X0.1294 Y1.0582
N5410 X0.1406 Y1.0655
N5415 X0.1519 Y1.0727
N5420 X0.1743 Y1.0865
N5425 X0.1856 Y1.0933
N5430 X0.2123 Y1.1083
N5435 X0.2193 Y1.1117
N5440 X0.239 Y1.1196
N5445 X0.2417 Y1.1204
N5450 X0.253 Y1.1231
N5455 X0.2755 Y1.1279
N5460 X0.2979 Y1.1294
N5465 X0.3092 Y1.13
N5470 X0.3204
N5475 X0.367 Y1.1323
N5480 X0.4137 Y1.1324
N5485 X0.4604 Y1.1326
N5490 X0.5538 Y1.1335
N5495 X0.6472 Y1.1343
N5500 X0.6939 Y1.1346
N5505 X0.7405 Y1.135
N5510 X0.7872 Y1.1352
N5515 X0.8806 Y1.1356
N5520 X0.974 Y1.1359
N5525 X1.1141 Y1.1362
N5530 X1.3008 Y1.1363
N5535 X1.7211 Y1.1365
N5540 X2.3281 Y1.1366
N5545 X2.4215
N5550 X2.4681 Y1.1367
N5555 X2.5131 Y1.1384
N5560 X2.5447 Y1.1421
N5565 X2.5715 Y1.1475
N5570 X2.5942 Y1.154
N5575 X2.6142 Y1.1615
N5580 X2.6321 Y1.1699
N5585 X2.6727 Y1.193
N5590 X2.6839 Y1.2007
N5595 X2.6936 Y1.2102
N5600 X2.7013 Y1.2214
N5605 X2.7068 Y1.2338
N5610 X2.71 Y1.247
N5615 X2.7108 Y1.2606
N5620 X2.709 Y1.274
N5625 X2.7048 Y1.287
N5630 X2.6983 Y1.2989
N5635 G3 X2.6876 Y1.3088 I-0.0304 J-0.0219 F5.
N5640 G1 X2.6837 Y1.3112 Z-0.2997
N5645 X2.68 Y1.3136 Z-0.2989
N5650 X2.6763 Y1.3158 Z-0.2976
N5655 X2.6728 Y1.318 Z-0.2957
N5660 X2.6695 Y1.32 Z-0.2934
N5665 X2.6664 Y1.3219 Z-0.2906
N5670 X2.6637 Y1.3236 Z-0.2874
N5675 X2.6613 Y1.3251 Z-0.2838
N5680 X2.6593 Y1.3263 Z-0.2799
N5685 X2.6578 Y1.3273 Z-0.2758
N5690 X2.6566 Y1.328 Z-0.2715
N5695 X2.6559 Y1.3284 Z-0.267
N5700 X2.6557 Y1.3285 Z-0.2625
N5705 G0 Z0.2
N5710 X2.5913 Y-0.1169
N5715 Z-0.225
N5720 G1 Z-0.2625 F5.
N5725 X2.5916 Y-0.117 Z-0.267
N5730 X2.5924 Y-0.1172 Z-0.2715
N5735 X2.5937 Y-0.1175 Z-0.2758
N5740 X2.5955 Y-0.118 Z-0.2799
N5745 X2.5977 Y-0.1185 Z-0.2838
N5750 X2.6004 Y-0.1192 Z-0.2874
N5755 X2.6035 Y-0.12 Z-0.2906
N5760 X2.607 Y-0.1209 Z-0.2934
N5765 X2.6107 Y-0.1219 Z-0.2957
N5770 X2.6147 Y-0.1229 Z-0.2976
N5775 X2.6189 Y-0.124 Z-0.2989
N5780 X2.6232 Y-0.1251 Z-0.2997
N5785 X2.6276 Y-0.1262 Z-0.3
N5790 G3 X2.6418 Y-0.1221 I0.0036 J0.014
N5795 G1 X2.6561 Y-0.1056 F7.
N5800 X2.665 Y-0.0944
N5805 X2.6734 Y-0.0831
N5810 X2.6742 Y-0.0819
N5815 X2.6744 Y-0.0713
N5820 X2.6737 Y-0.0598
N5825 X2.6719 Y-0.0473
N5830 X2.6689 Y-0.0337
N5835 X2.6644 Y-0.0192
N5840 X2.6581 Y-0.0036
N5845 X2.65 Y0.0127
N5850 X2.6394 Y0.0302
N5855 X2.6265 Y0.0481
N5860 X2.6103 Y0.0672
N5865 X2.5911 Y0.0865
N5870 X2.5674 Y0.1067
N5875 X2.5402 Y0.1263
N5880 X2.5068 Y0.1467
N5885 X2.4661 Y0.1671
N5890 X2.4228 Y0.1846
N5895 X2.3784 Y0.1991
N5900 X2.3333 Y0.2111
N5905 X2.2876 Y0.221
N5910 X2.2417 Y0.229
N5915 X2.1954 Y0.2356
N5920 X2.149 Y0.241
N5925 X2.1026 Y0.2453
N5930 X2.056 Y0.2488
N5935 X2.0108 Y0.2515
N5940 X2.0048 Y0.2517
N5945 X1.9988 Y0.2515
N5950 X1.9929 Y0.2508
N5955 X1.9719 Y0.2478
N5960 X1.9607 Y0.2462
N5965 X1.9382 Y0.2455
N5970 X1.927 Y0.2457
N5975 X1.9157 Y0.2468
N5980 X1.8691 Y0.2493
N5985 X1.8225 Y0.2525
N5990 X1.7759 Y0.2549
N5995 X1.7292 Y0.2568
N6000 X1.6826 Y0.2582
N6005 X1.6359 Y0.2593
N6010 X1.5892 Y0.2601
N6015 X1.5425 Y0.2608
N6020 X1.4958 Y0.2613
N6025 X1.4491 Y0.2616
N6030 X1.4025 Y0.2619
N6035 X1.3558 Y0.2622
N6040 X1.2624 Y0.2625
N6045 X1.169 Y0.2626
N6050 X1.0289 Y0.2628
N6055 X0.8274 Y0.2629
N6060 X0.8125 Y0.2616
N6065 X0.7981 Y0.2577
N6070 X0.7846 Y0.2514
N6075 X0.7723 Y0.2428
N6080 X0.7572 Y0.2316
N6085 X0.7248 Y0.2084
N6090 X0.7102 Y0.1979
N6095 X0.7024 Y0.1933
N6100 X0.6799 Y0.1807
N6105 X0.6686 Y0.1754
N6110 X0.635 Y0.1608
N6115 X0.6125 Y0.1511
N6120 X0.6013 Y0.1472
N6125 X0.5788 Y0.1399
N6130 X0.5676 Y0.1376
N6135 X0.5451 Y0.133
N6140 X0.5114 Y0.1264
N6145 X0.4889 Y0.1232
N6150 X0.4777 Y0.1218
N6155 X0.4552 Y0.1216
N6160 X0.444
N6165 X0.4215 Y0.122
N6170 X0.4103 Y0.1223
N6175 X0.3878 Y0.1231
N6180 X0.3766 Y0.1239
N6185 X0.3541 Y0.1276
N6190 X0.3429 Y0.1298
N6195 X0.2934 Y0.1417
N6200 X0.2867 Y0.1433
N6205 X0.2755 Y0.1466
N6210 X0.2717 Y0.1479
N6215 G3 X0.2572 Y0.1494 I-0.0111 J-0.0358 F5.
N6220 G1 X0.2527 Y0.149 Z-0.2997
N6225 X0.2482 Y0.1485 Z-0.2989
N6230 X0.2439 Y0.1481 Z-0.2976
N6235 X0.2398 Y0.1478 Z-0.2957
N6240 X0.236 Y0.1474 Z-0.2934
N6245 X0.2324 Y0.1471 Z-0.2906
N6250 X0.2292 Y0.1468 Z-0.2874
N6255 X0.2264 Y0.1465 Z-0.2838
N6260 X0.2241 Y0.1463 Z-0.2799
N6265 X0.2223 Y0.1461 Z-0.2758
N6270 X0.2209 Y0.146 Z-0.2715
N6275 X0.2201 Y0.1459 Z-0.267
N6280 X0.2198 Z-0.2625
N6285 G0 Z0.2
N6290 X0.2815 Y1.1636
N6295 Z-0.225
N6300 G1 Z-0.2625 F5.
N6305 X0.2817 Y1.1634 Z-0.267
N6310 X0.2822 Y1.1628 Z-0.2715
N6315 X0.2831 Y1.1618 Z-0.2758
N6320 X0.2844 Y1.1604 Z-0.2799
N6325 X0.286 Y1.1587 Z-0.2838
N6330 X0.2879 Y1.1567 Z-0.2874
N6335 X0.2901 Y1.1543 Z-0.2906
N6340 X0.2925 Y1.1517 Z-0.2934
N6345 X0.2951 Y1.1489 Z-0.2957
N6350 X0.2979 Y1.1459 Z-0.2976
N6355 X0.3009 Y1.1427 Z-0.2989
N6360 X0.3039 Y1.1394 Z-0.2997
N6365 X0.307 Y1.1361 Z-0.3
N6370 G3 X0.3204 Y1.13 I0.0141 J0.0131
N6375 G1 X0.5451 F7.
N6380 X0.5563 Y1.1299
N6385 X0.5788 Y1.1296
N6390 X0.59 Y1.1287
N6395 X0.6125 Y1.1255
N6400 X0.6237 Y1.1229
N6405 X0.6357 Y1.1196
N6410 X0.641 Y1.1178
N6415 X0.6462 Y1.1157
N6420 X0.6687 Y1.105
N6425 X0.6799 Y1.0992
N6430 X0.7027 Y1.0858
N6435 X0.7136 Y1.0793
N6440 X0.721 Y1.0746
N6445 X0.7486 Y1.0591
N6450 X0.7754 Y1.0467
N6455 X0.8109 Y1.0337
N6460 X0.8559 Y1.0212
N6465 X0.9017 Y1.0121
N6470 X0.9479 Y1.0054
N6475 X0.9944 Y1.0005
N6480 X1.0409 Y0.9968
N6485 X1.0875 Y0.9941
N6490 X1.1342 Y0.9921
N6495 X1.1808 Y0.9907
N6500 X1.2275 Y0.9896
N6505 X1.2742 Y0.9888
N6510 X1.3209 Y0.9882
N6515 X1.3676 Y0.9877
N6520 X1.4143 Y0.9874
N6525 X1.461 Y0.9872
N6530 X1.5076 Y0.987
N6535 X1.601 Y0.9868
N6540 X1.7309 Y0.9866
N6545 X1.7437 Y0.9876
N6550 X1.7562 Y0.9904
N6555 X1.7682 Y0.9949
N6560 X1.7703 Y0.9959
N6565 X1.8034 Y1.0105
N6570 X1.8146 Y1.0148
N6575 X1.8259 Y1.0185
N6580 X1.8371 Y1.0216
N6585 X1.8596 Y1.0259
N6590 X1.8708 Y1.0277
N6595 X1.8933 Y1.0307
N6600 X1.9045 Y1.032
N6605 X1.927 Y1.0343
N6610 X1.9382 Y1.0345
N6615 X1.9607 Y1.0338
N6620 X1.9719 Y1.0322
N6625 X1.9944 Y1.029
N6630 X2.0169 Y1.0255
N6635 X2.0281 Y1.0237
N6640 X2.0393 Y1.0208
N6645 X2.0851 Y1.0114
N6650 X2.1313 Y1.005
N6655 X2.1778 Y1.0003
N6660 X2.2243 Y0.9968
N6665 X2.2709 Y0.9942
N6670 X2.3176 Y0.9923
N6675 X2.3643 Y0.9911
N6680 X2.411
N6685 X2.4576 Y0.9931
N6690 X2.5041 Y0.9975
N6695 X2.5482 Y1.0048
N6700 X2.5935 Y1.0161
N6705 X2.6312 Y1.0288
N6710 X2.6603 Y1.0412
N6715 X2.6839 Y1.0536
N6720 X2.704 Y1.0663
N6725 X2.7221 Y1.08
N6730 X2.7373 Y1.0934
N6735 X2.7388 Y1.095
N6740 X2.7479 Y1.1063
N6745 X2.7551 Y1.1189
N6750 X2.7601 Y1.1325
N6755 X2.7627 Y1.1467
N6760 X2.763 Y1.1612
N6765 X2.7609 Y1.1755
N6770 X2.7564 Y1.1893
N6775 G3 X2.7479 Y1.2011 I-0.0341 J-0.0156 F5.
N6780 X2.7159 Y1.2106 I-0.0255 J-0.0275 F7.
N6785 G1 X2.0435 Y1.0937
N6790 G3 X2.0264 Y1.0276 I0.0064 J-0.0369
N6795 X2.0393 Y1.0208 I0.0236 J0.0291 F5.
N6800 G1 X2.0506 Y1.0179 F7.
N6805 X2.0618 Y1.0148
N6810 X2.073 Y1.01
N6815 X2.0843 Y1.0051
N6820 X2.0955 Y1.0001
N6825 X2.118 Y0.9896
N6830 X2.1292 Y0.9843
N6835 X2.1404 Y0.9783
N6840 X2.1517 Y0.9716
N6845 X2.1629 Y0.9635
N6850 X2.1789 Y0.951
N6855 X2.1854 Y0.9455
N6860 X2.195 Y0.9379
N6865 X2.2124 Y0.9262
N6870 X2.2338 Y0.9142
N6875 X2.2606 Y0.9019
N6880 X2.2924 Y0.8904
N6885 X2.3292 Y0.8802
N6890 X2.3716 Y0.8722
N6895 X2.4178 Y0.8672
N6900 X2.4644 Y0.8659
N6905 X2.5111 Y0.8681
N6910 X2.5574 Y0.8739
N6915 X2.6017 Y0.8829
N6920 X2.6426 Y0.8948
N6925 X2.6804 Y0.9091
N6930 X2.7115 Y0.9238
N6935 X2.7375 Y0.9388
N6940 X2.7595 Y0.9539
N6945 X2.7686 Y0.9614
N6950 X2.7796 Y0.9721
N6955 X2.7886 Y0.9846
N6960 X2.7952 Y0.9984
N6965 X2.7994 Y1.0132
N6970 X2.8008 Y1.0285
N6975 X2.7996 Y1.0439
N6980 X2.7982 Y1.0521
N6985 X2.7959 Y1.0634
N6990 X2.7908 Y1.0858
N6995 X2.788 Y1.0971
N7000 X2.7783 Y1.1308
N7005 X2.7745 Y1.142
N7010 X2.7665 Y1.1645
N7015 X2.7621 Y1.1758
N7020 X2.7564 Y1.1893
N7025 G3 X2.7479 Y1.2011 I-0.0341 J-0.0156 F5.
N7030 X2.7086 Y1.2086 I-0.0255 J-0.0275 F7.
N7035 G1 X2.1974 Y1.0077
N7040 G3 X2.1769 Y0.9574 I0.0137 J-0.0349
N7045 X2.1854 Y0.9455 I0.0342 J0.0154 F5.
N7050 G1 X2.2191 Y0.9159 F7.
N7055 X2.2289 Y0.906
N7060 X2.2303 Y0.9046
N7065 X2.2391 Y0.8948
N7070 X2.2415 Y0.8917
N7075 X2.248 Y0.8835
N7080 X2.2528 Y0.8766
N7085 X2.2628 Y0.861
N7090 X2.2712 Y0.8493
N7095 X2.2796 Y0.8392
N7100 X2.2907 Y0.8281
N7105 X2.3029 Y0.8176
N7110 X2.3185 Y0.8063
N7115 X2.3363 Y0.7954
N7120 X2.3575 Y0.7847
N7125 X2.3818 Y0.7748
N7130 X2.4103 Y0.7657
N7135 X2.4409 Y0.7587
N7140 X2.4765 Y0.7534
N7145 X2.5148 Y0.7509
N7150 X2.5542 Y0.7514
N7155 X2.5959 Y0.7554
N7160 X2.6378 Y0.7628
N7165 X2.6784 Y0.7734
N7170 X2.7152 Y0.7862
N7175 X2.7461 Y0.7998
N7180 X2.7648 Y0.8099
N7185 X2.7778 Y0.8186
N7190 X2.7891 Y0.8294
N7195 X2.7983 Y0.8421
N7200 X2.8051 Y0.8562
N7205 X2.8092 Y0.8713
N7210 X2.8106 Y0.8869
N7215 Y0.906
N7220 X2.8103 Y0.9397
N7225 X2.8099 Y0.951
N7230 X2.8086 Y0.9734
N7235 X2.8077 Y0.9847
N7240 X2.8039 Y1.0184
N7245 X2.802 Y1.0296
N7250 X2.7996 Y1.0439
N7255 G3 X2.7939 Y1.0573 I-0.0367 J-0.0076 F5.
N7260 X2.751 Y1.0719 I-0.031 J-0.021 F7.
N7265 G1 X2.2831 Y0.9158
N7270 G3 X2.2579 Y0.8748 I0.0119 J-0.0356
N7275 X2.2628 Y0.861 I0.0371 J0.0053 F5.
N7280 G1 X2.2699 Y0.8498 F7.
N7285 X2.2842 Y0.8273
N7290 X2.2865 Y0.8236
N7295 X2.2904 Y0.8161
N7300 X2.3008 Y0.7936
N7305 X2.305 Y0.7824
N7310 X2.3069 Y0.7762
N7315 X2.3091 Y0.7704
N7320 X2.3132 Y0.7613
N7325 X2.3186 Y0.7516
N7330 X2.3258 Y0.7409
N7335 X2.3341 Y0.7304
N7340 X2.345 Y0.7187
N7345 X2.3572 Y0.7075
N7350 X2.3727 Y0.6955
N7355 X2.3896 Y0.6844
N7360 X2.4105 Y0.6731
N7365 X2.4328 Y0.6632
N7370 X2.4596 Y0.6537
N7375 X2.4884 Y0.6461
N7380 X2.5206 Y0.6403
N7385 X2.5568 Y0.6368
N7390 X2.5947 Y0.6362
N7395 X2.6336 Y0.6386
N7400 X2.6728 Y0.6443
N7405 X2.7076 Y0.6523
N7410 X2.7358 Y0.6611
N7415 X2.7603 Y0.671
N7420 X2.7624 Y0.6721
N7425 X2.776 Y0.6806
N7430 X2.7879 Y0.6915
N7435 X2.7976 Y0.7043
N7440 X2.8047 Y0.7187
N7445 X2.8091 Y0.7342
N7450 X2.8106 Y0.7503
N7455 Y0.8869
N7460 G3 X2.8073 Y0.9011 I-0.0375 J-0.0013 F5.
N7465 X2.7647 Y0.9221 I-0.0341 J-0.0156 F7.
N7470 G1 X2.3347 Y0.8225
N7475 G3 X2.306 Y0.7908 I0.0085 J-0.0365
N7480 X2.3069 Y0.7762 I0.0372 J-0.0048 F5.
N7485 G1 X2.312 Y0.7599 F7.
N7490 X2.3153 Y0.7486
N7495 X2.3218 Y0.7262
N7500 X2.3244 Y0.7149
N7505 X2.3288 Y0.6924
N7510 X2.3303 Y0.6846
N7515 X2.333 Y0.6751
N7520 X2.3365 Y0.6655
N7525 X2.3416 Y0.6546
N7530 X2.3478 Y0.6436
N7535 X2.356 Y0.6315
N7540 X2.3656 Y0.6194
N7545 X2.3777 Y0.6066
N7550 X2.3914 Y0.5942
N7555 X2.4083 Y0.5812
N7560 X2.413 Y0.5782
N7565 X2.4178 Y0.5752
N7570 X2.4381 Y0.5632
N7575 X2.4611 Y0.5519
N7580 X2.4881 Y0.5413
N7585 X2.5165 Y0.5327
N7590 X2.5487 Y0.5257
N7595 X2.5837 Y0.521
N7600 X2.6197 Y0.5191
N7605 X2.6558 Y0.5201
N7610 X2.6868 Y0.5234
N7615 X2.7143 Y0.5286
N7620 X2.7389 Y0.5354
N7625 X2.753 Y0.5405
N7630 X2.7668 Y0.547
N7635 X2.7793 Y0.5557
N7640 X2.7901 Y0.5665
N7645 X2.7989 Y0.579
N7650 X2.8053 Y0.5928
N7655 X2.8093 Y0.6076
N7660 X2.8106 Y0.6228
N7665 Y0.7503
N7670 G3 X2.8073 Y0.7645 I-0.0375 J-0.0013 F5.
N7675 X2.7681 Y0.7861 I-0.0341 J-0.0156 F7.
N7680 G1 X2.3612 Y0.7308
N7685 G3 X2.3312 Y0.7069 I0.0051 J-0.0372
N7690 X2.3288 Y0.6924 I0.0351 J-0.0133 F5.
N7695 G1 X2.3295 Y0.6812 F7.
N7700 X2.3306 Y0.6587
N7705 Y0.625
N7710 X2.3302 Y0.6138
N7715 X2.3303 Y0.6074
N7720 X2.3305 Y0.6014
N7725 X2.331 Y0.5954
N7730 X2.3318 Y0.5895
N7735 X2.3329 Y0.5836
N7740 X2.3342 Y0.572
N7745 X2.334 Y0.5603
N7750 X2.3322 Y0.5488
N7755 X2.3289 Y0.5376
N7760 X2.3241 Y0.5269
N7765 X2.3189 Y0.5186
N7770 X2.3157 Y0.5144
N7775 X2.3105 Y0.507
N7780 X2.306 Y0.4992
N7785 X2.3025 Y0.4909
N7790 G3 X2.3006 Y0.4764 I0.0356 J-0.0119 F5.
N7795 X2.3736 Y0.4671 I0.0374 J0.0026 F7.
N7800 X2.3447 Y0.6185 I-0.1494 J0.0499
N7805 X2.3408 Y0.6211 I-0.0063 J-0.0053
N7810 X2.3302 Y0.6138 I-0.0023 J-0.0079 F5.
N7815 G1 X2.3299 Y0.6025 F7.
N7820 X2.3292 Y0.5913
N7825 X2.3253 Y0.5688
N7830 X2.3228 Y0.5576
N7835 X2.3164 Y0.5351
N7840 X2.3097 Y0.5126
N7845 X2.3064 Y0.5014
N7850 X2.3022 Y0.4901
N7855 X2.2925 Y0.4676
N7860 X2.2865 Y0.4564
N7865 X2.2795 Y0.4452
N7870 X2.2723 Y0.4339
N7875 X2.2528 Y0.4034
N7880 X2.2507 Y0.4002
N7885 X2.2415 Y0.3883
N7890 X2.2324 Y0.3777
N7895 X2.2303 Y0.3755
N7900 X2.2217 Y0.3665
N7905 X2.2078 Y0.3542
N7910 X2.1962 Y0.344
N7915 X2.1854 Y0.3346
N7920 X2.1549 Y0.3103
N7925 X2.1517 Y0.3082
N7930 X2.1404 Y0.3017
N7935 X2.1292 Y0.2959
N7940 X2.118 Y0.2904
N7945 X2.0843 Y0.2747
N7950 X2.073 Y0.2697
N7955 X2.0617 Y0.2653
N7960 X2.0506 Y0.2621
N7965 X2.0281 Y0.2563
N7970 X2.0056 Y0.2528
N7975 X1.9929 Y0.2508
N7980 G3 X1.9793 Y0.2454 I0.0067 J-0.0369 F5.
N7985 X1.9849 Y0.1794 I0.0203 J-0.0315 F7.
N7990 G1 X2.6294 Y-0.0942
N7995 G3 X2.6622 Y-0.0926 I0.0147 J0.0345
N8000 X2.6734 Y-0.0831 I-0.0181 J0.0328 F5.
N8005 G1 X2.6817 Y-0.0719 F7.
N8010 X2.6896 Y-0.0606
N8015 X2.7022 Y-0.0419
N8020 X2.7045 Y-0.0382
N8025 X2.7083 Y-0.032
N8030 X2.7112 Y-0.0267
N8035 X2.7129 Y-0.021
N8040 X2.7144 Y-0.0152
N8045 X2.7156 Y-0.0093
N8050 X2.7165 Y-0.0034
N8055 X2.7172 Y0.0026
N8060 X2.7177 Y0.0086
N8065 X2.7179 Y0.0146
N8070 Y0.0206
N8075 X2.7177 Y0.0266
N8080 X2.7173 Y0.0326
N8085 X2.7167 Y0.0385
N8090 X2.7159 Y0.0445
N8095 X2.715 Y0.0504
N8100 X2.7138 Y0.0563
N8105 X2.7125 Y0.0622
N8110 X2.711 Y0.068
N8115 X2.7094 Y0.0737
N8120 X2.7076 Y0.0795
N8125 X2.7057 Y0.0852
N8130 X2.7036 Y0.0908
N8135 X2.7015 Y0.0964
N8140 X2.6991 Y0.1019
N8145 X2.6967 Y0.1074
N8150 X2.6941 Y0.1128
N8155 X2.6914 Y0.1182
N8160 X2.6886 Y0.1235
N8165 X2.6857 Y0.1287
N8170 X2.6827 Y0.1339
N8175 X2.6796 Y0.139
N8180 X2.6764 Y0.1441
N8185 X2.6731 Y0.1491
N8190 X2.6697 Y0.1541
N8195 X2.6662 Y0.1589
N8200 X2.6626 Y0.1638
N8205 X2.6589 Y0.1685
N8210 X2.6552 Y0.1732
N8215 X2.6514 Y0.1778
N8220 X2.6475 Y0.1824
N8225 X2.6406 Y0.1918
N8230 X2.6349 Y0.202
N8235 X2.6307 Y0.2129
N8240 X2.628 Y0.2243
N8245 X2.6268 Y0.2359
N8250 X2.6272 Y0.2476
N8255 X2.6291 Y0.2591
N8260 X2.6326 Y0.2702
N8265 X2.6375 Y0.2808
N8270 X2.6437 Y0.2907
N8275 X2.6512 Y0.2996
N8280 X2.6858 Y0.331
N8285 X2.6942 Y0.3349
N8290 X2.7013 Y0.3382
N8295 X2.7086 Y0.3417
N8300 X2.7154 Y0.345
N8305 X2.7211 Y0.3479
N8310 X2.7265 Y0.3506
N8315 X2.7318 Y0.3533
N8320 X2.7371 Y0.3561
N8325 X2.7424 Y0.359
N8330 X2.7476 Y0.3619
N8335 X2.7529 Y0.3648
N8340 X2.7581 Y0.3678
N8345 X2.7632 Y0.3709
N8350 X2.7695 Y0.3747
N8355 X2.7813 Y0.3836
N8360 X2.7914 Y0.3943
N8365 X2.7996 Y0.4065
N8370 X2.8057 Y0.42
N8375 X2.8094 Y0.4342
N8380 X2.8106 Y0.4489
N8385 Y0.6228
N8390 G3 X2.8073 Y0.637 I-0.0375 J-0.0013 F5.
N8395 G1 X2.8054 Y0.6411 Z-0.2997
N8400 X2.8035 Y0.6452 Z-0.2989
N8405 X2.8017 Y0.6491 Z-0.2976
N8410 X2.8 Y0.6529 Z-0.2957
N8415 X2.7984 Y0.6564 Z-0.2934
N8420 X2.797 Y0.6596 Z-0.2906
N8425 X2.7956 Y0.6625 Z-0.2874
N8430 X2.7945 Y0.6651 Z-0.2838
N8435 X2.7935 Y0.6672 Z-0.2799
N8440 X2.7927 Y0.6689 Z-0.2758
N8445 X2.7922 Y0.6701 Z-0.2715
N8450 X2.7918 Y0.6709 Z-0.267
N8455 X2.7917 Y0.6711 Z-0.2625
N8460 G0 Z0.2
N8465 X2.6577 Y-0.0352
N8470 Z-0.225
N8475 G1 Z-0.2625 F5.
N8480 X2.658 Y-0.0353 Z-0.267
N8485 X2.6588 Z-0.2715
N8490 X2.6601 Y-0.0354 Z-0.2758
N8495 X2.662 Y-0.0356 Z-0.2799
N8500 X2.6643 Y-0.0358 Z-0.2838
N8505 X2.6671 Y-0.036 Z-0.2874
N8510 X2.6703 Y-0.0363 Z-0.2906
N8515 X2.6738 Y-0.0366 Z-0.2934
N8520 X2.6777 Y-0.0369 Z-0.2957
N8525 X2.6818 Y-0.0373 Z-0.2976
N8530 X2.6861 Y-0.0376 Z-0.2989
N8535 X2.6905 Y-0.038 Z-0.2997
N8540 X2.6951 Y-0.0384 Z-0.3
N8545 G3 X2.7083 Y-0.032 I0.0012 J0.0144
N8550 G1 X2.7114 Y-0.0269 F7.
N8555 X2.7306 Y0.0068
N8560 X2.7364 Y0.018
N8565 X2.7419 Y0.0293
N8570 X2.7473 Y0.0405
N8575 X2.7522 Y0.0518
N8580 X2.7616 Y0.0742
N8585 X2.7661 Y0.0855
N8590 X2.774 Y0.108
N8595 X2.7779 Y0.1192
N8600 X2.7877 Y0.1529
N8605 X2.7905 Y0.1642
N8610 X2.7956 Y0.1866
N8615 X2.798 Y0.1979
N8620 X2.8033 Y0.2289
N8625 X2.8037 Y0.2316
N8630 X2.8076 Y0.2653
N8635 X2.8085 Y0.2766
N8640 X2.8098 Y0.299
N8645 X2.8103 Y0.3103
N8650 X2.8106 Y0.344
N8655 Y0.4489
N8660 G3 X2.8073 Y0.4632 I-0.0375 J-0.0013 F5.
N8665 X2.7616 Y0.4833 I-0.0341 J-0.0156 F7.
N8670 G1 X1.97 Y0.2263
N8675 G2 X1.9284 Y0.2394 I-0.0116 J0.0357
N8680 G1 X1.9282 Y0.2397
N8685 G3 X1.9157 Y0.2468 I-0.0151 J-0.0119 F5.
N8690 G1 X1.9045 Y0.248 F7.
N8695 X1.8933 Y0.2493
N8700 X1.8708 Y0.2523
N8705 X1.8596 Y0.2541
N8710 X1.8371 Y0.2584
N8715 X1.8259 Y0.2617
N8720 X1.8034 Y0.2696
N8725 X1.7922 Y0.2744
N8730 X1.7697 Y0.2844
N8735 X1.7585 Y0.2897
N8740 X1.736 Y0.3005
N8745 X1.7247 Y0.3058
N8750 X1.7191 Y0.307
N8755 X1.7135 Y0.3075
N8760 X0.8597
N8765 X0.8484 Y0.3073
N8770 X0.8428 Y0.3063
N8775 X0.8372 Y0.3044
N8780 X0.8328 Y0.3021
N8785 X0.8284 Y0.299
N8790 X0.826 Y0.2969
N8795 X0.8177 Y0.2878
N8800 X0.8076 Y0.2766
N8805 X0.7973 Y0.2653
N8810 X0.7923 Y0.2604
N8815 X0.781 Y0.2501
N8820 X0.7723 Y0.2428
N8825 G3 X0.7636 Y0.2311 I0.0251 J-0.0278 F5.
N8830 G1 X0.7617 Y0.227 Z-0.2997
N8835 X0.7598 Y0.223 Z-0.2989
N8840 X0.7579 Y0.2191 Z-0.2976
N8845 X0.7561 Y0.2154 Z-0.2957
N8850 X0.7545 Y0.2119 Z-0.2934
N8855 X0.7529 Y0.2086 Z-0.2906
N8860 X0.7516 Y0.2057 Z-0.2874
N8865 X0.7504 Y0.2032 Z-0.2838
N8870 X0.7494 Y0.2011 Z-0.2799
N8875 X0.7486 Y0.1994 Z-0.2758
N8880 X0.748 Y0.1982 Z-0.2715
N8885 X0.7476 Y0.1975 Z-0.267
N8890 X0.7475 Y0.1972 Z-0.2625
N8895 G0 Z0.2
N8900 X0.706 Y1.1238
N8905 Z-0.225
N8910 G1 Z-0.2625 F5.
N8915 Y1.1235 Z-0.267
N8920 X0.7062 Y1.1227 Z-0.2715
N8925 X0.7064 Y1.1214 Z-0.2758
N8930 X0.7068 Y1.1195 Z-0.2799
N8935 X0.7072 Y1.1172 Z-0.2838
N8940 X0.7077 Y1.1145 Z-0.2874
N8945 X0.7083 Y1.1114 Z-0.2906
N8950 X0.709 Y1.1079 Z-0.2934
N8955 X0.7097 Y1.104 Z-0.2957
N8960 X0.7105 Y1.1 Z-0.2976
N8965 X0.7113 Y1.0957 Z-0.2989
N8970 X0.7121 Y1.0914 Z-0.2997
N8975 X0.7129 Y1.0869 Z-0.3
N8980 G3 X0.721 Y1.0746 I0.0189 J0.0036
N8985 G1 X0.7388 Y1.0634 F7.
N8990 X0.7473 Y1.0574
N8995 X0.7538 Y1.0521
N9000 X0.781 Y1.0288
N9005 X0.7929 Y1.0184
N9010 X0.8053 Y1.0072
N9015 X0.8147 Y0.9974
N9020 X0.8161 Y0.9959
N9025 X0.826 Y0.9847
N9030 X0.8288 Y0.982
N9035 X0.8316 Y0.9797
N9040 X0.8372 Y0.9764
N9045 X0.8413 Y0.9746
N9050 X0.8454 Y0.9734
N9055 X0.8484 Y0.9729
N9060 X0.8597 Y0.9725
N9065 X1.7135
N9070 X1.7176 Y0.9728
N9075 X1.7218 Y0.9734
N9080 X1.7247 Y0.9742
N9085 X1.7304 Y0.9765
N9090 X1.736 Y0.9796
N9095 X1.7472 Y0.985
N9100 X1.7682 Y0.9949
N9105 X1.7707 Y0.9967 Z-0.2997 F5.
N9110 X1.773 Y0.9984 Z-0.2988
N9115 X1.7751 Y0.9999 Z-0.2973
N9120 X1.777 Y1.0012 Z-0.2952
N9125 X1.7781 Y1.0024 Z-0.2931
N9130 X1.779 Y1.0033 Z-0.2906
N9135 X1.7795 Y1.0038 Z-0.288
N9140 X1.7797 Y1.004 Z-0.2853
N9145 G0 Z0.2
N9150 X0.0241 Y-0.0061
N9155 Z-0.105
N9160 G1 Z-0.1425 F5.
N9165 X0.0242 Y-0.0059 Z-0.147
N9170 X0.0247 Y-0.0052 Z-0.1515
N9175 X0.0255 Y-0.0041 Z-0.1558
N9180 X0.0265 Y-0.0026 Z-0.1599
N9185 X0.0279 Y-0.0007 Z-0.1638
N9190 X0.0295 Y0.0016 Z-0.1674
N9195 X0.0314 Y0.0042 Z-0.1706
N9200 X0.0334 Y0.0071 Z-0.1734
N9205 X0.0357 Y0.0103 Z-0.1757
N9210 X0.0381 Y0.0136 Z-0.1776
N9215 X0.0406 Y0.0171 Z-0.1789
N9220 X0.0432 Y0.0208 Z-0.1797
N9225 X0.0458 Y0.0245 Z-0.18
N9230 G3 X0.1465 Y0.2044 I-0.7802 J0.5548
N9235 G1 X0.1476 Y0.2073 F7.
N9240 X0.1472 Y0.2103
N9245 X0.1453 Y0.2126
N9250 X0.1182 Y0.2337
N9255 X0.0845 Y0.2606
N9260 X0.0793 Y0.2653
N9265 X0.0682 Y0.2766
N9270 X0.062 Y0.2835
N9275 X0.049 Y0.299
N9280 X0.0209 Y0.3328
N9285 X0.0171 Y0.3376
N9290 X0.0048 Y0.3552
N9295 X-0.0024 Y0.3665
N9300 X-0.0144 Y0.389
N9305 X-0.0319 Y0.4227
N9310 X-0.0374 Y0.4339
N9315 X-0.0473 Y0.4564
N9320 X-0.0504 Y0.466
N9325 X-0.0572 Y0.4901
N9330 X-0.0616 Y0.5061
N9335 X-0.0664 Y0.5238
N9340 X-0.0691 Y0.5351
N9345 X-0.0742 Y0.5576
N9350 X-0.0755 Y0.5688
N9355 X-0.0774 Y0.5913
N9360 X-0.0786 Y0.6138
N9365 X-0.0791 Y0.625
N9370 X-0.0804 Y0.6587
N9375 X-0.0796 Y0.67
N9380 X-0.0787 Y0.6812
N9385 X-0.0776 Y0.6924
N9390 X-0.0683 Y0.7486
N9395 X-0.0663 Y0.7599
N9400 X-0.0605 Y0.7824
N9405 X-0.0572 Y0.7936
N9410 X-0.0486 Y0.8161
N9415 X-0.0352 Y0.8498
N9420 X-0.0304 Y0.861
N9425 X-0.0167 Y0.89
N9430 X-0.0136 Y0.8948
N9435 X0.0058 Y0.9241
N9440 X0.0239 Y0.951
N9445 X0.0283 Y0.9572
N9450 X0.0508 Y0.9849
N9455 X0.0621 Y0.9959
N9460 X0.0855 Y1.0184
N9465 X0.0976 Y1.0296
N9470 X0.1156 Y1.0461
N9475 X0.1182 Y1.0485
N9480 X0.1229 Y1.0521
N9485 X0.1294 Y1.0566
N9490 X0.1406 Y1.0639
N9495 X0.1519 Y1.071
N9500 X0.1761 Y1.0858
N9505 X0.1856 Y1.0915
N9510 X0.2152 Y1.1083
N9515 X0.2193 Y1.11
N9520 X0.2429 Y1.1192
N9525 X0.2438 Y1.1196
N9530 X0.253 Y1.1216
N9535 X0.2755 Y1.1265
N9540 X0.2979 Y1.128
N9545 X0.3092 Y1.1285
N9550 X0.5451
N9555 X0.5563
N9560 X0.5788 Y1.1281
N9565 X0.5789 F5.
N9570 G2 X0.5869 Y1.1292 I0.0162 J-0.0912
N9575 X0.5934 I0.0033 J-0.0374
N9580 X0.5978 Y1.1285 I-0.0033 J-0.0374 F7.
N9585 G1 X0.629 Y1.1221
N9590 G2 X0.6332 Y1.1209 I-0.0076 J-0.0367
N9595 X0.6392 Y1.1183 I-0.0118 J-0.0356 F5.
N9600 X0.6462 Y1.1141 I-0.0442 J-0.0814
N9605 G1 X0.6687 Y1.1033 F7.
N9610 X0.6799 Y1.0975
N9615 X0.7024 Y1.0843
N9620 X0.7136 Y1.0775
N9625 X0.7361 Y1.0633
N9630 X0.7473 Y1.0556
N9635 X0.7514 Y1.0521
N9640 X0.781 Y1.0268
N9645 X0.7907 Y1.0184
N9650 X0.8035 Y1.0068
N9655 X0.8142 Y0.9959
N9660 X0.824 Y0.9847
N9665 X0.826 Y0.9825
N9670 X0.8288 Y0.9799
N9675 X0.8316 Y0.9778
N9680 X0.8372 Y0.9746
N9685 X0.8399 Y0.9734
N9690 X0.8442 Y0.9722
N9695 X0.8484 Y0.9714
N9700 X0.8597 Y0.971
N9705 X1.7135
N9710 X1.7191 Y0.9714
N9715 X1.7247 Y0.9727
N9720 X1.727 Y0.9734
N9725 X1.7315 Y0.9754
N9730 X1.736 Y0.9779
N9735 X1.7472 Y0.9836
N9740 X1.7697 Y0.994
N9745 X1.8034 Y1.0089
N9750 X1.8146 Y1.0135
N9755 X1.83 Y1.0184
N9760 X1.8371 Y1.0201
N9765 X1.8596 Y1.0244
N9770 X1.8708 Y1.0262
N9775 X1.8965 Y1.0296
N9780 X1.9045 Y1.0305
N9785 X1.927 Y1.0329
N9790 X1.9382 Y1.033
N9795 X1.9607 Y1.0323
N9800 X1.9719 Y1.0308
N9805 X1.9944 Y1.0275
N9810 X2.0169 Y1.024
N9815 X2.0281 Y1.0222
N9820 X2.0506 Y1.0164
N9825 X2.0618 Y1.0131
N9830 X2.0843 Y1.0035
N9835 X2.0955 Y0.9985
N9840 X2.1251 Y0.9847
N9845 X2.1292 Y0.9827
N9850 X2.1404 Y0.9765
N9855 X2.1517 Y0.9698
N9860 X2.1623 Y0.9622
N9865 X2.1767 Y0.951
N9870 X2.1854 Y0.9435
N9875 X2.2154 Y0.9172
N9880 X2.2191 Y0.9139
N9885 X2.2263 Y0.906
N9890 X2.2415 Y0.8889
N9895 X2.2462 Y0.8835
N9900 X2.2528 Y0.8739
N9905 X2.2682 Y0.8498
N9910 X2.2824 Y0.8273
N9915 X2.2865 Y0.8208
N9920 X2.2888 Y0.8161
N9925 X2.2992 Y0.7936
N9930 X2.3035 Y0.7824
N9935 X2.3104 Y0.7599
N9940 X2.3138 Y0.7486
N9945 X2.3203 Y0.7262
N9950 X2.3229 Y0.7149
N9955 X2.3273 Y0.6924
N9960 X2.3281 Y0.6812
N9965 X2.3292 Y0.6587
N9970 X2.3291 Y0.625
N9975 X2.3284 Y0.6025
N9980 X2.3277 Y0.5913
N9985 X2.3238 Y0.5688
N9990 X2.3213 Y0.5576
N9995 X2.3181 Y0.5463
N10000 X2.3149 Y0.5351
N10005 X2.3082 Y0.5126
N10010 X2.3048 Y0.5014
N10015 X2.3006 Y0.4901
N10020 X2.2909 Y0.4676
N10025 X2.2865 Y0.4593
N10030 X2.2848 Y0.4564
N10035 X2.2706 Y0.4339
N10040 X2.2528 Y0.4061
N10045 X2.2489 Y0.4002
N10050 X2.2402 Y0.389
N10055 X2.2303 Y0.3776
N10060 X2.2194 Y0.3665
N10065 X2.2068 Y0.3552
N10070 X2.1854 Y0.3365
N10075 X2.1808 Y0.3328
N10080 X2.1629 Y0.3184
N10085 X2.1521 Y0.3103
N10090 X2.1404 Y0.3032
N10095 X2.1292 Y0.2975
N10100 X2.118 Y0.292
N10105 X2.0955 Y0.2815
N10110 X2.0843 Y0.2764
N10115 X2.073 Y0.2712
N10120 X2.0618 Y0.2669
N10125 X2.057 Y0.2653
N10130 X2.0281 Y0.2578
N10135 X2.0169 Y0.256
N10140 X1.9944 Y0.2525
N10145 X1.9719 Y0.2492
N10150 X1.9607 Y0.2477
N10155 X1.9382 Y0.247
N10160 X1.927 Y0.2471
N10165 X1.9045 Y0.2495
N10170 X1.8933 Y0.2508
N10175 X1.8684 Y0.2541
N10180 X1.8596 Y0.2556
N10185 X1.8371 Y0.2599
N10190 X1.8259 Y0.2632
N10195 X1.8034 Y0.2711
N10200 X1.791 Y0.2766
N10205 X1.7697 Y0.286
N10210 X1.7658 Y0.2878
N10215 X1.736 Y0.3021
N10220 X1.7247 Y0.3073
N10225 X1.7191 Y0.3086
N10230 X1.7135 Y0.309
N10235 X0.8597
N10240 X0.8484 Y0.3088
N10245 X0.8428 Y0.3079
N10250 X0.8372 Y0.3061
N10255 X0.8316 Y0.3033
N10260 X0.8289 Y0.3014
N10265 X0.826 Y0.2989
N10270 X0.8147 Y0.2867
N10275 X0.8056 Y0.2766
N10280 X0.7952 Y0.2653
N10285 X0.7923 Y0.2622
N10290 X0.781 Y0.252
N10295 X0.7698 Y0.2428
N10300 X0.7547 Y0.2316
N10305 X0.7136 Y0.2021
N10310 X0.7077 Y0.1979
N10315 X0.6877 Y0.1866
N10320 X0.6799 Y0.1823
N10325 X0.6687 Y0.177
N10330 X0.635 Y0.1624
N10335 X0.6125 Y0.1527
N10340 X0.6013 Y0.1488
N10345 X0.5788 Y0.1414
N10350 X0.5676 Y0.1391
N10355 X0.5451 Y0.1345
N10360 X0.5114 Y0.1279
N10365 X0.4889 Y0.1246
N10370 X0.4777 Y0.1232
N10375 X0.4552 Y0.123
N10380 X0.444
N10385 X0.4215 Y0.1235
N10390 X0.4103 Y0.1237
N10395 X0.3878 Y0.1246
N10400 X0.3766 Y0.1254
N10405 X0.3541 Y0.1291
N10410 X0.3466 Y0.1304
N10415 X0.2996 Y0.1417
N10420 X0.2867 Y0.1448
N10425 X0.2755 Y0.1481
N10430 X0.253 Y0.156
N10435 X0.2417 Y0.1608
N10440 X0.2346 Y0.1642
N10445 X0.188 Y0.1866
N10450 X0.1851 Y0.1874 Z-0.1797 F5.
N10455 X0.1823 Y0.1882 Z-0.1788
N10460 X0.1797 Y0.1889 Z-0.1773
N10465 X0.1776 Y0.1895 Z-0.1752
N10470 X0.1759 Y0.1896 Z-0.1731
N10475 X0.1747 Y0.1897 Z-0.1706
N10480 X0.1739 Y0.1898 Z-0.168
N10485 X0.1737 Z-0.1653
N10490 G0 Z0.2
N10495 X-0.0383 Y0.1196
N10500 Z-0.09
N10505 G1 Z-0.1275 F5.
N10510 X-0.0382 Y0.1199 Z-0.132
N10515 X-0.038 Y0.1207 Z-0.1365
N10520 X-0.0377 Y0.122 Z-0.1408
N10525 X-0.0372 Y0.1238 Z-0.1449
N10530 X-0.0366 Y0.126 Z-0.1488
N10535 X-0.0359 Y0.1287 Z-0.1524
N10540 X-0.0351 Y0.1318 Z-0.1556
N10545 X-0.0343 Y0.1353 Z-0.1584
N10550 X-0.0333 Y0.1391 Z-0.1607
N10555 X-0.0323 Y0.1431 Z-0.1626
N10560 X-0.0312 Y0.1472 Z-0.1639
N10565 X-0.0301 Y0.1516 Z-0.1647
N10570 X-0.029 Y0.1559 Z-0.165
N10575 G3 X0.0004 Y0.3601 I-0.9274 J0.2376
N10580 G1 Y0.3718 F7.
N10585 X0.0066 Y0.418
N10590 X0.0144 Y0.4357
N10595 X0.0254 Y0.4674
N10600 X0.0372 Y0.5125
N10605 X0.0467 Y0.5583
N10610 X0.0559 Y0.604
N10615 X0.0671 Y0.6494
N10620 X0.081 Y0.6939
N10625 X0.0982 Y0.7374
N10630 X0.1196 Y0.7789
N10635 X0.1451 Y0.8179
N10640 X0.1748 Y0.854
N10645 X0.211 Y0.8835
N10650 X0.2517 Y0.9064
N10655 X0.2949 Y0.924
N10660 X0.3396 Y0.9375
N10665 X0.3852 Y0.9477
N10670 X0.4313 Y0.9553
N10675 X0.478 Y0.9554
N10680 X0.5241 Y0.948
N10685 X0.5685 Y0.9337
N10690 X0.6113 Y0.915
N10695 X0.6536 Y0.8951
N10700 X0.6941 Y0.8777
N10705 X0.7338 Y0.8644
N10710 X0.7791 Y0.8531
N10715 X0.825 Y0.8448
N10720 X0.8713 Y0.8387
N10725 X0.9178 Y0.8341
N10730 X0.9643 Y0.8308
N10735 X1.011 Y0.8283
N10740 X1.0576 Y0.8264
N10745 X1.1043 Y0.8251
N10750 X1.151 Y0.824
N10755 X1.1977 Y0.8233
N10760 X1.2443 Y0.8227
N10765 X1.291 Y0.8223
N10770 X1.3377 Y0.822
N10775 X1.3844 Y0.8217
N10780 X1.4311 Y0.8216
N10785 X1.5245 Y0.8213
N10790 X1.5712
N10795 X1.6239 Y0.8224
N10800 X1.6299 Y0.8226
N10805 X1.6359 Y0.8229
N10810 X1.6418 Y0.8233
N10815 X1.6478 Y0.8238
N10820 X1.6538 Y0.8244
N10825 X1.6598 Y0.825
N10830 X1.6657 Y0.8257
N10835 X1.6717 Y0.8265
N10840 X1.6776 Y0.8273
N10845 X1.6835 Y0.8282
N10850 X1.6895 Y0.8292
N10855 X1.7816 Y0.8446
N10860 X1.828 Y0.8499
N10865 X1.8746 Y0.8507
N10870 X1.9211 Y0.8457
N10875 X1.9661 Y0.8332
N10880 X2.0079 Y0.8126
N10885 X2.0446 Y0.7836
N10890 X2.0736 Y0.747
N10895 X2.093 Y0.7046
N10900 X2.101 Y0.6586
N10905 X2.0966 Y0.6121
N10910 X2.0797 Y0.5685
N10915 X2.0514 Y0.5314
N10920 X2.0137 Y0.5039
N10925 X1.9697 Y0.4884
N10930 X1.9639 Y0.4876
N10935 X1.9176 Y0.4816
N10940 X1.871 Y0.4791
N10945 X1.8243 Y0.4774
N10950 X1.7776 Y0.4762
N10955 X1.7309 Y0.4753
N10960 X1.6843 Y0.4746
N10965 X1.6376 Y0.474
N10970 X1.5909 Y0.4736
N10975 X1.5442 Y0.4733
N10980 X1.4975 Y0.4731
N10985 X1.4508 Y0.473
N10990 X1.3574 Y0.4727
N10995 X1.2173 Y0.4726
N11000 X1.0115 Y0.4725
N11005 X1.0019 Y0.4724
N11010 X0.9933 Y0.4723
N11015 X0.9864 Y0.4721
N11020 X0.9804 Y0.4719
N11025 X0.9744 Y0.4717
N11030 X0.9684 Y0.4714
N11035 X0.9624 Y0.4711
N11040 X0.9564 Y0.4707
N11045 X0.9504 Y0.4703
N11050 X0.9444 Y0.4697
N11055 X0.9385 Y0.4692
N11060 X0.9325 Y0.4685
N11065 X0.9265 Y0.4678
N11070 X0.9206 Y0.467
N11075 X0.9147 Y0.4661
N11080 X0.9087 Y0.4651
N11085 X0.9028 Y0.464
N11090 X0.897 Y0.4628
N11095 X0.8911 Y0.4615
N11100 X0.8853 Y0.4601
N11105 X0.8794 Y0.4586
N11110 X0.8737 Y0.457
N11115 X0.8679 Y0.4553
N11120 X0.8622 Y0.4535
N11125 X0.8295 Y0.4395
N11130 X0.7882 Y0.4177
N11135 X0.7477 Y0.3944
N11140 X0.7069 Y0.3718
N11145 X0.6652 Y0.3506
N11150 X0.6223 Y0.3323
N11155 X0.5779 Y0.3178
N11160 X0.5324 Y0.3073
N11165 X0.486 Y0.3019
N11170 X0.4393 Y0.302
N11175 X0.3929 Y0.3073
N11180 X0.3477 Y0.3188
N11185 X0.3087 Y0.3445
N11190 X0.2808 Y0.382
N11195 X0.2616 Y0.4245
N11200 X0.2499 Y0.4697
N11205 X0.245 Y0.5162
N11210 X0.2471 Y0.5628
N11215 X0.2578 Y0.6083
N11220 X0.2797 Y0.6495
N11225 X0.3101 Y0.685
N11230 X0.3474 Y0.713
N11235 X0.3909 Y0.73
N11240 X0.437 Y0.7377
N11245 X0.4836 Y0.7389
N11250 X0.5302 Y0.7359
N11255 X0.5766 Y0.7306
N11260 X0.6286 Y0.723
N11265 X0.6748 Y0.716
N11270 X0.6979 Y0.7126
N11275 X0.7036 Y0.7118
N11280 G3 X0.7183 Y0.712 I0.0064 J0.061 F5.
N11285 X0.7215 Y0.8331 I-0.0083 J0.0608 F7.
N11290 X0.5797 Y0.7449 I-0.0231 J-0.1211
N11295 X0.5766 Y0.7306 I0.1188 J-0.0329 F5.
N11300 G1 X0.5759 Y0.7246 F7.
N11305 X0.5773 Y0.7188
N11310 X0.5811 Y0.7077
N11315 X0.5833 Y0.6962
N11320 X0.5839 Y0.6846
N11325 X0.5822 Y0.6613
N11330 X0.5748 Y0.6391
N11335 X0.569 Y0.629
N11340 X0.5657 Y0.6242
N11345 X0.5644 Y0.6215 Z-0.1647 F5.
N11350 X0.5632 Y0.6189 Z-0.1638
N11355 X0.5621 Y0.6165 Z-0.1623
N11360 X0.5612 Y0.6144 Z-0.1602
N11365 X0.5608 Y0.6128 Z-0.1581
N11370 X0.5605 Y0.6116 Z-0.1556
N11375 X0.5603 Y0.6109 Z-0.153
N11380 Y0.6106 Z-0.1503
N11385 G0 Z0.2
N11390 X2.402 Y-0.2982
N11395 Z-0.3011
N11400 G1 Z-0.3386 F5.
N11405 Z-0.4173
N11410 G3 X2.5763 Y-0.1879 I-0.4216 J0.8595
N11415 G1 X2.5806 Y-0.1843 F7.
N11420 X2.5898 Y-0.1761
N11425 X2.593 Y-0.173
N11430 X2.6123 Y-0.1539
N11435 X2.6141 Y-0.1519
N11440 X2.604 Y-0.1426
N11445 X2.591 Y-0.1324
N11450 X2.5743 Y-0.1213
N11455 X2.5528 Y-0.1095
N11460 X2.5249 Y-0.0969
N11465 X2.488 Y-0.0837
N11470 X2.4429 Y-0.0716
N11475 X2.3971 Y-0.0627
N11480 X2.3508 Y-0.0561
N11485 X2.3044 Y-0.0513
N11490 X2.2579 Y-0.0477
N11495 X2.2112 Y-0.045
N11500 X2.1646 Y-0.043
N11505 X2.1179 Y-0.0415
N11510 X2.0712 Y-0.0404
N11515 X2.0246 Y-0.0396
N11520 X1.9779 Y-0.039
N11525 X1.9312 Y-0.0385
N11530 X1.8845 Y-0.0382
N11535 X1.8378 Y-0.0379
N11540 X1.7911 Y-0.0377
N11545 X1.6977 Y-0.0375
N11550 X1.5576 Y-0.0373
N11555 X1.3242 Y-0.0372
N11560 X0.6238 Y-0.037
N11565 X0.1802
N11570 X0.1686 Y-0.0359
N11575 X0.1459 Y-0.0306
N11580 X0.1046 Y-0.0089
N11585 X0.0715 Y0.0241
N11590 X0.0456 Y0.0629
N11595 X0.0256 Y0.1051
N11600 X0.0102 Y0.1492
N11605 X-0.0014 Y0.1944
N11610 X-0.0102 Y0.2403
N11615 X-0.0169 Y0.2865
N11620 X-0.0219 Y0.3329
N11625 X-0.0257 Y0.3794
N11630 X-0.0265 Y0.3929
N11635 X-0.0279 Y0.4044
N11640 X-0.0309 Y0.4155
N11645 X-0.0353 Y0.4262
N11650 X-0.0391 Y0.434
N11655 X-0.0441 Y0.4452
N11660 X-0.0489 Y0.4564
N11665 X-0.0504 Y0.4606
N11670 X-0.0587 Y0.4901
N11675 X-0.0618 Y0.5014
N11680 X-0.0679 Y0.5238
N11685 X-0.0706 Y0.5351
N11690 X-0.0757 Y0.5576
N11695 X-0.077 Y0.5688
N11700 X-0.0789 Y0.5913
N11705 X-0.08 Y0.6138
N11710 X-0.0806 Y0.625
N11715 X-0.0819 Y0.6587
N11720 X-0.0814 Y0.67
N11725 X-0.0806 Y0.6812
N11730 X-0.0791 Y0.6924
N11735 X-0.0698 Y0.7486
N11740 X-0.0678 Y0.7599
N11745 X-0.0597 Y0.8059
N11750 X-0.0538 Y0.8522
N11755 X-0.0495 Y0.8987
N11760 X-0.0463 Y0.9453
N11765 X-0.044 Y0.9919
N11770 X-0.0422 Y1.0386
N11775 X-0.0409 Y1.0852
N11780 X-0.0338 Y1.1075
N11785 X-0.0107 Y1.1481
N11790 X0.0229 Y1.1805
N11795 X0.0621 Y1.2058
N11800 X0.1045 Y1.2254
N11805 X0.1487 Y1.2403
N11810 X0.194 Y1.2517
N11815 X0.2399 Y1.2603
N11820 X0.2861 Y1.2668
N11825 X0.3326 Y1.2717
N11830 X0.3791 Y1.2754
N11835 X0.4257 Y1.2781
N11840 X0.4724 Y1.2802
N11845 X0.519 Y1.2817
N11850 X0.5657 Y1.2829
N11855 X0.6124 Y1.2838
N11860 X0.6591 Y1.2844
N11865 X0.7058 Y1.2849
N11870 X0.7525 Y1.2853
N11875 X0.7992 Y1.2855
N11880 X0.8458 Y1.2857
N11885 X0.9392 Y1.286
N11890 X1.0793 Y1.2862
N11895 X1.3128 Y1.2864
N11900 X1.5462 Y1.2865
N11905 X2.5958 Y1.2867
N11910 X2.6083 Y1.2881
N11915 X2.6202 Y1.2923
N11920 X2.6308 Y1.2992
N11925 X2.6396 Y1.3082
N11930 X2.6461 Y1.319
N11935 X2.65 Y1.3309
N11940 X2.651 Y1.3435
N11945 X2.6492 Y1.356
N11950 X2.6447 Y1.3677
N11955 X2.6376 Y1.3781
N11960 G3 X2.6257 Y1.3867 I-0.0275 J-0.0255 F5.
N11965 G1 X2.6216 Y1.3885 Z-0.4171
N11970 X2.6176 Y1.3904 Z-0.4163
N11975 X2.6136 Y1.3922 Z-0.4149
N11980 X2.6099 Y1.3939 Z-0.4131
N11985 X2.6063 Y1.3955 Z-0.4107
N11990 X2.6031 Y1.397 Z-0.4079
N11995 X2.6002 Y1.3983 Z-0.4047
N12000 X2.5977 Y1.3995 Z-0.4012
N12005 X2.5955 Y1.4005 Z-0.3973
N12010 X2.5938 Y1.4013 Z-0.3931
N12015 X2.5926 Y1.4018 Z-0.3888
N12020 X2.5919 Y1.4022 Z-0.3844
N12025 X2.5916 Y1.4023 Z-0.3798
N12030 G0 Z0.2
N12035 X2.561 Y-0.1575
N12040 Z-0.3424
N12045 G1 Z-0.3798 F5.
N12050 X2.5613 Z-0.3844
N12055 X2.5621 Z-0.3888
N12060 X2.5634 Y-0.1576 Z-0.3931
N12065 X2.5653 Z-0.3973
N12070 X2.5676 Y-0.1577 Z-0.4012
N12075 X2.5704 Y-0.1578 Z-0.4047
N12080 X2.5736 Y-0.158 Z-0.4079
N12085 X2.5772 Y-0.1581 Z-0.4107
N12090 X2.5811 Y-0.1583 Z-0.4131
N12095 X2.5852 Y-0.1584 Z-0.4149
N12100 X2.5895 Y-0.1586 Z-0.4163
N12105 X2.594 Y-0.1588 Z-0.4171
N12110 X2.5985 Y-0.159 Z-0.4173
N12115 G3 X2.6123 Y-0.1539 I0.0008 J0.0192
N12120 G1 X2.6235 Y-0.1427 F7.
N12125 X2.6267 Y-0.1393
N12130 X2.6366 Y-0.1281
N12135 X2.6418 Y-0.1221
N12140 X2.6427 Y-0.1209
N12145 X2.6392 Y-0.1103
N12150 X2.6346 Y-0.0992
N12155 X2.6283 Y-0.0872
N12160 X2.62 Y-0.0737
N12165 X2.6102 Y-0.0606
N12170 X2.5972 Y-0.0457
N12175 X2.5821 Y-0.0309
N12180 X2.563 Y-0.0151
N12185 X2.5405 Y0.0007
N12190 X2.5124 Y0.0172
N12195 X2.4777 Y0.034
N12200 X2.4342 Y0.0509
N12205 X2.3895 Y0.0643
N12210 X2.344 Y0.0749
N12215 X2.298 Y0.0832
N12220 X2.2518 Y0.0897
N12225 X2.2054 Y0.0948
N12230 X2.1589 Y0.0988
N12235 X2.1123 Y0.1019
N12240 X2.0656 Y0.1043
N12245 X2.019 Y0.1063
N12250 X1.9723 Y0.1077
N12255 X1.9256 Y0.1089
N12260 X1.879 Y0.1098
N12265 X1.8323 Y0.1105
N12270 X1.7856 Y0.111
N12275 X1.7389 Y0.1114
N12280 X1.6922 Y0.1118
N12285 X1.6455 Y0.112
N12290 X1.5988 Y0.1122
N12295 X1.5054 Y0.1125
N12300 X1.3654 Y0.1127
N12305 X1.1319 Y0.1128
N12310 X0.7117 Y0.1129
N12315 X0.3848 Y0.113
N12320 X0.3383 Y0.1167
N12325 X0.2954 Y0.1352
N12330 X0.288 Y0.1403
N12335 X0.2801 Y0.1445
N12340 X0.2717 Y0.1479
N12345 X0.253 Y0.1544
N12350 X0.2417 Y0.1592
N12355 X0.2305 Y0.1645
N12360 X0.1846 Y0.1866
N12365 X0.1743 Y0.1921
N12370 X0.1638 Y0.1979
N12375 X0.1519 Y0.2059
N12380 X0.1475 Y0.2091
N12385 X0.1182 Y0.2319
N12390 X0.0845 Y0.2587
N12395 X0.0773 Y0.2653
N12400 X0.0569 Y0.2878
N12405 X0.0508 Y0.2946
N12410 X0.019 Y0.3328
N12415 X0.0171 Y0.3353
N12420 X0.0031 Y0.3552
N12425 X-0.0041 Y0.3665
N12430 X-0.0101 Y0.3777
N12435 X-0.0167 Y0.3901
N12440 X-0.0336 Y0.4227
N12445 X-0.0353 Y0.4262
N12450 G2 X-0.0439 Y0.4381 I0.2553 J0.1933 F5.
N12455 X-0.0766 Y0.4989 I0.2639 J0.1814 F7.
N12460 X-0.0792 Y0.5094 I0.0347 J0.0141
N12465 G1 X-0.0948 Y0.6698
N12470 G2 X-0.0943 Y0.6806 I0.0373 J0.0036
N12475 X-0.0739 Y0.7465 I0.3143 J-0.0611
N12480 X-0.0678 Y0.7598 I0.2939 J-0.127 F5.
N12485 G1 Y0.7599
N12490 X-0.0616 Y0.7842 F7.
N12495 X-0.0588 Y0.7936
N12500 X-0.0501 Y0.8161
N12505 X-0.0457 Y0.8273
N12510 X-0.0367 Y0.8498
N12515 X-0.032 Y0.861
N12520 X-0.0214 Y0.8835
N12525 X-0.0167 Y0.8928
N12530 X-0.0155 Y0.8948
N12535 X-0.0005 Y0.9172
N12540 X0.007 Y0.9285
N12545 X0.0222 Y0.951
N12550 X0.0283 Y0.9597
N12555 X0.0301 Y0.9622
N12560 X0.0387 Y0.9734
N12565 X0.0508 Y0.987
N12570 X0.0732 Y1.0087
N12575 X0.0845 Y1.0194
N12580 X0.0957 Y1.0298
N12585 X0.1182 Y1.0504
N12590 X0.1205 Y1.0521
N12595 X0.1294 Y1.0582
N12600 X0.1406 Y1.0655
N12605 X0.1519 Y1.0727
N12610 X0.1743 Y1.0865
N12615 X0.1856 Y1.0933
N12620 X0.2123 Y1.1083
N12625 X0.2193 Y1.1117
N12630 X0.239 Y1.1196
N12635 X0.2417 Y1.1204
N12640 X0.253 Y1.1231
N12645 X0.2755 Y1.1279
N12650 X0.2979 Y1.1294
N12655 X0.3092 Y1.13
N12660 X0.3204
N12665 X0.367 Y1.1323
N12670 X0.4137 Y1.1324
N12675 X0.4604 Y1.1326
N12680 X0.5538 Y1.1335
N12685 X0.6472 Y1.1343
N12690 X0.6939 Y1.1346
N12695 X0.7405 Y1.135
N12700 X0.7872 Y1.1352
N12705 X0.8806 Y1.1356
N12710 X0.974 Y1.1359
N12715 X1.1141 Y1.1362
N12720 X1.3008 Y1.1363
N12725 X1.7211 Y1.1365
N12730 X2.3281 Y1.1366
N12735 X2.4215
N12740 X2.4681 Y1.1367
N12745 X2.5131 Y1.1384
N12750 X2.5447 Y1.1421
N12755 X2.5715 Y1.1475
N12760 X2.5942 Y1.154
N12765 X2.6142 Y1.1615
N12770 X2.6321 Y1.1699
N12775 X2.6727 Y1.193
N12780 X2.6839 Y1.2007
N12785 X2.6936 Y1.2102
N12790 X2.7013 Y1.2214
N12795 X2.7068 Y1.2338
N12800 X2.71 Y1.247
N12805 X2.7108 Y1.2606
N12810 X2.709 Y1.274
N12815 X2.7048 Y1.287
N12820 X2.6983 Y1.2989
N12825 G3 X2.6876 Y1.3088 I-0.0304 J-0.0219 F5.
N12830 G1 X2.6837 Y1.3112 Z-0.4171
N12835 X2.68 Y1.3136 Z-0.4163
N12840 X2.6763 Y1.3158 Z-0.4149
N12845 X2.6728 Y1.318 Z-0.4131
N12850 X2.6695 Y1.32 Z-0.4107
N12855 X2.6664 Y1.3219 Z-0.4079
N12860 X2.6637 Y1.3236 Z-0.4047
N12865 X2.6613 Y1.3251 Z-0.4012
N12870 X2.6593 Y1.3263 Z-0.3973
N12875 X2.6578 Y1.3273 Z-0.3931
N12880 X2.6566 Y1.328 Z-0.3888
N12885 X2.6559 Y1.3284 Z-0.3844
N12890 X2.6557 Y1.3285 Z-0.3798
N12895 G0 Z0.2
N12900 X2.5913 Y-0.1169
N12905 Z-0.3424
N12910 G1 Z-0.3798 F5.
N12915 X2.5916 Y-0.117 Z-0.3844
N12920 X2.5924 Y-0.1172 Z-0.3888
N12925 X2.5937 Y-0.1175 Z-0.3931
N12930 X2.5955 Y-0.118 Z-0.3973
N12935 X2.5977 Y-0.1185 Z-0.4012
N12940 X2.6004 Y-0.1192 Z-0.4047
N12945 X2.6035 Y-0.12 Z-0.4079
N12950 X2.607 Y-0.1209 Z-0.4107
N12955 X2.6107 Y-0.1219 Z-0.4131
N12960 X2.6147 Y-0.1229 Z-0.4149
N12965 X2.6189 Y-0.124 Z-0.4163
N12970 X2.6232 Y-0.1251 Z-0.4171
N12975 X2.6276 Y-0.1262 Z-0.4173
N12980 G3 X2.6418 Y-0.1221 I0.0036 J0.014
N12985 G1 X2.6561 Y-0.1056 F7.
N12990 X2.665 Y-0.0944
N12995 X2.6734 Y-0.0831
N13000 X2.6742 Y-0.0819
N13005 X2.6744 Y-0.0713
N13010 X2.6737 Y-0.0598
N13015 X2.6719 Y-0.0473
N13020 X2.6689 Y-0.0337
N13025 X2.6644 Y-0.0192
N13030 X2.6581 Y-0.0036
N13035 X2.65 Y0.0127
N13040 X2.6394 Y0.0302
N13045 X2.6265 Y0.0481
N13050 X2.6103 Y0.0672
N13055 X2.5911 Y0.0865
N13060 X2.5674 Y0.1067
N13065 X2.5402 Y0.1263
N13070 X2.5068 Y0.1467
N13075 X2.4661 Y0.1671
N13080 X2.4228 Y0.1846
N13085 X2.3784 Y0.1991
N13090 X2.3333 Y0.2111
N13095 X2.2876 Y0.221
N13100 X2.2417 Y0.229
N13105 X2.1954 Y0.2356
N13110 X2.149 Y0.241
N13115 X2.1026 Y0.2453
N13120 X2.056 Y0.2488
N13125 X2.0108 Y0.2515
N13130 X2.0048 Y0.2517
N13135 X1.9988 Y0.2515
N13140 X1.9929 Y0.2508
N13145 X1.9719 Y0.2478
N13150 X1.9607 Y0.2462
N13155 X1.9382 Y0.2455
N13160 X1.927 Y0.2457
N13165 X1.9157 Y0.2468
N13170 X1.8691 Y0.2493
N13175 X1.8225 Y0.2525
N13180 X1.7759 Y0.2549
N13185 X1.7292 Y0.2568
N13190 X1.6826 Y0.2582
N13195 X1.6359 Y0.2593
N13200 X1.5892 Y0.2601
N13205 X1.5425 Y0.2608
N13210 X1.4958 Y0.2613
N13215 X1.4491 Y0.2616
N13220 X1.4025 Y0.2619
N13225 X1.3558 Y0.2622
N13230 X1.2624 Y0.2625
N13235 X1.169 Y0.2626
N13240 X1.0289 Y0.2628
N13245 X0.8274 Y0.2629
N13250 X0.8125 Y0.2616
N13255 X0.7981 Y0.2577
N13260 X0.7846 Y0.2514
N13265 X0.7723 Y0.2428
N13270 X0.7572 Y0.2316
N13275 X0.7248 Y0.2084
N13280 X0.7102 Y0.1979
N13285 X0.7024 Y0.1933
N13290 X0.6799 Y0.1807
N13295 X0.6686 Y0.1754
N13300 X0.635 Y0.1608
N13305 X0.6125 Y0.1511
N13310 X0.6013 Y0.1472
N13315 X0.5788 Y0.1399
N13320 X0.5676 Y0.1376
N13325 X0.5451 Y0.133
N13330 X0.5114 Y0.1264
N13335 X0.4889 Y0.1232
N13340 X0.4777 Y0.1218
N13345 X0.4552 Y0.1216
N13350 X0.444
N13355 X0.4215 Y0.122
N13360 X0.4103 Y0.1223
N13365 X0.3878 Y0.1231
N13370 X0.3766 Y0.1239
N13375 X0.3541 Y0.1276
N13380 X0.3429 Y0.1298
N13385 X0.2934 Y0.1417
N13390 X0.2867 Y0.1433
N13395 X0.2755 Y0.1466
N13400 X0.2717 Y0.1479
N13405 G3 X0.2572 Y0.1494 I-0.0111 J-0.0358 F5.
N13410 G1 X0.2527 Y0.149 Z-0.4171
N13415 X0.2482 Y0.1485 Z-0.4163
N13420 X0.2439 Y0.1481 Z-0.4149
N13425 X0.2398 Y0.1478 Z-0.4131
N13430 X0.236 Y0.1474 Z-0.4107
N13435 X0.2324 Y0.1471 Z-0.4079
N13440 X0.2292 Y0.1468 Z-0.4047
N13445 X0.2264 Y0.1465 Z-0.4012
N13450 X0.2241 Y0.1463 Z-0.3973
N13455 X0.2223 Y0.1461 Z-0.3931
N13460 X0.2209 Y0.146 Z-0.3888
N13465 X0.2201 Y0.1459 Z-0.3844
N13470 X0.2198 Z-0.3798
N13475 G0 Z0.2
N13480 X0.2815 Y1.1636
N13485 Z-0.3424
N13490 G1 Z-0.3798 F5.
N13495 X0.2817 Y1.1634 Z-0.3844
N13500 X0.2822 Y1.1628 Z-0.3888
N13505 X0.2831 Y1.1618 Z-0.3931
N13510 X0.2844 Y1.1604 Z-0.3973
N13515 X0.286 Y1.1587 Z-0.4012
N13520 X0.2879 Y1.1567 Z-0.4047
N13525 X0.2901 Y1.1543 Z-0.4079
N13530 X0.2925 Y1.1517 Z-0.4107
N13535 X0.2951 Y1.1489 Z-0.4131
N13540 X0.2979 Y1.1459 Z-0.4149
N13545 X0.3009 Y1.1427 Z-0.4163
N13550 X0.3039 Y1.1394 Z-0.4171
N13555 X0.307 Y1.1361 Z-0.4173
N13560 G3 X0.3204 Y1.13 I0.0141 J0.0131
N13565 G1 X0.5451 F7.
N13570 X0.5563 Y1.1299
N13575 X0.5788 Y1.1296
N13580 X0.59 Y1.1287
N13585 X0.6125 Y1.1255
N13590 X0.6237 Y1.1229
N13595 X0.6357 Y1.1196
N13600 X0.641 Y1.1178
N13605 X0.6462 Y1.1157
N13610 X0.6687 Y1.105
N13615 X0.6799 Y1.0992
N13620 X0.7027 Y1.0858
N13625 X0.7136 Y1.0793
N13630 X0.721 Y1.0746
N13635 X0.7486 Y1.0591
N13640 X0.7754 Y1.0467
N13645 X0.8109 Y1.0337
N13650 X0.8559 Y1.0212
N13655 X0.9017 Y1.0121
N13660 X0.9479 Y1.0054
N13665 X0.9944 Y1.0005
N13670 X1.0409 Y0.9968
N13675 X1.0875 Y0.9941
N13680 X1.1342 Y0.9921
N13685 X1.1808 Y0.9907
N13690 X1.2275 Y0.9896
N13695 X1.2742 Y0.9888
N13700 X1.3209 Y0.9882
N13705 X1.3676 Y0.9877
N13710 X1.4143 Y0.9874
N13715 X1.461 Y0.9872
N13720 X1.5076 Y0.987
N13725 X1.601 Y0.9868
N13730 X1.7309 Y0.9866
N13735 X1.7437 Y0.9876
N13740 X1.7562 Y0.9904
N13745 X1.7682 Y0.9949
N13750 X1.7703 Y0.9959
N13755 X1.8034 Y1.0105
N13760 X1.8146 Y1.0148
N13765 X1.8259 Y1.0185
N13770 X1.8371 Y1.0216
N13775 X1.8596 Y1.0259
N13780 X1.8708 Y1.0277
N13785 X1.8933 Y1.0307
N13790 X1.9045 Y1.032
N13795 X1.927 Y1.0343
N13800 X1.9382 Y1.0345
N13805 X1.9607 Y1.0338
N13810 X1.9719 Y1.0322
N13815 X1.9944 Y1.029
N13820 X2.0169 Y1.0255
N13825 X2.0281 Y1.0237
N13830 X2.0393 Y1.0208
N13835 X2.0851 Y1.0114
N13840 X2.1313 Y1.005
N13845 X2.1778 Y1.0003
N13850 X2.2243 Y0.9968
N13855 X2.2709 Y0.9942
N13860 X2.3176 Y0.9923
N13865 X2.3643 Y0.9911
N13870 X2.411
N13875 X2.4576 Y0.9931
N13880 X2.5041 Y0.9975
N13885 X2.5482 Y1.0048
N13890 X2.5935 Y1.0161
N13895 X2.6312 Y1.0288
N13900 X2.6603 Y1.0412
N13905 X2.6839 Y1.0536
N13910 X2.704 Y1.0663
N13915 X2.7221 Y1.08
N13920 X2.7373 Y1.0934
N13925 X2.7388 Y1.095
N13930 X2.7479 Y1.1063
N13935 X2.7551 Y1.1189
N13940 X2.7601 Y1.1325
N13945 X2.7627 Y1.1467
N13950 X2.763 Y1.1612
N13955 X2.7609 Y1.1755
N13960 X2.7564 Y1.1893
N13965 G3 X2.7479 Y1.2011 I-0.0341 J-0.0156 F5.
N13970 X2.7159 Y1.2106 I-0.0255 J-0.0275 F7.
N13975 G1 X2.0435 Y1.0937
N13980 G3 X2.0264 Y1.0276 I0.0064 J-0.0369
N13985 X2.0393 Y1.0208 I0.0236 J0.0291 F5.
N13990 G1 X2.0506 Y1.0179 F7.
N13995 X2.0618 Y1.0148
N14000 X2.073 Y1.01
N14005 X2.0843 Y1.0051
N14010 X2.0955 Y1.0001
N14015 X2.118 Y0.9896
N14020 X2.1292 Y0.9843
N14025 X2.1404 Y0.9783
N14030 X2.1517 Y0.9716
N14035 X2.1629 Y0.9635
N14040 X2.1789 Y0.951
N14045 X2.1854 Y0.9455
N14050 X2.195 Y0.9379
N14055 X2.2124 Y0.9262
N14060 X2.2338 Y0.9142
N14065 X2.2606 Y0.9019
N14070 X2.2924 Y0.8904
N14075 X2.3292 Y0.8802
N14080 X2.3716 Y0.8722
N14085 X2.4178 Y0.8672
N14090 X2.4644 Y0.8659
N14095 X2.5111 Y0.8681
N14100 X2.5574 Y0.8739
N14105 X2.6017 Y0.8829
N14110 X2.6426 Y0.8948
N14115 X2.6804 Y0.9091
N14120 X2.7115 Y0.9238
N14125 X2.7375 Y0.9388
N14130 X2.7595 Y0.9539
N14135 X2.7686 Y0.9614
N14140 X2.7796 Y0.9721
N14145 X2.7886 Y0.9846
N14150 X2.7952 Y0.9984
N14155 X2.7994 Y1.0132
N14160 X2.8008 Y1.0285
N14165 X2.7996 Y1.0439
N14170 X2.7982 Y1.0521
N14175 X2.7959 Y1.0634
N14180 X2.7908 Y1.0858
N14185 X2.788 Y1.0971
N14190 X2.7783 Y1.1308
N14195 X2.7745 Y1.142
N14200 X2.7665 Y1.1645
N14205 X2.7621 Y1.1758
N14210 X2.7564 Y1.1893
N14215 G3 X2.7479 Y1.2011 I-0.0341 J-0.0156 F5.
N14220 X2.7086 Y1.2086 I-0.0255 J-0.0275 F7.
N14225 G1 X2.1974 Y1.0077
N14230 G3 X2.1769 Y0.9574 I0.0137 J-0.0349
N14235 X2.1854 Y0.9455 I0.0342 J0.0154 F5.
N14240 G1 X2.2191 Y0.9159 F7.
N14245 X2.2289 Y0.906
N14250 X2.2303 Y0.9046
N14255 X2.2391 Y0.8948
N14260 X2.2415 Y0.8917
N14265 X2.248 Y0.8835
N14270 X2.2528 Y0.8766
N14275 X2.2628 Y0.861
N14280 X2.2712 Y0.8493
N14285 X2.2796 Y0.8392
N14290 X2.2907 Y0.8281
N14295 X2.3029 Y0.8176
N14300 X2.3185 Y0.8063
N14305 X2.3363 Y0.7954
N14310 X2.3575 Y0.7847
N14315 X2.3818 Y0.7748
N14320 X2.4103 Y0.7657
N14325 X2.4409 Y0.7587
N14330 X2.4765 Y0.7534
N14335 X2.5148 Y0.7509
N14340 X2.5542 Y0.7514
N14345 X2.5959 Y0.7554
N14350 X2.6378 Y0.7628
N14355 X2.6784 Y0.7734
N14360 X2.7152 Y0.7862
N14365 X2.7461 Y0.7998
N14370 X2.7648 Y0.8099
N14375 X2.7778 Y0.8186
N14380 X2.7891 Y0.8294
N14385 X2.7983 Y0.8421
N14390 X2.8051 Y0.8562
N14395 X2.8092 Y0.8713
N14400 X2.8106 Y0.8869
N14405 Y0.906
N14410 X2.8103 Y0.9397
N14415 X2.8099 Y0.951
N14420 X2.8086 Y0.9734
N14425 X2.8077 Y0.9847
N14430 X2.8039 Y1.0184
N14435 X2.802 Y1.0296
N14440 X2.7996 Y1.0439
N14445 G3 X2.7939 Y1.0573 I-0.0367 J-0.0076 F5.
N14450 X2.751 Y1.0719 I-0.031 J-0.021 F7.
N14455 G1 X2.2831 Y0.9158
N14460 G3 X2.2579 Y0.8748 I0.0119 J-0.0356
N14465 X2.2628 Y0.861 I0.0371 J0.0053 F5.
N14470 G1 X2.2699 Y0.8498 F7.
N14475 X2.2842 Y0.8273
N14480 X2.2865 Y0.8236
N14485 X2.2904 Y0.8161
N14490 X2.3008 Y0.7936
N14495 X2.305 Y0.7824
N14500 X2.3069 Y0.7762
N14505 X2.3091 Y0.7704
N14510 X2.3132 Y0.7613
N14515 X2.3186 Y0.7516
N14520 X2.3258 Y0.7409
N14525 X2.3341 Y0.7304
N14530 X2.345 Y0.7187
N14535 X2.3572 Y0.7075
N14540 X2.3727 Y0.6955
N14545 X2.3896 Y0.6844
N14550 X2.4105 Y0.6731
N14555 X2.4328 Y0.6632
N14560 X2.4596 Y0.6537
N14565 X2.4884 Y0.6461
N14570 X2.5206 Y0.6403
N14575 X2.5568 Y0.6368
N14580 X2.5947 Y0.6362
N14585 X2.6336 Y0.6386
N14590 X2.6728 Y0.6443
N14595 X2.7076 Y0.6523
N14600 X2.7358 Y0.6611
N14605 X2.7603 Y0.671
N14610 X2.7624 Y0.6721
N14615 X2.776 Y0.6806
N14620 X2.7879 Y0.6915
N14625 X2.7976 Y0.7043
N14630 X2.8047 Y0.7187
N14635 X2.8091 Y0.7342
N14640 X2.8106 Y0.7503
N14645 Y0.8869
N14650 G3 X2.8073 Y0.9011 I-0.0375 J-0.0013 F5.
N14655 X2.7647 Y0.9221 I-0.0341 J-0.0156 F7.
N14660 G1 X2.3347 Y0.8225
N14665 G3 X2.306 Y0.7908 I0.0085 J-0.0365
N14670 X2.3069 Y0.7762 I0.0372 J-0.0048 F5.
N14675 G1 X2.312 Y0.7599 F7.
N14680 X2.3153 Y0.7486
N14685 X2.3218 Y0.7262
N14690 X2.3244 Y0.7149
N14695 X2.3288 Y0.6924
N14700 X2.3303 Y0.6846
N14705 X2.333 Y0.6751
N14710 X2.3365 Y0.6655
N14715 X2.3416 Y0.6546
N14720 X2.3478 Y0.6436
N14725 X2.356 Y0.6315
N14730 X2.3656 Y0.6194
N14735 X2.3777 Y0.6066
N14740 X2.3914 Y0.5942
N14745 X2.4083 Y0.5812
N14750 X2.413 Y0.5782
N14755 X2.4178 Y0.5752
N14760 X2.4381 Y0.5632
N14765 X2.4611 Y0.5519
N14770 X2.4881 Y0.5413
N14775 X2.5165 Y0.5327
N14780 X2.5487 Y0.5257
N14785 X2.5837 Y0.521
N14790 X2.6197 Y0.5191
N14795 X2.6558 Y0.5201
N14800 X2.6868 Y0.5234
N14805 X2.7143 Y0.5286
N14810 X2.7389 Y0.5354
N14815 X2.753 Y0.5405
N14820 X2.7668 Y0.547
N14825 X2.7793 Y0.5557
N14830 X2.7901 Y0.5665
N14835 X2.7989 Y0.579
N14840 X2.8053 Y0.5928
N14845 X2.8093 Y0.6076
N14850 X2.8106 Y0.6228
N14855 Y0.7503
N14860 G3 X2.8073 Y0.7645 I-0.0375 J-0.0013 F5.
N14865 X2.7681 Y0.7861 I-0.0341 J-0.0156 F7.
N14870 G1 X2.3612 Y0.7308
N14875 G3 X2.3312 Y0.7069 I0.0051 J-0.0372
N14880 X2.3288 Y0.6924 I0.0351 J-0.0133 F5.
N14885 G1 X2.3295 Y0.6812 F7.
N14890 X2.3306 Y0.6587
N14895 Y0.625
N14900 X2.3302 Y0.6138
N14905 X2.3303 Y0.6074
N14910 X2.3305 Y0.6014
N14915 X2.331 Y0.5954
N14920 X2.3318 Y0.5895
N14925 X2.3329 Y0.5836
N14930 X2.3342 Y0.572
N14935 X2.334 Y0.5603
N14940 X2.3322 Y0.5488
N14945 X2.3289 Y0.5376
N14950 X2.3241 Y0.5269
N14955 X2.3189 Y0.5186
N14960 X2.3157 Y0.5144
N14965 X2.3105 Y0.507
N14970 X2.306 Y0.4992
N14975 X2.3025 Y0.4909
N14980 G3 X2.3006 Y0.4764 I0.0356 J-0.0119 F5.
N14985 X2.3736 Y0.4671 I0.0374 J0.0026 F7.
N14990 X2.3447 Y0.6185 I-0.1494 J0.0499
N14995 X2.3408 Y0.6211 I-0.0063 J-0.0053
N15000 X2.3302 Y0.6138 I-0.0023 J-0.0079 F5.
N15005 G1 X2.3299 Y0.6025 F7.
N15010 X2.3292 Y0.5913
N15015 X2.3253 Y0.5688
N15020 X2.3228 Y0.5576
N15025 X2.3164 Y0.5351
N15030 X2.3097 Y0.5126
N15035 X2.3064 Y0.5014
N15040 X2.3022 Y0.4901
N15045 X2.2925 Y0.4676
N15050 X2.2865 Y0.4564
N15055 X2.2795 Y0.4452
N15060 X2.2723 Y0.4339
N15065 X2.2528 Y0.4034
N15070 X2.2507 Y0.4002
N15075 X2.2415 Y0.3883
N15080 X2.2324 Y0.3777
N15085 X2.2303 Y0.3755
N15090 X2.2217 Y0.3665
N15095 X2.2078 Y0.3542
N15100 X2.1962 Y0.344
N15105 X2.1854 Y0.3346
N15110 X2.1549 Y0.3103
N15115 X2.1517 Y0.3082
N15120 X2.1404 Y0.3017
N15125 X2.1292 Y0.2959
N15130 X2.118 Y0.2904
N15135 X2.0843 Y0.2747
N15140 X2.073 Y0.2697
N15145 X2.0617 Y0.2653
N15150 X2.0506 Y0.2621
N15155 X2.0281 Y0.2563
N15160 X2.0056 Y0.2528
N15165 X1.9929 Y0.2508
N15170 G3 X1.9793 Y0.2454 I0.0067 J-0.0369 F5.
N15175 X1.9849 Y0.1794 I0.0203 J-0.0315 F7.
N15180 G1 X2.6294 Y-0.0942
N15185 G3 X2.6622 Y-0.0926 I0.0147 J0.0345
N15190 X2.6734 Y-0.0831 I-0.0181 J0.0328 F5.
N15195 G1 X2.6817 Y-0.0719 F7.
N15200 X2.6896 Y-0.0606
N15205 X2.7022 Y-0.0419
N15210 X2.7045 Y-0.0382
N15215 X2.7083 Y-0.032
N15220 X2.7112 Y-0.0267
N15225 X2.7129 Y-0.021
N15230 X2.7144 Y-0.0152
N15235 X2.7156 Y-0.0093
N15240 X2.7165 Y-0.0034
N15245 X2.7172 Y0.0026
N15250 X2.7177 Y0.0086
N15255 X2.7179 Y0.0146
N15260 Y0.0206
N15265 X2.7177 Y0.0266
N15270 X2.7173 Y0.0326
N15275 X2.7167 Y0.0385
N15280 X2.7159 Y0.0445
N15285 X2.715 Y0.0504
N15290 X2.7138 Y0.0563
N15295 X2.7125 Y0.0622
N15300 X2.711 Y0.068
N15305 X2.7094 Y0.0737
N15310 X2.7076 Y0.0795
N15315 X2.7057 Y0.0852
N15320 X2.7036 Y0.0908
N15325 X2.7015 Y0.0964
N15330 X2.6991 Y0.1019
N15335 X2.6967 Y0.1074
N15340 X2.6941 Y0.1128
N15345 X2.6914 Y0.1182
N15350 X2.6886 Y0.1235
N15355 X2.6857 Y0.1287
N15360 X2.6827 Y0.1339
N15365 X2.6796 Y0.139
N15370 X2.6764 Y0.1441
N15375 X2.6731 Y0.1491
N15380 X2.6697 Y0.1541
N15385 X2.6662 Y0.1589
N15390 X2.6626 Y0.1638
N15395 X2.6589 Y0.1685
N15400 X2.6552 Y0.1732
N15405 X2.6514 Y0.1778
N15410 X2.6475 Y0.1824
N15415 X2.6406 Y0.1918
N15420 X2.6349 Y0.202
N15425 X2.6307 Y0.2129
N15430 X2.628 Y0.2243
N15435 X2.6268 Y0.2359
N15440 X2.6272 Y0.2476
N15445 X2.6291 Y0.2591
N15450 X2.6326 Y0.2702
N15455 X2.6375 Y0.2808
N15460 X2.6437 Y0.2907
N15465 X2.6512 Y0.2996
N15470 X2.6858 Y0.331
N15475 X2.6942 Y0.3349
N15480 X2.7013 Y0.3382
N15485 X2.7086 Y0.3417
N15490 X2.7154 Y0.345
N15495 X2.7211 Y0.3479
N15500 X2.7265 Y0.3506
N15505 X2.7318 Y0.3533
N15510 X2.7371 Y0.3561
N15515 X2.7424 Y0.359
N15520 X2.7476 Y0.3619
N15525 X2.7529 Y0.3648
N15530 X2.7581 Y0.3678
N15535 X2.7632 Y0.3709
N15540 X2.7695 Y0.3747
N15545 X2.7813 Y0.3836
N15550 X2.7914 Y0.3943
N15555 X2.7996 Y0.4065
N15560 X2.8057 Y0.42
N15565 X2.8094 Y0.4342
N15570 X2.8106 Y0.4489
N15575 Y0.6228
N15580 G3 X2.8073 Y0.637 I-0.0375 J-0.0013 F5.
N15585 G1 X2.8054 Y0.6411 Z-0.4171
N15590 X2.8035 Y0.6452 Z-0.4163
N15595 X2.8017 Y0.6491 Z-0.4149
N15600 X2.8 Y0.6529 Z-0.4131
N15605 X2.7984 Y0.6564 Z-0.4107
N15610 X2.797 Y0.6596 Z-0.4079
N15615 X2.7956 Y0.6625 Z-0.4047
N15620 X2.7945 Y0.6651 Z-0.4012
N15625 X2.7935 Y0.6672 Z-0.3973
N15630 X2.7927 Y0.6689 Z-0.3931
N15635 X2.7922 Y0.6701 Z-0.3888
N15640 X2.7918 Y0.6709 Z-0.3844
N15645 X2.7917 Y0.6711 Z-0.3798
N15650 G0 Z0.2
N15655 X2.6577 Y-0.0352
N15660 Z-0.3424
N15665 G1 Z-0.3798 F5.
N15670 X2.658 Y-0.0353 Z-0.3844
N15675 X2.6588 Z-0.3888
N15680 X2.6601 Y-0.0354 Z-0.3931
N15685 X2.662 Y-0.0356 Z-0.3973
N15690 X2.6643 Y-0.0358 Z-0.4012
N15695 X2.6671 Y-0.036 Z-0.4047
N15700 X2.6703 Y-0.0363 Z-0.4079
N15705 X2.6738 Y-0.0366 Z-0.4107
N15710 X2.6777 Y-0.0369 Z-0.4131
N15715 X2.6818 Y-0.0373 Z-0.4149
N15720 X2.6861 Y-0.0376 Z-0.4163
N15725 X2.6905 Y-0.038 Z-0.4171
N15730 X2.6951 Y-0.0384 Z-0.4173
N15735 G3 X2.7083 Y-0.032 I0.0012 J0.0144
N15740 G1 X2.7114 Y-0.0269 F7.
N15745 X2.7306 Y0.0068
N15750 X2.7364 Y0.018
N15755 X2.7419 Y0.0293
N15760 X2.7473 Y0.0405
N15765 X2.7522 Y0.0518
N15770 X2.7616 Y0.0742
N15775 X2.7661 Y0.0855
N15780 X2.774 Y0.108
N15785 X2.7779 Y0.1192
N15790 X2.7877 Y0.1529
N15795 X2.7905 Y0.1642
N15800 X2.7956 Y0.1866
N15805 X2.798 Y0.1979
N15810 X2.8033 Y0.2289
N15815 X2.8037 Y0.2316
N15820 X2.8076 Y0.2653
N15825 X2.8085 Y0.2766
N15830 X2.8098 Y0.299
N15835 X2.8103 Y0.3103
N15840 X2.8106 Y0.344
N15845 Y0.4489
N15850 G3 X2.8073 Y0.4632 I-0.0375 J-0.0013 F5.
N15855 X2.7616 Y0.4833 I-0.0341 J-0.0156 F7.
N15860 G1 X1.97 Y0.2263
N15865 G2 X1.9284 Y0.2394 I-0.0116 J0.0357
N15870 G1 X1.9282 Y0.2397
N15875 G3 X1.9157 Y0.2468 I-0.0151 J-0.0119 F5.
N15880 G1 X1.9045 Y0.248 F7.
N15885 X1.8933 Y0.2493
N15890 X1.8708 Y0.2523
N15895 X1.8596 Y0.2541
N15900 X1.8371 Y0.2584
N15905 X1.8259 Y0.2617
N15910 X1.8034 Y0.2696
N15915 X1.7922 Y0.2744
N15920 X1.7697 Y0.2844
N15925 X1.7585 Y0.2897
N15930 X1.736 Y0.3005
N15935 X1.7247 Y0.3058
N15940 X1.7191 Y0.307
N15945 X1.7135 Y0.3075
N15950 X0.8597
N15955 X0.8484 Y0.3073
N15960 X0.8428 Y0.3063
N15965 X0.8372 Y0.3044
N15970 X0.8328 Y0.3021
N15975 X0.8284 Y0.299
N15980 X0.826 Y0.2969
N15985 X0.8177 Y0.2878
N15990 X0.8076 Y0.2766
N15995 X0.7973 Y0.2653
N16000 X0.7923 Y0.2604
N16005 X0.781 Y0.2501
N16010 X0.7723 Y0.2428
N16015 G3 X0.7636 Y0.2311 I0.0251 J-0.0278 F5.
N16020 G1 X0.7617 Y0.227 Z-0.4171
N16025 X0.7598 Y0.223 Z-0.4163
N16030 X0.7579 Y0.2191 Z-0.4149
N16035 X0.7561 Y0.2154 Z-0.4131
N16040 X0.7545 Y0.2119 Z-0.4107
N16045 X0.7529 Y0.2086 Z-0.4079
N16050 X0.7516 Y0.2057 Z-0.4047
N16055 X0.7504 Y0.2032 Z-0.4012
N16060 X0.7494 Y0.2011 Z-0.3973
N16065 X0.7486 Y0.1994 Z-0.3931
N16070 X0.748 Y0.1982 Z-0.3888
N16075 X0.7476 Y0.1975 Z-0.3844
N16080 X0.7475 Y0.1972 Z-0.3798
N16085 G0 Z0.2
N16090 X0.706 Y1.1238
N16095 Z-0.3424
N16100 G1 Z-0.3798 F5.
N16105 Y1.1235 Z-0.3844
N16110 X0.7062 Y1.1227 Z-0.3888
N16115 X0.7064 Y1.1214 Z-0.3931
N16120 X0.7068 Y1.1195 Z-0.3973
N16125 X0.7072 Y1.1172 Z-0.4012
N16130 X0.7077 Y1.1145 Z-0.4047
N16135 X0.7083 Y1.1114 Z-0.4079
N16140 X0.709 Y1.1079 Z-0.4107
N16145 X0.7097 Y1.104 Z-0.4131
N16150 X0.7105 Y1.1 Z-0.4149
N16155 X0.7113 Y1.0957 Z-0.4163
N16160 X0.7121 Y1.0914 Z-0.4171
N16165 X0.7129 Y1.0869 Z-0.4173
N16170 G3 X0.721 Y1.0746 I0.0189 J0.0036
N16175 G1 X0.7388 Y1.0634 F7.
N16180 X0.7473 Y1.0574
N16185 X0.7538 Y1.0521
N16190 X0.781 Y1.0288
N16195 X0.7929 Y1.0184
N16200 X0.8053 Y1.0072
N16205 X0.8147 Y0.9974
N16210 X0.8161 Y0.9959
N16215 X0.826 Y0.9847
N16220 X0.8288 Y0.982
N16225 X0.8316 Y0.9797
N16230 X0.8372 Y0.9764
N16235 X0.8413 Y0.9746
N16240 X0.8454 Y0.9734
N16245 X0.8484 Y0.9729
N16250 X0.8597 Y0.9725
N16255 X1.7135
N16260 X1.7176 Y0.9728
N16265 X1.7218 Y0.9734
N16270 X1.7247 Y0.9742
N16275 X1.7304 Y0.9765
N16280 X1.736 Y0.9796
N16285 X1.7472 Y0.985
N16290 X1.7682 Y0.9949
N16295 G3 X1.7797 Y1.004 I-0.0171 J0.0334 F5.
N16300 G1 X1.7826 Y1.0075 Z-0.4171
N16305 X1.7855 Y1.0109 Z-0.4163
N16310 X1.7883 Y1.0142 Z-0.4149
N16315 X1.7909 Y1.0173 Z-0.4131
N16320 X1.7935 Y1.0203 Z-0.4107
N16325 X1.7958 Y1.023 Z-0.4079
N16330 X1.7978 Y1.0254 Z-0.4047
N16335 X1.7996 Y1.0276 Z-0.4012
N16340 X1.8012 Y1.0293 Z-0.3973
N16345 X1.8024 Y1.0308 Z-0.3931
N16350 X1.8032 Y1.0318 Z-0.3888
N16355 X1.8038 Y1.0324 Z-0.3844
N16360 X1.8039 Y1.0326 Z-0.3798
N16365 G0 Z0.6
(2D CONTOUR3)
N16375 M8
N16380 G0 X0.1417 Y1.1777
N16385 Z0.6
N16390 Z0.2
N16395 G1 Z0.0394 F5.
N16400 Z-0.4 F1.
N16405 X0.1419 Y1.1774 Z-0.4045
N16410 X0.1422 Y1.1767 Z-0.409
N16415 X0.1428 Y1.1755 Z-0.4133
N16420 X0.1436 Y1.1738 Z-0.4174
N16425 X0.1446 Y1.1717 Z-0.4213
N16430 X0.1458 Y1.1691 Z-0.4249
N16435 X0.1471 Y1.1662 Z-0.4281
N16440 X0.1487 Y1.163 Z-0.4309
N16445 X0.1503 Y1.1595 Z-0.4332
N16450 X0.1521 Y1.1558 Z-0.4351
N16455 X0.1539 Y1.1519 Z-0.4364
N16460 X0.1558 Y1.1479 Z-0.4372
N16465 X0.1578 Y1.1438 Z-0.4375
N16470 X0.1738 Y1.1099 F5.
N16475 G3 X0.2237 Y1.092 I0.0339 J0.016
N16480 G2 X0.3039 Y1.11 I0.0802 J-0.1695 F7.
N16485 G1 X0.5711
N16490 G2 X0.6513 Y1.092 I0. J-0.1875
N16495 X0.8278 Y0.9525 I-0.2138 J-0.452
N16500 G1 X1.7302
N16505 G2 X2.2608 Y0.83 I0.2073 J-0.3125
N16510 X2.3125 Y0.64 I-0.3233 J-0.19
N16515 X1.7302 Y0.3275 I-0.375 J0.
N16520 G1 X0.8278
N16525 G2 X0.0472 Y0.9525 I-0.3903 J0.3125
N16530 X0.2237 Y1.092 I0.3903 J-0.3125
N16535 X0.3039 Y1.11 I0.0802 J-0.1695
N16540 G1 X0.5711
N16545 G2 X0.6513 Y1.092 I0. J-0.1875
N16550 X0.8278 Y0.9525 I-0.2138 J-0.452
N16555 G1 X1.7302
N16560 G2 X2.2608 Y0.83 I0.2073 J-0.3125
N16565 X2.3125 Y0.64 I-0.3233 J-0.19
N16570 X1.7302 Y0.3275 I-0.375 J0.
N16575 G1 X0.8278
N16580 G2 X0.0472 Y0.9525 I-0.3903 J0.3125
N16585 X0.2237 Y1.092 I0.3903 J-0.3125
N16590 G3 X0.2416 Y1.1419 I-0.016 J0.0339 F5.
N16595 G1 X0.2256 Y1.1758
N16600 X0.2236 Y1.1799 Z-0.4372
N16605 X0.2217 Y1.1839 Z-0.4364
N16610 X0.2199 Y1.1879 Z-0.4351
N16615 X0.2181 Y1.1916 Z-0.4332
N16620 X0.2165 Y1.1951 Z-0.4309
N16625 X0.2149 Y1.1983 Z-0.4281
N16630 X0.2136 Y1.2012 Z-0.4249
N16635 X0.2124 Y1.2037 Z-0.4213
N16640 X0.2114 Y1.2058 Z-0.4174
N16645 X0.2106 Y1.2075 Z-0.4133
N16650 X0.21 Y1.2087 Z-0.409
N16655 X0.2097 Y1.2095 Z-0.4045
N16660 X0.2095 Y1.2097 Z-0.4
N16665 G0 Z0.6
(FACE4)
N16675 M8
N16680 G0 X2.3152 Y0.4422
N16685 Z0.6
N16690 Z0.2
N16695 G1 Z-0.15 F5.
N16700 G18 G3 X2.2777 Z-0.1875 I-0.0375 K0.
N16705 G1 X2.1246
N16710 X0.1253 F7.
N16715 X0.125
N16720 G17 G2 Y0.7408 I0. J0.1493
N16725 G1 X2.125
N16730 G18 G2 X2.1625 Z-0.15 I0. K0.0375 F5.
N16735 G0 Z0.6
N16740 G17
N16745 M9
N16750 G53 G0 Z0.
N16755 M30
%
