%
(STEPPER_CAM)
(2MM END MILL 2000 RPM 4 MINUTES)
(T1  D=0.0787 CR=0. - ZMIN=-0.375 - FLAT END MILL)
N10 G90 G94 G17 G91.1
N15 G20
N20 G53 G0 Z0.
(2D CONTOUR2)
N25 M9
N30 T1 M6
N35 S2000 M3
N40 G54
N45 M9
N55 G0 X0.0701 Y-0.1193
N60 G43 Z0.6 H1
N65 G0 Z0.2
N70 G1 Z0.1294 F20.
N75 Z-0.0821 F1.
N80 G18 G2 X0.078 Z-0.09 I0.0079 K0.
N85 G1 X0.0859 F20.
N90 G17 G3 X0.0937 Y-0.1114 I0. J0.0079
N95 G1 Y-0.0606
N100 X0.062 Y-0.0602
N105 G3 X0.0111 Y-0.1114 I0.0003 J-0.0512
N110 X0.0622 Y-0.1626 I0.0512 J0.
N115 G1 X0.0937
N120 Y-0.1114
N125 G2 X0.0977 Y-0.1055 I0.0064 J0.
N130 G3 X0.1016 Y-0.0996 I-0.0025 J0.0059
N135 G1 Y-0.0528
N140 X0.062 Y-0.0524
N145 G3 X0.0622 Y-0.1705 I0.0002 J-0.0591
N150 G1 X0.1016
N155 Y-0.0996
N160 G3 X0.0937 Y-0.0917 I-0.0079 J0.
N165 G1 X0.0859
N170 G18 G3 X0.078 Z-0.0821 I0. K0.0079
N175 G0 Z0.2
N180 X0.0701 Y-0.1193
N185 G1 Z0.0394 F20.
N190 Z-0.1721 F1.
N195 G2 X0.078 Z-0.18 I0.0079 K0.
N200 G1 X0.0859 F20.
N205 G17 G3 X0.0937 Y-0.1114 I0. J0.0079
N210 G1 Y-0.0606
N215 X0.062 Y-0.0602
N220 G3 X0.0111 Y-0.1114 I0.0003 J-0.0512
N225 X0.0622 Y-0.1626 I0.0512 J0.
N230 G1 X0.0937
N235 Y-0.1114
N240 G2 X0.0977 Y-0.1055 I0.0064 J0.
N245 G3 X0.1016 Y-0.0996 I-0.0025 J0.0059
N250 G1 Y-0.0528
N255 X0.062 Y-0.0524
N260 G3 X0.0622 Y-0.1705 I0.0002 J-0.0591
N265 G1 X0.1016
N270 Y-0.0996
N275 G3 X0.0937 Y-0.0917 I-0.0079 J0.
N280 G1 X0.0859
N285 G18 G3 X0.078 Z-0.1721 I0. K0.0079
N290 G0 Z0.2
N295 X0.0701 Y-0.1193
N300 G1 Z-0.0506 F20.
N305 Z-0.2621 F1.
N310 G2 X0.078 Z-0.27 I0.0079 K0.
N315 G1 X0.0859 F20.
N320 G17 G3 X0.0937 Y-0.1114 I0. J0.0079
N325 G1 Y-0.0606
N330 X0.062 Y-0.0602
N335 G3 X0.0111 Y-0.1114 I0.0003 J-0.0512
N340 X0.0622 Y-0.1626 I0.0512 J0.
N345 G1 X0.0937
N350 Y-0.1114
N355 G2 X0.0977 Y-0.1055 I0.0064 J0.
N360 G3 X0.1016 Y-0.0996 I-0.0025 J0.0059
N365 G1 Y-0.0528
N370 X0.062 Y-0.0524
N375 G3 X0.0622 Y-0.1705 I0.0002 J-0.0591
N380 G1 X0.1016
N385 Y-0.0996
N390 G3 X0.0937 Y-0.0917 I-0.0079 J0.
N395 G1 X0.0859
N400 G18 G3 X0.078 Z-0.2621 I0. K0.0079
N405 G0 Z0.2
N410 X0.0701 Y-0.1193
N415 G1 Z-0.1406 F20.
N420 Z-0.3146 F1.
N425 G2 X0.078 Z-0.3225 I0.0079 K0.
N430 G1 X0.0859 F20.
N435 G17 G3 X0.0937 Y-0.1114 I0. J0.0079
N440 G1 Y-0.0606
N445 X0.062 Y-0.0602
N450 G3 X0.0111 Y-0.1114 I0.0003 J-0.0512
N455 X0.0622 Y-0.1626 I0.0512 J0.
N460 G1 X0.0937
N465 Y-0.1114
N470 G2 X0.0977 Y-0.1055 I0.0064 J0.
N475 G3 X0.1016 Y-0.0996 I-0.0025 J0.0059
N480 G1 Y-0.0528
N485 X0.062 Y-0.0524
N490 G3 X0.0622 Y-0.1705 I0.0002 J-0.0591
N495 G1 X0.1016
N500 Y-0.0996
N505 G3 X0.0937 Y-0.0917 I-0.0079 J0.
N510 G1 X0.0859
N515 G18 G3 X0.078 Z-0.3146 I0. K0.0079
N520 G0 Z0.2
N525 X0.0701 Y-0.1193
N530 G1 Z-0.1931 F20.
N535 Z-0.3671 F1.
N540 G2 X0.078 Z-0.375 I0.0079 K0.
N545 G1 X0.0859 F20.
N550 G17 G3 X0.0937 Y-0.1114 I0. J0.0079
N555 G1 Y-0.0606
N560 X0.062 Y-0.0602
N565 G3 X0.0111 Y-0.1114 I0.0003 J-0.0512
N570 X0.0622 Y-0.1626 I0.0512 J0.
N575 G1 X0.0937
N580 Y-0.1114
N585 G2 X0.0977 Y-0.1055 I0.0064 J0.
N590 G3 X0.1016 Y-0.0996 I-0.0025 J0.0059
N595 G1 Y-0.0528
N600 X0.062 Y-0.0524
N605 G3 X0.0622 Y-0.1705 I0.0002 J-0.0591
N610 G1 X0.1016
N615 Y-0.0996
N620 G3 X0.0937 Y-0.0917 I-0.0079 J0.
N625 G1 X0.0859
N630 G18 G3 X0.078 Z-0.3671 I0. K0.0079
N635 G0 Z0.2
N640 X0.0543 Y-0.5573
N645 G1 Z0.1294 F20.
N650 Z-0.0821 F1.
N655 Y-0.557 Z-0.0842
N660 Y-0.5562 Z-0.0861
N665 X0.0544 Y-0.555 Z-0.0877
N670 Y-0.5533 Z-0.0889
N675 X0.0545 Y-0.5514 Z-0.0897
N680 X0.0546 Y-0.5494 Z-0.09
N685 X0.0548 Y-0.5415 F20.
N690 G17 G3 X0.0472 Y-0.5334 I-0.0079 J0.0003
N695 G2 X-0.3493 Y-0.2059 I0.015 J0.422
N700 G1 X-0.4833 Y0.3775
N705 G2 X-0.4614 Y0.4287 I0.046 J0.0106
N710 G1 X-0.4439 Y0.439
N715 G2 X-0.4427 Y0.4397 I0.0241 J-0.0406
N720 G1 X-0.4251 Y0.4495
N725 G2 X-0.4239 Y0.4502 I0.0229 J-0.0413
N730 G1 X-0.4061 Y0.4594
N735 G2 X-0.4049 Y0.46 I0.0217 J-0.042
N740 G1 X-0.387 Y0.4686
N745 G2 X-0.3857 Y0.4692 I0.0205 J-0.0426
N750 G1 X-0.3676 Y0.4772
N755 G2 X-0.3664 Y0.4778 I0.0192 J-0.0432
N760 G1 X-0.3482 Y0.4852
N765 G2 X-0.3469 Y0.4857 I0.0179 J-0.0437
N770 G1 X-0.3286 Y0.4926
N775 G2 X-0.3273 Y0.4931 I0.0167 J-0.0442
N780 G1 X-0.309 Y0.4994
N785 G2 X-0.3077 Y0.4998 I0.0154 J-0.0447
N790 G1 X-0.2893 Y0.5056
N795 G2 X-0.2879 Y0.506 I0.0141 J-0.0451
N800 G1 X-0.2695 Y0.5111
N805 G2 X-0.2681 Y0.5115 I0.0127 J-0.0455
N810 G1 X-0.2497 Y0.5161
N815 G2 X-0.2483 Y0.5164 I0.0114 J-0.0459
N820 G1 X-0.2298 Y0.5204
N825 G2 X-0.2285 Y0.5207 I0.01 J-0.0462
N830 G1 X-0.21 Y0.5241
N835 G2 X-0.2086 Y0.5244 I0.0087 J-0.0464
N840 G1 X-0.1902 Y0.5272
N845 G2 X-0.1887 Y0.5274 I0.0073 J-0.0467
N850 G1 X-0.1704 Y0.5297
N855 G2 X-0.1689 Y0.5299 I0.0059 J-0.0469
N860 G1 X-0.1506 Y0.5316
N865 G2 X-0.1492 Y0.5317 I0.0044 J-0.047
N870 G1 X-0.131 Y0.5329
N875 G2 X-0.1295 Y0.533 I0.003 J-0.0471
N880 G1 X-0.1114 Y0.5335
N885 G2 X-0.1099 Y0.5336 I0.0015 J-0.0472
N890 G1 X-0.0919
N895 G2 X-0.0905 I0.0001 J-0.0472
N900 G1 X-0.0727 Y0.5331
N905 G2 X-0.0712 Y0.533 I-0.0013 J-0.0472
N910 G1 X-0.0535 Y0.532
N915 G2 X-0.0521 Y0.5319 I-0.0028 J-0.0472
N920 G1 X-0.0346 Y0.5303
N925 G2 X-0.0332 Y0.5301 I-0.0042 J-0.0471
N930 G1 X-0.0158 Y0.5281
N935 G2 X-0.0144 Y0.5279 I-0.0056 J-0.0469
N940 G1 X0.0027 Y0.5253
N945 G2 X0.0041 Y0.5251 I-0.007 J-0.0467
N950 G1 X0.021 Y0.522
N955 G2 X0.0224 Y0.5217 I-0.0084 J-0.0465
N960 G1 X0.0392 Y0.5182
N965 G2 X0.0405 Y0.5179 I-0.0098 J-0.0462
N970 G1 X0.057 Y0.5139
N975 G2 X0.0584 Y0.5135 I-0.0112 J-0.0459
N980 G1 X0.0746 Y0.509
N985 G2 X0.076 Y0.5087 I-0.0125 J-0.0456
N990 G1 X0.092 Y0.5037
N995 G2 X0.0933 Y0.5033 I-0.0139 J-0.0452
N1000 G1 X0.109 Y0.498
N1005 G2 X0.1104 Y0.4975 I-0.0152 J-0.0447
N1010 G1 X0.1258 Y0.4917
N1015 G2 X0.1271 Y0.4912 I-0.0165 J-0.0443
N1020 G1 X0.1423 Y0.485
N1025 G2 X0.1436 Y0.4845 I-0.0178 J-0.0437
N1030 G1 X0.1585 Y0.4779
N1035 G2 X0.1598 Y0.4773 I-0.0192 J-0.0432
N1040 G1 X0.1743 Y0.4703
N1045 G2 X0.1756 Y0.4697 I-0.0204 J-0.0426
N1050 G1 X0.1898 Y0.4623
N1055 G2 X0.1911 Y0.4616 I-0.0217 J-0.042
N1060 G1 X0.2049 Y0.4539
N1065 G2 X0.2062 Y0.4532 I-0.023 J-0.0413
N1070 G1 X0.2197 Y0.4451
N1075 G2 X0.2209 Y0.4443 I-0.0243 J-0.0405
N1080 G1 X0.2341 Y0.4359
N1085 G2 X0.2353 Y0.435 I-0.0255 J-0.0398
N1090 G1 X0.2481 Y0.4263
N1095 G2 X0.2493 Y0.4254 I-0.0268 J-0.0389
N1100 G1 X0.2617 Y0.4163
N1105 G2 X0.2629 Y0.4154 I-0.028 J-0.0381
N1110 G1 X0.2748 Y0.406
N1115 G2 X0.276 Y0.4051 I-0.0292 J-0.0372
N1120 G1 X0.2875 Y0.3955
N1125 G2 X0.2887 Y0.3945 I-0.0303 J-0.0362
N1130 G1 X0.2998 Y0.3846
N1135 G2 X0.3009 Y0.3836 I-0.0314 J-0.0353
N1140 G1 X0.3117 Y0.3734
N1145 G2 X0.3127 Y0.3723 I-0.0325 J-0.0343
N1150 G1 X0.3231 Y0.3619
N1155 G2 X0.3241 Y0.3609 I-0.0335 J-0.0333
N1160 G1 X0.334 Y0.3502
N1165 G2 X0.335 Y0.3491 I-0.0345 J-0.0322
N1170 G1 X0.3445 Y0.3383
N1175 G2 X0.3454 Y0.3372 I-0.0355 J-0.0312
N1180 G1 X0.3546 Y0.3261
N1185 G2 X0.3555 Y0.325 I-0.0365 J-0.0301
N1190 G1 X0.3642 Y0.3137
N1195 G2 X0.365 Y0.3126 I-0.0374 J-0.0289
N1200 G1 X0.3733 Y0.3012
N1205 G2 X0.3742 Y0.3 I-0.0382 J-0.0278
N1210 G1 X0.382 Y0.2884
N1215 G2 X0.3828 Y0.2872 I-0.0391 J-0.0266
N1220 G1 X0.3903 Y0.2755
N1225 G2 X0.391 Y0.2743 I-0.0399 J-0.0254
N1230 G1 X0.3981 Y0.2625
N1235 G2 X0.3988 Y0.2612 I-0.0406 J-0.0241
N1240 G1 X0.4054 Y0.2493
N1245 G2 X0.4061 Y0.248 I-0.0413 J-0.0229
N1250 G1 X0.4122 Y0.236
N1255 G2 X0.4129 Y0.2347 I-0.042 J-0.0216
N1260 G1 X0.4186 Y0.2226
N1265 G2 X0.422 Y0.2127 I-0.0427 J-0.0203
N1270 G1 X0.4742 Y-0.0186
N1275 G2 X0.0472 Y-0.5334 I-0.4119 J-0.0928
N1280 X0.0415 Y-0.5292 I0.0002 J0.0064
N1285 G3 X0.0357 Y-0.5249 I-0.0061 J-0.0023
N1290 G2 X-0.3416 Y-0.2042 I0.0265 J0.4135
N1295 G1 X-0.4756 Y0.3793
N1300 G2 X-0.4574 Y0.4219 I0.0384 J0.0088
N1305 G1 X-0.4399 Y0.4323
N1310 G2 X-0.4389 Y0.4328 I0.0201 J-0.0338
N1315 G1 X-0.4213 Y0.4426
N1320 G2 X-0.4203 Y0.4432 I0.0191 J-0.0344
N1325 G1 X-0.4025 Y0.4524
N1330 G2 X-0.4015 Y0.4529 I0.0181 J-0.035
N1335 G1 X-0.3835 Y0.4615
N1340 G2 X-0.3825 Y0.462 I0.0171 J-0.0355
N1345 G1 X-0.3644 Y0.47
N1350 G2 X-0.3634 Y0.4705 I0.016 J-0.036
N1355 G1 X-0.3452 Y0.478
N1360 G2 X-0.3441 Y0.4784 I0.015 J-0.0364
N1365 G1 X-0.3259 Y0.4853
N1370 G2 X-0.3248 Y0.4856 I0.0139 J-0.0368
N1375 G1 X-0.3064 Y0.492
N1380 G2 X-0.3053 Y0.4923 I0.0128 J-0.0372
N1385 G1 X-0.2869 Y0.4981
N1390 G2 X-0.2858 Y0.4984 I0.0117 J-0.0376
N1395 G1 X-0.2674 Y0.5036
N1400 G2 X-0.2662 Y0.5038 I0.0106 J-0.0379
N1405 G1 X-0.2478 Y0.5084
N1410 G2 X-0.2466 Y0.5087 I0.0095 J-0.0382
N1415 G1 X-0.2281 Y0.5127
N1420 G2 X-0.227 Y0.5129 I0.0084 J-0.0385
N1425 G1 X-0.2085 Y0.5164
N1430 G2 X-0.2074 Y0.5166 I0.0072 J-0.0387
N1435 G1 X-0.1889 Y0.5195
N1440 G2 X-0.1878 Y0.5196 I0.0061 J-0.0389
N1445 G1 X-0.1694 Y0.5219
N1450 G2 X-0.1682 Y0.522 I0.0049 J-0.0391
N1455 G1 X-0.1499 Y0.5238
N1460 G2 X-0.1487 Y0.5239 I0.0037 J-0.0392
N1465 G1 X-0.1305 Y0.525
N1470 G2 X-0.1292 Y0.5251 I0.0025 J-0.0393
N1475 G1 X-0.1111 Y0.5257
N1480 G2 X-0.1099 I0.0013 J-0.0393
N1485 G1 X-0.0919
N1490 G2 X-0.0907 I0.0001 J-0.0394
N1495 G1 X-0.0729 Y0.5252
N1500 G2 X-0.0717 Y0.5251 I-0.0011 J-0.0394
N1505 G1 X-0.054 Y0.5241
N1510 G2 X-0.0528 Y0.524 I-0.0023 J-0.0393
N1515 G1 X-0.0353 Y0.5225
N1520 G2 X-0.0341 Y0.5223 I-0.0035 J-0.0392
N1525 G1 X-0.0168 Y0.5202
N1530 G2 X-0.0156 Y0.5201 I-0.0047 J-0.0391
N1535 G1 X0.0015 Y0.5175
N1540 G2 X0.0027 Y0.5173 I-0.0058 J-0.0389
N1545 G1 X0.0196 Y0.5143
N1550 G2 X0.0208 Y0.514 I-0.007 J-0.0387
N1555 G1 X0.0375 Y0.5105
N1560 G2 X0.0387 Y0.5102 I-0.0082 J-0.0385
N1565 G1 X0.0552 Y0.5062
N1570 G2 X0.0563 Y0.5059 I-0.0093 J-0.0383
N1575 G1 X0.0726 Y0.5015
N1580 G2 X0.0737 Y0.5011 I-0.0104 J-0.038
N1585 G1 X0.0897 Y0.4962
N1590 G2 X0.0908 Y0.4959 I-0.0116 J-0.0376
N1595 G1 X0.1065 Y0.4905
N1600 G2 X0.1076 Y0.4901 I-0.0127 J-0.0373
N1605 G1 X0.1231 Y0.4843
N1610 G2 X0.1242 Y0.4839 I-0.0138 J-0.0369
N1615 G1 X0.1393 Y0.4777
N1620 G2 X0.1404 Y0.4773 I-0.0149 J-0.0365
N1625 G1 X0.1553 Y0.4707
N1630 G2 X0.1563 Y0.4702 I-0.016 J-0.036
N1635 G1 X0.1709 Y0.4632
N1640 G2 X0.172 Y0.4627 I-0.017 J-0.0355
N1645 G1 X0.1862 Y0.4553
N1650 G2 X0.1872 Y0.4547 I-0.0181 J-0.035
N1655 G1 X0.2011 Y0.447
N1660 G2 X0.2021 Y0.4464 I-0.0192 J-0.0344
N1665 G1 X0.2157 Y0.4383
N1670 G2 X0.2167 Y0.4377 I-0.0202 J-0.0338
N1675 G1 X0.2298 Y0.4292
N1680 G2 X0.2309 Y0.4286 I-0.0213 J-0.0331
N1685 G1 X0.2436 Y0.4198
N1690 G2 X0.2446 Y0.4191 I-0.0223 J-0.0324
N1695 G1 X0.257 Y0.41
N1700 G2 X0.258 Y0.4092 I-0.0233 J-0.0317
N1705 G1 X0.27 Y0.3999
N1710 G2 X0.2709 Y0.3991 I-0.0243 J-0.031
N1715 G1 X0.2825 Y0.3894
N1720 G2 X0.2834 Y0.3886 I-0.0252 J-0.0302
N1725 G1 X0.2946 Y0.3787
N1730 G2 X0.2955 Y0.3778 I-0.0262 J-0.0294
N1735 G1 X0.3062 Y0.3677
N1740 G2 X0.3071 Y0.3668 I-0.0271 J-0.0286
N1745 G1 X0.3175 Y0.3564
N1750 G2 X0.3183 Y0.3555 I-0.0279 J-0.0277
N1755 G1 X0.3282 Y0.3448
N1760 G2 X0.3291 Y0.3439 I-0.0288 J-0.0269
N1765 G1 X0.3386 Y0.3331
N1770 G2 X0.3394 Y0.3322 I-0.0296 J-0.026
N1775 G1 X0.3485 Y0.3211
N1780 G2 X0.3492 Y0.3202 I-0.0304 J-0.025
N1785 G1 X0.3579 Y0.3089
N1790 G2 X0.3587 Y0.3079 I-0.0311 J-0.0241
N1795 G1 X0.367 Y0.2965
N1800 G2 X0.3676 Y0.2956 I-0.0319 J-0.0231
N1805 G1 X0.3755 Y0.284
N1810 G2 X0.3762 Y0.283 I-0.0325 J-0.0222
N1815 G1 X0.3836 Y0.2713
N1820 G2 X0.3843 Y0.2703 I-0.0332 J-0.0211
N1825 G1 X0.3913 Y0.2584
N1830 G2 X0.3919 Y0.2574 I-0.0338 J-0.0201
N1835 G1 X0.3985 Y0.2455
N1840 G2 X0.3991 Y0.2444 I-0.0344 J-0.0191
N1845 G1 X0.4052 Y0.2324
N1850 G2 X0.4058 Y0.2313 I-0.035 J-0.018
N1855 G1 X0.4115 Y0.2192
N1860 G2 X0.4144 Y0.211 I-0.0356 J-0.0169
N1865 G1 X0.4665 Y-0.0203
N1870 G2 X0.0357 Y-0.5249 I-0.4042 J-0.0911
N1875 G3 X0.0274 Y-0.5323 I-0.0005 J-0.0079
N1880 G1 X0.0269 Y-0.5401
N1885 X0.0267 Y-0.5422 Z-0.0897
N1890 X0.0266 Y-0.5441 Z-0.0889
N1895 X0.0265 Y-0.5457 Z-0.0877
N1900 X0.0264 Y-0.5469 Z-0.0861
N1905 Y-0.5477 Z-0.0842
N1910 Y-0.548 Z-0.0821
N1915 G0 Z0.2
N1920 X0.0543 Y-0.5573
N1925 G1 Z0.0394 F20.
N1930 Z-0.1721 F1.
N1935 Y-0.557 Z-0.1742
N1940 Y-0.5562 Z-0.1761
N1945 X0.0544 Y-0.555 Z-0.1777
N1950 Y-0.5533 Z-0.1789
N1955 X0.0545 Y-0.5514 Z-0.1797
N1960 X0.0546 Y-0.5494 Z-0.18
N1965 X0.0548 Y-0.5415 F20.
N1970 G3 X0.0472 Y-0.5334 I-0.0079 J0.0003
N1975 G2 X-0.3493 Y-0.2059 I0.015 J0.422
N1980 G1 X-0.4833 Y0.3775
N1985 G2 X-0.4614 Y0.4287 I0.046 J0.0106
N1990 G1 X-0.4439 Y0.439
N1995 G2 X-0.4427 Y0.4397 I0.0241 J-0.0406
N2000 G1 X-0.4251 Y0.4495
N2005 G2 X-0.4239 Y0.4502 I0.0229 J-0.0413
N2010 G1 X-0.4061 Y0.4594
N2015 G2 X-0.4049 Y0.46 I0.0217 J-0.042
N2020 G1 X-0.387 Y0.4686
N2025 G2 X-0.3857 Y0.4692 I0.0205 J-0.0426
N2030 G1 X-0.3676 Y0.4772
N2035 G2 X-0.3664 Y0.4778 I0.0192 J-0.0432
N2040 G1 X-0.3482 Y0.4852
N2045 G2 X-0.3469 Y0.4857 I0.0179 J-0.0437
N2050 G1 X-0.3286 Y0.4926
N2055 G2 X-0.3273 Y0.4931 I0.0167 J-0.0442
N2060 G1 X-0.309 Y0.4994
N2065 G2 X-0.3077 Y0.4998 I0.0154 J-0.0447
N2070 G1 X-0.2893 Y0.5056
N2075 G2 X-0.2879 Y0.506 I0.0141 J-0.0451
N2080 G1 X-0.2695 Y0.5111
N2085 G2 X-0.2681 Y0.5115 I0.0127 J-0.0455
N2090 G1 X-0.2497 Y0.5161
N2095 G2 X-0.2483 Y0.5164 I0.0114 J-0.0459
N2100 G1 X-0.2298 Y0.5204
N2105 G2 X-0.2285 Y0.5207 I0.01 J-0.0462
N2110 G1 X-0.21 Y0.5241
N2115 G2 X-0.2086 Y0.5244 I0.0087 J-0.0464
N2120 G1 X-0.1902 Y0.5272
N2125 G2 X-0.1887 Y0.5274 I0.0073 J-0.0467
N2130 G1 X-0.1704 Y0.5297
N2135 G2 X-0.1689 Y0.5299 I0.0059 J-0.0469
N2140 G1 X-0.1506 Y0.5316
N2145 G2 X-0.1492 Y0.5317 I0.0044 J-0.047
N2150 G1 X-0.131 Y0.5329
N2155 G2 X-0.1295 Y0.533 I0.003 J-0.0471
N2160 G1 X-0.1114 Y0.5335
N2165 G2 X-0.1099 Y0.5336 I0.0015 J-0.0472
N2170 G1 X-0.0919
N2175 G2 X-0.0905 I0.0001 J-0.0472
N2180 G1 X-0.0727 Y0.5331
N2185 G2 X-0.0712 Y0.533 I-0.0013 J-0.0472
N2190 G1 X-0.0535 Y0.532
N2195 G2 X-0.0521 Y0.5319 I-0.0028 J-0.0472
N2200 G1 X-0.0346 Y0.5303
N2205 G2 X-0.0332 Y0.5301 I-0.0042 J-0.0471
N2210 G1 X-0.0158 Y0.5281
N2215 G2 X-0.0144 Y0.5279 I-0.0056 J-0.0469
N2220 G1 X0.0027 Y0.5253
N2225 G2 X0.0041 Y0.5251 I-0.007 J-0.0467
N2230 G1 X0.021 Y0.522
N2235 G2 X0.0224 Y0.5217 I-0.0084 J-0.0465
N2240 G1 X0.0392 Y0.5182
N2245 G2 X0.0405 Y0.5179 I-0.0098 J-0.0462
N2250 G1 X0.057 Y0.5139
N2255 G2 X0.0584 Y0.5135 I-0.0112 J-0.0459
N2260 G1 X0.0746 Y0.509
N2265 G2 X0.076 Y0.5087 I-0.0125 J-0.0456
N2270 G1 X0.092 Y0.5037
N2275 G2 X0.0933 Y0.5033 I-0.0139 J-0.0452
N2280 G1 X0.109 Y0.498
N2285 G2 X0.1104 Y0.4975 I-0.0152 J-0.0447
N2290 G1 X0.1258 Y0.4917
N2295 G2 X0.1271 Y0.4912 I-0.0165 J-0.0443
N2300 G1 X0.1423 Y0.485
N2305 G2 X0.1436 Y0.4845 I-0.0178 J-0.0437
N2310 G1 X0.1585 Y0.4779
N2315 G2 X0.1598 Y0.4773 I-0.0192 J-0.0432
N2320 G1 X0.1743 Y0.4703
N2325 G2 X0.1756 Y0.4697 I-0.0204 J-0.0426
N2330 G1 X0.1898 Y0.4623
N2335 G2 X0.1911 Y0.4616 I-0.0217 J-0.042
N2340 G1 X0.2049 Y0.4539
N2345 G2 X0.2062 Y0.4532 I-0.023 J-0.0413
N2350 G1 X0.2197 Y0.4451
N2355 G2 X0.2209 Y0.4443 I-0.0243 J-0.0405
N2360 G1 X0.2341 Y0.4359
N2365 G2 X0.2353 Y0.435 I-0.0255 J-0.0398
N2370 G1 X0.2481 Y0.4263
N2375 G2 X0.2493 Y0.4254 I-0.0268 J-0.0389
N2380 G1 X0.2617 Y0.4163
N2385 G2 X0.2629 Y0.4154 I-0.028 J-0.0381
N2390 G1 X0.2748 Y0.406
N2395 G2 X0.276 Y0.4051 I-0.0292 J-0.0372
N2400 G1 X0.2875 Y0.3955
N2405 G2 X0.2887 Y0.3945 I-0.0303 J-0.0362
N2410 G1 X0.2998 Y0.3846
N2415 G2 X0.3009 Y0.3836 I-0.0314 J-0.0353
N2420 G1 X0.3117 Y0.3734
N2425 G2 X0.3127 Y0.3723 I-0.0325 J-0.0343
N2430 G1 X0.3231 Y0.3619
N2435 G2 X0.3241 Y0.3609 I-0.0335 J-0.0333
N2440 G1 X0.334 Y0.3502
N2445 G2 X0.335 Y0.3491 I-0.0345 J-0.0322
N2450 G1 X0.3445 Y0.3383
N2455 G2 X0.3454 Y0.3372 I-0.0355 J-0.0312
N2460 G1 X0.3546 Y0.3261
N2465 G2 X0.3555 Y0.325 I-0.0365 J-0.0301
N2470 G1 X0.3642 Y0.3137
N2475 G2 X0.365 Y0.3126 I-0.0374 J-0.0289
N2480 G1 X0.3733 Y0.3012
N2485 G2 X0.3742 Y0.3 I-0.0382 J-0.0278
N2490 G1 X0.382 Y0.2884
N2495 G2 X0.3828 Y0.2872 I-0.0391 J-0.0266
N2500 G1 X0.3903 Y0.2755
N2505 G2 X0.391 Y0.2743 I-0.0399 J-0.0254
N2510 G1 X0.3981 Y0.2625
N2515 G2 X0.3988 Y0.2612 I-0.0406 J-0.0241
N2520 G1 X0.4054 Y0.2493
N2525 G2 X0.4061 Y0.248 I-0.0413 J-0.0229
N2530 G1 X0.4122 Y0.236
N2535 G2 X0.4129 Y0.2347 I-0.042 J-0.0216
N2540 G1 X0.4186 Y0.2226
N2545 G2 X0.422 Y0.2127 I-0.0427 J-0.0203
N2550 G1 X0.4742 Y-0.0186
N2555 G2 X0.0472 Y-0.5334 I-0.4119 J-0.0928
N2560 X0.0415 Y-0.5292 I0.0002 J0.0064
N2565 G3 X0.0357 Y-0.5249 I-0.0061 J-0.0023
N2570 G2 X-0.3416 Y-0.2042 I0.0265 J0.4135
N2575 G1 X-0.4756 Y0.3793
N2580 G2 X-0.4574 Y0.4219 I0.0384 J0.0088
N2585 G1 X-0.4399 Y0.4323
N2590 G2 X-0.4389 Y0.4328 I0.0201 J-0.0338
N2595 G1 X-0.4213 Y0.4426
N2600 G2 X-0.4203 Y0.4432 I0.0191 J-0.0344
N2605 G1 X-0.4025 Y0.4524
N2610 G2 X-0.4015 Y0.4529 I0.0181 J-0.035
N2615 G1 X-0.3835 Y0.4615
N2620 G2 X-0.3825 Y0.462 I0.0171 J-0.0355
N2625 G1 X-0.3644 Y0.47
N2630 G2 X-0.3634 Y0.4705 I0.016 J-0.036
N2635 G1 X-0.3452 Y0.478
N2640 G2 X-0.3441 Y0.4784 I0.015 J-0.0364
N2645 G1 X-0.3259 Y0.4853
N2650 G2 X-0.3248 Y0.4856 I0.0139 J-0.0368
N2655 G1 X-0.3064 Y0.492
N2660 G2 X-0.3053 Y0.4923 I0.0128 J-0.0372
N2665 G1 X-0.2869 Y0.4981
N2670 G2 X-0.2858 Y0.4984 I0.0117 J-0.0376
N2675 G1 X-0.2674 Y0.5036
N2680 G2 X-0.2662 Y0.5038 I0.0106 J-0.0379
N2685 G1 X-0.2478 Y0.5084
N2690 G2 X-0.2466 Y0.5087 I0.0095 J-0.0382
N2695 G1 X-0.2281 Y0.5127
N2700 G2 X-0.227 Y0.5129 I0.0084 J-0.0385
N2705 G1 X-0.2085 Y0.5164
N2710 G2 X-0.2074 Y0.5166 I0.0072 J-0.0387
N2715 G1 X-0.1889 Y0.5195
N2720 G2 X-0.1878 Y0.5196 I0.0061 J-0.0389
N2725 G1 X-0.1694 Y0.5219
N2730 G2 X-0.1682 Y0.522 I0.0049 J-0.0391
N2735 G1 X-0.1499 Y0.5238
N2740 G2 X-0.1487 Y0.5239 I0.0037 J-0.0392
N2745 G1 X-0.1305 Y0.525
N2750 G2 X-0.1292 Y0.5251 I0.0025 J-0.0393
N2755 G1 X-0.1111 Y0.5257
N2760 G2 X-0.1099 I0.0013 J-0.0393
N2765 G1 X-0.0919
N2770 G2 X-0.0907 I0.0001 J-0.0394
N2775 G1 X-0.0729 Y0.5252
N2780 G2 X-0.0717 Y0.5251 I-0.0011 J-0.0394
N2785 G1 X-0.054 Y0.5241
N2790 G2 X-0.0528 Y0.524 I-0.0023 J-0.0393
N2795 G1 X-0.0353 Y0.5225
N2800 G2 X-0.0341 Y0.5223 I-0.0035 J-0.0392
N2805 G1 X-0.0168 Y0.5202
N2810 G2 X-0.0156 Y0.5201 I-0.0047 J-0.0391
N2815 G1 X0.0015 Y0.5175
N2820 G2 X0.0027 Y0.5173 I-0.0058 J-0.0389
N2825 G1 X0.0196 Y0.5143
N2830 G2 X0.0208 Y0.514 I-0.007 J-0.0387
N2835 G1 X0.0375 Y0.5105
N2840 G2 X0.0387 Y0.5102 I-0.0082 J-0.0385
N2845 G1 X0.0552 Y0.5062
N2850 G2 X0.0563 Y0.5059 I-0.0093 J-0.0383
N2855 G1 X0.0726 Y0.5015
N2860 G2 X0.0737 Y0.5011 I-0.0104 J-0.038
N2865 G1 X0.0897 Y0.4962
N2870 G2 X0.0908 Y0.4959 I-0.0116 J-0.0376
N2875 G1 X0.1065 Y0.4905
N2880 G2 X0.1076 Y0.4901 I-0.0127 J-0.0373
N2885 G1 X0.1231 Y0.4843
N2890 G2 X0.1242 Y0.4839 I-0.0138 J-0.0369
N2895 G1 X0.1393 Y0.4777
N2900 G2 X0.1404 Y0.4773 I-0.0149 J-0.0365
N2905 G1 X0.1553 Y0.4707
N2910 G2 X0.1563 Y0.4702 I-0.016 J-0.036
N2915 G1 X0.1709 Y0.4632
N2920 G2 X0.172 Y0.4627 I-0.017 J-0.0355
N2925 G1 X0.1862 Y0.4553
N2930 G2 X0.1872 Y0.4547 I-0.0181 J-0.035
N2935 G1 X0.2011 Y0.447
N2940 G2 X0.2021 Y0.4464 I-0.0192 J-0.0344
N2945 G1 X0.2157 Y0.4383
N2950 G2 X0.2167 Y0.4377 I-0.0202 J-0.0338
N2955 G1 X0.2298 Y0.4292
N2960 G2 X0.2309 Y0.4286 I-0.0213 J-0.0331
N2965 G1 X0.2436 Y0.4198
N2970 G2 X0.2446 Y0.4191 I-0.0223 J-0.0324
N2975 G1 X0.257 Y0.41
N2980 G2 X0.258 Y0.4092 I-0.0233 J-0.0317
N2985 G1 X0.27 Y0.3999
N2990 G2 X0.2709 Y0.3991 I-0.0243 J-0.031
N2995 G1 X0.2825 Y0.3894
N3000 G2 X0.2834 Y0.3886 I-0.0252 J-0.0302
N3005 G1 X0.2946 Y0.3787
N3010 G2 X0.2955 Y0.3778 I-0.0262 J-0.0294
N3015 G1 X0.3062 Y0.3677
N3020 G2 X0.3071 Y0.3668 I-0.0271 J-0.0286
N3025 G1 X0.3175 Y0.3564
N3030 G2 X0.3183 Y0.3555 I-0.0279 J-0.0277
N3035 G1 X0.3282 Y0.3448
N3040 G2 X0.3291 Y0.3439 I-0.0288 J-0.0269
N3045 G1 X0.3386 Y0.3331
N3050 G2 X0.3394 Y0.3322 I-0.0296 J-0.026
N3055 G1 X0.3485 Y0.3211
N3060 G2 X0.3492 Y0.3202 I-0.0304 J-0.025
N3065 G1 X0.3579 Y0.3089
N3070 G2 X0.3587 Y0.3079 I-0.0311 J-0.0241
N3075 G1 X0.367 Y0.2965
N3080 G2 X0.3676 Y0.2956 I-0.0319 J-0.0231
N3085 G1 X0.3755 Y0.284
N3090 G2 X0.3762 Y0.283 I-0.0325 J-0.0222
N3095 G1 X0.3836 Y0.2713
N3100 G2 X0.3843 Y0.2703 I-0.0332 J-0.0211
N3105 G1 X0.3913 Y0.2584
N3110 G2 X0.3919 Y0.2574 I-0.0338 J-0.0201
N3115 G1 X0.3985 Y0.2455
N3120 G2 X0.3991 Y0.2444 I-0.0344 J-0.0191
N3125 G1 X0.4052 Y0.2324
N3130 G2 X0.4058 Y0.2313 I-0.035 J-0.018
N3135 G1 X0.4115 Y0.2192
N3140 G2 X0.4144 Y0.211 I-0.0356 J-0.0169
N3145 G1 X0.4665 Y-0.0203
N3150 G2 X0.0357 Y-0.5249 I-0.4042 J-0.0911
N3155 G3 X0.0274 Y-0.5323 I-0.0005 J-0.0079
N3160 G1 X0.0269 Y-0.5401
N3165 X0.0267 Y-0.5422 Z-0.1797
N3170 X0.0266 Y-0.5441 Z-0.1789
N3175 X0.0265 Y-0.5457 Z-0.1777
N3180 X0.0264 Y-0.5469 Z-0.1761
N3185 Y-0.5477 Z-0.1742
N3190 Y-0.548 Z-0.1721
N3195 G0 Z0.2
N3200 X0.0543 Y-0.5573
N3205 G1 Z-0.0506 F20.
N3210 Z-0.2621 F1.
N3215 Y-0.557 Z-0.2642
N3220 Y-0.5562 Z-0.2661
N3225 X0.0544 Y-0.555 Z-0.2677
N3230 Y-0.5533 Z-0.2689
N3235 X0.0545 Y-0.5514 Z-0.2697
N3240 X0.0546 Y-0.5494 Z-0.27
N3245 X0.0548 Y-0.5415 F20.
N3250 G3 X0.0472 Y-0.5334 I-0.0079 J0.0003
N3255 G2 X-0.3493 Y-0.2059 I0.015 J0.422
N3260 G1 X-0.4833 Y0.3775
N3265 G2 X-0.4614 Y0.4287 I0.046 J0.0106
N3270 G1 X-0.4439 Y0.439
N3275 G2 X-0.4427 Y0.4397 I0.0241 J-0.0406
N3280 G1 X-0.4251 Y0.4495
N3285 G2 X-0.4239 Y0.4502 I0.0229 J-0.0413
N3290 G1 X-0.4061 Y0.4594
N3295 G2 X-0.4049 Y0.46 I0.0217 J-0.042
N3300 G1 X-0.387 Y0.4686
N3305 G2 X-0.3857 Y0.4692 I0.0205 J-0.0426
N3310 G1 X-0.3676 Y0.4772
N3315 G2 X-0.3664 Y0.4778 I0.0192 J-0.0432
N3320 G1 X-0.3482 Y0.4852
N3325 G2 X-0.3469 Y0.4857 I0.0179 J-0.0437
N3330 G1 X-0.3286 Y0.4926
N3335 G2 X-0.3273 Y0.4931 I0.0167 J-0.0442
N3340 G1 X-0.309 Y0.4994
N3345 G2 X-0.3077 Y0.4998 I0.0154 J-0.0447
N3350 G1 X-0.2893 Y0.5056
N3355 G2 X-0.2879 Y0.506 I0.0141 J-0.0451
N3360 G1 X-0.2695 Y0.5111
N3365 G2 X-0.2681 Y0.5115 I0.0127 J-0.0455
N3370 G1 X-0.2497 Y0.5161
N3375 G2 X-0.2483 Y0.5164 I0.0114 J-0.0459
N3380 G1 X-0.2298 Y0.5204
N3385 G2 X-0.2285 Y0.5207 I0.01 J-0.0462
N3390 G1 X-0.21 Y0.5241
N3395 G2 X-0.2086 Y0.5244 I0.0087 J-0.0464
N3400 G1 X-0.1902 Y0.5272
N3405 G2 X-0.1887 Y0.5274 I0.0073 J-0.0467
N3410 G1 X-0.1704 Y0.5297
N3415 G2 X-0.1689 Y0.5299 I0.0059 J-0.0469
N3420 G1 X-0.1506 Y0.5316
N3425 G2 X-0.1492 Y0.5317 I0.0044 J-0.047
N3430 G1 X-0.131 Y0.5329
N3435 G2 X-0.1295 Y0.533 I0.003 J-0.0471
N3440 G1 X-0.1114 Y0.5335
N3445 G2 X-0.1099 Y0.5336 I0.0015 J-0.0472
N3450 G1 X-0.0919
N3455 G2 X-0.0905 I0.0001 J-0.0472
N3460 G1 X-0.0727 Y0.5331
N3465 G2 X-0.0712 Y0.533 I-0.0013 J-0.0472
N3470 G1 X-0.0535 Y0.532
N3475 G2 X-0.0521 Y0.5319 I-0.0028 J-0.0472
N3480 G1 X-0.0346 Y0.5303
N3485 G2 X-0.0332 Y0.5301 I-0.0042 J-0.0471
N3490 G1 X-0.0158 Y0.5281
N3495 G2 X-0.0144 Y0.5279 I-0.0056 J-0.0469
N3500 G1 X0.0027 Y0.5253
N3505 G2 X0.0041 Y0.5251 I-0.007 J-0.0467
N3510 G1 X0.021 Y0.522
N3515 G2 X0.0224 Y0.5217 I-0.0084 J-0.0465
N3520 G1 X0.0392 Y0.5182
N3525 G2 X0.0405 Y0.5179 I-0.0098 J-0.0462
N3530 G1 X0.057 Y0.5139
N3535 G2 X0.0584 Y0.5135 I-0.0112 J-0.0459
N3540 G1 X0.0746 Y0.509
N3545 G2 X0.076 Y0.5087 I-0.0125 J-0.0456
N3550 G1 X0.092 Y0.5037
N3555 G2 X0.0933 Y0.5033 I-0.0139 J-0.0452
N3560 G1 X0.109 Y0.498
N3565 G2 X0.1104 Y0.4975 I-0.0152 J-0.0447
N3570 G1 X0.1258 Y0.4917
N3575 G2 X0.1271 Y0.4912 I-0.0165 J-0.0443
N3580 G1 X0.1423 Y0.485
N3585 G2 X0.1436 Y0.4845 I-0.0178 J-0.0437
N3590 G1 X0.1585 Y0.4779
N3595 G2 X0.1598 Y0.4773 I-0.0192 J-0.0432
N3600 G1 X0.1743 Y0.4703
N3605 G2 X0.1756 Y0.4697 I-0.0204 J-0.0426
N3610 G1 X0.1898 Y0.4623
N3615 G2 X0.1911 Y0.4616 I-0.0217 J-0.042
N3620 G1 X0.2049 Y0.4539
N3625 G2 X0.2062 Y0.4532 I-0.023 J-0.0413
N3630 G1 X0.2197 Y0.4451
N3635 G2 X0.2209 Y0.4443 I-0.0243 J-0.0405
N3640 G1 X0.2341 Y0.4359
N3645 G2 X0.2353 Y0.435 I-0.0255 J-0.0398
N3650 G1 X0.2481 Y0.4263
N3655 G2 X0.2493 Y0.4254 I-0.0268 J-0.0389
N3660 G1 X0.2617 Y0.4163
N3665 G2 X0.2629 Y0.4154 I-0.028 J-0.0381
N3670 G1 X0.2748 Y0.406
N3675 G2 X0.276 Y0.4051 I-0.0292 J-0.0372
N3680 G1 X0.2875 Y0.3955
N3685 G2 X0.2887 Y0.3945 I-0.0303 J-0.0362
N3690 G1 X0.2998 Y0.3846
N3695 G2 X0.3009 Y0.3836 I-0.0314 J-0.0353
N3700 G1 X0.3117 Y0.3734
N3705 G2 X0.3127 Y0.3723 I-0.0325 J-0.0343
N3710 G1 X0.3231 Y0.3619
N3715 G2 X0.3241 Y0.3609 I-0.0335 J-0.0333
N3720 G1 X0.334 Y0.3502
N3725 G2 X0.335 Y0.3491 I-0.0345 J-0.0322
N3730 G1 X0.3445 Y0.3383
N3735 G2 X0.3454 Y0.3372 I-0.0355 J-0.0312
N3740 G1 X0.3546 Y0.3261
N3745 G2 X0.3555 Y0.325 I-0.0365 J-0.0301
N3750 G1 X0.3642 Y0.3137
N3755 G2 X0.365 Y0.3126 I-0.0374 J-0.0289
N3760 G1 X0.3733 Y0.3012
N3765 G2 X0.3742 Y0.3 I-0.0382 J-0.0278
N3770 G1 X0.382 Y0.2884
N3775 G2 X0.3828 Y0.2872 I-0.0391 J-0.0266
N3780 G1 X0.3903 Y0.2755
N3785 G2 X0.391 Y0.2743 I-0.0399 J-0.0254
N3790 G1 X0.3981 Y0.2625
N3795 G2 X0.3988 Y0.2612 I-0.0406 J-0.0241
N3800 G1 X0.4054 Y0.2493
N3805 G2 X0.4061 Y0.248 I-0.0413 J-0.0229
N3810 G1 X0.4122 Y0.236
N3815 G2 X0.4129 Y0.2347 I-0.042 J-0.0216
N3820 G1 X0.4186 Y0.2226
N3825 G2 X0.422 Y0.2127 I-0.0427 J-0.0203
N3830 G1 X0.4742 Y-0.0186
N3835 G2 X0.0472 Y-0.5334 I-0.4119 J-0.0928
N3840 X0.0415 Y-0.5292 I0.0002 J0.0064
N3845 G3 X0.0357 Y-0.5249 I-0.0061 J-0.0023
N3850 G2 X-0.3416 Y-0.2042 I0.0265 J0.4135
N3855 G1 X-0.4756 Y0.3793
N3860 G2 X-0.4574 Y0.4219 I0.0384 J0.0088
N3865 G1 X-0.4399 Y0.4323
N3870 G2 X-0.4389 Y0.4328 I0.0201 J-0.0338
N3875 G1 X-0.4213 Y0.4426
N3880 G2 X-0.4203 Y0.4432 I0.0191 J-0.0344
N3885 G1 X-0.4025 Y0.4524
N3890 G2 X-0.4015 Y0.4529 I0.0181 J-0.035
N3895 G1 X-0.3835 Y0.4615
N3900 G2 X-0.3825 Y0.462 I0.0171 J-0.0355
N3905 G1 X-0.3644 Y0.47
N3910 G2 X-0.3634 Y0.4705 I0.016 J-0.036
N3915 G1 X-0.3452 Y0.478
N3920 G2 X-0.3441 Y0.4784 I0.015 J-0.0364
N3925 G1 X-0.3259 Y0.4853
N3930 G2 X-0.3248 Y0.4856 I0.0139 J-0.0368
N3935 G1 X-0.3064 Y0.492
N3940 G2 X-0.3053 Y0.4923 I0.0128 J-0.0372
N3945 G1 X-0.2869 Y0.4981
N3950 G2 X-0.2858 Y0.4984 I0.0117 J-0.0376
N3955 G1 X-0.2674 Y0.5036
N3960 G2 X-0.2662 Y0.5038 I0.0106 J-0.0379
N3965 G1 X-0.2478 Y0.5084
N3970 G2 X-0.2466 Y0.5087 I0.0095 J-0.0382
N3975 G1 X-0.2281 Y0.5127
N3980 G2 X-0.227 Y0.5129 I0.0084 J-0.0385
N3985 G1 X-0.2085 Y0.5164
N3990 G2 X-0.2074 Y0.5166 I0.0072 J-0.0387
N3995 G1 X-0.1889 Y0.5195
N4000 G2 X-0.1878 Y0.5196 I0.0061 J-0.0389
N4005 G1 X-0.1694 Y0.5219
N4010 G2 X-0.1682 Y0.522 I0.0049 J-0.0391
N4015 G1 X-0.1499 Y0.5238
N4020 G2 X-0.1487 Y0.5239 I0.0037 J-0.0392
N4025 G1 X-0.1305 Y0.525
N4030 G2 X-0.1292 Y0.5251 I0.0025 J-0.0393
N4035 G1 X-0.1111 Y0.5257
N4040 G2 X-0.1099 I0.0013 J-0.0393
N4045 G1 X-0.0919
N4050 G2 X-0.0907 I0.0001 J-0.0394
N4055 G1 X-0.0729 Y0.5252
N4060 G2 X-0.0717 Y0.5251 I-0.0011 J-0.0394
N4065 G1 X-0.054 Y0.5241
N4070 G2 X-0.0528 Y0.524 I-0.0023 J-0.0393
N4075 G1 X-0.0353 Y0.5225
N4080 G2 X-0.0341 Y0.5223 I-0.0035 J-0.0392
N4085 G1 X-0.0168 Y0.5202
N4090 G2 X-0.0156 Y0.5201 I-0.0047 J-0.0391
N4095 G1 X0.0015 Y0.5175
N4100 G2 X0.0027 Y0.5173 I-0.0058 J-0.0389
N4105 G1 X0.0196 Y0.5143
N4110 G2 X0.0208 Y0.514 I-0.007 J-0.0387
N4115 G1 X0.0375 Y0.5105
N4120 G2 X0.0387 Y0.5102 I-0.0082 J-0.0385
N4125 G1 X0.0552 Y0.5062
N4130 G2 X0.0563 Y0.5059 I-0.0093 J-0.0383
N4135 G1 X0.0726 Y0.5015
N4140 G2 X0.0737 Y0.5011 I-0.0104 J-0.038
N4145 G1 X0.0897 Y0.4962
N4150 G2 X0.0908 Y0.4959 I-0.0116 J-0.0376
N4155 G1 X0.1065 Y0.4905
N4160 G2 X0.1076 Y0.4901 I-0.0127 J-0.0373
N4165 G1 X0.1231 Y0.4843
N4170 G2 X0.1242 Y0.4839 I-0.0138 J-0.0369
N4175 G1 X0.1393 Y0.4777
N4180 G2 X0.1404 Y0.4773 I-0.0149 J-0.0365
N4185 G1 X0.1553 Y0.4707
N4190 G2 X0.1563 Y0.4702 I-0.016 J-0.036
N4195 G1 X0.1709 Y0.4632
N4200 G2 X0.172 Y0.4627 I-0.017 J-0.0355
N4205 G1 X0.1862 Y0.4553
N4210 G2 X0.1872 Y0.4547 I-0.0181 J-0.035
N4215 G1 X0.2011 Y0.447
N4220 G2 X0.2021 Y0.4464 I-0.0192 J-0.0344
N4225 G1 X0.2157 Y0.4383
N4230 G2 X0.2167 Y0.4377 I-0.0202 J-0.0338
N4235 G1 X0.2298 Y0.4292
N4240 G2 X0.2309 Y0.4286 I-0.0213 J-0.0331
N4245 G1 X0.2436 Y0.4198
N4250 G2 X0.2446 Y0.4191 I-0.0223 J-0.0324
N4255 G1 X0.257 Y0.41
N4260 G2 X0.258 Y0.4092 I-0.0233 J-0.0317
N4265 G1 X0.27 Y0.3999
N4270 G2 X0.2709 Y0.3991 I-0.0243 J-0.031
N4275 G1 X0.2825 Y0.3894
N4280 G2 X0.2834 Y0.3886 I-0.0252 J-0.0302
N4285 G1 X0.2946 Y0.3787
N4290 G2 X0.2955 Y0.3778 I-0.0262 J-0.0294
N4295 G1 X0.3062 Y0.3677
N4300 G2 X0.3071 Y0.3668 I-0.0271 J-0.0286
N4305 G1 X0.3175 Y0.3564
N4310 G2 X0.3183 Y0.3555 I-0.0279 J-0.0277
N4315 G1 X0.3282 Y0.3448
N4320 G2 X0.3291 Y0.3439 I-0.0288 J-0.0269
N4325 G1 X0.3386 Y0.3331
N4330 G2 X0.3394 Y0.3322 I-0.0296 J-0.026
N4335 G1 X0.3485 Y0.3211
N4340 G2 X0.3492 Y0.3202 I-0.0304 J-0.025
N4345 G1 X0.3579 Y0.3089
N4350 G2 X0.3587 Y0.3079 I-0.0311 J-0.0241
N4355 G1 X0.367 Y0.2965
N4360 G2 X0.3676 Y0.2956 I-0.0319 J-0.0231
N4365 G1 X0.3755 Y0.284
N4370 G2 X0.3762 Y0.283 I-0.0325 J-0.0222
N4375 G1 X0.3836 Y0.2713
N4380 G2 X0.3843 Y0.2703 I-0.0332 J-0.0211
N4385 G1 X0.3913 Y0.2584
N4390 G2 X0.3919 Y0.2574 I-0.0338 J-0.0201
N4395 G1 X0.3985 Y0.2455
N4400 G2 X0.3991 Y0.2444 I-0.0344 J-0.0191
N4405 G1 X0.4052 Y0.2324
N4410 G2 X0.4058 Y0.2313 I-0.035 J-0.018
N4415 G1 X0.4115 Y0.2192
N4420 G2 X0.4144 Y0.211 I-0.0356 J-0.0169
N4425 G1 X0.4665 Y-0.0203
N4430 G2 X0.0357 Y-0.5249 I-0.4042 J-0.0911
N4435 G3 X0.0274 Y-0.5323 I-0.0005 J-0.0079
N4440 G1 X0.0269 Y-0.5401
N4445 X0.0267 Y-0.5422 Z-0.2697
N4450 X0.0266 Y-0.5441 Z-0.2689
N4455 X0.0265 Y-0.5457 Z-0.2677
N4460 X0.0264 Y-0.5469 Z-0.2661
N4465 Y-0.5477 Z-0.2642
N4470 Y-0.548 Z-0.2621
N4475 G0 Z0.2
N4480 X0.0543 Y-0.5573
N4485 G1 Z-0.1406 F20.
N4490 Z-0.3146 F1.
N4495 Y-0.557 Z-0.3167
N4500 Y-0.5562 Z-0.3186
N4505 X0.0544 Y-0.555 Z-0.3202
N4510 Y-0.5533 Z-0.3214
N4515 X0.0545 Y-0.5514 Z-0.3222
N4520 X0.0546 Y-0.5494 Z-0.3225
N4525 X0.0548 Y-0.5415 F20.
N4530 G3 X0.0472 Y-0.5334 I-0.0079 J0.0003
N4535 G2 X-0.3493 Y-0.2059 I0.015 J0.422
N4540 G1 X-0.4833 Y0.3775
N4545 G2 X-0.4614 Y0.4287 I0.046 J0.0106
N4550 G1 X-0.4439 Y0.439
N4555 G2 X-0.4427 Y0.4397 I0.0241 J-0.0406
N4560 G1 X-0.4251 Y0.4495
N4565 G2 X-0.4239 Y0.4502 I0.0229 J-0.0413
N4570 G1 X-0.4061 Y0.4594
N4575 G2 X-0.4049 Y0.46 I0.0217 J-0.042
N4580 G1 X-0.387 Y0.4686
N4585 G2 X-0.3857 Y0.4692 I0.0205 J-0.0426
N4590 G1 X-0.3676 Y0.4772
N4595 G2 X-0.3664 Y0.4778 I0.0192 J-0.0432
N4600 G1 X-0.3482 Y0.4852
N4605 G2 X-0.3469 Y0.4857 I0.0179 J-0.0437
N4610 G1 X-0.3286 Y0.4926
N4615 G2 X-0.3273 Y0.4931 I0.0167 J-0.0442
N4620 G1 X-0.309 Y0.4994
N4625 G2 X-0.3077 Y0.4998 I0.0154 J-0.0447
N4630 G1 X-0.2893 Y0.5056
N4635 G2 X-0.2879 Y0.506 I0.0141 J-0.0451
N4640 G1 X-0.2695 Y0.5111
N4645 G2 X-0.2681 Y0.5115 I0.0127 J-0.0455
N4650 G1 X-0.2497 Y0.5161
N4655 G2 X-0.2483 Y0.5164 I0.0114 J-0.0459
N4660 G1 X-0.2298 Y0.5204
N4665 G2 X-0.2285 Y0.5207 I0.01 J-0.0462
N4670 G1 X-0.21 Y0.5241
N4675 G2 X-0.2086 Y0.5244 I0.0087 J-0.0464
N4680 G1 X-0.1902 Y0.5272
N4685 G2 X-0.1887 Y0.5274 I0.0073 J-0.0467
N4690 G1 X-0.1704 Y0.5297
N4695 G2 X-0.1689 Y0.5299 I0.0059 J-0.0469
N4700 G1 X-0.1506 Y0.5316
N4705 G2 X-0.1492 Y0.5317 I0.0044 J-0.047
N4710 G1 X-0.131 Y0.5329
N4715 G2 X-0.1295 Y0.533 I0.003 J-0.0471
N4720 G1 X-0.1114 Y0.5335
N4725 G2 X-0.1099 Y0.5336 I0.0015 J-0.0472
N4730 G1 X-0.0919
N4735 G2 X-0.0905 I0.0001 J-0.0472
N4740 G1 X-0.0727 Y0.5331
N4745 G2 X-0.0712 Y0.533 I-0.0013 J-0.0472
N4750 G1 X-0.0535 Y0.532
N4755 G2 X-0.0521 Y0.5319 I-0.0028 J-0.0472
N4760 G1 X-0.0346 Y0.5303
N4765 G2 X-0.0332 Y0.5301 I-0.0042 J-0.0471
N4770 G1 X-0.0158 Y0.5281
N4775 G2 X-0.0144 Y0.5279 I-0.0056 J-0.0469
N4780 G1 X0.0027 Y0.5253
N4785 G2 X0.0041 Y0.5251 I-0.007 J-0.0467
N4790 G1 X0.021 Y0.522
N4795 G2 X0.0224 Y0.5217 I-0.0084 J-0.0465
N4800 G1 X0.0392 Y0.5182
N4805 G2 X0.0405 Y0.5179 I-0.0098 J-0.0462
N4810 G1 X0.057 Y0.5139
N4815 G2 X0.0584 Y0.5135 I-0.0112 J-0.0459
N4820 G1 X0.0746 Y0.509
N4825 G2 X0.076 Y0.5087 I-0.0125 J-0.0456
N4830 G1 X0.092 Y0.5037
N4835 G2 X0.0933 Y0.5033 I-0.0139 J-0.0452
N4840 G1 X0.109 Y0.498
N4845 G2 X0.1104 Y0.4975 I-0.0152 J-0.0447
N4850 G1 X0.1258 Y0.4917
N4855 G2 X0.1271 Y0.4912 I-0.0165 J-0.0443
N4860 G1 X0.1423 Y0.485
N4865 G2 X0.1436 Y0.4845 I-0.0178 J-0.0437
N4870 G1 X0.1585 Y0.4779
N4875 G2 X0.1598 Y0.4773 I-0.0192 J-0.0432
N4880 G1 X0.1743 Y0.4703
N4885 G2 X0.1756 Y0.4697 I-0.0204 J-0.0426
N4890 G1 X0.1898 Y0.4623
N4895 G2 X0.1911 Y0.4616 I-0.0217 J-0.042
N4900 G1 X0.2049 Y0.4539
N4905 G2 X0.2062 Y0.4532 I-0.023 J-0.0413
N4910 G1 X0.2197 Y0.4451
N4915 G2 X0.2209 Y0.4443 I-0.0243 J-0.0405
N4920 G1 X0.2341 Y0.4359
N4925 G2 X0.2353 Y0.435 I-0.0255 J-0.0398
N4930 G1 X0.2481 Y0.4263
N4935 G2 X0.2493 Y0.4254 I-0.0268 J-0.0389
N4940 G1 X0.2617 Y0.4163
N4945 G2 X0.2629 Y0.4154 I-0.028 J-0.0381
N4950 G1 X0.2748 Y0.406
N4955 G2 X0.276 Y0.4051 I-0.0292 J-0.0372
N4960 G1 X0.2875 Y0.3955
N4965 G2 X0.2887 Y0.3945 I-0.0303 J-0.0362
N4970 G1 X0.2998 Y0.3846
N4975 G2 X0.3009 Y0.3836 I-0.0314 J-0.0353
N4980 G1 X0.3117 Y0.3734
N4985 G2 X0.3127 Y0.3723 I-0.0325 J-0.0343
N4990 G1 X0.3231 Y0.3619
N4995 G2 X0.3241 Y0.3609 I-0.0335 J-0.0333
N5000 G1 X0.334 Y0.3502
N5005 G2 X0.335 Y0.3491 I-0.0345 J-0.0322
N5010 G1 X0.3445 Y0.3383
N5015 G2 X0.3454 Y0.3372 I-0.0355 J-0.0312
N5020 G1 X0.3546 Y0.3261
N5025 G2 X0.3555 Y0.325 I-0.0365 J-0.0301
N5030 G1 X0.3642 Y0.3137
N5035 G2 X0.365 Y0.3126 I-0.0374 J-0.0289
N5040 G1 X0.3733 Y0.3012
N5045 G2 X0.3742 Y0.3 I-0.0382 J-0.0278
N5050 G1 X0.382 Y0.2884
N5055 G2 X0.3828 Y0.2872 I-0.0391 J-0.0266
N5060 G1 X0.3903 Y0.2755
N5065 G2 X0.391 Y0.2743 I-0.0399 J-0.0254
N5070 G1 X0.3981 Y0.2625
N5075 G2 X0.3988 Y0.2612 I-0.0406 J-0.0241
N5080 G1 X0.4054 Y0.2493
N5085 G2 X0.4061 Y0.248 I-0.0413 J-0.0229
N5090 G1 X0.4122 Y0.236
N5095 G2 X0.4129 Y0.2347 I-0.042 J-0.0216
N5100 G1 X0.4186 Y0.2226
N5105 G2 X0.422 Y0.2127 I-0.0427 J-0.0203
N5110 G1 X0.4742 Y-0.0186
N5115 G2 X0.0472 Y-0.5334 I-0.4119 J-0.0928
N5120 X0.0415 Y-0.5292 I0.0002 J0.0064
N5125 G3 X0.0357 Y-0.5249 I-0.0061 J-0.0023
N5130 G2 X-0.3416 Y-0.2042 I0.0265 J0.4135
N5135 G1 X-0.4756 Y0.3793
N5140 G2 X-0.4574 Y0.4219 I0.0384 J0.0088
N5145 G1 X-0.4399 Y0.4323
N5150 G2 X-0.4389 Y0.4328 I0.0201 J-0.0338
N5155 G1 X-0.4213 Y0.4426
N5160 G2 X-0.4203 Y0.4432 I0.0191 J-0.0344
N5165 G1 X-0.4025 Y0.4524
N5170 G2 X-0.4015 Y0.4529 I0.0181 J-0.035
N5175 G1 X-0.3835 Y0.4615
N5180 G2 X-0.3825 Y0.462 I0.0171 J-0.0355
N5185 G1 X-0.3644 Y0.47
N5190 G2 X-0.3634 Y0.4705 I0.016 J-0.036
N5195 G1 X-0.3452 Y0.478
N5200 G2 X-0.3441 Y0.4784 I0.015 J-0.0364
N5205 G1 X-0.3259 Y0.4853
N5210 G2 X-0.3248 Y0.4856 I0.0139 J-0.0368
N5215 G1 X-0.3064 Y0.492
N5220 G2 X-0.3053 Y0.4923 I0.0128 J-0.0372
N5225 G1 X-0.2869 Y0.4981
N5230 G2 X-0.2858 Y0.4984 I0.0117 J-0.0376
N5235 G1 X-0.2674 Y0.5036
N5240 G2 X-0.2662 Y0.5038 I0.0106 J-0.0379
N5245 G1 X-0.2478 Y0.5084
N5250 G2 X-0.2466 Y0.5087 I0.0095 J-0.0382
N5255 G1 X-0.2281 Y0.5127
N5260 G2 X-0.227 Y0.5129 I0.0084 J-0.0385
N5265 G1 X-0.2085 Y0.5164
N5270 G2 X-0.2074 Y0.5166 I0.0072 J-0.0387
N5275 G1 X-0.1889 Y0.5195
N5280 G2 X-0.1878 Y0.5196 I0.0061 J-0.0389
N5285 G1 X-0.1694 Y0.5219
N5290 G2 X-0.1682 Y0.522 I0.0049 J-0.0391
N5295 G1 X-0.1499 Y0.5238
N5300 G2 X-0.1487 Y0.5239 I0.0037 J-0.0392
N5305 G1 X-0.1305 Y0.525
N5310 G2 X-0.1292 Y0.5251 I0.0025 J-0.0393
N5315 G1 X-0.1111 Y0.5257
N5320 G2 X-0.1099 I0.0013 J-0.0393
N5325 G1 X-0.0919
N5330 G2 X-0.0907 I0.0001 J-0.0394
N5335 G1 X-0.0729 Y0.5252
N5340 G2 X-0.0717 Y0.5251 I-0.0011 J-0.0394
N5345 G1 X-0.054 Y0.5241
N5350 G2 X-0.0528 Y0.524 I-0.0023 J-0.0393
N5355 G1 X-0.0353 Y0.5225
N5360 G2 X-0.0341 Y0.5223 I-0.0035 J-0.0392
N5365 G1 X-0.0168 Y0.5202
N5370 G2 X-0.0156 Y0.5201 I-0.0047 J-0.0391
N5375 G1 X0.0015 Y0.5175
N5380 G2 X0.0027 Y0.5173 I-0.0058 J-0.0389
N5385 G1 X0.0196 Y0.5143
N5390 G2 X0.0208 Y0.514 I-0.007 J-0.0387
N5395 G1 X0.0375 Y0.5105
N5400 G2 X0.0387 Y0.5102 I-0.0082 J-0.0385
N5405 G1 X0.0552 Y0.5062
N5410 G2 X0.0563 Y0.5059 I-0.0093 J-0.0383
N5415 G1 X0.0726 Y0.5015
N5420 G2 X0.0737 Y0.5011 I-0.0104 J-0.038
N5425 G1 X0.0897 Y0.4962
N5430 G2 X0.0908 Y0.4959 I-0.0116 J-0.0376
N5435 G1 X0.1065 Y0.4905
N5440 G2 X0.1076 Y0.4901 I-0.0127 J-0.0373
N5445 G1 X0.1231 Y0.4843
N5450 G2 X0.1242 Y0.4839 I-0.0138 J-0.0369
N5455 G1 X0.1393 Y0.4777
N5460 G2 X0.1404 Y0.4773 I-0.0149 J-0.0365
N5465 G1 X0.1553 Y0.4707
N5470 G2 X0.1563 Y0.4702 I-0.016 J-0.036
N5475 G1 X0.1709 Y0.4632
N5480 G2 X0.172 Y0.4627 I-0.017 J-0.0355
N5485 G1 X0.1862 Y0.4553
N5490 G2 X0.1872 Y0.4547 I-0.0181 J-0.035
N5495 G1 X0.2011 Y0.447
N5500 G2 X0.2021 Y0.4464 I-0.0192 J-0.0344
N5505 G1 X0.2157 Y0.4383
N5510 G2 X0.2167 Y0.4377 I-0.0202 J-0.0338
N5515 G1 X0.2298 Y0.4292
N5520 G2 X0.2309 Y0.4286 I-0.0213 J-0.0331
N5525 G1 X0.2436 Y0.4198
N5530 G2 X0.2446 Y0.4191 I-0.0223 J-0.0324
N5535 G1 X0.257 Y0.41
N5540 G2 X0.258 Y0.4092 I-0.0233 J-0.0317
N5545 G1 X0.27 Y0.3999
N5550 G2 X0.2709 Y0.3991 I-0.0243 J-0.031
N5555 G1 X0.2825 Y0.3894
N5560 G2 X0.2834 Y0.3886 I-0.0252 J-0.0302
N5565 G1 X0.2946 Y0.3787
N5570 G2 X0.2955 Y0.3778 I-0.0262 J-0.0294
N5575 G1 X0.3062 Y0.3677
N5580 G2 X0.3071 Y0.3668 I-0.0271 J-0.0286
N5585 G1 X0.3175 Y0.3564
N5590 G2 X0.3183 Y0.3555 I-0.0279 J-0.0277
N5595 G1 X0.3282 Y0.3448
N5600 G2 X0.3291 Y0.3439 I-0.0288 J-0.0269
N5605 G1 X0.3386 Y0.3331
N5610 G2 X0.3394 Y0.3322 I-0.0296 J-0.026
N5615 G1 X0.3485 Y0.3211
N5620 G2 X0.3492 Y0.3202 I-0.0304 J-0.025
N5625 G1 X0.3579 Y0.3089
N5630 G2 X0.3587 Y0.3079 I-0.0311 J-0.0241
N5635 G1 X0.367 Y0.2965
N5640 G2 X0.3676 Y0.2956 I-0.0319 J-0.0231
N5645 G1 X0.3755 Y0.284
N5650 G2 X0.3762 Y0.283 I-0.0325 J-0.0222
N5655 G1 X0.3836 Y0.2713
N5660 G2 X0.3843 Y0.2703 I-0.0332 J-0.0211
N5665 G1 X0.3913 Y0.2584
N5670 G2 X0.3919 Y0.2574 I-0.0338 J-0.0201
N5675 G1 X0.3985 Y0.2455
N5680 G2 X0.3991 Y0.2444 I-0.0344 J-0.0191
N5685 G1 X0.4052 Y0.2324
N5690 G2 X0.4058 Y0.2313 I-0.035 J-0.018
N5695 G1 X0.4115 Y0.2192
N5700 G2 X0.4144 Y0.211 I-0.0356 J-0.0169
N5705 G1 X0.4665 Y-0.0203
N5710 G2 X0.0357 Y-0.5249 I-0.4042 J-0.0911
N5715 G3 X0.0274 Y-0.5323 I-0.0005 J-0.0079
N5720 G1 X0.0269 Y-0.5401
N5725 X0.0267 Y-0.5422 Z-0.3222
N5730 X0.0266 Y-0.5441 Z-0.3214
N5735 X0.0265 Y-0.5457 Z-0.3202
N5740 X0.0264 Y-0.5469 Z-0.3186
N5745 Y-0.5477 Z-0.3167
N5750 Y-0.548 Z-0.3146
N5755 G0 Z0.2
N5760 X0.0543 Y-0.5573
N5765 G1 Z-0.1931 F20.
N5770 Z-0.3671 F1.
N5775 Y-0.557 Z-0.3692
N5780 Y-0.5562 Z-0.3711
N5785 X0.0544 Y-0.555 Z-0.3727
N5790 Y-0.5533 Z-0.3739
N5795 X0.0545 Y-0.5514 Z-0.3747
N5800 X0.0546 Y-0.5494 Z-0.375
N5805 X0.0548 Y-0.5415 F20.
N5810 G3 X0.0472 Y-0.5334 I-0.0079 J0.0003
N5815 G2 X-0.3493 Y-0.2059 I0.015 J0.422
N5820 G1 X-0.4833 Y0.3775
N5825 G2 X-0.4614 Y0.4287 I0.046 J0.0106
N5830 G1 X-0.4439 Y0.439
N5835 G2 X-0.4427 Y0.4397 I0.0241 J-0.0406
N5840 G1 X-0.4251 Y0.4495
N5845 G2 X-0.4239 Y0.4502 I0.0229 J-0.0413
N5850 G1 X-0.4061 Y0.4594
N5855 G2 X-0.4049 Y0.46 I0.0217 J-0.042
N5860 G1 X-0.387 Y0.4686
N5865 G2 X-0.3857 Y0.4692 I0.0205 J-0.0426
N5870 G1 X-0.3676 Y0.4772
N5875 G2 X-0.3664 Y0.4778 I0.0192 J-0.0432
N5880 G1 X-0.3482 Y0.4852
N5885 G2 X-0.3469 Y0.4857 I0.0179 J-0.0437
N5890 G1 X-0.3286 Y0.4926
N5895 G2 X-0.3273 Y0.4931 I0.0167 J-0.0442
N5900 G1 X-0.309 Y0.4994
N5905 G2 X-0.3077 Y0.4998 I0.0154 J-0.0447
N5910 G1 X-0.2893 Y0.5056
N5915 G2 X-0.2879 Y0.506 I0.0141 J-0.0451
N5920 G1 X-0.2695 Y0.5111
N5925 G2 X-0.2681 Y0.5115 I0.0127 J-0.0455
N5930 G1 X-0.2497 Y0.5161
N5935 G2 X-0.2483 Y0.5164 I0.0114 J-0.0459
N5940 G1 X-0.2298 Y0.5204
N5945 G2 X-0.2285 Y0.5207 I0.01 J-0.0462
N5950 G1 X-0.21 Y0.5241
N5955 G2 X-0.2086 Y0.5244 I0.0087 J-0.0464
N5960 G1 X-0.1902 Y0.5272
N5965 G2 X-0.1887 Y0.5274 I0.0073 J-0.0467
N5970 G1 X-0.1704 Y0.5297
N5975 G2 X-0.1689 Y0.5299 I0.0059 J-0.0469
N5980 G1 X-0.1506 Y0.5316
N5985 G2 X-0.1492 Y0.5317 I0.0044 J-0.047
N5990 G1 X-0.131 Y0.5329
N5995 G2 X-0.1295 Y0.533 I0.003 J-0.0471
N6000 G1 X-0.1114 Y0.5335
N6005 G2 X-0.1099 Y0.5336 I0.0015 J-0.0472
N6010 G1 X-0.0919
N6015 G2 X-0.0905 I0.0001 J-0.0472
N6020 G1 X-0.0727 Y0.5331
N6025 G2 X-0.0712 Y0.533 I-0.0013 J-0.0472
N6030 G1 X-0.0535 Y0.532
N6035 G2 X-0.0521 Y0.5319 I-0.0028 J-0.0472
N6040 G1 X-0.0346 Y0.5303
N6045 G2 X-0.0332 Y0.5301 I-0.0042 J-0.0471
N6050 G1 X-0.0158 Y0.5281
N6055 G2 X-0.0144 Y0.5279 I-0.0056 J-0.0469
N6060 G1 X0.0027 Y0.5253
N6065 G2 X0.0041 Y0.5251 I-0.007 J-0.0467
N6070 G1 X0.021 Y0.522
N6075 G2 X0.0224 Y0.5217 I-0.0084 J-0.0465
N6080 G1 X0.0392 Y0.5182
N6085 G2 X0.0405 Y0.5179 I-0.0098 J-0.0462
N6090 G1 X0.057 Y0.5139
N6095 G2 X0.0584 Y0.5135 I-0.0112 J-0.0459
N6100 G1 X0.0746 Y0.509
N6105 G2 X0.076 Y0.5087 I-0.0125 J-0.0456
N6110 G1 X0.092 Y0.5037
N6115 G2 X0.0933 Y0.5033 I-0.0139 J-0.0452
N6120 G1 X0.109 Y0.498
N6125 G2 X0.1104 Y0.4975 I-0.0152 J-0.0447
N6130 G1 X0.1258 Y0.4917
N6135 G2 X0.1271 Y0.4912 I-0.0165 J-0.0443
N6140 G1 X0.1423 Y0.485
N6145 G2 X0.1436 Y0.4845 I-0.0178 J-0.0437
N6150 G1 X0.1585 Y0.4779
N6155 G2 X0.1598 Y0.4773 I-0.0192 J-0.0432
N6160 G1 X0.1743 Y0.4703
N6165 G2 X0.1756 Y0.4697 I-0.0204 J-0.0426
N6170 G1 X0.1898 Y0.4623
N6175 G2 X0.1911 Y0.4616 I-0.0217 J-0.042
N6180 G1 X0.2049 Y0.4539
N6185 G2 X0.2062 Y0.4532 I-0.023 J-0.0413
N6190 G1 X0.2197 Y0.4451
N6195 G2 X0.2209 Y0.4443 I-0.0243 J-0.0405
N6200 G1 X0.2341 Y0.4359
N6205 G2 X0.2353 Y0.435 I-0.0255 J-0.0398
N6210 G1 X0.2481 Y0.4263
N6215 G2 X0.2493 Y0.4254 I-0.0268 J-0.0389
N6220 G1 X0.2617 Y0.4163
N6225 G2 X0.2629 Y0.4154 I-0.028 J-0.0381
N6230 G1 X0.2748 Y0.406
N6235 G2 X0.276 Y0.4051 I-0.0292 J-0.0372
N6240 G1 X0.2875 Y0.3955
N6245 G2 X0.2887 Y0.3945 I-0.0303 J-0.0362
N6250 G1 X0.2998 Y0.3846
N6255 G2 X0.3009 Y0.3836 I-0.0314 J-0.0353
N6260 G1 X0.3117 Y0.3734
N6265 G2 X0.3127 Y0.3723 I-0.0325 J-0.0343
N6270 G1 X0.3231 Y0.3619
N6275 G2 X0.3241 Y0.3609 I-0.0335 J-0.0333
N6280 G1 X0.334 Y0.3502
N6285 G2 X0.335 Y0.3491 I-0.0345 J-0.0322
N6290 G1 X0.3445 Y0.3383
N6295 G2 X0.3454 Y0.3372 I-0.0355 J-0.0312
N6300 G1 X0.3546 Y0.3261
N6305 G2 X0.3555 Y0.325 I-0.0365 J-0.0301
N6310 G1 X0.3642 Y0.3137
N6315 G2 X0.365 Y0.3126 I-0.0374 J-0.0289
N6320 G1 X0.3733 Y0.3012
N6325 G2 X0.3742 Y0.3 I-0.0382 J-0.0278
N6330 G1 X0.382 Y0.2884
N6335 G2 X0.3828 Y0.2872 I-0.0391 J-0.0266
N6340 G1 X0.3903 Y0.2755
N6345 G2 X0.391 Y0.2743 I-0.0399 J-0.0254
N6350 G1 X0.3981 Y0.2625
N6355 G2 X0.3988 Y0.2612 I-0.0406 J-0.0241
N6360 G1 X0.4054 Y0.2493
N6365 G2 X0.4061 Y0.248 I-0.0413 J-0.0229
N6370 G1 X0.4122 Y0.236
N6375 G2 X0.4129 Y0.2347 I-0.042 J-0.0216
N6380 G1 X0.4186 Y0.2226
N6385 G2 X0.422 Y0.2127 I-0.0427 J-0.0203
N6390 G1 X0.4742 Y-0.0186
N6395 G2 X0.0472 Y-0.5334 I-0.4119 J-0.0928
N6400 X0.0415 Y-0.5292 I0.0002 J0.0064
N6405 G3 X0.0357 Y-0.5249 I-0.0061 J-0.0023
N6410 G2 X-0.3416 Y-0.2042 I0.0265 J0.4135
N6415 G1 X-0.4756 Y0.3793
N6420 G2 X-0.4574 Y0.4219 I0.0384 J0.0088
N6425 G1 X-0.4399 Y0.4323
N6430 G2 X-0.4389 Y0.4328 I0.0201 J-0.0338
N6435 G1 X-0.4213 Y0.4426
N6440 G2 X-0.4203 Y0.4432 I0.0191 J-0.0344
N6445 G1 X-0.4025 Y0.4524
N6450 G2 X-0.4015 Y0.4529 I0.0181 J-0.035
N6455 G1 X-0.3835 Y0.4615
N6460 G2 X-0.3825 Y0.462 I0.0171 J-0.0355
N6465 G1 X-0.3644 Y0.47
N6470 G2 X-0.3634 Y0.4705 I0.016 J-0.036
N6475 G1 X-0.3452 Y0.478
N6480 G2 X-0.3441 Y0.4784 I0.015 J-0.0364
N6485 G1 X-0.3259 Y0.4853
N6490 G2 X-0.3248 Y0.4856 I0.0139 J-0.0368
N6495 G1 X-0.3064 Y0.492
N6500 G2 X-0.3053 Y0.4923 I0.0128 J-0.0372
N6505 G1 X-0.2869 Y0.4981
N6510 G2 X-0.2858 Y0.4984 I0.0117 J-0.0376
N6515 G1 X-0.2674 Y0.5036
N6520 G2 X-0.2662 Y0.5038 I0.0106 J-0.0379
N6525 G1 X-0.2478 Y0.5084
N6530 G2 X-0.2466 Y0.5087 I0.0095 J-0.0382
N6535 G1 X-0.2281 Y0.5127
N6540 G2 X-0.227 Y0.5129 I0.0084 J-0.0385
N6545 G1 X-0.2085 Y0.5164
N6550 G2 X-0.2074 Y0.5166 I0.0072 J-0.0387
N6555 G1 X-0.1889 Y0.5195
N6560 G2 X-0.1878 Y0.5196 I0.0061 J-0.0389
N6565 G1 X-0.1694 Y0.5219
N6570 G2 X-0.1682 Y0.522 I0.0049 J-0.0391
N6575 G1 X-0.1499 Y0.5238
N6580 G2 X-0.1487 Y0.5239 I0.0037 J-0.0392
N6585 G1 X-0.1305 Y0.525
N6590 G2 X-0.1292 Y0.5251 I0.0025 J-0.0393
N6595 G1 X-0.1111 Y0.5257
N6600 G2 X-0.1099 I0.0013 J-0.0393
N6605 G1 X-0.0919
N6610 G2 X-0.0907 I0.0001 J-0.0394
N6615 G1 X-0.0729 Y0.5252
N6620 G2 X-0.0717 Y0.5251 I-0.0011 J-0.0394
N6625 G1 X-0.054 Y0.5241
N6630 G2 X-0.0528 Y0.524 I-0.0023 J-0.0393
N6635 G1 X-0.0353 Y0.5225
N6640 G2 X-0.0341 Y0.5223 I-0.0035 J-0.0392
N6645 G1 X-0.0168 Y0.5202
N6650 G2 X-0.0156 Y0.5201 I-0.0047 J-0.0391
N6655 G1 X0.0015 Y0.5175
N6660 G2 X0.0027 Y0.5173 I-0.0058 J-0.0389
N6665 G1 X0.0196 Y0.5143
N6670 G2 X0.0208 Y0.514 I-0.007 J-0.0387
N6675 G1 X0.0375 Y0.5105
N6680 G2 X0.0387 Y0.5102 I-0.0082 J-0.0385
N6685 G1 X0.0552 Y0.5062
N6690 G2 X0.0563 Y0.5059 I-0.0093 J-0.0383
N6695 G1 X0.0726 Y0.5015
N6700 G2 X0.0737 Y0.5011 I-0.0104 J-0.038
N6705 G1 X0.0897 Y0.4962
N6710 G2 X0.0908 Y0.4959 I-0.0116 J-0.0376
N6715 G1 X0.1065 Y0.4905
N6720 G2 X0.1076 Y0.4901 I-0.0127 J-0.0373
N6725 G1 X0.1231 Y0.4843
N6730 G2 X0.1242 Y0.4839 I-0.0138 J-0.0369
N6735 G1 X0.1393 Y0.4777
N6740 G2 X0.1404 Y0.4773 I-0.0149 J-0.0365
N6745 G1 X0.1553 Y0.4707
N6750 G2 X0.1563 Y0.4702 I-0.016 J-0.036
N6755 G1 X0.1709 Y0.4632
N6760 G2 X0.172 Y0.4627 I-0.017 J-0.0355
N6765 G1 X0.1862 Y0.4553
N6770 G2 X0.1872 Y0.4547 I-0.0181 J-0.035
N6775 G1 X0.2011 Y0.447
N6780 G2 X0.2021 Y0.4464 I-0.0192 J-0.0344
N6785 G1 X0.2157 Y0.4383
N6790 G2 X0.2167 Y0.4377 I-0.0202 J-0.0338
N6795 G1 X0.2298 Y0.4292
N6800 G2 X0.2309 Y0.4286 I-0.0213 J-0.0331
N6805 G1 X0.2436 Y0.4198
N6810 G2 X0.2446 Y0.4191 I-0.0223 J-0.0324
N6815 G1 X0.257 Y0.41
N6820 G2 X0.258 Y0.4092 I-0.0233 J-0.0317
N6825 G1 X0.27 Y0.3999
N6830 G2 X0.2709 Y0.3991 I-0.0243 J-0.031
N6835 G1 X0.2825 Y0.3894
N6840 G2 X0.2834 Y0.3886 I-0.0252 J-0.0302
N6845 G1 X0.2946 Y0.3787
N6850 G2 X0.2955 Y0.3778 I-0.0262 J-0.0294
N6855 G1 X0.3062 Y0.3677
N6860 G2 X0.3071 Y0.3668 I-0.0271 J-0.0286
N6865 G1 X0.3175 Y0.3564
N6870 G2 X0.3183 Y0.3555 I-0.0279 J-0.0277
N6875 G1 X0.3282 Y0.3448
N6880 G2 X0.3291 Y0.3439 I-0.0288 J-0.0269
N6885 G1 X0.3386 Y0.3331
N6890 G2 X0.3394 Y0.3322 I-0.0296 J-0.026
N6895 G1 X0.3485 Y0.3211
N6900 G2 X0.3492 Y0.3202 I-0.0304 J-0.025
N6905 G1 X0.3579 Y0.3089
N6910 G2 X0.3587 Y0.3079 I-0.0311 J-0.0241
N6915 G1 X0.367 Y0.2965
N6920 G2 X0.3676 Y0.2956 I-0.0319 J-0.0231
N6925 G1 X0.3755 Y0.284
N6930 G2 X0.3762 Y0.283 I-0.0325 J-0.0222
N6935 G1 X0.3836 Y0.2713
N6940 G2 X0.3843 Y0.2703 I-0.0332 J-0.0211
N6945 G1 X0.3913 Y0.2584
N6950 G2 X0.3919 Y0.2574 I-0.0338 J-0.0201
N6955 G1 X0.3985 Y0.2455
N6960 G2 X0.3991 Y0.2444 I-0.0344 J-0.0191
N6965 G1 X0.4052 Y0.2324
N6970 G2 X0.4058 Y0.2313 I-0.035 J-0.018
N6975 G1 X0.4115 Y0.2192
N6980 G2 X0.4144 Y0.211 I-0.0356 J-0.0169
N6985 G1 X0.4665 Y-0.0203
N6990 G2 X0.0357 Y-0.5249 I-0.4042 J-0.0911
N6995 G3 X0.0274 Y-0.5323 I-0.0005 J-0.0079
N7000 G1 X0.0269 Y-0.5401
N7005 X0.0267 Y-0.5422 Z-0.3747
N7010 X0.0266 Y-0.5441 Z-0.3739
N7015 X0.0265 Y-0.5457 Z-0.3727
N7020 X0.0264 Y-0.5469 Z-0.3711
N7025 Y-0.5477 Z-0.3692
N7030 Y-0.548 Z-0.3671
N7035 G0 Z0.6
N7045 M9
N7050 G53 Z0.
N7055 M30
%
