%
(1001)
(34 NUB)
(T1  D=0.75 CR=0. - ZMIN=-1. - FLAT END MILL)
N10 G90 G94 G17 G91.1
N15 G20
N20 G53 G0 Z0.
(BORE1)
N25 M9
N30 T1 M6
N35 S400 M3
N40 G54
N45 M8
N50 G0 X0.9775 Y0.075
N55 G43 Z0.6 H1
N60 G0 Z0.08
N65 G1 Z0.075 F2.
N70 G18 G3 X0.9025 Z0. I-0.075 K0.
N75 G1 X0.865
N80 G17 G3 X0.79 Y0. I0. J-0.075
N85 G2 X-0.79 Z-0.125 I-0.79 J0. F3.
N90 X0.79 Z-0.25 I0.79 J0.
N95 X-0.79 Z-0.375 I-0.79 J0.
N100 X0.79 Z-0.5 I0.79 J0.
N105 X-0.79 Z-0.625 I-0.79 J0.
N110 X0.79 Z-0.75 I0.79 J0.
N115 X-0.79 Z-0.875 I-0.79 J0.
N120 X0.79 Z-1. I0.79 J0.
N125 X-0.79 I-0.79 J0.
N130 X0.79 I0.79 J0.
N135 G3 X0.865 Y-0.075 I0.075 J0. F2.
N140 G1 X0.9025
N145 G18 G2 X0.9775 Z-0.925 I0. K0.075
N150 G0 Z0.2
N155 X0.9375 Y0.075
N160 Z0.08
N165 G1 Z0.075 F2.
N170 G3 X0.8625 Z0. I-0.075 K0.
N175 G1 X0.825
N180 G17 G3 X0.75 Y0. I0. J-0.075
N185 G2 X-0.75 Z-0.125 I-0.75 J0. F3.
N190 X0.75 Z-0.25 I0.75 J0.
N195 X-0.75 Z-0.375 I-0.75 J0.
N200 X0.75 Z-0.5 I0.75 J0.
N205 X-0.75 Z-0.625 I-0.75 J0.
N210 X0.75 Z-0.75 I0.75 J0.
N215 X-0.75 Z-0.875 I-0.75 J0.
N220 X0.75 Z-1. I0.75 J0.
N225 X-0.75 I-0.75 J0.
N230 X0.75 I0.75 J0.
N235 G3 X0.825 Y-0.075 I0.075 J0. F2.
N240 G1 X0.8625
N245 G18 G2 X0.9375 Z-0.925 I0. K0.075
N250 G0 Z0.2
N255 Y0.075
N260 Z0.08
N265 G1 Z0.075 F2.
N270 G3 X0.8625 Z0. I-0.075 K0.
N275 G1 X0.825
N280 G17 G3 X0.75 Y0. I0. J-0.075
N285 G2 X-0.75 Z-0.125 I-0.75 J0. F3.
N290 X0.75 Z-0.25 I0.75 J0.
N295 X-0.75 Z-0.375 I-0.75 J0.
N300 X0.75 Z-0.5 I0.75 J0.
N305 X-0.75 Z-0.625 I-0.75 J0.
N310 X0.75 Z-0.75 I0.75 J0.
N315 X-0.75 Z-0.875 I-0.75 J0.
N320 X0.75 Z-1. I0.75 J0.
N325 X-0.75 I-0.75 J0.
N330 X0.75 I0.75 J0.
N335 G3 X0.825 Y-0.075 I0.075 J0. F2.
N340 G1 X0.8625
N345 G18 G2 X0.9375 Z-0.925 I0. K0.075
N350 G0 Z0.6
N355 G17
N360 M9
N365 G53 G0 Z0.
N370 M30
%
