%
(1001)
(316 END MILL)
(T4  D=0.1875 CR=0. - ZMIN=-0.655 - FLAT END MILL)
N10 G90 G94 G17 G91.1
N15 G20
N20 G53 G0 Z0.
(316 WHEEL CONTOUR)
N25 M9
N30 T4 M6
N35 S1800 M3
N40 G54
N45 M8
N55 G0 X0.2043 Y0.4935
N60 G43 Z0.6 H4
N65 G0 Z-0.3
N70 G1 Z-0.3981 F3.
N75 Z-0.5438 F1.
N80 X0.2045 Y0.4933 Z-0.547
N85 X0.205 Y0.4926 Z-0.5502
N90 X0.2059 Y0.4915 Z-0.5531
N95 X0.2071 Y0.4901 Z-0.5558
N100 X0.2085 Y0.4883 Z-0.5581
N105 X0.2102 Y0.4862 Z-0.56
N110 X0.2121 Y0.4839 Z-0.5614
N115 X0.214 Y0.4814 Z-0.5622
N120 X0.2161 Y0.4789 Z-0.5625
N125 X0.2279 Y0.4643 F3.
N130 G3 X0.2543 Y0.4616 I0.0146 J0.0118
N135 G2 X0.3443 Y0.5217 I0.3735 J-0.4616 F2.
N140 X0.4077 Y0.5312 I0.0448 J-0.0824
N145 X0.4593 Y0.5694 I0.0782 J-0.0517
N150 X0.5655 Y0.5905 I0.1684 J-0.5694
N155 X0.6278 Y0.575 I0.0098 J-0.0932
N160 X0.69 Y0.5905 I0.0524 J-0.0777
N165 X0.7962 Y0.5694 I-0.0623 J-0.5905
N170 X0.8478 Y0.5312 I-0.0266 J-0.0899
N175 X0.9113 Y0.5217 I0.0187 J-0.0919
N180 X1.0013 Y0.4616 I-0.2835 J-0.5217
N185 X1.0343 Y0.4066 I-0.059 J-0.0729
N190 X1.0893 Y0.3735 I-0.0179 J-0.092
N195 X1.1495 Y0.2835 I-0.4616 J-0.3735
N200 X1.1589 Y0.22 I-0.0824 J-0.0448
N205 X1.1971 Y0.1684 I-0.0517 J-0.0782
N210 X1.2182 Y0.0623 I-0.5694 J-0.1684
N215 X1.2027 Y0. I-0.0932 J-0.0098
N220 X1.2182 Y-0.0623 I-0.0777 J-0.0524
N225 X1.1971 Y-0.1684 I-0.5905 J0.0623
N230 X1.1589 Y-0.22 I-0.0899 J0.0266
N235 X1.1495 Y-0.2835 I-0.0919 J-0.0187
N240 X1.0893 Y-0.3735 I-0.5217 J0.2835
N245 X1.0343 Y-0.4066 I-0.0729 J0.059
N250 X1.0013 Y-0.4616 I-0.092 J0.0179
N255 X0.9113 Y-0.5217 I-0.3735 J0.4616
N260 X0.8478 Y-0.5312 I-0.0448 J0.0824
N265 X0.7962 Y-0.5694 I-0.0782 J0.0517
N270 X0.69 Y-0.5905 I-0.1684 J0.5694
N275 X0.6278 Y-0.575 I-0.0098 J0.0932
N280 X0.5655 Y-0.5905 I-0.0524 J0.0777
N285 X0.4593 Y-0.5694 I0.0623 J0.5905
N290 X0.4077 Y-0.5312 I0.0266 J0.0899
N295 X0.3443 Y-0.5217 I-0.0187 J0.0919
N300 X0.2543 Y-0.4616 I0.2835 J0.5217
N305 X0.2212 Y-0.4066 I0.059 J0.0729
N310 X0.1662 Y-0.3735 I0.0179 J0.092
N315 X0.1061 Y-0.2835 I0.4616 J0.3735
N320 X0.0966 Y-0.22 I0.0824 J0.0448
N325 X0.0584 Y-0.1684 I0.0517 J0.0782
N330 X0.0373 Y-0.0623 I0.5694 J0.1684
N335 X0.0528 Y0. I0.0932 J0.0098
N340 X0.0373 Y0.0623 I0.0777 J0.0524
N345 X0.0584 Y0.1684 I0.5905 J-0.0623
N350 X0.0966 Y0.22 I0.0899 J-0.0266
N355 X0.1061 Y0.2835 I0.0919 J0.0187
N360 X0.1662 Y0.3735 I0.5217 J-0.2835
N365 X0.2212 Y0.4066 I0.0729 J-0.059
N370 X0.2543 Y0.4616 I0.092 J-0.0179
N375 X0.3443 Y0.5217 I0.3735 J-0.4616
N380 X0.4077 Y0.5312 I0.0448 J-0.0824
N385 X0.4593 Y0.5694 I0.0782 J-0.0517
N390 X0.5655 Y0.5905 I0.1684 J-0.5694
N395 X0.6278 Y0.575 I0.0098 J-0.0932
N400 X0.69 Y0.5905 I0.0524 J-0.0777
N405 X0.7962 Y0.5694 I-0.0623 J-0.5905
N410 X0.8478 Y0.5312 I-0.0266 J-0.0899
N415 X0.9113 Y0.5217 I0.0187 J-0.0919
N420 X1.0013 Y0.4616 I-0.2835 J-0.5217
N425 X1.0343 Y0.4066 I-0.059 J-0.0729
N430 X1.0893 Y0.3735 I-0.0179 J-0.092
N435 X1.1495 Y0.2835 I-0.4616 J-0.3735
N440 X1.1589 Y0.22 I-0.0824 J-0.0448
N445 X1.1971 Y0.1684 I-0.0517 J-0.0782
N450 X1.2182 Y0.0623 I-0.5694 J-0.1684
N455 X1.2027 Y0. I-0.0932 J-0.0098
N460 X1.2182 Y-0.0623 I-0.0777 J-0.0524
N465 X1.1971 Y-0.1684 I-0.5905 J0.0623
N470 X1.1589 Y-0.22 I-0.0899 J0.0266
N475 X1.1495 Y-0.2835 I-0.0919 J-0.0187
N480 X1.0893 Y-0.3735 I-0.5217 J0.2835
N485 X1.0343 Y-0.4066 I-0.0729 J0.059
N490 X1.0013 Y-0.4616 I-0.092 J0.0179
N495 X0.9113 Y-0.5217 I-0.3735 J0.4616
N500 X0.8478 Y-0.5312 I-0.0448 J0.0824
N505 X0.7962 Y-0.5694 I-0.0782 J0.0517
N510 X0.69 Y-0.5905 I-0.1684 J0.5694
N515 X0.6278 Y-0.575 I-0.0098 J0.0932
N520 X0.5655 Y-0.5905 I-0.0524 J0.0777
N525 X0.4593 Y-0.5694 I0.0623 J0.5905
N530 X0.4077 Y-0.5312 I0.0266 J0.0899
N535 X0.3443 Y-0.5217 I-0.0187 J0.0919
N540 X0.2543 Y-0.4616 I0.2835 J0.5217
N545 X0.2212 Y-0.4066 I0.059 J0.0729
N550 X0.1662 Y-0.3735 I0.0179 J0.092
N555 X0.1061 Y-0.2835 I0.4616 J0.3735
N560 X0.0966 Y-0.22 I0.0824 J0.0448
N565 X0.0584 Y-0.1684 I0.0517 J0.0782
N570 X0.0373 Y-0.0623 I0.5694 J0.1684
N575 X0.0528 Y0. I0.0932 J0.0098
N580 X0.0373 Y0.0623 I0.0777 J0.0524
N585 X0.0584 Y0.1684 I0.5905 J-0.0623
N590 X0.0966 Y0.22 I0.0899 J-0.0266
N595 X0.1061 Y0.2835 I0.0919 J0.0187
N600 X0.1662 Y0.3735 I0.5217 J-0.2835
N605 X0.2212 Y0.4066 I0.0729 J-0.059
N610 X0.2543 Y0.4616 I0.092 J-0.0179
N615 G3 X0.257 Y0.4879 I-0.0118 J0.0146 F3.
N620 G1 X0.2452 Y0.5025
N625 X0.2432 Y0.505 Z-0.5622
N630 X0.2412 Y0.5075 Z-0.5614
N635 X0.2393 Y0.5098 Z-0.56
N640 X0.2377 Y0.5119 Z-0.5581
N645 X0.2362 Y0.5137 Z-0.5558
N650 X0.235 Y0.5151 Z-0.5531
N655 X0.2342 Y0.5162 Z-0.5502
N660 X0.2336 Y0.5169 Z-0.547
N665 X0.2334 Y0.5171 Z-0.5438
N670 G0 Z0.2
N675 X0.2043 Y0.4935
N680 Z-0.3
N685 G1 Z-0.4606 F3.
N690 Z-0.6063 F1.
N695 X0.2045 Y0.4933 Z-0.6095
N700 X0.205 Y0.4926 Z-0.6127
N705 X0.2059 Y0.4915 Z-0.6156
N710 X0.2071 Y0.4901 Z-0.6183
N715 X0.2085 Y0.4883 Z-0.6206
N720 X0.2102 Y0.4862 Z-0.6225
N725 X0.2121 Y0.4839 Z-0.6239
N730 X0.214 Y0.4814 Z-0.6247
N735 X0.2161 Y0.4789 Z-0.625
N740 X0.2279 Y0.4643 F3.
N745 G3 X0.2543 Y0.4616 I0.0146 J0.0118
N750 G2 X0.3443 Y0.5217 I0.3735 J-0.4616 F2.
N755 X0.3929 Y0.533 I0.0448 J-0.0824
N760 G1 Z-0.565
N765 G2 X0.4077 Y0.5312 I-0.0038 J-0.0937
N770 X0.4593 Y0.5694 I0.0782 J-0.0517
N775 X0.5655 Y0.5905 I0.1684 J-0.5694
N780 X0.6278 Y0.575 I0.0098 J-0.0932
N785 X0.6359 Y0.5799 I0.0524 J-0.0777
N790 G1 Z-0.625 F1.
N795 G2 X0.69 Y0.5905 I0.0443 J-0.0826 F2.
N800 X0.7962 Y0.5694 I-0.0623 J-0.5905
N805 X0.8478 Y0.5312 I-0.0266 J-0.0899
N810 X0.9113 Y0.5217 I0.0187 J-0.0919
N815 X1.0013 Y0.4616 I-0.2835 J-0.5217
N820 X1.0309 Y0.4192 I-0.059 J-0.0729
N825 G1 Z-0.565
N830 G2 X1.0343 Y0.4066 I-0.0887 J-0.0305
N835 X1.0893 Y0.3735 I-0.0179 J-0.092
N840 X1.1495 Y0.2835 I-0.4616 J-0.3735
N845 X1.1589 Y0.22 I-0.0824 J-0.0448
N850 X1.1681 Y0.2131 I-0.0517 J-0.0782
N855 G1 Z-0.625 F1.
N860 G2 X1.1971 Y0.1684 I-0.0609 J-0.0713 F2.
N865 X1.2182 Y0.0623 I-0.5694 J-0.1684
N870 X1.2068 Y0.0066 I-0.0932 J-0.0098
N875 G1 Z-0.565
N880 G2 X1.2027 Y0. I-0.0818 J0.0458
N885 X1.2182 Y-0.0623 I-0.0777 J-0.0524
N890 X1.1971 Y-0.1684 I-0.5905 J0.0623
N895 X1.1589 Y-0.22 I-0.0899 J0.0266
N900 X1.1608 Y-0.2366 I-0.0919 J-0.0187
N905 G1 Z-0.625 F1.
N910 G2 X1.1495 Y-0.2835 I-0.0937 J-0.0021 F2.
N915 X1.0893 Y-0.3735 I-0.5217 J0.2835
N920 X1.0343 Y-0.4066 I-0.0729 J0.059
N925 X1.0013 Y-0.4616 I-0.092 J0.0179
N930 X0.9113 Y-0.5217 I-0.3735 J0.4616
N935 X0.8579 Y-0.5327 I-0.0448 J0.0824
N940 G1 Z-0.565
N945 G2 X0.8478 Y-0.5312 I0.0086 J0.0934
N950 X0.7962 Y-0.5694 I-0.0782 J0.0517
N955 X0.69 Y-0.5905 I-0.1684 J0.5694
N960 X0.6278 Y-0.575 I-0.0098 J0.0932
N965 X0.6154 Y-0.582 I-0.0524 J0.0777
N970 G1 Z-0.625 F1.
N975 G2 X0.5655 Y-0.5905 I-0.0401 J0.0848 F2.
N980 X0.4593 Y-0.5694 I0.0623 J0.5905
N985 X0.4077 Y-0.5312 I0.0266 J0.0899
N990 X0.3443 Y-0.5217 I-0.0187 J0.0919
N995 X0.2543 Y-0.4616 I0.2835 J0.5217
N1000 X0.2255 Y-0.4217 I0.059 J0.0729
N1005 G1 Z-0.565
N1010 G2 X0.2212 Y-0.4066 I0.0878 J0.033
N1015 X0.1662 Y-0.3735 I0.0179 J0.092
N1020 X0.1061 Y-0.2835 I0.4616 J0.3735
N1025 X0.0966 Y-0.22 I0.0824 J0.0448
N1030 X0.0895 Y-0.2148 I0.0517 J0.0782
N1035 G1 Z-0.625 F1.
N1040 G2 X0.0584 Y-0.1684 I0.0588 J0.073 F2.
N1045 X0.0373 Y-0.0623 I0.5694 J0.1684
N1050 X0.0482 Y-0.0076 I0.0932 J0.0098
N1055 G1 Z-0.565
N1060 G2 X0.0528 Y0. I0.0824 J-0.0448
N1065 X0.0373 Y0.0623 I0.0777 J0.0524
N1070 X0.0584 Y0.1684 I0.5905 J-0.0623
N1075 X0.0966 Y0.22 I0.0899 J-0.0266
N1080 X0.0947 Y0.2355 I0.0919 J0.0187
N1085 G1 Z-0.625 F1.
N1090 G2 X0.1061 Y0.2835 I0.0937 J0.0033 F2.
N1095 X0.1662 Y0.3735 I0.5217 J-0.2835
N1100 X0.2212 Y0.4066 I0.0729 J-0.059
N1105 X0.2543 Y0.4616 I0.092 J-0.0179
N1110 X0.3443 Y0.5217 I0.3735 J-0.4616
N1115 X0.3929 Y0.533 I0.0448 J-0.0824
N1120 G1 Z-0.565
N1125 G2 X0.4077 Y0.5312 I-0.0038 J-0.0937
N1130 X0.4593 Y0.5694 I0.0782 J-0.0517
N1135 X0.5655 Y0.5905 I0.1684 J-0.5694
N1140 X0.6278 Y0.575 I0.0098 J-0.0932
N1145 X0.6359 Y0.5799 I0.0524 J-0.0777
N1150 G1 Z-0.625 F1.
N1155 G2 X0.69 Y0.5905 I0.0443 J-0.0826 F2.
N1160 X0.7962 Y0.5694 I-0.0623 J-0.5905
N1165 X0.8478 Y0.5312 I-0.0266 J-0.0899
N1170 X0.9113 Y0.5217 I0.0187 J-0.0919
N1175 X1.0013 Y0.4616 I-0.2835 J-0.5217
N1180 X1.0309 Y0.4192 I-0.059 J-0.0729
N1185 G1 Z-0.565
N1190 G2 X1.0343 Y0.4066 I-0.0887 J-0.0305
N1195 X1.0893 Y0.3735 I-0.0179 J-0.092
N1200 X1.1495 Y0.2835 I-0.4616 J-0.3735
N1205 X1.1589 Y0.22 I-0.0824 J-0.0448
N1210 X1.1681 Y0.2131 I-0.0517 J-0.0782
N1215 G1 Z-0.625 F1.
N1220 G2 X1.1971 Y0.1684 I-0.0609 J-0.0713 F2.
N1225 X1.2182 Y0.0623 I-0.5694 J-0.1684
N1230 X1.2068 Y0.0066 I-0.0932 J-0.0098
N1235 G1 Z-0.565
N1240 G2 X1.2027 Y0. I-0.0818 J0.0458
N1245 X1.2182 Y-0.0623 I-0.0777 J-0.0524
N1250 X1.1971 Y-0.1684 I-0.5905 J0.0623
N1255 X1.1589 Y-0.22 I-0.0899 J0.0266
N1260 X1.1608 Y-0.2366 I-0.0919 J-0.0187
N1265 G1 Z-0.625 F1.
N1270 G2 X1.1495 Y-0.2835 I-0.0937 J-0.0021 F2.
N1275 X1.0893 Y-0.3735 I-0.5217 J0.2835
N1280 X1.0343 Y-0.4066 I-0.0729 J0.059
N1285 X1.0013 Y-0.4616 I-0.092 J0.0179
N1290 X0.9113 Y-0.5217 I-0.3735 J0.4616
N1295 X0.8579 Y-0.5327 I-0.0448 J0.0824
N1300 G1 Z-0.565
N1305 G2 X0.8478 Y-0.5312 I0.0086 J0.0934
N1310 X0.7962 Y-0.5694 I-0.0782 J0.0517
N1315 X0.69 Y-0.5905 I-0.1684 J0.5694
N1320 X0.6278 Y-0.575 I-0.0098 J0.0932
N1325 X0.6154 Y-0.582 I-0.0524 J0.0777
N1330 G1 Z-0.625 F1.
N1335 G2 X0.5655 Y-0.5905 I-0.0401 J0.0848 F2.
N1340 X0.4593 Y-0.5694 I0.0623 J0.5905
N1345 X0.4077 Y-0.5312 I0.0266 J0.0899
N1350 X0.3443 Y-0.5217 I-0.0187 J0.0919
N1355 X0.2543 Y-0.4616 I0.2835 J0.5217
N1360 X0.2255 Y-0.4217 I0.059 J0.0729
N1365 G1 Z-0.565
N1370 G2 X0.2212 Y-0.4066 I0.0878 J0.033
N1375 X0.1662 Y-0.3735 I0.0179 J0.092
N1380 X0.1061 Y-0.2835 I0.4616 J0.3735
N1385 X0.0966 Y-0.22 I0.0824 J0.0448
N1390 X0.0895 Y-0.2148 I0.0517 J0.0782
N1395 G1 Z-0.625 F1.
N1400 G2 X0.0584 Y-0.1684 I0.0588 J0.073 F2.
N1405 X0.0373 Y-0.0623 I0.5694 J0.1684
N1410 X0.0482 Y-0.0076 I0.0932 J0.0098
N1415 G1 Z-0.565
N1420 G2 X0.0528 Y0. I0.0824 J-0.0448
N1425 X0.0373 Y0.0623 I0.0777 J0.0524
N1430 X0.0584 Y0.1684 I0.5905 J-0.0623
N1435 X0.0966 Y0.22 I0.0899 J-0.0266
N1440 X0.0947 Y0.2355 I0.0919 J0.0187
N1445 G1 Z-0.625 F1.
N1450 G2 X0.1061 Y0.2835 I0.0937 J0.0033 F2.
N1455 X0.1662 Y0.3735 I0.5217 J-0.2835
N1460 X0.2212 Y0.4066 I0.0729 J-0.059
N1465 X0.2543 Y0.4616 I0.092 J-0.0179
N1470 G3 X0.257 Y0.4879 I-0.0118 J0.0146 F3.
N1475 G1 X0.2452 Y0.5025
N1480 X0.2432 Y0.505 Z-0.6247
N1485 X0.2412 Y0.5075 Z-0.6239
N1490 X0.2393 Y0.5098 Z-0.6225
N1495 X0.2377 Y0.5119 Z-0.6206
N1500 X0.2362 Y0.5137 Z-0.6183
N1505 X0.235 Y0.5151 Z-0.6156
N1510 X0.2342 Y0.5162 Z-0.6127
N1515 X0.2336 Y0.5169 Z-0.6095
N1520 X0.2334 Y0.5171 Z-0.6063
N1525 G0 Z0.2
N1530 X0.2043 Y0.4935
N1535 Z-0.3
N1540 G1 Z-0.5231 F3.
N1545 Z-0.6363 F1.
N1550 X0.2045 Y0.4933 Z-0.6395
N1555 X0.205 Y0.4926 Z-0.6427
N1560 X0.2059 Y0.4915 Z-0.6456
N1565 X0.2071 Y0.4901 Z-0.6483
N1570 X0.2085 Y0.4883 Z-0.6506
N1575 X0.2102 Y0.4862 Z-0.6525
N1580 X0.2121 Y0.4839 Z-0.6539
N1585 X0.214 Y0.4814 Z-0.6547
N1590 X0.2161 Y0.4789 Z-0.655
N1595 X0.2279 Y0.4643 F3.
N1600 G3 X0.2543 Y0.4616 I0.0146 J0.0118
N1605 G2 X0.3443 Y0.5217 I0.3735 J-0.4616 F2.
N1610 X0.3929 Y0.533 I0.0448 J-0.0824
N1615 G1 Z-0.565
N1620 G2 X0.4077 Y0.5312 I-0.0038 J-0.0937
N1625 X0.4593 Y0.5694 I0.0782 J-0.0517
N1630 X0.5655 Y0.5905 I0.1684 J-0.5694
N1635 X0.6278 Y0.575 I0.0098 J-0.0932
N1640 X0.6359 Y0.5799 I0.0524 J-0.0777
N1645 G1 Z-0.655 F1.
N1650 G2 X0.69 Y0.5905 I0.0443 J-0.0826 F2.
N1655 X0.7962 Y0.5694 I-0.0623 J-0.5905
N1660 X0.8478 Y0.5312 I-0.0266 J-0.0899
N1665 X0.9113 Y0.5217 I0.0187 J-0.0919
N1670 X1.0013 Y0.4616 I-0.2835 J-0.5217
N1675 X1.0309 Y0.4192 I-0.059 J-0.0729
N1680 G1 Z-0.565
N1685 G2 X1.0343 Y0.4066 I-0.0887 J-0.0305
N1690 X1.0893 Y0.3735 I-0.0179 J-0.092
N1695 X1.1495 Y0.2835 I-0.4616 J-0.3735
N1700 X1.1589 Y0.22 I-0.0824 J-0.0448
N1705 X1.1681 Y0.2131 I-0.0517 J-0.0782
N1710 G1 Z-0.655 F1.
N1715 G2 X1.1971 Y0.1684 I-0.0609 J-0.0713 F2.
N1720 X1.2182 Y0.0623 I-0.5694 J-0.1684
N1725 X1.2068 Y0.0066 I-0.0932 J-0.0098
N1730 G1 Z-0.565
N1735 G2 X1.2027 Y0. I-0.0818 J0.0458
N1740 X1.2182 Y-0.0623 I-0.0777 J-0.0524
N1745 X1.1971 Y-0.1684 I-0.5905 J0.0623
N1750 X1.1589 Y-0.22 I-0.0899 J0.0266
N1755 X1.1608 Y-0.2366 I-0.0919 J-0.0187
N1760 G1 Z-0.655 F1.
N1765 G2 X1.1495 Y-0.2835 I-0.0937 J-0.0021 F2.
N1770 X1.0893 Y-0.3735 I-0.5217 J0.2835
N1775 X1.0343 Y-0.4066 I-0.0729 J0.059
N1780 X1.0013 Y-0.4616 I-0.092 J0.0179
N1785 X0.9113 Y-0.5217 I-0.3735 J0.4616
N1790 X0.8579 Y-0.5327 I-0.0448 J0.0824
N1795 G1 Z-0.565
N1800 G2 X0.8478 Y-0.5312 I0.0086 J0.0934
N1805 X0.7962 Y-0.5694 I-0.0782 J0.0517
N1810 X0.69 Y-0.5905 I-0.1684 J0.5694
N1815 X0.6278 Y-0.575 I-0.0098 J0.0932
N1820 X0.6154 Y-0.582 I-0.0524 J0.0777
N1825 G1 Z-0.655 F1.
N1830 G2 X0.5655 Y-0.5905 I-0.0401 J0.0848 F2.
N1835 X0.4593 Y-0.5694 I0.0623 J0.5905
N1840 X0.4077 Y-0.5312 I0.0266 J0.0899
N1845 X0.3443 Y-0.5217 I-0.0187 J0.0919
N1850 X0.2543 Y-0.4616 I0.2835 J0.5217
N1855 X0.2255 Y-0.4217 I0.059 J0.0729
N1860 G1 Z-0.565
N1865 G2 X0.2212 Y-0.4066 I0.0878 J0.033
N1870 X0.1662 Y-0.3735 I0.0179 J0.092
N1875 X0.1061 Y-0.2835 I0.4616 J0.3735
N1880 X0.0966 Y-0.22 I0.0824 J0.0448
N1885 X0.0895 Y-0.2148 I0.0517 J0.0782
N1890 G1 Z-0.655 F1.
N1895 G2 X0.0584 Y-0.1684 I0.0588 J0.073 F2.
N1900 X0.0373 Y-0.0623 I0.5694 J0.1684
N1905 X0.0482 Y-0.0076 I0.0932 J0.0098
N1910 G1 Z-0.565
N1915 G2 X0.0528 Y0. I0.0824 J-0.0448
N1920 X0.0373 Y0.0623 I0.0777 J0.0524
N1925 X0.0584 Y0.1684 I0.5905 J-0.0623
N1930 X0.0966 Y0.22 I0.0899 J-0.0266
N1935 X0.0947 Y0.2355 I0.0919 J0.0187
N1940 G1 Z-0.655 F1.
N1945 G2 X0.1061 Y0.2835 I0.0937 J0.0033 F2.
N1950 X0.1662 Y0.3735 I0.5217 J-0.2835
N1955 X0.2212 Y0.4066 I0.0729 J-0.059
N1960 X0.2543 Y0.4616 I0.092 J-0.0179
N1965 X0.3443 Y0.5217 I0.3735 J-0.4616
N1970 X0.3929 Y0.533 I0.0448 J-0.0824
N1975 G1 Z-0.565
N1980 G2 X0.4077 Y0.5312 I-0.0038 J-0.0937
N1985 X0.4593 Y0.5694 I0.0782 J-0.0517
N1990 X0.5655 Y0.5905 I0.1684 J-0.5694
N1995 X0.6278 Y0.575 I0.0098 J-0.0932
N2000 X0.6359 Y0.5799 I0.0524 J-0.0777
N2005 G1 Z-0.655 F1.
N2010 G2 X0.69 Y0.5905 I0.0443 J-0.0826 F2.
N2015 X0.7962 Y0.5694 I-0.0623 J-0.5905
N2020 X0.8478 Y0.5312 I-0.0266 J-0.0899
N2025 X0.9113 Y0.5217 I0.0187 J-0.0919
N2030 X1.0013 Y0.4616 I-0.2835 J-0.5217
N2035 X1.0309 Y0.4192 I-0.059 J-0.0729
N2040 G1 Z-0.565
N2045 G2 X1.0343 Y0.4066 I-0.0887 J-0.0305
N2050 X1.0893 Y0.3735 I-0.0179 J-0.092
N2055 X1.1495 Y0.2835 I-0.4616 J-0.3735
N2060 X1.1589 Y0.22 I-0.0824 J-0.0448
N2065 X1.1681 Y0.2131 I-0.0517 J-0.0782
N2070 G1 Z-0.655 F1.
N2075 G2 X1.1971 Y0.1684 I-0.0609 J-0.0713 F2.
N2080 X1.2182 Y0.0623 I-0.5694 J-0.1684
N2085 X1.2068 Y0.0066 I-0.0932 J-0.0098
N2090 G1 Z-0.565
N2095 G2 X1.2027 Y0. I-0.0818 J0.0458
N2100 X1.2182 Y-0.0623 I-0.0777 J-0.0524
N2105 X1.1971 Y-0.1684 I-0.5905 J0.0623
N2110 X1.1589 Y-0.22 I-0.0899 J0.0266
N2115 X1.1608 Y-0.2366 I-0.0919 J-0.0187
N2120 G1 Z-0.655 F1.
N2125 G2 X1.1495 Y-0.2835 I-0.0937 J-0.0021 F2.
N2130 X1.0893 Y-0.3735 I-0.5217 J0.2835
N2135 X1.0343 Y-0.4066 I-0.0729 J0.059
N2140 X1.0013 Y-0.4616 I-0.092 J0.0179
N2145 X0.9113 Y-0.5217 I-0.3735 J0.4616
N2150 X0.8579 Y-0.5327 I-0.0448 J0.0824
N2155 G1 Z-0.565
N2160 G2 X0.8478 Y-0.5312 I0.0086 J0.0934
N2165 X0.7962 Y-0.5694 I-0.0782 J0.0517
N2170 X0.69 Y-0.5905 I-0.1684 J0.5694
N2175 X0.6278 Y-0.575 I-0.0098 J0.0932
N2180 X0.6154 Y-0.582 I-0.0524 J0.0777
N2185 G1 Z-0.655 F1.
N2190 G2 X0.5655 Y-0.5905 I-0.0401 J0.0848 F2.
N2195 X0.4593 Y-0.5694 I0.0623 J0.5905
N2200 X0.4077 Y-0.5312 I0.0266 J0.0899
N2205 X0.3443 Y-0.5217 I-0.0187 J0.0919
N2210 X0.2543 Y-0.4616 I0.2835 J0.5217
N2215 X0.2255 Y-0.4217 I0.059 J0.0729
N2220 G1 Z-0.565
N2225 G2 X0.2212 Y-0.4066 I0.0878 J0.033
N2230 X0.1662 Y-0.3735 I0.0179 J0.092
N2235 X0.1061 Y-0.2835 I0.4616 J0.3735
N2240 X0.0966 Y-0.22 I0.0824 J0.0448
N2245 X0.0895 Y-0.2148 I0.0517 J0.0782
N2250 G1 Z-0.655 F1.
N2255 G2 X0.0584 Y-0.1684 I0.0588 J0.073 F2.
N2260 X0.0373 Y-0.0623 I0.5694 J0.1684
N2265 X0.0482 Y-0.0076 I0.0932 J0.0098
N2270 G1 Z-0.565
N2275 G2 X0.0528 Y0. I0.0824 J-0.0448
N2280 X0.0373 Y0.0623 I0.0777 J0.0524
N2285 X0.0584 Y0.1684 I0.5905 J-0.0623
N2290 X0.0966 Y0.22 I0.0899 J-0.0266
N2295 X0.0947 Y0.2355 I0.0919 J0.0187
N2300 G1 Z-0.655 F1.
N2305 G2 X0.1061 Y0.2835 I0.0937 J0.0033 F2.
N2310 X0.1662 Y0.3735 I0.5217 J-0.2835
N2315 X0.2212 Y0.4066 I0.0729 J-0.059
N2320 X0.2543 Y0.4616 I0.092 J-0.0179
N2325 G3 X0.257 Y0.4879 I-0.0118 J0.0146 F3.
N2330 G1 X0.2452 Y0.5025
N2335 X0.2432 Y0.505 Z-0.6547
N2340 X0.2412 Y0.5075 Z-0.6539
N2345 X0.2393 Y0.5098 Z-0.6525
N2350 X0.2377 Y0.5119 Z-0.6506
N2355 X0.2362 Y0.5137 Z-0.6483
N2360 X0.235 Y0.5151 Z-0.6456
N2365 X0.2342 Y0.5162 Z-0.6427
N2370 X0.2336 Y0.5169 Z-0.6395
N2375 X0.2334 Y0.5171 Z-0.6363
N2380 G0 Z0.6
N2390 M9
N2395 G53 Z0.
N2400 M30
%
