%
(1001)
(6MM END MILL 12K)
(T2  D=0.2362 CR=0. - ZMIN=-0.023 - FLAT END MILL)
N10 G90 G94 G17 G91.1
N15 G20
N20 G53 G0 Z0.
(FACE1 2)
N25 T2 M6
(0)
N30 S12000 M3
N35 G54
N40 M8
N45 G0 X0.0894 Y-0.0496
N50 G43 Z0.3 H2
N55 G0 Z0.2
N60 G1 Z0.0006 F10.
N65 G18 G2 X0.113 Z-0.023 I0.0236 K0.
N70 G1 X0.1819
N75 X2.0837
N80 G2 X2.1073 Z0.0006 I0. K0.0236
N85 G0 Z0.2
N90 X3.5836 Y0.1419
N95 G1 Z0.0006 F10.
N100 G3 X3.56 Z-0.023 I-0.0236 K0.
N105 G1 X3.5058
N110 X0.0753
N115 G3 X0.0517 Z0.0006 I0. K0.0236
N120 G0 Z0.2
N125 X3.9689 Y-0.0496
N130 G1 Z0.0006 F10.
N135 G2 X3.9925 Z-0.023 I0.0236 K0.
N140 G1 X4.0805
N145 X4.5893
N150 X4.9195
N155 G17 G3 Y0.1419 I0. J0.0957
N160 G1 X3.963
N165 G18 G3 X3.9394 Z0.0006 I0. K0.0236
N170 G0 Z0.2
N175 X5.1085 Y0.3333
N180 G1 Z0.0006 F10.
N185 G3 X5.0849 Z-0.023 I-0.0236 K0.
N190 G1 X4.98
N195 X0.0531
N200 G17 G2 Y0.5248 I0. J0.0957
N205 G1 X0.0535
N210 X5.0023
N215 X5.0026
N220 G3 Y0.7163 I0. J0.0957
N225 G1 X0.1098
N230 G2 Y0.9078 I0. J0.0957
N235 G1 X0.2568
N240 X4.9962
N245 G3 Y1.0992 I0. J0.0957
N250 G1 X4.9637
N255 X0.4708
N260 G2 Y1.2907 I0. J0.0957
N265 G1 X0.7537
N270 X4.9122
N275 G3 Y1.4822 I0. J0.0957
N280 G1 X4.8534
N285 X1.1759
N290 G18 G3 X1.1523 Z0.0006 I0. K0.0236
N295 G0 Z0.3
N300 G17
N305 M9
N310 G53 G0 Z0.
N315 M30
%
