%
(1001)
(2MM END MILL 12K)
(T1  D=0.0787 CR=0. - ZMIN=-0.125 - FLAT END MILL)
N10 G90 G94 G17 G91.1
N15 G20
N20 G53 G0 Z0.
(DRILL1 2)
N25 T1 M6
N30 S12000 M3
N35 G54
N40 M8
N45 G0 X0.4484 Y0.5057
N50 G43 Z0.3 H1
N55 G0 Z0.2
N60 G98 G81 X0.4484 Y0.5057 Z-0.125 R0.177 F1.
N65 X0.3563 Y0.3497
N70 X0.5121 Y0.2542
N75 G80
N80 G0 Z0.3
(BORE1 2)
N85 G0 X0.8094 Y0.7627
N90 Z0.3
N95 Z0.057
N100 G1 Z-0.0151 F5.
N105 X0.8092 Z-0.0172
N110 X0.8084 Y0.7626 Z-0.0191
N115 X0.8071 Y0.7624 Z-0.0207
N120 X0.8055 Y0.7622 Z-0.0219
N125 X0.8036 Y0.762 Z-0.0227
N130 X0.8016 Y0.7617 Z-0.023
N135 X0.7977 Y0.7613
N140 G2 X0.7889 Y0.7681 I-0.001 J0.0078
N145 X1.0165 Y0.796 Z-0.0427 I0.1138 J0.014
N150 X0.7889 Y0.7681 Z-0.0624 I-0.1138 J-0.014
N155 X1.0165 Y0.796 Z-0.0821 I0.1138 J0.014
N160 X0.7889 Y0.7681 Z-0.1017 I-0.1138 J-0.014
N165 X1.0165 Y0.796 Z-0.1214 I0.1138 J0.014
N170 X1.006 Y0.7324 Z-0.125 I-0.1138 J-0.014
N175 X0.7994 Y0.8318 I-0.1033 J0.0497
N180 X1.006 Y0.7324 I0.1033 J-0.0497
N185 X0.9955 Y0.7287 I-0.0071 J0.0034
N190 G1 X0.992 Y0.7304
N195 X0.9901 Y0.7313 Z-0.1247
N200 X0.9884 Y0.7321 Z-0.1239
N205 X0.9869 Y0.7328 Z-0.1227
N210 X0.9858 Y0.7334 Z-0.1211
N215 X0.9851 Y0.7337 Z-0.1192
N220 X0.9849 Y0.7338 Z-0.1171
N225 G0 Z0.2
N230 X3.0664 Y1.2629
N235 Z0.018
N240 G1 Z-0.0541 F5.
N245 X3.0662 Z-0.0562
N250 X3.0654 Y1.2628 Z-0.0581
N255 X3.0641 Y1.2627 Z-0.0597
N260 X3.0625 Y1.2625 Z-0.061
N265 X3.0606 Y1.2622 Z-0.0617
N270 X3.0586 Y1.262 Z-0.062
N275 X3.0547 Y1.2615
N280 G2 X3.0459 Y1.2684 I-0.001 J0.0078
N285 X3.0789 Y1.2724 Z-0.0817 I0.0165 J0.002
N290 X3.0459 Y1.2684 Z-0.1014 I-0.0165 J-0.002
N295 X3.0789 Y1.2724 Z-0.1211 I0.0165 J0.002
N300 X3.077 Y1.2623 Z-0.125 I-0.0165 J-0.002
N305 X3.0479 Y1.2784 I-0.0146 J0.008
N310 X3.077 Y1.2623 I0.0146 J-0.008
N315 X3.0663 Y1.2593 I-0.0069 J0.0038
N320 G1 X3.0628 Y1.2612
N325 X3.0611 Y1.2621 Z-0.1247
N330 X3.0594 Y1.2631 Z-0.1239
N335 X3.058 Y1.2639 Z-0.1227
N340 X3.0569 Y1.2645 Z-0.1211
N345 X3.0562 Y1.2648 Z-0.1192
N350 X3.0559 Y1.265 Z-0.1171
N355 G0 Z0.2
N360 X4.4816 Y1.2001
N365 Z0.018
N370 G1 Z-0.0541 F5.
N375 X4.4813 Z-0.0562
N380 X4.4805 Y1.2 Z-0.0581
N385 X4.4793 Y1.1998 Z-0.0597
N390 X4.4777 Y1.1996 Z-0.061
N395 X4.4758 Y1.1994 Z-0.0617
N400 X4.4738 Y1.1992 Z-0.062
N405 X4.4699 Y1.1987
N410 G2 X4.4611 Y1.2055 I-0.001 J0.0078
N415 X4.4941 Y1.2096 Z-0.0817 I0.0165 J0.002
N420 X4.4611 Y1.2055 Z-0.1014 I-0.0165 J-0.002
N425 X4.4941 Y1.2096 Z-0.1211 I0.0165 J0.002
N430 X4.4921 Y1.1995 Z-0.125 I-0.0165 J-0.002
N435 X4.463 Y1.2156 I-0.0146 J0.008
N440 X4.4921 Y1.1995 I0.0146 J-0.008
N445 X4.4814 Y1.1964 I-0.0069 J0.0038
N450 G1 X4.478 Y1.1983
N455 X4.4762 Y1.1993 Z-0.1247
N460 X4.4746 Y1.2003 Z-0.1239
N465 X4.4731 Y1.201 Z-0.1227
N470 X4.472 Y1.2016 Z-0.1211
N475 X4.4713 Y1.202 Z-0.1192
N480 X4.4711 Y1.2022 Z-0.1171
N485 G0 Z0.2
N490 X4.3377 Y0.6886
N495 Z0.0088
N500 G1 Z-0.0634 F5.
N505 X4.3374 Y0.6885 Z-0.0654
N510 X4.3366 Y0.6884 Z-0.0673
N515 X4.3354 Y0.6883 Z-0.0689
N520 X4.3338 Y0.6881 Z-0.0702
N525 X4.3319 Y0.6878 Z-0.071
N530 X4.3299 Y0.6876 Z-0.0712
N535 X4.3259 Y0.6871
N540 G2 X4.3172 Y0.694 I-0.001 J0.0078
N545 X4.378 Y0.7014 Z-0.0909 I0.0304 J0.0037
N550 X4.3172 Y0.694 Z-0.1106 I-0.0304 J-0.0037
N555 X4.3649 Y0.723 Z-0.125 I0.0304 J0.0037
N560 X4.3302 Y0.6725 I-0.0174 J-0.0252
N565 X4.3649 Y0.723 I0.0174 J0.0252
N570 X4.367 Y0.712 I-0.0045 J-0.0065
N575 G1 X4.3647 Y0.7088
N580 X4.3636 Y0.7071 Z-0.1247
N585 X4.3625 Y0.7055 Z-0.1239
N590 X4.3616 Y0.7042 Z-0.1227
N595 X4.3609 Y0.7031 Z-0.1211
N600 X4.3604 Y0.7025 Z-0.1192
N605 X4.3603 Y0.7023 Z-0.1171
N610 G0 Z0.3
(2D ADAPTIVE1 2)
N615 G0 Z0.6
N620 X4.028 Y0.9786
N625 Z0.2
N630 Z0.102
N635 G2 X4.0401 Y1.0524 Z0.0979 I0.006 J0.0369 F1.
N640 X4.028 Y0.9786 Z0.0938 I-0.006 J-0.0369
N645 X4.0401 Y1.0524 Z0.0897 I0.006 J0.0369
N650 X4.028 Y0.9786 Z0.0856 I-0.006 J-0.0369
N655 X4.0401 Y1.0524 Z0.0815 I0.006 J0.0369
N660 X4.028 Y0.9786 Z0.0774 I-0.006 J-0.0369
N665 X4.0401 Y1.0524 Z0.0733 I0.006 J0.0369
N670 X4.028 Y0.9786 Z0.0692 I-0.006 J-0.0369
N675 X4.0401 Y1.0524 Z0.0651 I0.006 J0.0369
N680 X4.028 Y0.9786 Z0.061 I-0.006 J-0.0369
N685 X4.0401 Y1.0524 Z0.0569 I0.006 J0.0369
N690 X4.028 Y0.9786 Z0.0528 I-0.006 J-0.0369
N695 X4.0401 Y1.0524 Z0.0487 I0.006 J0.0369
N700 X4.028 Y0.9786 Z0.0446 I-0.006 J-0.0369
N705 X4.0401 Y1.0524 Z0.0405 I0.006 J0.0369
N710 X4.028 Y0.9786 Z0.0363 I-0.006 J-0.0369
N715 X4.0401 Y1.0524 Z0.0322 I0.006 J0.0369
N720 X4.028 Y0.9786 Z0.0281 I-0.006 J-0.0369
N725 X4.0401 Y1.0524 Z0.024 I0.006 J0.0369
N730 X4.028 Y0.9786 Z0.0199 I-0.006 J-0.0369
N735 X4.0401 Y1.0524 Z0.0158 I0.006 J0.0369
N740 X4.028 Y0.9786 Z0.0117 I-0.006 J-0.0369
N745 X4.0401 Y1.0524 Z0.0076 I0.006 J0.0369
N750 X4.028 Y0.9786 Z0.0035 I-0.006 J-0.0369
N755 X4.0401 Y1.0524 Z-0.0006 I0.006 J0.0369
N760 X4.028 Y0.9786 Z-0.0047 I-0.006 J-0.0369
N765 X4.0401 Y1.0524 Z-0.0088 I0.006 J0.0369
N770 X4.028 Y0.9786 Z-0.0129 I-0.006 J-0.0369
N775 X4.0401 Y1.0524 Z-0.017 I0.006 J0.0369
N780 X4.028 Y0.9786 Z-0.0211 I-0.006 J-0.0369
N785 X4.0401 Y1.0524 Z-0.0252 I0.006 J0.0369
N790 X4.028 Y0.9786 Z-0.0293 I-0.006 J-0.0369
N795 X4.0401 Y1.0524 Z-0.0334 I0.006 J0.0369
N800 X4.028 Y0.9786 Z-0.0375 I-0.006 J-0.0369
N805 X4.0401 Y1.0524 Z-0.0416 I0.006 J0.0369
N810 X4.028 Y0.9786 Z-0.0457 I-0.006 J-0.0369
N815 X4.0401 Y1.0524 Z-0.0498 I0.006 J0.0369
N820 X4.028 Y0.9786 Z-0.0539 I-0.006 J-0.0369
N825 X4.0401 Y1.0524 Z-0.058 I0.006 J0.0369
N830 X4.028 Y0.9786 Z-0.0621 I-0.006 J-0.0369
N835 X4.0401 Y1.0524 Z-0.0662 I0.006 J0.0369
N840 X4.028 Y0.9786 Z-0.0703 I-0.006 J-0.0369
N845 X4.0401 Y1.0524 Z-0.0744 I0.006 J0.0369
N850 X4.028 Y0.9786 Z-0.0785 I-0.006 J-0.0369
N855 X4.0401 Y1.0524 Z-0.0826 I0.006 J0.0369
N860 X4.028 Y0.9786 Z-0.0867 I-0.006 J-0.0369
N865 X4.0401 Y1.0524 Z-0.0909 I0.006 J0.0369
N870 X4.028 Y0.9786 Z-0.095 I-0.006 J-0.0369
N875 X4.0401 Y1.0524 Z-0.0991 I0.006 J0.0369
N880 X4.028 Y0.9786 Z-0.1032 I-0.006 J-0.0369
N885 X3.9967 Y1.0155 Z-0.105 I0.006 J0.0369
N890 X4.0715 I0.0374 J0.
N895 X3.9967 I-0.0374 J0.
N900 G1 X3.9955 Y1.0387 F5.
N905 X3.9957 Y1.0447
N910 X3.9974 Y1.0504
N915 X4.0003 Y1.0557
N920 X4.004 Y1.0603
N925 X4.0085 Y1.0643
N930 X4.0135 Y1.0677
N935 X4.0189 Y1.0703
N940 X4.0246 Y1.0722
N945 X4.0305 Y1.0733
N950 X4.0365 Y1.0738
N955 X4.0425 Y1.0736
N960 X4.0484 Y1.0727
N965 X4.0542 Y1.0712
N970 X4.0598 Y1.069
N975 X4.0651 Y1.0663
N980 X4.0702 Y1.063
N985 X4.0748 Y1.0592
N990 X4.0791 Y1.055
N995 X4.0828 Y1.0503
N1000 X4.0861 Y1.0453
N1005 X4.0889 Y1.0399
N1010 X4.0911 Y1.0344
N1015 X4.0927 Y1.0286
N1020 X4.0938 Y1.0227
N1025 X4.0942 Y1.0167
N1030 X4.094 Y1.0107
N1035 X4.0933 Y1.0048
N1040 X4.0919 Y0.9989
N1045 X4.09 Y0.9932
N1050 X4.0875 Y0.9878
N1055 X4.0845 Y0.9826
N1060 X4.081 Y0.9777
N1065 X4.077 Y0.9732
N1070 X4.0726 Y0.9692
N1075 X4.0678 Y0.9656
N1080 X4.0626 Y0.9625
N1085 X4.0572 Y0.9599
N1090 X4.0516 Y0.9579
N1095 X4.0458 Y0.9564
N1100 X4.0398 Y0.9555
N1105 X4.0338 Y0.9553
N1110 X4.0278 Y0.9556
N1115 X4.0219 Y0.9565
N1120 X4.0161 Y0.958
N1125 X4.0105 Y0.9601
N1130 X4.0051 Y0.9627
N1135 X4. Y0.9659
N1140 X3.9952 Y0.9695
N1145 X3.9908 Y0.9736
N1150 X3.9869 Y0.9781
N1155 X3.9834 Y0.983
N1160 X3.9804 Y0.9882
N1165 X3.9774 Y0.9948
N1170 X3.9741 Y1.0035
N1175 X3.9716 Y1.0124
N1180 X3.9703 Y1.0192
N1185 X3.9696 Y1.0258
N1190 X3.9694 Y1.0317
N1195 X3.9697 Y1.0377
N1200 X3.9705 Y1.0437
N1205 X3.9719 Y1.0495
N1210 X3.9738 Y1.0552
N1215 X3.9762 Y1.0607
N1220 X3.9792 Y1.0659
N1225 X3.9826 Y1.0709
N1230 X3.9864 Y1.0755
N1235 X3.9907 Y1.0797
N1240 X3.9953 Y1.0835
N1245 X4.0003 Y1.0869
N1250 X4.0039 Y1.089
N1255 X4.0083 Y1.0908
N1260 X4.013 Y1.0914
N1265 X4.0178 Y1.0907
N1270 X4.0792 Y1.0737
N1275 X4.0849 Y1.0718
N1280 X4.0902 Y1.069
N1285 X4.0951 Y1.0655
N1290 X4.0995 Y1.0614
N1295 X4.1035 Y1.0569
N1300 X4.107 Y1.0521
N1305 X4.11 Y1.0469
N1310 X4.1126 Y1.0414
N1315 X4.1147 Y1.0358
N1320 X4.1162 Y1.03
N1325 X4.1174 Y1.024
N1330 X4.118 Y1.0178
N1335 X4.1182 Y1.0117
N1340 X4.1178 Y1.0053
N1345 X4.117 Y0.9989
N1350 X4.1156 Y0.9925
N1355 X4.1137 Y0.9863
N1360 X4.1113 Y0.9802
N1365 X4.1083 Y0.9742
N1370 X4.1049 Y0.9684
N1375 X4.101 Y0.9629
N1380 X4.0967 Y0.9579
N1385 X4.092 Y0.9531
N1390 X4.0868 Y0.9486
N1395 X4.0813 Y0.9445
N1400 X4.0755 Y0.941
N1405 X4.0721 Y0.9393
N1410 X4.0679 Y0.9377
N1415 X4.0634 Y0.9373
N1420 X4.0589 Y0.9379
N1425 X3.989 Y0.9573
N1430 X3.9833 Y0.9592
N1435 X3.9779 Y0.962
N1440 X3.973 Y0.9654
N1445 X3.9686 Y0.9694
N1450 X3.9645 Y0.9738
N1455 X3.9605 Y0.9787
N1460 X3.9568 Y0.9844
N1465 X3.9534 Y0.9905
N1470 X3.9505 Y0.9971
N1475 X3.948 Y1.0039
N1480 X3.9461 Y1.011
N1485 X3.9447 Y1.0182
N1490 X3.944 Y1.0256
N1495 X3.9438 Y1.033
N1500 X3.9442 Y1.0404
N1505 X3.9452 Y1.0476
N1510 X3.9468 Y1.0547
N1515 X3.9489 Y1.0615
N1520 X3.9516 Y1.0683
N1525 X3.9548 Y1.0748
N1530 X3.9586 Y1.0811
N1535 X3.9629 Y1.0871
N1540 X3.9674 Y1.0925
N1545 X3.9693 Y1.0944
N1550 X3.9746 Y1.0981
N1555 X3.9808 Y1.0997
N1560 X3.9872 Y1.0991
N1565 X4.0178 Y1.0907
N1570 G2 X4.0231 Y1.0816 I-0.0024 J-0.0075
N1575 G1 X4.0192 Y1.0626
N1580 X4.0022 Y0.9813
N1585 X3.9985 Y0.9633
N1590 G2 X3.989 Y0.9573 I-0.0077 J0.0016
N1595 G1 X3.959 Y0.9656
N1600 X3.9534 Y0.9674
N1605 X3.9481 Y0.9703
N1610 X3.9432 Y0.9738
N1615 X3.9389 Y0.9779
N1620 X3.9349 Y0.9825
N1625 X3.9315 Y0.9874
N1630 X3.9284 Y0.9928
N1635 X3.9256 Y0.9986
N1640 X3.9232 Y1.0049
N1645 X3.9211 Y1.0119
N1650 X3.9196 Y1.0195
N1655 X3.9186 Y1.0274
N1660 X3.9182 Y1.0356
N1665 X3.9185 Y1.044
N1670 X3.9195 Y1.0524
N1675 X3.9212 Y1.061
N1680 X3.9236 Y1.0696
N1685 X3.9268 Y1.0781
N1690 X3.9306 Y1.0861
N1695 X3.934 Y1.0921
N1700 X3.9379 Y1.0978
N1705 X3.9402 Y1.1007
N1710 X3.9456 Y1.1052
N1715 X3.9523 Y1.1074
N1720 X3.9594 Y1.1068
N1725 X3.9872 Y1.0991
N1730 G2 X3.9926 Y1.0901 I-0.0024 J-0.0075
N1735 G1 X3.9887 Y1.0711
N1740 X3.9722 Y0.9896
N1745 X3.9686 Y0.9717
N1750 G2 X3.959 Y0.9656 I-0.0077 J0.0016
N1755 G1 X3.9308 Y0.9734
N1760 X3.9251 Y0.9753
N1765 X3.9199 Y0.9782
N1770 X3.9152 Y0.9819
N1775 X3.911 Y0.9862
N1780 X3.9073 Y0.9909
N1785 X3.9041 Y0.996
N1790 X3.9012 Y1.0014
N1795 X3.8987 Y1.0074
N1800 X3.8964 Y1.0142
N1805 X3.8946 Y1.0217
N1810 X3.8933 Y1.0295
N1815 X3.8926 Y1.038
N1820 Y1.0471
N1825 X3.8934 Y1.0566
N1830 X3.8949 Y1.0664
N1835 X3.8972 Y1.0759
N1840 X3.9003 Y1.085
N1845 X3.9035 Y1.0925
N1850 X3.9067 Y1.0988
N1855 X3.9102 Y1.1043
N1860 X3.9127 Y1.1076
N1865 X3.9181 Y1.1125
N1870 X3.925 Y1.1148
N1875 X3.9323 Y1.1143
N1880 X3.9594 Y1.1068
N1885 G2 X3.9647 Y1.0977 I-0.0024 J-0.0075
N1890 G1 X3.9608 Y1.0788
N1895 X3.9441 Y0.9974
N1900 X3.9404 Y0.9794
N1905 G2 X3.9308 Y0.9734 I-0.0077 J0.0016
N1910 G1 X3.9043 Y0.9807
N1915 X3.8986 Y0.9826
N1920 X3.8934 Y0.9856
N1925 X3.8888 Y0.9893
N1930 X3.8846 Y0.9937
N1935 X3.881 Y0.9985
N1940 X3.8778 Y1.0036
N1945 X3.8751 Y1.0089
N1950 X3.8725 Y1.0153
N1955 X3.8703 Y1.0221
N1960 X3.8686 Y1.0298
N1965 X3.8673 Y1.0384
N1970 X3.8667 Y1.0477
N1975 X3.8668 Y1.0572
N1980 X3.8677 Y1.0672
N1985 X3.8695 Y1.0772
N1990 X3.872 Y1.0868
N1995 X3.875 Y1.0954
N2000 X3.8778 Y1.1017
N2005 X3.8813 Y1.1082
N2010 X3.8845 Y1.1132
N2015 X3.8862 Y1.1153
N2020 X3.8916 Y1.12
N2025 X3.8984 Y1.1223
N2030 X3.9056 Y1.1217
N2035 X3.9323 Y1.1143
N2040 G2 X3.9377 Y1.1053 I-0.0024 J-0.0075
N2045 G1 X3.9339 Y1.0863
N2050 X3.9175 Y1.0047
N2055 X3.9139 Y0.9868
N2060 G2 X3.9043 Y0.9807 I-0.0077 J0.0015
N2065 G1 X3.8787 Y0.9878
N2070 X3.873 Y0.9897
N2075 X3.8678 Y0.9926
N2080 X3.8631 Y0.9964
N2085 X3.8589 Y1.0007
N2090 X3.8553 Y1.0055
N2095 X3.8521 Y1.0106
N2100 X3.8492 Y1.0162
N2105 X3.8466 Y1.0226
N2110 X3.8444 Y1.0295
N2115 X3.8425 Y1.0376
N2120 X3.8412 Y1.0464
N2125 X3.8406 Y1.0555
N2130 X3.8407 Y1.0654
N2135 X3.8417 Y1.0756
N2140 X3.8434 Y1.0854
N2145 X3.8459 Y1.095
N2150 X3.8488 Y1.1034
N2155 X3.8515 Y1.1095
N2160 X3.8548 Y1.1157
N2165 X3.8581 Y1.1208
N2170 X3.8596 Y1.1227
N2175 X3.865 Y1.1274
N2180 X3.8718 Y1.1296
N2185 X3.879 Y1.1291
N2190 X3.9056 Y1.1217
N2195 G2 X3.9109 Y1.1127 I-0.0024 J-0.0075
N2200 G1 X3.9073 Y1.0936
N2205 X3.8917 Y1.0118
N2210 X3.8882 Y0.994
N2215 G2 X3.8787 Y0.9878 I-0.0077 J0.0015
N2220 G1 X3.8536 Y0.9947
N2225 X3.8479 Y0.9966
N2230 X3.8426 Y0.9995
N2235 X3.8378 Y1.0031
N2240 X3.8336 Y1.0074
N2245 X3.8299 Y1.0121
N2250 X3.8266 Y1.0171
N2255 X3.8236 Y1.0228
N2260 X3.8211 Y1.0288
N2265 X3.8187 Y1.0359
N2270 X3.8167 Y1.044
N2275 X3.8153 Y1.0524
N2280 X3.8145 Y1.0617
N2285 Y1.0716
N2290 X3.8153 Y1.0819
N2295 X3.8169 Y1.0917
N2300 X3.8192 Y1.1011
N2305 X3.822 Y1.1098
N2310 X3.8247 Y1.116
N2315 X3.8279 Y1.1222
N2320 X3.8311 Y1.1273
N2325 X3.8329 Y1.1298
N2330 X3.8384 Y1.1346
N2335 X3.8453 Y1.1369
N2340 X3.8525 Y1.1364
N2345 X3.879 Y1.1291
N2350 G2 X3.8844 Y1.1202 I-0.0024 J-0.0075
N2355 G1 X3.8809 Y1.1009
N2360 X3.8663 Y1.0188
N2365 X3.8632 Y1.001
N2370 G2 X3.8536 Y0.9947 I-0.0078 J0.0014
N2375 G1 X3.8279 Y1.0018
N2380 X3.8222 Y1.0037
N2385 X3.8169 Y1.0065
N2390 X3.8121 Y1.0101
N2395 X3.8078 Y1.0143
N2400 X3.8041 Y1.019
N2405 X3.8008 Y1.024
N2410 X3.7978 Y1.0296
N2415 X3.7951 Y1.0357
N2420 X3.7927 Y1.0427
N2425 X3.7906 Y1.0509
N2430 X3.7892 Y1.0594
N2435 X3.7883 Y1.0686
N2440 Y1.0785
N2445 X3.789 Y1.0887
N2450 X3.7905 Y1.0985
N2455 X3.7927 Y1.108
N2460 X3.7955 Y1.1166
N2465 X3.7981 Y1.1229
N2470 X3.8013 Y1.1292
N2475 X3.8045 Y1.1343
N2480 X3.8056 Y1.1359
N2485 X3.8102 Y1.1402
N2490 X3.8159 Y1.1428
N2495 X3.8221 Y1.1433
N2500 X3.8254 Y1.143
N2505 X3.831 Y1.1423
N2510 X3.8525 Y1.1364
N2515 G2 X3.8579 Y1.1276 I-0.0024 J-0.0075
N2520 G1 X3.8546 Y1.1082
N2525 X3.8405 Y1.026
N2530 X3.8375 Y1.0082
N2535 G2 X3.8279 Y1.0018 I-0.0078 J0.0013
N2540 G1 X3.8011 Y1.0093
N2545 X3.7954 Y1.0111
N2550 X3.7902 Y1.0141
N2555 X3.7855 Y1.0177
N2560 X3.7813 Y1.022
N2565 X3.7776 Y1.0268
N2570 X3.7743 Y1.0318
N2575 X3.7714 Y1.0374
N2580 X3.7686 Y1.0438
N2585 X3.7663 Y1.0508
N2590 X3.7642 Y1.059
N2595 X3.7628 Y1.0679
N2600 X3.762 Y1.0771
N2605 Y1.087
N2610 X3.7628 Y1.0972
N2615 X3.7644 Y1.107
N2620 X3.7667 Y1.1165
N2625 X3.7693 Y1.1244
N2630 X3.7719 Y1.1306
N2635 X3.7725 Y1.1317
N2640 X3.7741 Y1.1343
N2645 X3.7761 Y1.1365
N2650 X3.7785 Y1.1384
N2655 G2 X3.7904 Y1.1331 I0.0042 J-0.0067
N2660 G1 X3.7931 Y1.1178
N2665 X3.808 Y1.0334
N2670 X3.8107 Y1.0183
N2675 G2 X3.8011 Y1.0093 I-0.0078 J-0.0014
N2680 G1 X3.7972 Y1.0104
N2685 X3.7943 Y1.0112
N2690 X3.7915 Y1.0125
N2695 X3.7746 Y1.0206
N2700 X3.7689 Y1.0233
N2705 X3.7682 Y1.0239
N2710 X3.7674 Y1.0246
N2715 X3.7548 Y1.0374
N2720 X3.7532 Y1.039
N2725 X3.752 Y1.0407
N2730 X3.7508 Y1.0431
N2735 X3.7431 Y1.06
N2740 X3.7429 Y1.0607
N2745 X3.7427 Y1.0614
N2750 X3.7424 Y1.0628
N2755 X3.7408 Y1.0825
N2760 Y1.0839
N2765 X3.741 Y1.0853
N2770 X3.7417 Y1.0882
N2775 X3.7464 Y1.1052
N2780 X3.7468 Y1.1065
N2785 X3.7472 Y1.1072
N2790 X3.7476 Y1.1079
N2795 X3.7495 Y1.1107
N2800 X3.7596 Y1.1249
N2805 X3.7603 Y1.1257
N2810 X3.7611 Y1.1264
N2815 X3.7627 Y1.1276
N2820 X3.7746 Y1.1358
N2825 X3.7792 Y1.1389
N2830 X3.7802 Y1.1394
N2835 X3.7859 Y1.1409
N2840 X3.7998 Y1.1445
N2845 X3.8013 Y1.1449
N2850 X3.8028 Y1.145
N2855 X3.809 Y1.1445
N2860 X3.8221 Y1.1433
N2865 X3.8242 Y1.1428
N2870 X3.826 Y1.1418
N2875 X3.8275 Y1.1404
N2880 X3.8286 Y1.1387
N2885 X3.8292 Y1.1367
N2890 X3.8297 Y1.135
N2895 X3.8305 Y1.1334
N2900 X3.8317 Y1.1321
N2905 X3.8332 Y1.1311
N2910 X3.8349 Y1.1304
N2915 X3.8461 Y1.1274
N2920 X4.0442 Y1.0732
N2925 X4.0462 Y1.0729
N2930 X4.0483 Y1.0732
N2935 G2 X4.0792 Y1.0737 I0.0164 J-0.0601
N2940 G1 X4.1074 Y1.0659
N2945 X4.1131 Y1.064
N2950 X4.1184 Y1.0611
N2955 X4.1231 Y1.0573
N2960 X4.1272 Y1.053
N2965 X4.1308 Y1.0482
N2970 X4.1339 Y1.043
N2975 X4.1365 Y1.0376
N2980 X4.1385 Y1.032
N2985 X4.1402 Y1.026
N2990 X4.1415 Y1.0195
N2995 X4.1422 Y1.0127
N3000 X4.1424 Y1.0057
N3005 X4.142 Y0.9984
N3010 X4.141 Y0.9909
N3015 X4.1394 Y0.9832
N3020 X4.1371 Y0.9755
N3025 X4.1341 Y0.9679
N3030 X4.1305 Y0.9604
N3035 X4.1262 Y0.9531
N3040 X4.1213 Y0.9462
N3045 X4.1158 Y0.9395
N3050 X4.1101 Y0.9338
N3055 X4.1088 Y0.9327
N3060 X4.1037 Y0.9295
N3065 X4.0979 Y0.9282
N3070 X4.0919 Y0.9288
N3075 X4.0589 Y0.9379
N3080 G2 X4.0539 Y0.9483 I0.0024 J0.0075
N3085 G1 X4.0605 Y0.9651
N3090 X4.0911 Y1.0428
N3095 X4.0983 Y1.0611
N3100 G2 X4.1074 Y1.0659 I0.0073 J-0.0029
N3105 G1 X4.1331 Y1.0588
N3110 X4.1388 Y1.0569
N3115 X4.144 Y1.0538
N3120 X4.1486 Y1.05
N3125 X4.1526 Y1.0455
N3130 X4.156 Y1.0406
N3135 X4.1589 Y1.0354
N3140 X4.1614 Y1.0299
N3145 X4.1633 Y1.0242
N3150 X4.1649 Y1.0178
N3155 X4.1661 Y1.0108
N3160 X4.1668 Y1.0035
N3165 X4.1669 Y0.9957
N3170 X4.1663 Y0.9874
N3175 X4.1649 Y0.9787
N3180 X4.1628 Y0.9698
N3185 X4.1599 Y0.9608
N3190 X4.1563 Y0.9519
N3195 X4.1518 Y0.9431
N3200 X4.1471 Y0.9356
N3205 X4.1428 Y0.9298
N3210 X4.1401 Y0.9272
N3215 X4.137 Y0.9253
N3220 X4.1335 Y0.924
N3225 G2 X4.124 Y0.9317 I-0.0017 J0.0077
N3230 G1 X4.1239 Y0.9485
N3235 X4.1235 Y1.0344
N3240 X4.1234 Y1.0511
N3245 G2 X4.1331 Y1.0588 I0.0079 J0.
N3250 G1 X4.1356 Y1.0581
N3255 X4.1385 Y1.0572
N3260 X4.1413 Y1.056
N3265 X4.1582 Y1.0479
N3270 X4.1638 Y1.0451
N3275 X4.1644 Y1.0447
N3280 X4.165 Y1.0442
N3285 X4.1736 Y1.0355
N3290 X4.1744 Y1.0347
N3295 X4.1751 Y1.034
N3300 X4.1791 Y1.0295
N3305 X4.1823 Y1.0244
N3310 X4.1849 Y1.019
N3315 X4.187 Y1.0134
N3320 X4.1887 Y1.0072
N3325 X4.1899 Y1.0007
N3330 X4.1906 Y0.9934
N3335 X4.1908 Y0.9853
N3340 X4.1905 Y0.9793
N3345 X4.1904 Y0.978
N3350 X4.1902 Y0.9767
N3355 X4.1899 Y0.9754
N3360 G2 X4.1747 Y0.9759 I-0.0075 J0.0024
N3365 G1 X4.1722 Y0.9861
N3370 X4.1647 Y1.016
N3375 X4.1621 Y1.0264
N3380 G2 X4.1751 Y1.034 I0.0076 J0.0019
N3385 G1 X4.1792 Y1.0298
N3390 X4.1801 Y1.0289
N3395 X4.1808 Y1.0279
N3400 X4.1817 Y1.0262
N3405 X4.1894 Y1.0093
N3410 X4.19 Y1.0078
N3415 X4.1902 Y1.0071
N3420 X4.1904 Y1.0064
N3425 X4.1906 Y1.0036
N3430 X4.1921 Y0.9857
N3435 Y0.9847
N3440 Y0.9837
N3445 X4.1914 Y0.9811
N3450 X4.1864 Y0.963
N3455 X4.186 Y0.9618
N3460 X4.1855 Y0.9607
N3465 X4.184 Y0.9585
N3470 X4.1735 Y0.9439
N3475 X4.1726 Y0.9427
N3480 X4.1714 Y0.9416
N3485 X4.155 Y0.9304
N3490 X4.1538 Y0.9296
N3495 X4.1526 Y0.929
N3500 X4.1469 Y0.9275
N3505 X4.1328 Y0.9238
N3510 X4.1314 Y0.9235
N3515 X4.1307 Y0.9234
N3520 X4.13
N3525 X4.1244 Y0.9238
N3530 X4.1074 Y0.9255
N3535 X4.1018 Y0.9261
N3540 X4.0919 Y0.9288
N3545 G2 X4.0966 Y0.9438 I0.0024 J0.0075
N3550 X4.1012 Y0.94 I-0.0024 J-0.0075
N3555 G1 X4.1022 Y0.9382 Z-0.1047
N3560 X4.103 Y0.9365 Z-0.1039
N3565 X4.1038 Y0.935 Z-0.1027
N3570 X4.1044 Y0.9339 Z-0.1011
N3575 X4.1047 Y0.9332 Z-0.0992
N3580 X4.1049 Y0.933 Z-0.0971
N3585 G0 Z0.6
(CONTOUR3 2)
N3590 G0 X4.8551 Y0.596
N3595 Z0.3
N3600 Z0.0547
N3605 G1 Z-0.0255 F10.
N3610 G2 X4.8421 Y0.6025 I-0.0052 J0.0059
N3615 G1 X4.8425 Y0.6082 F15.
N3620 X4.8428 Y0.6126
N3625 X4.843 Y0.6171
N3630 X4.8433 Y0.6216
N3635 X4.8435 Y0.6261
N3640 X4.8437 Y0.6305
N3645 X4.844 Y0.6395
N3650 X4.8442 Y0.644
N3655 X4.8443 Y0.6529
N3660 X4.8444 Y0.6574
N3665 Y0.6619
N3670 X4.8445 Y0.6708
N3675 Y0.6753
N3680 X4.8443 Y0.6887
N3685 X4.8442 Y0.6932
N3690 X4.8439 Y0.7021
N3695 X4.8437 Y0.7066
N3700 X4.8435 Y0.7111
N3705 X4.8431 Y0.72
N3710 X4.8429 Y0.7245
N3715 X4.8426 Y0.729
N3720 X4.842 Y0.7379
N3725 X4.8417 Y0.7424
N3730 X4.8414 Y0.7469
N3735 X4.8406 Y0.7558
N3740 X4.8402 Y0.7603
N3745 X4.8398 Y0.7648
N3750 X4.8385 Y0.7782
N3755 X4.838 Y0.7827
N3760 X4.8364 Y0.7961
N3765 X4.8359 Y0.8006
N3770 X4.8353 Y0.805
N3775 X4.8335 Y0.8185
N3780 X4.8331 Y0.821
N3785 X4.8328 Y0.8229
N3790 X4.8301 Y0.8408
N3795 X4.8294 Y0.8453
N3800 X4.8264 Y0.8632
N3805 X4.8256 Y0.8677
N3810 X4.8231 Y0.8811
N3815 X4.8223 Y0.8856
N3820 X4.8214 Y0.89
N3825 X4.8179 Y0.9079
N3830 X4.8169 Y0.9124
N3835 X4.8131 Y0.9303
N3840 X4.8121 Y0.9348
N3845 X4.8081 Y0.9527
N3850 X4.807 Y0.9572
N3855 X4.8062 Y0.9606
N3860 X4.8017 Y0.9795
N3865 X4.8006 Y0.984
N3870 X4.796 Y1.0019
N3875 X4.7949 Y1.0064
N3880 X4.7937 Y1.0109
N3885 X4.7883 Y1.0314
N3890 X4.7878 Y1.0332
N3895 X4.7817 Y1.0556
N3900 X4.7804 Y1.0601
N3905 X4.7741 Y1.0824
N3910 X4.7728 Y1.0869
N3915 X4.7714 Y1.0914
N3920 X4.7595 Y1.1317
N3925 X4.7582 Y1.1361
N3930 X4.7569 Y1.1403
N3935 X4.7555 Y1.1451
N3940 X4.7541 Y1.1496
N3945 X4.7263 Y1.239
N3950 X4.7256 Y1.2414
N3955 X4.7249 Y1.2435
N3960 X4.7235 Y1.248
N3965 X4.7179 Y1.2659
N3970 X4.7165 Y1.2704
N3975 X4.7152 Y1.2748
N3980 X4.7097 Y1.2927
N3985 X4.7083 Y1.2972
N3990 X4.7077 Y1.2993
N3995 X4.7029 Y1.3151
N4000 X4.7016 Y1.3196
N4005 X4.7003 Y1.3241
N4010 X4.6987 Y1.3295
N4015 X4.6951 Y1.342
N4020 X4.6942 Y1.3449
N4025 X4.6937 Y1.3464
N4030 X4.6919 Y1.3509
N4035 X4.6897 Y1.3551
N4040 X4.6896 Y1.3554
N4045 X4.6865 Y1.3599
N4050 X4.6853 Y1.3615
N4055 X4.6826 Y1.3643
N4060 X4.6808 Y1.3661
N4065 X4.6775 Y1.3688
N4070 X4.6763 Y1.3697
N4075 X4.6718 Y1.3725
N4080 X4.6703 Y1.3733
N4085 X4.6673 Y1.3746
N4090 X4.6629 Y1.3762
N4095 X4.6584 Y1.3773
N4100 X4.6556 Y1.3778
N4105 X4.6539 Y1.378
N4110 X4.6494 Y1.3782
N4115 X4.6449 Y1.378
N4120 X4.618 Y1.3757
N4125 X4.6136 Y1.3753
N4130 X4.6046 Y1.3745
N4135 X4.6001 Y1.3742
N4140 X4.5732 Y1.372
N4145 X4.5688 Y1.3717
N4150 X4.5643 Y1.3713
N4155 X4.5329 Y1.369
N4160 X4.5301 Y1.3688
N4165 X4.5284 Y1.3687
N4170 X4.524 Y1.3684
N4175 X4.4926 Y1.3662
N4180 X4.4881 Y1.3659
N4185 X4.4612 Y1.3643
N4190 X4.4567 Y1.364
N4195 X4.4523 Y1.3637
N4200 X4.4254 Y1.3622
N4205 X4.4209 Y1.3619
N4210 X4.4164 Y1.3617
N4215 X4.3895 Y1.3603
N4220 X4.3851 Y1.3601
N4225 X4.3806 Y1.3599
N4230 X4.3537 Y1.3587
N4235 X4.3492 Y1.3585
N4240 X4.3223 Y1.3574
N4245 X4.3178 Y1.3573
N4250 X4.3134 Y1.3571
N4255 X4.291 Y1.3564
N4260 X4.2865 Y1.3562
N4265 X4.282 Y1.3561
N4270 X4.2551 Y1.3553
N4275 X4.2506 Y1.3552
N4280 X4.2462 Y1.3551
N4285 X4.2238 Y1.3546
N4290 X4.2193 Y1.3545
N4295 X4.1924 Y1.3541
N4300 X4.1879 Y1.354
N4305 X4.1655 Y1.3537
N4310 X4.161
N4315 X4.1565 Y1.3536
N4320 X4.1341 Y1.3535
N4325 X4.1297
N4330 X4.1252
N4335 X4.1028
N4340 X4.0983
N4345 X4.0714 Y1.3536
N4350 X4.0669
N4355 X4.0445 Y1.3539
N4360 X4.0401
N4365 X4.0356 Y1.354
N4370 X4.0177 Y1.3542
N4375 X4.0132 Y1.3543
N4380 X4.0087 Y1.3544
N4385 X3.9863 Y1.3549
N4390 X3.9818 Y1.355
N4395 X3.9594 Y1.3555
N4400 X3.9549 Y1.3556
N4405 X3.937 Y1.3562
N4410 X3.9325 Y1.3563
N4415 X3.928 Y1.3565
N4420 X3.9236 Y1.3566
N4425 X3.8832 Y1.3581
N4430 X3.8788 Y1.3583
N4435 X3.8743 Y1.3585
N4440 X3.8295 Y1.3605
N4445 X3.825 Y1.3607
N4450 X3.8205 Y1.3609
N4455 X3.7802 Y1.363
N4460 X3.7757 Y1.3633
N4465 X3.7712 Y1.3635
N4470 X3.7309 Y1.3659
N4475 X3.7264 Y1.3662
N4480 X3.7219 Y1.3665
N4485 X3.6816 Y1.3692
N4490 X3.6771 Y1.3695
N4495 X3.6368 Y1.3724
N4500 X3.6323 Y1.3727
N4505 X3.592 Y1.3758
N4510 X3.5875 Y1.3761
N4515 X3.583 Y1.3765
N4520 X3.5472 Y1.3794
N4525 X3.5427 Y1.3797
N4530 X3.5382 Y1.3801
N4535 X3.5024 Y1.3831
N4540 X3.4979 Y1.3835
N4545 X3.4934 Y1.3839
N4550 X3.461 Y1.3867
N4555 X3.4576 Y1.387
N4560 X3.4531 Y1.3874
N4565 X3.4173 Y1.3906
N4570 X3.4128 Y1.391
N4575 X3.4104 Y1.3912
N4580 X3.3769 Y1.3942
N4585 X3.3725 Y1.3946
N4590 X3.368 Y1.395
N4595 X3.3276 Y1.3986
N4600 X3.2918 Y1.4019
N4605 X3.2873 Y1.4023
N4610 X3.2515 Y1.4055
N4615 X3.247 Y1.4058
N4620 X3.2156 Y1.4086
N4625 X3.2112 Y1.409
N4630 X3.2067 Y1.4094
N4635 X3.1753 Y1.412
N4640 X3.1708 Y1.4124
N4645 X3.1663 Y1.4128
N4650 X3.135 Y1.4154
N4655 X3.1305 Y1.4158
N4660 X3.0991 Y1.4183
N4665 X3.0947 Y1.4186
N4670 X3.0678 Y1.4207
N4675 X3.0633 Y1.421
N4680 X3.0588 Y1.4214
N4685 X3.0274 Y1.4236
N4690 X3.023 Y1.424
N4695 X3.0185 Y1.4243
N4700 X2.9916 Y1.4261
N4705 X2.9871 Y1.4264
N4710 X2.9826 Y1.4267
N4715 X2.9558 Y1.4284
N4720 X2.9513 Y1.4287
N4725 X2.9468 Y1.4289
N4730 X2.9199 Y1.4305
N4735 X2.9154 Y1.4307
N4740 X2.911 Y1.4309
N4745 X2.8886 Y1.4321
N4750 X2.8841 Y1.4323
N4755 X2.8796 Y1.4325
N4760 X2.8527 Y1.4338
N4765 X2.8482 Y1.4339
N4770 X2.8213 Y1.435
N4775 X2.8169 Y1.4352
N4780 X2.8124 Y1.4353
N4785 X2.79 Y1.4361
N4790 X2.7855 Y1.4362
N4795 X2.781 Y1.4363
N4800 X2.7765 Y1.4365
N4805 X2.7541 Y1.437
N4810 X2.7497 Y1.4372
N4815 X2.7272 Y1.4376
N4820 X2.7228 Y1.4377
N4825 X2.7183
N4830 X2.7138 Y1.4378
N4835 X2.6914 Y1.4381
N4840 X2.6869
N4845 X2.6645 Y1.4382
N4850 X2.66
N4855 X2.6556
N4860 X2.6332
N4865 X2.6287
N4870 X2.6242 Y1.4381
N4875 X2.6197
N4880 X2.5973 Y1.4378
N4885 X2.5928
N4890 X2.5704 Y1.4374
N4895 X2.5659 Y1.4373
N4900 X2.5615 Y1.4372
N4905 X2.5391 Y1.4366
N4910 X2.5346 Y1.4364
N4915 X2.5301 Y1.4363
N4920 X2.5077 Y1.4355
N4925 X2.5032 Y1.4354
N4930 X2.4584 Y1.4334
N4935 X2.4539 Y1.4332
N4940 X2.4495 Y1.4329
N4945 X2.445 Y1.4327
N4950 X2.436 Y1.4321
N4955 X2.3957 Y1.4298
N4960 X2.3912 Y1.4294
N4965 X2.3867 Y1.4291
N4970 X2.3419 Y1.4258
N4975 X2.3374 Y1.4255
N4980 X2.2926 Y1.4216
N4985 X2.2882 Y1.4212
N4990 X2.2837 Y1.4208
N4995 X2.2389 Y1.4164
N5000 X2.2344 Y1.4159
N5005 X2.2299 Y1.4154
N5010 X2.1896 Y1.411
N5015 X2.1851 Y1.4105
N5020 X2.1806 Y1.41
N5025 X2.1761 Y1.4095
N5030 X2.1358 Y1.4046
N5035 X2.1313 Y1.404
N5040 X2.1269 Y1.4035
N5045 X2.082 Y1.3976
N5050 X2.0776 Y1.397
N5055 X2.0731 Y1.3964
N5060 X2.0328 Y1.3908
N5065 X2.0283 Y1.3901
N5070 X2.0238 Y1.3895
N5075 X1.9835 Y1.3836
N5080 X1.979 Y1.3829
N5085 X1.9745 Y1.3822
N5090 X1.9342 Y1.376
N5095 X1.9297 Y1.3753
N5100 X1.9252 Y1.3746
N5105 X1.9207 Y1.3739
N5110 X1.8849 Y1.3682
N5115 X1.8804 Y1.3674
N5120 X1.8759 Y1.3667
N5125 X1.8715 Y1.366
N5130 X1.8311 Y1.3592
N5135 X1.8267 Y1.3584
N5140 X1.8222 Y1.3576
N5145 X1.7819 Y1.3506
N5150 X1.7774 Y1.3498
N5155 X1.7729 Y1.3489
N5160 X1.7348 Y1.342
N5165 X1.7326 Y1.3415
N5170 X1.7281 Y1.3407
N5175 X1.7236 Y1.3399
N5180 X1.6878 Y1.333
N5185 X1.6833 Y1.3321
N5190 X1.6788 Y1.3313
N5195 X1.6743 Y1.3304
N5200 X1.6385 Y1.3232
N5205 X1.634 Y1.3223
N5210 X1.6295 Y1.3213
N5215 X1.5892 Y1.3128
N5220 X1.5847 Y1.3119
N5225 X1.5802 Y1.3109
N5230 X1.5389 Y1.3017
N5235 X1.5354 Y1.3009
N5240 X1.5309 Y1.2998
N5245 X1.4906 Y1.2904
N5250 X1.4861 Y1.2893
N5255 X1.4503 Y1.2803
N5260 X1.4458 Y1.2792
N5265 X1.4413 Y1.2781
N5270 X1.401 Y1.2674
N5275 X1.3965 Y1.2662
N5280 X1.3952 Y1.2659
N5285 X1.392 Y1.265
N5290 X1.3562 Y1.255
N5295 X1.3517 Y1.2537
N5300 X1.3472 Y1.2524
N5305 X1.3428 Y1.2511
N5310 X1.3069 Y1.2404
N5315 X1.3027 Y1.239
N5320 X1.3024
N5325 X1.298 Y1.2376
N5330 X1.2604 Y1.2256
N5335 X1.2576 Y1.2247
N5340 X1.2531 Y1.2232
N5345 X1.2173 Y1.2111
N5350 X1.2128 Y1.2095
N5355 X1.177 Y1.1966
N5360 X1.1725 Y1.195
N5365 X1.1705 Y1.1943
N5370 X1.168 Y1.1934
N5375 X1.1322 Y1.1797
N5380 X1.1277 Y1.1779
N5385 X1.1238 Y1.1764
N5390 X1.0874 Y1.1616
N5395 X1.0829 Y1.1597
N5400 X1.08 Y1.1585
N5405 X1.047 Y1.1443
N5410 X1.0426 Y1.1423
N5415 X1.0381 Y1.1403
N5420 X1.0336 Y1.1383
N5425 X1.0022 Y1.124
N5430 X0.9995 Y1.1227
N5435 X0.9978 Y1.1219
N5440 X0.9933 Y1.1198
N5445 X0.9619 Y1.1047
N5450 X0.9574 Y1.1025
N5455 X0.9261 Y1.0866
N5460 X0.9216 Y1.0843
N5465 X0.9179 Y1.0824
N5470 X0.8857 Y1.0653
N5475 X0.8842 Y1.0645
N5480 X0.8813 Y1.0629
N5485 X0.8768 Y1.0605
N5490 X0.8499 Y1.0455
N5495 X0.8454 Y1.043
N5500 X0.8409 Y1.0404
N5505 X0.8365 Y1.0378
N5510 X0.8096 Y1.0221
N5515 X0.8057 Y1.0198
N5520 X0.8051 Y1.0194
N5525 X0.8006 Y1.0167
N5530 X0.7737 Y1.0003
N5535 X0.7692 Y0.9976
N5540 X0.769 Y0.9974
N5545 X0.7648 Y0.9947
N5550 X0.7379 Y0.9776
N5555 X0.7339 Y0.9751
N5560 X0.702 Y0.954
N5565 X0.7001 Y0.9527
N5570 X0.6976 Y0.951
N5575 X0.6707 Y0.9325
N5580 X0.6675 Y0.9303
N5585 X0.6662 Y0.9294
N5590 X0.6393 Y0.9102
N5595 X0.6361 Y0.9079
N5600 X0.6348 Y0.907
N5605 X0.63 Y0.9035
N5610 X0.6079 Y0.8872
N5615 X0.6058 Y0.8856
N5620 X0.6035 Y0.8838
N5625 X0.5811 Y0.8667
N5630 X0.5766 Y0.8633
N5635 X0.5764 Y0.8632
N5640 X0.5721 Y0.8598
N5645 X0.5537 Y0.8453
N5650 X0.5497 Y0.8421
N5655 X0.548 Y0.8408
N5660 X0.5452 Y0.8386
N5665 X0.5228 Y0.8203
N5670 X0.5206 Y0.8185
N5675 X0.5183 Y0.8166
N5680 X0.4993 Y0.8006
N5685 X0.4959 Y0.7977
N5690 X0.494 Y0.7961
N5695 X0.4914 Y0.7939
N5700 X0.4734 Y0.7782
N5705 X0.469 Y0.7744
N5710 X0.4683 Y0.7737
N5715 X0.4646 Y0.7703
N5720 X0.4484 Y0.7558
N5725 X0.4466 Y0.7542
N5730 X0.4435 Y0.7513
N5735 X0.4287 Y0.7375
N5740 X0.4242 Y0.7334
N5745 X0.4198 Y0.7291
N5750 X0.4057 Y0.7155
N5755 X0.4018 Y0.7118
N5760 X0.4011 Y0.7111
N5765 X0.3974 Y0.7073
N5770 X0.3832 Y0.6932
N5775 X0.3794 Y0.6893
N5780 X0.366 Y0.6753
N5785 X0.3617 Y0.6708
N5790 X0.3481 Y0.656
N5795 X0.3452 Y0.6529
N5800 X0.3436 Y0.6511
N5805 X0.3294 Y0.635
N5810 X0.3257 Y0.6306
N5815 X0.3143 Y0.6171
N5820 X0.3122 Y0.6145
N5825 X0.3033 Y0.6033
N5830 X0.3 Y0.5992
N5835 X0.2988 Y0.5976
N5840 X0.2966 Y0.5947
N5845 X0.2898 Y0.5857
N5850 X0.2865 Y0.5813
N5855 X0.2853 Y0.5797
N5860 X0.2833 Y0.5768
N5865 X0.2764 Y0.567
N5870 X0.2739 Y0.5634
N5875 X0.2719 Y0.5605
N5880 X0.265 Y0.55
N5885 X0.2629 Y0.5468
N5890 X0.2622 Y0.5455
N5895 X0.2568 Y0.5366
N5900 X0.254 Y0.5321
N5905 Y0.532
N5910 X0.2515 Y0.5276
N5915 X0.2466 Y0.5187
N5920 X0.245 Y0.5158
N5925 X0.2442 Y0.5142
N5930 X0.2397 Y0.5053
N5935 X0.2375 Y0.5008
N5940 X0.2361 Y0.4975
N5945 X0.2335 Y0.4918
N5950 X0.2316 Y0.4874
N5955 X0.2298 Y0.4829
N5960 X0.2271 Y0.4759
N5965 X0.2263 Y0.4739
N5970 X0.2248 Y0.4695
N5975 X0.2219 Y0.4605
N5980 X0.2205 Y0.456
N5985 X0.2181 Y0.4471
N5990 X0.2171 Y0.4426
N5995 X0.2152 Y0.4337
N6000 X0.2144 Y0.4292
N6005 X0.2131 Y0.4202
N6010 X0.2126 Y0.4158
N6015 X0.2122 Y0.4113
N6020 X0.2118 Y0.4068
N6025 X0.2115 Y0.4023
N6030 X0.2113 Y0.3934
N6035 Y0.3889
N6040 X0.2114 Y0.3844
N6045 X0.2116 Y0.38
N6050 X0.2119 Y0.3755
N6055 X0.2122 Y0.371
N6060 X0.2126 Y0.3665
N6065 X0.2132 Y0.3621
N6070 X0.2138 Y0.3576
N6075 X0.2145 Y0.3531
N6080 X0.2153 Y0.3486
N6085 X0.2161 Y0.3442
N6090 X0.2171 Y0.3397
N6095 X0.2181 Y0.3352
N6100 X0.2192 Y0.3308
N6105 X0.2204 Y0.3263
N6110 X0.2216 Y0.3218
N6115 X0.2226 Y0.3183
N6120 X0.2229 Y0.3173
N6125 X0.2243 Y0.3129
N6130 X0.2257 Y0.3084
N6135 X0.2271 Y0.3043
N6140 X0.2272 Y0.3039
N6145 X0.2288 Y0.2994
N6150 X0.2305 Y0.295
N6155 X0.2316 Y0.2919
N6160 X0.2321 Y0.2905
N6165 X0.2358 Y0.2815
N6170 X0.2361 Y0.2808
N6175 X0.2377 Y0.2771
N6180 X0.2405 Y0.2705
N6185 X0.2416 Y0.2681
N6190 X0.2438 Y0.2636
N6195 X0.2459 Y0.2592
N6200 X0.2481 Y0.2547
N6205 X0.2495 Y0.2519
N6210 X0.2527 Y0.2457
N6215 X0.254 Y0.2433
N6220 X0.2551 Y0.2413
N6225 X0.2577 Y0.2368
N6230 X0.2654 Y0.2234
N6235 X0.2674 Y0.22
N6240 X0.2681 Y0.2189
N6245 X0.271 Y0.2144
N6250 X0.2809 Y0.1995
N6255 X0.2829 Y0.1965
N6260 X0.2853 Y0.193
N6265 X0.2898 Y0.1869
N6270 X0.2927 Y0.1831
N6275 X0.2988 Y0.1752
N6280 X0.2996 Y0.1741
N6285 X0.3033 Y0.1697
N6290 X0.3077 Y0.1644
N6295 X0.3109 Y0.1607
N6300 X0.3167 Y0.1542
N6305 X0.3189 Y0.1518
N6310 X0.3212 Y0.1494
N6315 X0.3275 Y0.1428
N6320 X0.3301 Y0.1402
N6325 X0.3366 Y0.1339
N6330 X0.3391 Y0.1315
N6335 X0.3415 Y0.1294
N6340 X0.3464 Y0.1249
N6345 X0.3481 Y0.1235
N6350 X0.3516 Y0.1205
N6355 X0.357 Y0.1159
N6360 X0.3615 Y0.1123
N6365 X0.3684 Y0.107
N6370 X0.3705 Y0.1055
N6375 X0.3746 Y0.1026
N6380 X0.3794 Y0.0991
N6385 X0.3809 Y0.0981
N6390 X0.3839 Y0.0961
N6395 X0.3884 Y0.0932
N6400 X0.3929 Y0.0903
N6405 X0.3949 Y0.0891
N6410 X0.4018 Y0.085
N6415 X0.4024 Y0.0847
N6420 X0.4063 Y0.0824
N6425 X0.4108 Y0.08
N6430 X0.4153 Y0.0776
N6435 X0.419 Y0.0757
N6440 X0.4242 Y0.0731
N6445 X0.428 Y0.0712
N6450 X0.4332 Y0.0689
N6455 X0.4377 Y0.0668
N6460 X0.4378
N6465 X0.4422 Y0.0649
N6470 X0.4466 Y0.0631
N6475 X0.4485 Y0.0623
N6480 X0.4511 Y0.0612
N6485 X0.4556 Y0.0596
N6490 X0.469 Y0.0548
N6495 X0.4732 Y0.0533
N6500 X0.4735 Y0.0532
N6505 X0.478 Y0.0519
N6510 X0.4914 Y0.048
N6515 X0.4959 Y0.0467
N6520 X0.5004 Y0.0457
N6525 X0.5139 Y0.0425
N6530 X0.5183 Y0.0415
N6535 X0.5228 Y0.0407
N6540 X0.5268 Y0.0399
N6545 X0.5273 Y0.0398
N6550 X0.5318 Y0.039
N6555 X0.5363 Y0.0383
N6560 X0.5407 Y0.0376
N6565 X0.5452 Y0.037
N6570 X0.5497 Y0.0363
N6575 X0.5542 Y0.0358
N6580 X0.5572 Y0.0354
N6585 X0.5587 Y0.0353
N6590 X0.5631 Y0.0348
N6595 X0.5676 Y0.0344
N6600 X0.5721 Y0.0341
N6605 X0.5766 Y0.0338
N6610 X0.5811 Y0.0335
N6615 X0.5855 Y0.0333
N6620 X0.59 Y0.0332
N6625 X0.5945
N6630 X0.599
N6635 X0.6035
N6640 X0.6079 Y0.0334
N6645 X0.6124 Y0.0337
N6650 X0.6169 Y0.034
N6655 X0.6214 Y0.0345
N6660 X0.6259 Y0.0351
N6665 X0.6279 Y0.0354
N6670 X0.6303 Y0.0359
N6675 X0.6348 Y0.0368
N6680 X0.6393 Y0.038
N6685 X0.6438 Y0.0394
N6690 X0.6454 Y0.0399
N6695 X0.6483 Y0.0411
N6700 X0.6527 Y0.0431
N6705 X0.6553 Y0.0444
N6710 X0.6572 Y0.0455
N6715 X0.6617 Y0.0481
N6720 X0.6628 Y0.0489
N6725 X0.6662 Y0.0512
N6730 X0.6692 Y0.0533
N6735 X0.6707 Y0.0544
N6740 X0.675 Y0.0578
N6745 X0.6752 Y0.0579
N6750 X0.6796 Y0.0616
N6755 X0.6805 Y0.0623
N6760 X0.6841 Y0.0654
N6765 X0.6857 Y0.0668
N6770 X0.6886 Y0.0693
N6775 X0.6909 Y0.0712
N6780 X0.6931 Y0.0732
N6785 X0.696 Y0.0757
N6790 X0.6976 Y0.0771
N6795 X0.702 Y0.081
N6800 X0.7065 Y0.0849
N6805 X0.711 Y0.0887
N6810 X0.7115 Y0.0891
N6815 X0.7155 Y0.0925
N6820 X0.7168 Y0.0936
N6825 X0.72 Y0.0962
N6830 X0.7223 Y0.0981
N6835 X0.7244 Y0.0999
N6840 X0.7278 Y0.1026
N6845 X0.7289 Y0.1034
N6850 X0.7334 Y0.107
N6855 X0.7335
N6860 X0.7379 Y0.1104
N6865 X0.7393 Y0.1115
N6870 X0.7424 Y0.1138
N6875 X0.7468 Y0.1172
N6880 X0.7513 Y0.1204
N6885 X0.7558 Y0.1236
N6890 X0.7576 Y0.1249
N6895 X0.7648 Y0.1298
N6900 X0.7692 Y0.1328
N6905 X0.7737 Y0.1358
N6910 X0.7778 Y0.1384
N6915 X0.7827 Y0.1414
N6920 X0.785 Y0.1428
N6925 X0.7926 Y0.1473
N6930 X0.7961 Y0.1494
N6935 X0.8006 Y0.1518
N6940 X0.8051 Y0.1543
N6945 X0.814 Y0.159
N6950 X0.8174 Y0.1607
N6955 X0.823 Y0.1634
N6960 X0.8266 Y0.1652
N6965 X0.8275 Y0.1656
N6970 X0.8366 Y0.1697
N6975 X0.8409 Y0.1715
N6980 X0.8499 Y0.1752
N6985 X0.8544 Y0.1768
N6990 X0.8592 Y0.1786
N6995 X0.8633 Y0.1801
N7000 X0.8678 Y0.1816
N7005 X0.8724 Y0.1831
N7010 X0.8768 Y0.1845
N7015 X0.8874 Y0.1876
N7020 X0.8902 Y0.1883
N7025 X0.8992 Y0.1906
N7030 X0.9037 Y0.1917
N7035 X0.9126 Y0.1936
N7040 X0.9171 Y0.1945
N7045 X0.9287 Y0.1965
N7050 X0.9305 Y0.1968
N7055 X0.935 Y0.1974
N7060 X0.944 Y0.1986
N7065 X0.9485 Y0.1991
N7070 X0.9574 Y0.1999
N7075 X0.9619 Y0.2003
N7080 X0.9709 Y0.2008
N7085 X0.9737 Y0.201
N7090 X0.9753 Y0.2011
N7095 X0.9843 Y0.2013
N7100 X0.9888 Y0.2015
N7105 X0.9933
N7110 X1.0022
N7115 X1.0067
N7120 X1.0202 Y0.2012
N7125 X1.0246 Y0.201
N7130 X1.0336 Y0.2007
N7135 X1.0381 Y0.2005
N7140 X1.0426 Y0.2001
N7145 X1.0694 Y0.1983
N7150 X1.0739 Y0.1979
N7155 X1.1053 Y0.1949
N7160 X1.1098 Y0.1945
N7165 X1.1411 Y0.1911
N7170 X1.1456 Y0.1906
N7175 X1.1501 Y0.1902
N7180 X1.1815 Y0.1868
N7185 X1.1859 Y0.1863
N7190 X1.1994 Y0.185
N7195 X1.2039 Y0.1845
N7200 X1.2083 Y0.1841
N7205 X1.2218 Y0.1828
N7210 X1.2263 Y0.1823
N7215 X1.2442 Y0.1807
N7220 X1.2487 Y0.1804
N7225 X1.2621 Y0.1793
N7230 X1.2666 Y0.1789
N7235 X1.2709 Y0.1786
N7240 X1.2845 Y0.1777
N7245 X1.289 Y0.1774
N7250 X1.2935 Y0.1771
N7255 X1.3069 Y0.1762
N7260 X1.3114 Y0.176
N7265 X1.3159 Y0.1757
N7270 X1.3517 Y0.174
N7275 X1.3562 Y0.1738
N7280 X1.3607 Y0.1736
N7285 X1.3652 Y0.1735
N7290 X1.401 Y0.1725
N7295 X1.4055 Y0.1724
N7300 X1.41 Y0.1723
N7305 X1.4503 Y0.1719
N7310 X1.4548 Y0.1718
N7315 X1.4593 Y0.1719
N7320 X1.4996 Y0.1721
N7325 X1.5041 Y0.1722
N7330 X1.5085 Y0.1723
N7335 X1.5489 Y0.1732
N7340 X1.5533 Y0.1733
N7345 X1.5578 Y0.1735
N7350 X1.5981 Y0.175
N7355 X1.6026 Y0.1752
N7360 X1.6071 Y0.1754
N7365 X1.6474 Y0.1774
N7370 X1.6519 Y0.1777
N7375 X1.6564 Y0.1779
N7380 X1.6967 Y0.1805
N7385 X1.7012 Y0.1808
N7390 X1.7057 Y0.1811
N7395 X1.7415 Y0.1839
N7400 X1.746 Y0.1842
N7405 X1.7505 Y0.1846
N7410 X1.755 Y0.185
N7415 X1.7908 Y0.1882
N7420 X1.7953 Y0.1886
N7425 X1.7998 Y0.189
N7430 X1.8401 Y0.1932
N7435 X1.8446 Y0.1937
N7440 X1.8491 Y0.1942
N7445 X1.8894 Y0.199
N7450 X1.8939 Y0.1995
N7455 X1.8983 Y0.2001
N7460 X1.9387 Y0.2055
N7465 X1.9432 Y0.2061
N7470 X1.9476 Y0.2068
N7475 X1.9835 Y0.2121
N7480 X1.988 Y0.2128
N7485 X1.9924 Y0.2135
N7490 X1.9969 Y0.2142
N7495 X2.0328 Y0.2201
N7500 X2.0372 Y0.2209
N7505 X2.0417 Y0.2216
N7510 X2.0462 Y0.2224
N7515 X2.082 Y0.2289
N7520 X2.0865 Y0.2297
N7525 X2.091 Y0.2306
N7530 X2.0955 Y0.2314
N7535 X2.1313 Y0.2385
N7540 X2.1358 Y0.2394
N7545 X2.1403 Y0.2403
N7550 X2.1448 Y0.2412
N7555 X2.1806 Y0.2488
N7560 X2.1851 Y0.2498
N7565 X2.1896 Y0.2508
N7570 X2.1941 Y0.2518
N7575 X2.2299 Y0.26
N7580 X2.2344 Y0.261
N7585 X2.2389 Y0.262
N7590 X2.2433 Y0.2631
N7595 X2.2824 Y0.2726
N7600 X2.2837 Y0.2729
N7605 X2.2882 Y0.274
N7610 X2.2926 Y0.2751
N7615 X2.3285 Y0.2844
N7620 X2.333 Y0.2855
N7625 X2.3347 Y0.286
N7630 X2.3374 Y0.2867
N7635 X2.3778 Y0.2977
N7640 X2.3822 Y0.2989
N7645 X2.3842 Y0.2994
N7650 X2.4226 Y0.3103
N7655 X2.4271 Y0.3116
N7660 X2.4315 Y0.3129
N7665 X2.4674 Y0.3233
N7670 X2.4719 Y0.3246
N7675 X2.4763 Y0.3259
N7680 X2.5122 Y0.3366
N7685 X2.5167 Y0.3379
N7690 X2.548 Y0.3471
N7695 X2.5525 Y0.3484
N7700 X2.5533 Y0.3486
N7705 X2.557 Y0.3497
N7710 X2.5615 Y0.351
N7715 X2.5928 Y0.3599
N7720 X2.5973 Y0.3611
N7725 X2.6287 Y0.3694
N7730 X2.6332 Y0.3705
N7735 X2.6352 Y0.371
N7740 X2.669 Y0.379
N7745 X2.6735 Y0.3799
N7750 X2.7048 Y0.3861
N7755 X2.7093 Y0.3869
N7760 X2.7138 Y0.3877
N7765 X2.7228 Y0.3892
N7770 X2.7272 Y0.3899
N7775 X2.7317 Y0.3906
N7780 X2.7452 Y0.3925
N7785 X2.7497 Y0.3931
N7790 X2.7631 Y0.3947
N7795 X2.7676 Y0.3952
N7800 X2.781 Y0.3965
N7805 X2.7855 Y0.3969
N7810 X2.7989 Y0.3979
N7815 X2.8034 Y0.3982
N7820 X2.8079 Y0.3985
N7825 X2.8169 Y0.3989
N7830 X2.8213 Y0.3991
N7835 X2.8258 Y0.3993
N7840 X2.8393 Y0.3996
N7845 X2.8437 Y0.3997
N7850 X2.8572
N7855 X2.8617
N7860 X2.8661 Y0.3996
N7865 X2.8796 Y0.3993
N7870 X2.8841 Y0.3992
N7875 X2.8975 Y0.3986
N7880 X2.902 Y0.3984
N7885 X2.9154 Y0.3976
N7890 X2.9199 Y0.3973
N7895 X2.9334 Y0.3962
N7900 X2.9378 Y0.3959
N7905 X2.9423 Y0.3954
N7910 X2.9513 Y0.3945
N7915 X2.9558 Y0.3941
N7920 X2.9602 Y0.3936
N7925 X2.9692 Y0.3925
N7930 X2.9737 Y0.392
N7935 X2.9782 Y0.3914
N7940 X2.9916 Y0.3896
N7945 X2.9961 Y0.3889
N7950 X3.0095 Y0.3869
N7955 X3.014 Y0.3861
N7960 X3.0237 Y0.3844
N7965 X3.0274 Y0.3838
N7970 X3.0409 Y0.3813
N7975 X3.0454 Y0.3804
N7980 X3.0543 Y0.3786
N7985 X3.0588 Y0.3777
N7990 X3.0633 Y0.3767
N7995 X3.0723 Y0.3747
N8000 X3.0767 Y0.3737
N8005 X3.0882 Y0.371
N8010 X3.0902 Y0.3705
N8015 X3.0947 Y0.3694
N8020 X3.0991 Y0.3683
N8025 X3.1036 Y0.3671
N8030 X3.1126 Y0.3647
N8035 X3.1171 Y0.3635
N8040 X3.126 Y0.361
N8045 X3.1305 Y0.3597
N8050 X3.1395 Y0.357
N8055 X3.1439 Y0.3556
N8060 X3.1484 Y0.3541
N8065 X3.1516 Y0.3531
N8070 X3.1529 Y0.3527
N8075 X3.1574 Y0.3512
N8080 X3.1619 Y0.3497
N8085 X3.1649 Y0.3486
N8090 X3.1708 Y0.3466
N8095 X3.1753 Y0.345
N8100 X3.1798 Y0.3433
N8105 X3.1843 Y0.3417
N8110 X3.1887 Y0.34
N8115 X3.1932 Y0.3383
N8120 X3.1977 Y0.3365
N8125 X3.2022 Y0.3348
N8130 X3.2067 Y0.333
N8135 X3.2112 Y0.3313
N8140 X3.2126 Y0.3308
N8145 X3.2156 Y0.3296
N8150 X3.2201 Y0.3279
N8155 X3.2246 Y0.3263
N8160 X3.2291 Y0.3248
N8165 X3.2336 Y0.3234
N8170 X3.238 Y0.3223
N8175 X3.24 Y0.3218
N8180 X3.2425 Y0.3213
N8185 X3.247 Y0.3206
N8190 X3.2515 Y0.3201
N8195 X3.256 Y0.32
N8200 X3.2604 Y0.3203
N8205 X3.2649 Y0.3207
N8210 X3.2694 Y0.3215
N8215 X3.2705 Y0.3218
N8220 X3.2739 Y0.3226
N8225 X3.2784 Y0.3238
N8230 X3.2828 Y0.3252
N8235 X3.286 Y0.3263
N8240 X3.2873 Y0.3268
N8245 X3.2918 Y0.3285
N8250 X3.2963 Y0.3303
N8255 X3.3008 Y0.3322
N8260 X3.3052 Y0.3342
N8265 X3.3076 Y0.3352
N8270 X3.3097 Y0.3362
N8275 X3.3142 Y0.3384
N8280 X3.317 Y0.3397
N8285 X3.3232 Y0.3428
N8290 X3.3259 Y0.3442
N8295 X3.3276 Y0.3451
N8300 X3.3321 Y0.3474
N8305 X3.3345 Y0.3486
N8310 X3.3366 Y0.3498
N8315 X3.3411 Y0.3521
N8320 X3.3429 Y0.3531
N8325 X3.35 Y0.357
N8330 X3.3512 Y0.3576
N8335 X3.3595 Y0.3621
N8340 X3.368 Y0.3667
N8345 X3.3725 Y0.3691
N8350 X3.3769 Y0.3715
N8355 X3.3814 Y0.3739
N8360 X3.3904 Y0.3786
N8365 X3.3929 Y0.38
N8370 X3.4014 Y0.3844
N8375 X3.4038 Y0.3857
N8380 X3.4128 Y0.3903
N8385 X3.4173 Y0.3926
N8390 X3.4277 Y0.3979
N8395 X3.4307 Y0.3993
N8400 X3.4397 Y0.4037
N8405 X3.4441 Y0.4059
N8410 X3.4531 Y0.4101
N8415 X3.4555 Y0.4113
N8420 X3.4576 Y0.4122
N8425 X3.4665 Y0.4163
N8430 X3.471 Y0.4184
N8435 X3.48 Y0.4223
N8440 X3.4845 Y0.4243
N8445 X3.4855 Y0.4247
N8450 X3.4979 Y0.4299
N8455 X3.5024 Y0.4317
N8460 X3.5113 Y0.4353
N8465 X3.5158 Y0.4371
N8470 X3.5203 Y0.4388
N8475 X3.5293 Y0.4421
N8480 X3.5305 Y0.4426
N8485 X3.5338 Y0.4438
N8490 X3.5432 Y0.4471
N8495 X3.5472 Y0.4485
N8500 X3.5517 Y0.45
N8505 X3.5606 Y0.4529
N8510 X3.5651 Y0.4544
N8515 X3.5696 Y0.4557
N8520 X3.5786 Y0.4584
N8525 X3.583 Y0.4597
N8530 X3.5965 Y0.4634
N8535 X3.601 Y0.4646
N8540 X3.6144 Y0.468
N8545 X3.6189 Y0.469
N8550 X3.6323 Y0.472
N8555 X3.6368 Y0.4729
N8560 X3.6502 Y0.4755
N8565 X3.6547 Y0.4763
N8570 X3.6592 Y0.4771
N8575 X3.6726 Y0.4792
N8580 X3.6771 Y0.4798
N8585 X3.6906 Y0.4816
N8590 X3.6951 Y0.4821
N8595 X3.7085 Y0.4834
N8600 X3.713 Y0.4838
N8605 X3.7264 Y0.4847
N8610 X3.7309 Y0.485
N8615 X3.7354 Y0.4851
N8620 X3.7488 Y0.4855
N8625 X3.7533 Y0.4856
N8630 X3.7667 Y0.4855
N8635 X3.7712
N8640 X3.7757 Y0.4853
N8645 X3.7891 Y0.4848
N8650 X3.7936 Y0.4845
N8655 X3.8071 Y0.4834
N8660 X3.8115 Y0.483
N8665 X3.825 Y0.4815
N8670 X3.8295 Y0.481
N8675 X3.8339 Y0.4803
N8680 X3.8474 Y0.4783
N8685 X3.8519 Y0.4775
N8690 X3.8653 Y0.4749
N8695 X3.8698 Y0.474
N8700 X3.8832 Y0.4708
N8705 X3.8877 Y0.4698
N8710 X3.8889 Y0.4695
N8715 X3.9056 Y0.4648
N8720 X3.9101 Y0.4634
N8725 X3.9236 Y0.459
N8730 X3.928 Y0.4575
N8735 X3.944 Y0.4516
N8740 X3.946 Y0.4507
N8745 X3.9594 Y0.4451
N8750 X3.9639 Y0.4431
N8755 X3.9773 Y0.4368
N8760 X3.9818 Y0.4346
N8765 X3.9952 Y0.4276
N8770 X3.9997 Y0.4251
N8775 X4.0087 Y0.42
N8780 X4.0132 Y0.4174
N8785 X4.0158 Y0.4158
N8790 X4.0266 Y0.4089
N8795 X4.0299 Y0.4068
N8800 X4.0311 Y0.406
N8805 X4.0428 Y0.3979
N8810 X4.0445 Y0.3967
N8815 X4.0489 Y0.3934
N8820 X4.058 Y0.3865
N8825 X4.0606 Y0.3844
N8830 X4.0714 Y0.3755
N8835 X4.0759 Y0.3716
N8840 X4.0865 Y0.3621
N8845 X4.0893 Y0.3593
N8850 X4.0983 Y0.3505
N8855 X4.1002 Y0.3486
N8860 X4.1028 Y0.3459
N8865 X4.1086 Y0.3397
N8870 X4.1117 Y0.3364
N8875 X4.1128 Y0.3352
N8880 X4.1207 Y0.3261
N8885 X4.1244 Y0.3218
N8890 X4.1316 Y0.3129
N8895 X4.1341 Y0.3097
N8900 X4.1351 Y0.3084
N8905 X4.1431 Y0.2977
N8910 X4.145 Y0.295
N8915 X4.1521 Y0.2847
N8920 X4.1542 Y0.2815
N8925 X4.161 Y0.2707
N8930 X4.1626 Y0.2681
N8935 X4.1679 Y0.2592
N8940 X4.17 Y0.2556
N8945 X4.1705 Y0.2547
N8950 X4.1754 Y0.2457
N8955 X4.1778 Y0.2413
N8960 X4.179 Y0.239
N8965 X4.1834 Y0.2302
N8970 X4.1846 Y0.2278
N8975 X4.1867 Y0.2234
N8980 X4.1889 Y0.2189
N8985 X4.191 Y0.2144
N8990 X4.1924 Y0.2114
N8995 X4.1951 Y0.2055
N9000 X4.1969 Y0.2014
N9005 X4.1971 Y0.201
N9010 X4.2014 Y0.191
N9015 X4.2028 Y0.1876
N9020 X4.2058 Y0.1803
N9025 X4.2065 Y0.1786
N9030 X4.2084 Y0.1741
N9035 X4.212 Y0.1652
N9040 X4.2138 Y0.1607
N9045 X4.2174 Y0.1518
N9050 X4.2193 Y0.147
N9055 X4.221 Y0.1428
N9060 X4.2228 Y0.1384
N9065 X4.2264 Y0.1294
N9070 X4.2282 Y0.1251
N9075 X4.2302 Y0.1205
N9080 X4.2321 Y0.116
N9085 X4.2341 Y0.1115
N9090 X4.236 Y0.107
N9095 X4.2381 Y0.1026
N9100 X4.2402 Y0.0981
N9105 X4.2417 Y0.0952
N9110 X4.2425 Y0.0936
N9115 X4.2448 Y0.0891
N9120 X4.2462 Y0.0866
N9125 X4.2473 Y0.0847
N9130 X4.2499 Y0.0802
N9135 X4.2527 Y0.0757
N9140 X4.2551 Y0.0721
N9145 X4.2557 Y0.0712
N9150 X4.259 Y0.0668
N9155 X4.2596 Y0.066
N9160 X4.2626 Y0.0623
N9165 X4.2641 Y0.0605
N9170 X4.2666 Y0.0578
N9175 X4.2686 Y0.0558
N9180 X4.2711 Y0.0533
N9185 X4.273 Y0.0516
N9190 X4.2764 Y0.0489
N9195 X4.2775 Y0.048
N9200 X4.282 Y0.0449
N9205 X4.2828 Y0.0444
N9210 X4.2865 Y0.0423
N9215 X4.291 Y0.0401
N9220 X4.2914 Y0.0399
N9225 X4.2954 Y0.0384
N9230 X4.2999 Y0.0371
N9235 X4.3044 Y0.0362
N9240 X4.3089 Y0.0355
N9245 X4.3103 Y0.0354
N9250 X4.3134
N9255 X4.3152
N9260 X4.3178 Y0.0355
N9265 X4.3223 Y0.036
N9270 X4.3268 Y0.0369
N9275 X4.3313 Y0.038
N9280 X4.3358 Y0.0395
N9285 X4.337 Y0.0399
N9290 X4.3403 Y0.0413
N9295 X4.3447 Y0.0434
N9300 X4.3466 Y0.0444
N9305 X4.3492 Y0.0458
N9310 X4.3537 Y0.0487
N9315 X4.354 Y0.0489
N9320 X4.3582 Y0.0518
N9325 X4.3602 Y0.0533
N9330 X4.3627 Y0.0552
N9335 X4.3658 Y0.0578
N9340 X4.3671 Y0.0589
N9345 X4.3709 Y0.0623
N9350 X4.3716 Y0.0629
N9355 X4.3757 Y0.0668
N9360 X4.3761 Y0.0671
N9365 X4.3802 Y0.0712
N9370 X4.3806 Y0.0716
N9375 X4.3845 Y0.0757
N9380 X4.3851 Y0.0763
N9385 X4.3895 Y0.0811
N9390 X4.3926 Y0.0847
N9395 X4.394 Y0.0863
N9400 X4.3965 Y0.0891
N9405 X4.4003 Y0.0936
N9410 X4.403 Y0.0969
N9415 X4.4119 Y0.1078
N9420 X4.415 Y0.1115
N9425 X4.4223 Y0.1205
N9430 X4.4254 Y0.1242
N9435 X4.4343 Y0.1349
N9440 X4.4373 Y0.1384
N9445 X4.4388 Y0.1401
N9450 X4.4491 Y0.1518
N9455 X4.4523 Y0.1552
N9460 X4.4618 Y0.1652
N9465 X4.4657 Y0.1692
N9470 X4.4754 Y0.1786
N9475 X4.4791 Y0.1821
N9480 X4.4926 Y0.1939
N9485 X4.4958 Y0.1965
N9490 X4.5071 Y0.2055
N9495 X4.5105 Y0.2081
N9500 X4.5131 Y0.2099
N9505 X4.5258 Y0.2189
N9510 X4.5284 Y0.2206
N9515 X4.5419 Y0.229
N9520 X4.5464 Y0.2317
N9525 X4.5598 Y0.2391
N9530 X4.564 Y0.2413
N9535 X4.5777 Y0.2479
N9540 X4.5822 Y0.25
N9545 X4.5956 Y0.2558
N9550 X4.6001 Y0.2576
N9555 X4.6136 Y0.2627
N9560 X4.6161 Y0.2636
N9565 X4.618 Y0.2643
N9570 X4.6315 Y0.2687
N9575 X4.636 Y0.2701
N9580 X4.6494 Y0.2739
N9585 X4.6539 Y0.2751
N9590 X4.6629 Y0.2774
N9595 X4.6673 Y0.2785
N9600 X4.6718 Y0.2795
N9605 X4.6808 Y0.2816
N9610 X4.6853 Y0.2826
N9615 X4.6897 Y0.2836
N9620 X4.6942 Y0.2845
N9625 X4.7032 Y0.2865
N9630 X4.7077 Y0.2874
N9635 X4.7121 Y0.2884
N9640 X4.7166 Y0.2894
N9645 X4.7211 Y0.2905
N9650 X4.7256 Y0.2917
N9655 X4.7301 Y0.293
N9660 X4.7345 Y0.2943
N9665 X4.7364 Y0.295
N9670 X4.739 Y0.2959
N9675 X4.7435 Y0.2976
N9680 X4.7475 Y0.2994
N9685 X4.748 Y0.2997
N9690 X4.7525 Y0.3021
N9695 X4.7553 Y0.3039
N9700 X4.7569 Y0.305
N9705 X4.7591 Y0.3066
N9710 X4.7612 Y0.3084
N9715 X4.7614 Y0.3086
N9720 X4.7657 Y0.3129
N9725 X4.7659 Y0.3131
N9730 X4.7695 Y0.3173
N9735 X4.7704 Y0.3186
N9740 X4.7727 Y0.3218
N9745 X4.7749 Y0.3251
N9750 X4.7756 Y0.3263
N9755 X4.7781 Y0.3308
N9760 X4.7793 Y0.3331
N9765 X4.7805 Y0.3352
N9770 X4.7826 Y0.3397
N9775 X4.7838 Y0.3422
N9780 X4.7847 Y0.3442
N9785 X4.7866 Y0.3486
N9790 X4.7883 Y0.3528
N9795 X4.7884 Y0.3531
N9800 X4.7902 Y0.3576
N9805 X4.7928 Y0.3646
N9810 X4.7935 Y0.3665
N9815 X4.7951 Y0.371
N9820 X4.7966 Y0.3755
N9825 X4.7973 Y0.3775
N9830 X4.7996 Y0.3844
N9835 X4.8009 Y0.3889
N9840 X4.8023 Y0.3934
N9845 X4.8037 Y0.3979
N9850 X4.8063 Y0.4068
N9855 X4.8076 Y0.4113
N9860 X4.8101 Y0.4202
N9865 X4.8107 Y0.4226
N9870 X4.8113 Y0.4247
N9875 X4.8136 Y0.4337
N9880 X4.8148 Y0.4381
N9885 X4.817 Y0.4471
N9890 X4.8181 Y0.4516
N9895 X4.8191 Y0.456
N9900 X4.8212 Y0.465
N9905 X4.8222 Y0.4695
N9910 X4.825 Y0.4829
N9915 X4.8259 Y0.4874
N9920 X4.8277 Y0.4963
N9925 X4.8286 Y0.5014
N9930 X4.8294 Y0.5053
N9935 X4.8302 Y0.5097
N9940 X4.8325 Y0.5231
N9945 X4.8331 Y0.527
N9950 X4.8332 Y0.5276
N9955 X4.8359 Y0.5455
N9960 X4.8365 Y0.55
N9965 X4.8377 Y0.5589
N9970 X4.8383 Y0.5634
N9975 X4.8388 Y0.5679
N9980 X4.8393 Y0.5724
N9985 X4.8398 Y0.5768
N9990 X4.8402 Y0.5813
N9995 X4.8407 Y0.5858
N10000 X4.8411 Y0.5903
N10005 X4.8415 Y0.5947
N10010 X4.8418 Y0.5992
N10015 X4.8421 Y0.6025
N10020 Y0.6035
N10025 X4.8422 Y0.6045
N10030 X4.8424 Y0.6065
N10035 X4.8426 Y0.6104
N10040 X4.8432 Y0.6181 Z-0.0256
N10045 X4.8437 Y0.626 Z-0.0257
N10050 X4.8441 Y0.6337 Z-0.0258
N10055 X4.8446 Y0.6415 Z-0.026
N10060 X4.8449 Y0.6494 Z-0.0261
N10065 X4.8451 Y0.6533 Z-0.0262
N10070 X4.8453 Y0.6572 Z-0.0264
N10075 X4.8454 Y0.6611 Z-0.0265
N10080 X4.8456 Y0.665 Z-0.0266
N10085 X4.8457 Y0.6689 Z-0.0267
N10090 X4.8458 Y0.6728 Z-0.0269
N10095 X4.8459 Y0.6767 Z-0.027
N10100 X4.846 Y0.6806 Z-0.0271
N10105 X4.8461 Y0.6846 Z-0.0273
N10110 X4.8462 Y0.6885 Z-0.0274
N10115 Y0.6924 Z-0.0275
N10120 Y0.6963 Z-0.0277
N10125 Y0.7002 Z-0.0278
N10130 X4.8463 Y0.7041 Z-0.0279
N10135 Y0.7081 Z-0.0281
N10140 X4.8462 Y0.712 Z-0.0282
N10145 Y0.7159 Z-0.0284
N10150 X4.8461 Y0.7198 Z-0.0285
N10155 Y0.7237 Z-0.0286
N10160 X4.846 Y0.7277 Z-0.0288
N10165 X4.8457 Y0.7355 Z-0.029
N10170 X4.8456 Y0.7394 Z-0.0292
N10175 X4.8455 Y0.7434 Z-0.0293
N10180 X4.8453 Y0.7473 Z-0.0295
N10185 X4.8449 Y0.7551 Z-0.0297
N10190 X4.8447 Y0.7591 Z-0.0299
N10195 X4.8445 Y0.763 Z-0.03
N10200 X4.8443 Y0.7669 Z-0.0301
N10205 X4.844 Y0.7708 Z-0.0303
N10210 X4.8438 Y0.7747 Z-0.0304
N10215 X4.8435 Y0.7787 Z-0.0306
N10220 X4.8432 Y0.7826 Z-0.0307
N10225 X4.8429 Y0.7865 Z-0.0308
N10230 X4.8426 Y0.7904 Z-0.031
N10235 X4.8423 Y0.7943 Z-0.0311
N10240 X4.8419 Y0.7983 Z-0.0312
N10245 X4.8416 Y0.8022 Z-0.0314
N10250 X4.8412 Y0.8061 Z-0.0315
N10255 X4.8408 Y0.81 Z-0.0316
N10260 X4.8404 Y0.8139 Z-0.0318
N10265 X4.84 Y0.8179 Z-0.0319
N10270 X4.8396 Y0.8218 Z-0.032
N10275 X4.8391 Y0.8257 Z-0.0321
N10280 X4.8387 Y0.8296 Z-0.0323
N10285 X4.8382 Y0.8335 Z-0.0324
N10290 X4.8377 Y0.8374 Z-0.0325
N10295 X4.8366 Y0.8452 Z-0.0326
N10300 X4.8355 Y0.853 Z-0.0328
N10305 X4.8343 Y0.8608 Z-0.0329
N10310 X4.833 Y0.8685 Z-0.033
N10315 X4.8316 Y0.8763
N10320 X4.8313 Y0.878
N10325 X4.8311 Y0.8793
N10330 X4.831 Y0.8796
N10335 Y0.8797
N10340 X4.8307 Y0.8811
N10345 X4.8286 Y0.8923
N10350 X4.8282 Y0.8945
N10355 X4.8264 Y0.9035
N10360 X4.8255 Y0.9079
N10365 X4.8236 Y0.9169
N10370 X4.8227 Y0.9214
N10375 X4.8208 Y0.9303
N10380 X4.8198 Y0.9348
N10385 X4.8178 Y0.9437
N10390 X4.8168 Y0.9482
N10395 X4.8147 Y0.9572
N10400 X4.8137 Y0.9616
N10405 X4.8105 Y0.9751
N10410 X4.8072 Y0.9885
N10415 X4.8062 Y0.9923
N10420 X4.8038 Y1.0019
N10425 X4.8026 Y1.0064
N10430 X4.8003 Y1.0153
N10435 X4.7991 Y1.0198
N10440 X4.7956 Y1.0332
N10445 X4.7944 Y1.0377
N10450 X4.7919 Y1.0466
N10455 X4.7907 Y1.0511
N10460 X4.7882 Y1.0601
N10465 X4.787 Y1.0645
N10470 X4.7831 Y1.078
N10475 X4.7818 Y1.0824
N10480 X4.7793 Y1.0914
N10485 X4.778 Y1.0959
N10490 X4.77 Y1.1227
N10495 X4.7687 Y1.1272
N10500 X4.7659 Y1.1366
N10505 X4.7647 Y1.1406
N10510 X4.7564 Y1.1675
N10515 X4.755 Y1.1719
N10520 X4.737 Y1.2301
N10525 X4.7356 Y1.2346
N10530 X4.7328 Y1.2435
N10535 X4.7314 Y1.248
N10540 X4.7286 Y1.2569
N10545 X4.7272 Y1.2614
N10550 X4.723 Y1.2748
N10555 X4.7216 Y1.2793
N10560 X4.7189 Y1.2883
N10565 X4.7175 Y1.2927
N10570 X4.7148 Y1.3017
N10575 X4.7134 Y1.3062
N10580 X4.7107 Y1.3151
N10585 X4.7094 Y1.3196
N10590 X4.7077 Y1.3255
N10595 X4.7068 Y1.3285
N10600 X4.7029 Y1.342
N10605 X4.7016 Y1.3464
N10610 X4.7001 Y1.3509
N10615 X4.6987 Y1.3542
N10620 X4.6981 Y1.3554
N10625 X4.6956 Y1.3599
N10630 X4.6942 Y1.362
N10635 X4.6925 Y1.3643
N10640 X4.6897 Y1.3677
N10645 X4.6887 Y1.3688
N10650 X4.6853 Y1.3722
N10655 X4.684 Y1.3733
N10660 X4.6808 Y1.3757
N10665 X4.6776 Y1.3778
N10670 X4.6763 Y1.3786
N10675 X4.6718 Y1.3808
N10680 X4.6685 Y1.3822
N10685 X4.6673 Y1.3826
N10690 X4.6629 Y1.384
N10695 X4.6584 Y1.3849
N10700 X4.6539 Y1.3855
N10705 X4.6494 Y1.3857
N10710 X4.6449 Y1.3855
N10715 X4.6404 Y1.3851
N10720 X4.6001 Y1.3817
N10725 X4.5956 Y1.3813
N10730 X4.5822 Y1.3803
N10735 X4.5777 Y1.3799
N10740 X4.5598 Y1.3785
N10745 X4.5553 Y1.3782
N10750 X4.5374 Y1.3769
N10755 X4.5329 Y1.3765
N10760 X4.515 Y1.3753
N10765 X4.5105 Y1.375
N10770 X4.4926 Y1.3737
N10775 X4.4881 Y1.3735
N10780 X4.4747 Y1.3726
N10785 X4.4702 Y1.3723
N10790 X4.4523 Y1.3712
N10795 X4.4478 Y1.371
N10800 X4.4343 Y1.3702
N10805 X4.4299 Y1.37
N10810 X4.4119 Y1.369
N10815 X4.4085 Y1.3688
N10820 X4.394 Y1.3681
N10825 X4.3895 Y1.3678
N10830 X4.3716 Y1.367
N10835 X4.3671 Y1.3668
N10840 X4.3537 Y1.3662
N10845 X4.3492 Y1.366
N10850 X4.3358 Y1.3655
N10855 X4.3313 Y1.3653
N10860 X4.3178 Y1.3648
N10865 X4.3134 Y1.3646
N10870 X4.2954 Y1.364
N10875 X4.291 Y1.3639
N10880 X4.2775 Y1.3634
N10885 X4.273 Y1.3633
N10890 X4.2596 Y1.3629
N10895 X4.2551 Y1.3628
N10900 X4.2417 Y1.3625
N10905 X4.2372 Y1.3624
N10910 X4.2238 Y1.3621
N10915 X4.2193 Y1.362
N10920 X4.2058 Y1.3618
N10925 X4.1969 Y1.3616
N10930 X4.1879 Y1.3615
N10935 X4.1834 Y1.3614
N10940 X4.17 Y1.3613
N10945 X4.1655 Y1.3612
N10950 X4.1521 Y1.3611
N10955 X4.1476
N10960 X4.1386 Y1.361
N10965 X4.1341
N10970 X4.1207
N10975 X4.1162
N10980 X4.1028
N10985 X4.0983
N10990 X4.0849
N10995 X4.0714 Y1.3611
N11000 X4.0669
N11005 X4.0535 Y1.3613
N11010 X4.049
N11015 X4.0356 Y1.3615
N11020 X4.0311
N11025 X4.0221 Y1.3617
N11030 X4.0177 Y1.3618
N11035 X4.0042 Y1.362
N11040 X3.9997 Y1.3621
N11045 X3.9908 Y1.3623
N11050 X3.9863 Y1.3624
N11055 X3.9728 Y1.3627
N11060 X3.9594 Y1.363
N11065 X3.9549 Y1.3632
N11070 X3.9415 Y1.3635
N11075 X3.9325 Y1.3638
N11080 X3.928 Y1.364
N11085 X3.9176 Y1.3643
N11090 X3.9146 Y1.3644
N11095 X3.8877 Y1.3654
N11100 X3.8832 Y1.3656
N11105 X3.8788 Y1.3658
N11110 X3.8743 Y1.3659
N11115 X3.8653 Y1.3663
N11120 X3.8608 Y1.3665
N11125 X3.8339 Y1.3677
N11130 X3.8295 Y1.368
N11135 X3.8115 Y1.3689
N11140 X3.8071 Y1.3691
N11145 X3.7847 Y1.3703
N11150 X3.7802 Y1.3705
N11155 X3.7623 Y1.3716
N11160 X3.7578 Y1.3718
N11165 X3.7335 Y1.3733
N11170 X3.7309 Y1.3734
N11175 X3.7085 Y1.3749
N11180 X3.6816 Y1.3767
N11185 X3.6771 Y1.377
N11190 X3.6368 Y1.3799
N11195 X3.6323 Y1.3802
N11200 X3.6099 Y1.3819
N11205 X3.6054 Y1.3823
N11210 X3.5875 Y1.3837
N11215 X3.583 Y1.384
N11220 X3.5606 Y1.3858
N11225 X3.5427 Y1.3873
N11230 X3.5382 Y1.3876
N11235 X3.5158 Y1.3895
N11240 X3.5113 Y1.3899
N11245 X3.4963 Y1.3912
N11250 X3.4934 Y1.3914
N11255 X3.471 Y1.3934
N11260 X3.4665 Y1.3937
N11265 X3.4531 Y1.3949
N11270 X3.4486 Y1.3953
N11275 X3.4262 Y1.3973
N11280 X3.4083 Y1.3989
N11285 X3.4038 Y1.3993
N11290 X3.3859 Y1.4009
N11295 X3.3814 Y1.4013
N11300 X3.3635 Y1.4029
N11305 X3.3321 Y1.4058
N11310 X3.3232 Y1.4066
N11315 X3.3187 Y1.407
N11320 X3.3008 Y1.4086
N11325 X3.2963 Y1.409
N11330 X3.2784 Y1.4106
N11335 X3.2604 Y1.4122
N11340 X3.256 Y1.4126
N11345 X3.238 Y1.4142
N11350 X3.2201 Y1.4157
N11355 X3.2156 Y1.4161
N11360 X3.1977 Y1.4177
N11365 X3.1798 Y1.4192
N11370 X3.1753 Y1.4196
N11375 X3.1574 Y1.4211
N11380 X3.1395 Y1.4226
N11385 X3.135 Y1.4229
N11390 X3.1126 Y1.4247
N11395 X3.0991 Y1.4258
N11400 X3.0947 Y1.4262
N11405 X3.0767 Y1.4275
N11410 X3.0723 Y1.4279
N11415 X3.0588 Y1.4289
N11420 X3.0543 Y1.4292
N11425 X3.0409 Y1.4302
N11430 X3.0364 Y1.4305
N11435 X3.023 Y1.4315
N11440 X3.0185 Y1.4318
N11445 X3.0006 Y1.433
N11450 X2.9961 Y1.4333
N11455 X2.9826 Y1.4342
N11460 X2.9782 Y1.4345
N11465 X2.9647 Y1.4353
N11470 X2.9602 Y1.4356
N11475 X2.9468 Y1.4364
N11480 X2.9423 Y1.4367
N11485 X2.9244 Y1.4377
N11490 X2.911 Y1.4384
N11495 X2.9065 Y1.4387
N11500 X2.8886 Y1.4396
N11505 X2.8841 Y1.4398
N11510 X2.8717 Y1.4404
N11515 X2.8706
N11520 X2.8527 Y1.4413
N11525 X2.8482 Y1.4414
N11530 X2.8348 Y1.442
N11535 X2.8303 Y1.4421
N11540 X2.8124 Y1.4428
N11545 X2.8079 Y1.443
N11550 X2.7945 Y1.4434
N11555 X2.79 Y1.4436
N11560 X2.7721 Y1.4441
N11565 X2.7676 Y1.4442
N11570 X2.7541 Y1.4445
N11575 X2.7497 Y1.4447
N11580 X2.7362 Y1.4449
N11585 X2.7317 Y1.445
N11590 X2.7138 Y1.4453
N11595 X2.7093 Y1.4454
N11600 X2.6959 Y1.4455
N11605 X2.6914 Y1.4456
N11610 X2.678
N11615 X2.6735 Y1.4457
N11620 X2.6556
N11625 X2.6511
N11630 X2.6376
N11635 X2.6332
N11640 X2.6152 Y1.4455
N11645 X2.6108
N11650 X2.5973 Y1.4454
N11655 X2.5928 Y1.4453
N11660 X2.5839 Y1.4451
N11665 X2.5794 Y1.445
N11670 X2.5615 Y1.4447
N11675 X2.557 Y1.4446
N11680 X2.5435 Y1.4442
N11685 X2.5391 Y1.4441
N11690 X2.5211 Y1.4435
N11695 X2.5077 Y1.443
N11700 X2.5032 Y1.4429
N11705 X2.4719 Y1.4415
N11710 X2.4539 Y1.4407
N11715 X2.4495 Y1.4404
N11720 X2.4271 Y1.4391
N11725 X2.4226 Y1.4389
N11730 X2.3957 Y1.4373
N11735 X2.3912 Y1.4369
N11740 X2.3733 Y1.4356
N11745 X2.3688 Y1.4353
N11750 X2.3419 Y1.4333
N11755 X2.3374 Y1.433
N11760 X2.3106 Y1.4307
N11765 X2.2971 Y1.4295
N11770 X2.2882 Y1.4287
N11775 X2.2837 Y1.4283
N11780 X2.2568 Y1.4257
N11785 X2.2523 Y1.4252
N11790 X2.2344 Y1.4234
N11795 X2.2299 Y1.423
N11800 X2.203 Y1.42
N11805 X2.1985 Y1.4195
N11810 X2.1806 Y1.4175
N11815 X2.1761 Y1.417
N11820 X2.1493 Y1.4138
N11825 X2.1474 Y1.4135
N11830 X2.1269 Y1.411
N11835 X2.1224 Y1.4105
N11840 X2.0955 Y1.4069
N11845 X2.0731 Y1.404
N11850 X2.0686 Y1.4034
N11855 X2.0454 Y1.4001
N11860 X2.0417 Y1.3996
N11865 X2.0238 Y1.3971
N11870 X2.0193 Y1.3964
N11875 X1.9924 Y1.3925
N11880 X1.97 Y1.3891
N11885 X1.9656 Y1.3885
N11890 X1.9432 Y1.385
N11895 X1.9387 Y1.3843
N11900 X1.9207 Y1.3815
N11905 X1.9163 Y1.3808
N11910 X1.8939 Y1.3772
N11915 X1.8894 Y1.3765
N11920 X1.8697 Y1.3733
N11925 X1.867 Y1.3728
N11930 X1.843 Y1.3688
N11935 X1.8401 Y1.3683
N11940 X1.8177 Y1.3645
N11945 X1.8132 Y1.3637
N11950 X1.7908 Y1.3598
N11955 X1.7863 Y1.359
N11960 X1.7684 Y1.3558
N11965 X1.7663 Y1.3554
N11970 X1.7415 Y1.3508
N11975 X1.737 Y1.35
N11980 X1.7191 Y1.3466
N11985 X1.718 Y1.3464
N11990 X1.6922 Y1.3415
N11995 X1.6878 Y1.3406
N12000 X1.6698 Y1.3371
N12005 X1.6654 Y1.3362
N12010 X1.643 Y1.3317
N12015 X1.6385 Y1.3308
N12020 X1.6206 Y1.3271
N12025 X1.6161 Y1.3262
N12030 X1.5937 Y1.3215
N12035 X1.5892 Y1.3205
N12040 X1.5713 Y1.3166
N12045 X1.5668 Y1.3156
N12050 X1.5444 Y1.3106
N12055 X1.5399 Y1.3096
N12060 X1.5175 Y1.3044
N12065 X1.513 Y1.3033
N12070 X1.4906 Y1.2981
N12075 X1.4871 Y1.2972
N12080 X1.4637 Y1.2914
N12085 X1.4593 Y1.2903
N12090 X1.4413 Y1.2858
N12095 X1.4368 Y1.2847
N12100 X1.4144 Y1.2788
N12105 X1.41 Y1.2776
N12110 X1.3876 Y1.2716
N12115 X1.3832 Y1.2704
N12120 X1.3652 Y1.2653
N12125 X1.3607 Y1.264
N12130 X1.3383 Y1.2576
N12135 X1.3361 Y1.2569
N12140 X1.3114 Y1.2496
N12145 X1.3069 Y1.2482
N12150 X1.289 Y1.2426
N12155 X1.2845 Y1.2412
N12160 X1.2621 Y1.2341
N12165 X1.2576 Y1.2326
N12170 X1.2397 Y1.2266
N12175 X1.2368 Y1.2256
N12180 X1.2128 Y1.2175
N12185 X1.2105 Y1.2167
N12190 X1.1904 Y1.2094
N12195 X1.1857 Y1.2077
N12200 X1.168 Y1.2014
N12205 X1.1635 Y1.1997
N12210 X1.1411 Y1.1911
N12215 X1.1377 Y1.1898
N12220 X1.1187 Y1.1824
N12225 X1.1148 Y1.1809
N12230 X1.0963 Y1.1734
N12235 X1.0928 Y1.1719
N12240 X1.0714 Y1.163
N12245 X1.0694 Y1.1622
N12250 X1.0506 Y1.154
N12255 X1.047 Y1.1525
N12260 X1.0426 Y1.1505
N12265 X1.0291 Y1.1445
N12270 X1.0246 Y1.1425
N12275 X1.0022 Y1.1323
N12280 X1.0009 Y1.1317
N12285 X0.9821 Y1.1227
N12290 X0.9798 Y1.1216
N12295 X0.9619 Y1.113
N12300 X0.9574 Y1.1109
N12305 X0.9543 Y1.1093
N12310 X0.935 Y1.0995
N12315 X0.9171 Y1.0905
N12320 X0.9126 Y1.0882
N12325 X0.8935 Y1.078
N12330 X0.8902 Y1.0762
N12335 X0.8723 Y1.0666
N12340 X0.8686 Y1.0645
N12345 X0.8526 Y1.0556
N12350 X0.8499 Y1.0541
N12355 X0.832 Y1.0439
N12360 X0.829 Y1.0422
N12365 X0.8137 Y1.0332
N12370 X0.8096 Y1.0308
N12375 X0.7912 Y1.0198
N12380 X0.7872 Y1.0173
N12385 X0.7737 Y1.0091
N12390 X0.7692 Y1.0064
N12395 X0.7603 Y1.0008
N12400 X0.7558 Y0.998
N12405 X0.7409 Y0.9885
N12410 X0.7379 Y0.9866
N12415 X0.7289 Y0.9808
N12420 X0.727 Y0.9795
N12425 X0.6999 Y0.9616
N12430 X0.6976 Y0.96
N12435 X0.6886 Y0.954
N12440 X0.6867 Y0.9527
N12445 X0.6707 Y0.9416
N12450 X0.6672 Y0.9393
N12455 X0.6608 Y0.9348
N12460 X0.6572 Y0.9322
N12465 X0.642 Y0.9214
N12470 X0.6348 Y0.9163
N12475 X0.6303 Y0.913
N12480 X0.6234 Y0.9079
N12485 X0.6214 Y0.9064
N12490 X0.6052 Y0.8945
N12495 X0.6035 Y0.8932
N12500 X0.599 Y0.8898
N12505 X0.5945 Y0.8865
N12510 X0.5811 Y0.8762
N12515 X0.5766 Y0.8728
N12520 X0.57 Y0.8677
N12525 X0.5676 Y0.8658
N12530 X0.5542 Y0.8552
N12535 X0.5529 Y0.8543
N12540 X0.5452 Y0.8482
N12545 X0.5416 Y0.8453
N12550 X0.5361 Y0.8408
N12555 X0.5318 Y0.8373
N12560 X0.5228 Y0.83
N12565 X0.5196 Y0.8274
N12570 X0.5139 Y0.8226
N12575 X0.5094 Y0.8189
N12580 X0.4982 Y0.8095
N12585 X0.4959 Y0.8076
N12590 X0.4914 Y0.8038
N12595 X0.4877 Y0.8006
N12600 X0.4825 Y0.796
N12605 X0.478 Y0.7922
N12610 X0.4671 Y0.7827
N12615 X0.4646 Y0.7804
N12620 X0.4601 Y0.7764
N12625 X0.4571 Y0.7737
N12630 X0.4466 Y0.7643
N12635 X0.4422 Y0.7603
N12640 X0.4377 Y0.7562
N12645 X0.4277 Y0.7469
N12650 X0.4242 Y0.7436
N12655 X0.4181 Y0.7379
N12660 X0.4153 Y0.7352
N12665 X0.4108 Y0.7309
N12670 X0.4088 Y0.729
N12675 X0.3995 Y0.72
N12680 X0.3974 Y0.7179
N12685 X0.3929 Y0.7134
N12690 X0.3905 Y0.7111
N12695 X0.3816 Y0.7021
N12700 X0.3794 Y0.7
N12705 X0.375 Y0.6954
N12710 X0.3728 Y0.6932
N12715 X0.3641 Y0.6842
N12720 X0.3615 Y0.6815
N12725 X0.357 Y0.6768
N12730 X0.3556 Y0.6753
N12735 X0.3474 Y0.6663
N12740 X0.3436 Y0.6622
N12745 X0.3433 Y0.6619
N12750 X0.3392 Y0.6574
N12755 X0.3346 Y0.6523
N12760 X0.3312 Y0.6484
N12765 X0.3257 Y0.6421
N12770 X0.3234 Y0.6395
N12775 X0.3196 Y0.635
N12780 X0.3167 Y0.6316
N12785 X0.312 Y0.6261
N12790 X0.3083 Y0.6216
N12795 X0.3077 Y0.6209
N12800 X0.3047 Y0.6171
N12805 X0.2975 Y0.6082
N12810 X0.294 Y0.6037
N12815 X0.2906 Y0.5992
N12820 X0.2853 Y0.5923
N12825 X0.2809 Y0.5863
N12830 X0.2805 Y0.5858
N12835 X0.2773 Y0.5813
N12840 X0.2764 Y0.5801
N12845 X0.2741 Y0.5768
N12850 X0.2709 Y0.5724
N12855 X0.2678 Y0.5679
N12860 X0.2674 Y0.5673
N12865 X0.2648 Y0.5634
N12870 X0.2619 Y0.5589
N12875 X0.259 Y0.5545
N12880 X0.2561 Y0.55
N12885 X0.254 Y0.5465
N12890 X0.2507 Y0.541
N12895 X0.2495 Y0.5391
N12900 X0.248 Y0.5366
N12905 X0.2454 Y0.5321
N12910 X0.243 Y0.5276
N12915 X0.2405 Y0.5231
N12920 X0.2381 Y0.5187
N12925 X0.2361 Y0.5147
N12930 X0.2336 Y0.5097
N12935 X0.2316 Y0.5057
N12940 X0.2314 Y0.5053
N12945 X0.2293 Y0.5008
N12950 X0.2271 Y0.4958
N12955 X0.2253 Y0.4918
N12960 X0.2235 Y0.4874
N12965 X0.2226 Y0.4852
N12970 X0.2217 Y0.4829
N12975 X0.22 Y0.4784
N12980 X0.2184 Y0.4739
N12985 X0.2181 Y0.4732
N12990 X0.2169 Y0.4695
N12995 X0.2154 Y0.465
N13000 X0.214 Y0.4605
N13005 X0.2137 Y0.4593
N13010 X0.2127 Y0.456
N13015 X0.2116 Y0.4516
N13020 X0.2104 Y0.4471
N13025 X0.2094 Y0.4426
N13030 X0.2085 Y0.4381
N13035 X0.2076 Y0.4337
N13040 X0.2068 Y0.4292
N13045 X0.2062 Y0.4247
N13050 X0.2055 Y0.4202
N13055 X0.205 Y0.4158
N13060 X0.2047 Y0.412
N13065 X0.2046 Y0.4113
N13070 X0.2042 Y0.4068
N13075 X0.204 Y0.4023
N13080 X0.2039 Y0.3979
N13085 X0.2038 Y0.3934
N13090 Y0.3889
N13095 X0.2039 Y0.3844
N13100 X0.2041 Y0.38
N13105 X0.2043 Y0.3755
N13110 X0.2047 Y0.371
N13115 X0.2051 Y0.3665
N13120 X0.2056 Y0.3621
N13125 X0.2062 Y0.3576
N13130 X0.2069 Y0.3531
N13135 X0.2077 Y0.3486
N13140 X0.2085 Y0.3442
N13145 X0.2092 Y0.3409
N13150 X0.2104 Y0.3352
N13155 X0.2115 Y0.3308
N13160 X0.2126 Y0.3263
N13165 X0.2138 Y0.3218
N13170 X0.2151 Y0.3173
N13175 X0.2164 Y0.3129
N13180 X0.2178 Y0.3084
N13185 X0.2181 Y0.3075
N13190 X0.2193 Y0.3039
N13195 X0.2209 Y0.2994
N13200 X0.2225 Y0.295
N13205 X0.2241 Y0.2905
N13210 X0.2259 Y0.286
N13215 X0.2271 Y0.2829
N13220 X0.2277 Y0.2815
N13225 X0.2295 Y0.2771
N13230 X0.2314 Y0.2726
N13235 X0.2334 Y0.2681
N13240 X0.2355 Y0.2636
N13245 X0.2376 Y0.2592
N13250 X0.2419 Y0.2502
N13255 X0.2442 Y0.2457
N13260 X0.245 Y0.2442
N13265 X0.2466 Y0.2413
N13270 X0.2515 Y0.2323
N13275 X0.254 Y0.2281
N13280 X0.2585 Y0.2203
N13285 X0.2593 Y0.2189
N13290 X0.2621 Y0.2144
N13295 X0.2649 Y0.2099
N13300 X0.2674 Y0.2061
N13305 X0.2738 Y0.1965
N13310 X0.2764 Y0.1928
N13315 X0.2809 Y0.1865
N13320 X0.2833 Y0.1831
N13325 X0.2853 Y0.1803
N13330 X0.2866 Y0.1786
N13335 X0.2901 Y0.1741
N13340 X0.2936 Y0.1697
N13345 X0.2943 Y0.1688
N13350 X0.2973 Y0.1652
N13355 X0.301 Y0.1607
N13360 X0.3033 Y0.158
N13365 X0.3048 Y0.1563
N13370 X0.3077 Y0.153
N13375 X0.3122 Y0.148
N13380 X0.3128 Y0.1473
N13385 X0.3167 Y0.1432
N13390 X0.3171 Y0.1428
N13395 X0.3214 Y0.1384
N13400 X0.3257 Y0.1341
N13405 X0.3259 Y0.1339
N13410 X0.3301 Y0.1297
N13415 X0.3305 Y0.1294
N13420 X0.3346 Y0.1255
N13425 X0.3352 Y0.1249
N13430 X0.3391 Y0.1214
N13435 X0.3402 Y0.1205
N13440 X0.3436 Y0.1174
N13445 X0.3453 Y0.116
N13450 X0.3481 Y0.1136
N13455 X0.3506 Y0.1115
N13460 X0.3526 Y0.1099
N13465 X0.3561 Y0.107
N13470 X0.357 Y0.1063
N13475 X0.3615 Y0.1028
N13480 X0.3619 Y0.1026
N13485 X0.366 Y0.0995
N13490 X0.3679 Y0.0981
N13495 X0.3705 Y0.0962
N13500 X0.3742 Y0.0936
N13505 X0.375 Y0.0931
N13510 X0.3794 Y0.0901
N13515 X0.3839 Y0.0871
N13520 X0.3878 Y0.0847
N13525 X0.3884 Y0.0843
N13530 X0.3929 Y0.0816
N13535 X0.3952 Y0.0802
N13540 X0.3974 Y0.0789
N13545 X0.4018 Y0.0763
N13550 X0.403 Y0.0757
N13555 X0.4063 Y0.0739
N13560 X0.4108 Y0.0715
N13565 X0.4112 Y0.0712
N13570 X0.4153 Y0.0692
N13575 X0.4198 Y0.0669
N13580 X0.4242 Y0.0647
N13585 X0.4287 Y0.0627
N13590 X0.4295 Y0.0623
N13595 X0.4332 Y0.0606
N13600 X0.4377 Y0.0587
N13605 X0.4422 Y0.0568
N13610 X0.4466 Y0.055
N13615 X0.4508 Y0.0533
N13620 X0.4511 Y0.0532
N13625 X0.4556 Y0.0516
N13630 X0.4646 Y0.0484
N13635 X0.469 Y0.0468
N13640 X0.4735 Y0.0454
N13645 X0.478 Y0.0441
N13650 X0.4825 Y0.0428
N13655 X0.4914 Y0.0402
N13660 X0.4923 Y0.0399
N13665 X0.4959 Y0.039
N13670 X0.5004 Y0.038
N13675 X0.5049 Y0.0369
N13680 X0.5139 Y0.0348
N13685 X0.5183 Y0.0339
N13690 X0.5228 Y0.0331
N13695 X0.5273 Y0.0322
N13700 X0.5318 Y0.0314
N13705 X0.5345 Y0.031
N13710 X0.5363 Y0.0307
N13715 X0.5407 Y0.03
N13720 X0.5452 Y0.0294
N13725 X0.5497 Y0.0288
N13730 X0.5542 Y0.0282
N13735 X0.5587 Y0.0278
N13740 X0.5631 Y0.0273
N13745 X0.5676 Y0.0269
N13750 X0.5731 Y0.0265
N13755 X0.5766 Y0.0262
N13760 X0.5811 Y0.026
N13765 X0.5855 Y0.0258
N13770 X0.59 Y0.0257
N13775 X0.5945
N13780 X0.599
N13785 X0.6035
N13790 X0.6079 Y0.0259
N13795 X0.6124 Y0.0262
N13800 X0.6165 Y0.0265
N13805 X0.6169
N13810 X0.6214 Y0.027
N13815 X0.6259 Y0.0276
N13820 X0.6303 Y0.0283
N13825 X0.6348 Y0.0291
N13830 X0.6393 Y0.0302
N13835 X0.642 Y0.031
N13840 X0.6438 Y0.0315
N13845 X0.6483 Y0.033
N13850 X0.6527 Y0.0349
N13855 X0.6541 Y0.0354
N13860 X0.6572 Y0.037
N13865 X0.6617 Y0.0394
N13870 X0.6626 Y0.0399
N13875 X0.6662 Y0.0421
N13880 X0.6696 Y0.0444
N13885 X0.6707 Y0.0451
N13890 X0.6752 Y0.0484
N13895 X0.6758 Y0.0489
N13900 X0.6796 Y0.0519
N13905 X0.6814 Y0.0533
N13910 X0.6841 Y0.0556
N13915 X0.6868 Y0.0578
N13920 X0.6886 Y0.0593
N13925 X0.692 Y0.0623
N13930 X0.6931 Y0.0632
N13935 X0.6971 Y0.0668
N13940 X0.6976 Y0.0671
N13945 X0.7023 Y0.0712
N13950 X0.7065 Y0.075
N13955 X0.7074 Y0.0757
N13960 X0.711 Y0.0788
N13965 X0.7126 Y0.0802
N13970 X0.7155 Y0.0827
N13975 X0.7178 Y0.0847
N13980 X0.72 Y0.0865
N13985 X0.7232 Y0.0891
N13990 X0.7244 Y0.0902
N13995 X0.7286 Y0.0936
N14000 X0.7289 Y0.0938
N14005 X0.7334 Y0.0974
N14010 X0.7342 Y0.0981
N14015 X0.7379 Y0.101
N14020 X0.7399 Y0.1026
N14025 X0.7424 Y0.1044
N14030 X0.7458 Y0.107
N14035 X0.7468 Y0.1078
N14040 X0.7513 Y0.1112
N14045 X0.7518 Y0.1115
N14050 X0.7558 Y0.1144
N14055 X0.758 Y0.116
N14060 X0.7603 Y0.1176
N14065 X0.7644 Y0.1205
N14070 X0.7648 Y0.1207
N14075 X0.7692 Y0.1238
N14080 X0.7709 Y0.1249
N14085 X0.7737 Y0.1268
N14090 X0.7782 Y0.1297
N14095 X0.7827 Y0.1325
N14100 X0.7872 Y0.1354
N14105 X0.7916 Y0.138
N14110 X0.7922 Y0.1384
N14115 X0.7961 Y0.1407
N14120 X0.7998 Y0.1428
N14125 X0.8006 Y0.1433
N14130 X0.8051 Y0.1458
N14135 X0.8079 Y0.1473
N14140 X0.8096 Y0.1482
N14145 X0.814 Y0.1506
N14150 X0.8164 Y0.1518
N14155 X0.8185 Y0.1529
N14160 X0.823 Y0.1551
N14165 X0.8254 Y0.1563
N14170 X0.8275 Y0.1573
N14175 X0.832 Y0.1594
N14180 X0.8365 Y0.1614
N14185 X0.8409 Y0.1634
N14190 X0.8453 Y0.1652
N14195 X0.8499 Y0.1671
N14200 X0.8544 Y0.1688
N14205 X0.8566 Y0.1697
N14210 X0.8589 Y0.1705
N14215 X0.8633 Y0.1722
N14220 X0.8678 Y0.1737
N14225 X0.8691 Y0.1741
N14230 X0.8723 Y0.1752
N14235 X0.8768 Y0.1766
N14240 X0.8813 Y0.178
N14245 X0.8833 Y0.1786
N14250 X0.8857 Y0.1793
N14255 X0.8902 Y0.1806
N14260 X0.8947 Y0.1818
N14265 X0.8992 Y0.1829
N14270 X0.9 Y0.1831
N14275 X0.9037 Y0.184
N14280 X0.9081 Y0.185
N14285 X0.9126 Y0.1859
N14290 X0.9171 Y0.1869
N14295 X0.9216 Y0.1877
N14300 X0.9261 Y0.1885
N14305 X0.9305 Y0.1892
N14310 X0.935 Y0.1899
N14315 X0.9395 Y0.1905
N14320 X0.944 Y0.1911
N14325 X0.9485 Y0.1915
N14330 X0.9529 Y0.192
N14335 X0.9574 Y0.1924
N14340 X0.9619 Y0.1928
N14345 X0.9664 Y0.193
N14350 X0.9709 Y0.1933
N14355 X0.9753 Y0.1936
N14360 X0.9798 Y0.1937
N14365 X0.9843 Y0.1938
N14370 X0.9888 Y0.194
N14375 X0.9933
N14380 X0.9978
N14385 X1.0022
N14390 X1.0067
N14395 X1.0112 Y0.1939
N14400 X1.0157 Y0.1938
N14405 X1.0202 Y0.1937
N14410 X1.0246 Y0.1936
N14415 X1.0291 Y0.1934
N14420 X1.0336 Y0.1932
N14425 X1.0381 Y0.1929
N14430 X1.0426 Y0.1927
N14435 X1.047 Y0.1924
N14440 X1.065 Y0.1911
N14445 X1.0694 Y0.1907
N14450 X1.0739 Y0.1904
N14455 X1.0784 Y0.1899
N14460 X1.0829 Y0.1895
N14465 X1.1008 Y0.1878
N14470 X1.1053 Y0.1874
N14475 X1.1098 Y0.1869
N14480 X1.1142 Y0.1864
N14485 X1.1187 Y0.186
N14490 X1.1367 Y0.1841
N14495 X1.1411 Y0.1836
N14500 X1.1546 Y0.1821
N14505 X1.1725 Y0.1802
N14510 X1.177 Y0.1797
N14515 X1.1815 Y0.1793
N14520 X1.1859 Y0.1788
N14525 X1.1949 Y0.1779
N14530 X1.1994 Y0.1774
N14535 X1.2039 Y0.177
N14540 X1.2083 Y0.1765
N14545 X1.2128 Y0.1761
N14550 X1.2173 Y0.1757
N14555 X1.2218 Y0.1752
N14560 X1.2263 Y0.1748
N14565 X1.2352 Y0.174
N14570 X1.2397 Y0.1736
N14575 X1.2442 Y0.1732
N14580 X1.2487 Y0.1728
N14585 X1.2576 Y0.1721
N14590 X1.2621 Y0.1718
N14595 X1.2666 Y0.1714
N14600 X1.2711 Y0.1711
N14605 X1.28 Y0.1705
N14610 X1.289 Y0.1698
N14615 X1.2914 Y0.1697
N14620 X1.3024 Y0.169
N14625 X1.3069 Y0.1687
N14630 X1.3204 Y0.168
N14635 X1.3248 Y0.1678
N14640 X1.3472 Y0.1667
N14645 X1.3517 Y0.1665
N14650 X1.3652 Y0.166
N14655 X1.3696 Y0.1658
N14660 X1.392 Y0.1652
N14665 X1.3965 Y0.1651
N14670 X1.4144 Y0.1647
N14675 X1.4189 Y0.1646
N14680 X1.4413 Y0.1644
N14685 X1.4458
N14690 X1.4637
N14695 X1.4682
N14700 X1.4906 Y0.1645
N14705 X1.4951 Y0.1646
N14710 X1.513 Y0.1649
N14715 X1.5175 Y0.165
N14720 X1.5399 Y0.1655
N14725 X1.5444 Y0.1656
N14730 X1.5578 Y0.166
N14735 X1.5623 Y0.1661
N14740 X1.5892 Y0.1671
N14745 X1.5937 Y0.1673
N14750 X1.6071 Y0.1679
N14755 X1.6116 Y0.1681
N14760 X1.634 Y0.1692
N14765 X1.6385 Y0.1694
N14770 X1.6564 Y0.1704
N14775 X1.6609 Y0.1707
N14780 X1.6833 Y0.1721
N14785 X1.6878 Y0.1724
N14790 X1.7057 Y0.1736
N14795 X1.7102 Y0.1739
N14800 X1.7326 Y0.1756
N14805 X1.737 Y0.176
N14810 X1.755 Y0.1774
N14815 X1.7594 Y0.1778
N14820 X1.7819 Y0.1798
N14825 X1.7863 Y0.1803
N14830 X1.8043 Y0.1819
N14835 X1.8087 Y0.1824
N14840 X1.8311 Y0.1847
N14845 X1.8356 Y0.1852
N14850 X1.8491 Y0.1867
N14855 X1.8535 Y0.1872
N14860 X1.8759 Y0.1898
N14865 X1.8804 Y0.1903
N14870 X1.8983 Y0.1925
N14875 X1.9028 Y0.1931
N14880 X1.9252 Y0.1961
N14885 X1.9283 Y0.1965
N14890 X1.9476 Y0.1992
N14895 X1.9521 Y0.1998
N14900 X1.9745 Y0.2032
N14905 X1.979 Y0.2039
N14910 X1.9969 Y0.2066
N14915 X2.0014 Y0.2073
N14920 X2.0238 Y0.211
N14925 X2.0283 Y0.2118
N14930 X2.0462 Y0.2148
N14935 X2.0507 Y0.2156
N14940 X2.0731 Y0.2197
N14945 X2.0776 Y0.2205
N14950 X2.0933 Y0.2234
N14955 X2.0955 Y0.2238
N14960 X2.1 Y0.2247
N14965 X2.1224 Y0.2291
N14970 X2.1269 Y0.23
N14975 X2.1403 Y0.2326
N14980 X2.1448 Y0.2335
N14985 X2.1493 Y0.2345
N14990 X2.1717 Y0.2393
N14995 X2.1761 Y0.2402
N15000 X2.1941 Y0.2441
N15005 X2.1985 Y0.2451
N15010 X2.221 Y0.2502
N15015 X2.2254 Y0.2512
N15020 X2.2404 Y0.2547
N15025 X2.2433 Y0.2554
N15030 X2.2523 Y0.2575
N15035 X2.2702 Y0.2619
N15040 X2.2882 Y0.2663
N15045 X2.2926 Y0.2674
N15050 X2.315 Y0.2732
N15055 X2.3195 Y0.2743
N15060 X2.3374 Y0.279
N15065 X2.3419 Y0.2802
N15070 X2.3643 Y0.2862
N15075 X2.3688 Y0.2875
N15080 X2.3822 Y0.2911
N15085 X2.3867 Y0.2924
N15090 X2.4091 Y0.2987
N15095 X2.4117 Y0.2994
N15100 X2.4275 Y0.3039
N15105 X2.4315 Y0.305
N15110 X2.4539 Y0.3116
N15115 X2.4584 Y0.3129
N15120 X2.4674 Y0.3155
N15125 X2.4719 Y0.3168
N15130 X2.4737 Y0.3173
N15135 X2.4763 Y0.3181
N15140 X2.4808 Y0.3194
N15145 X2.4943 Y0.3234
N15150 X2.5122 Y0.3287
N15155 X2.5211 Y0.3314
N15160 X2.5256 Y0.3327
N15165 X2.5435 Y0.338
N15170 X2.548 Y0.3393
N15175 X2.557 Y0.3419
N15180 X2.5615 Y0.3432
N15185 X2.5704 Y0.3458
N15190 X2.5794 Y0.3483
N15195 X2.5928 Y0.3521
N15200 X2.5966 Y0.3531
N15205 X2.6018 Y0.3545
N15210 X2.6063 Y0.3557
N15215 X2.6242 Y0.3605
N15220 X2.6287 Y0.3616
N15225 X2.6332 Y0.3628
N15230 X2.6376 Y0.3639
N15235 X2.6421 Y0.365
N15240 X2.6466 Y0.366
N15245 X2.6645 Y0.3703
N15250 X2.6679 Y0.371
N15255 X2.6735 Y0.3723
N15260 X2.678 Y0.3732
N15265 X2.6824 Y0.3741
N15270 X2.6869 Y0.375
N15275 X2.7048 Y0.3785
N15280 X2.7093 Y0.3793
N15285 X2.7138 Y0.3801
N15290 X2.7183 Y0.3808
N15295 X2.7228 Y0.3816
N15300 X2.7272 Y0.3823
N15305 X2.7317 Y0.383
N15310 X2.7362 Y0.3836
N15315 X2.7452 Y0.3849
N15320 X2.7497 Y0.3855
N15325 X2.7541 Y0.3861
N15330 X2.7586 Y0.3866
N15335 X2.7631 Y0.3872
N15340 X2.7676 Y0.3877
N15345 X2.7765 Y0.3886
N15350 X2.7803 Y0.3889
N15355 X2.7855 Y0.3894
N15360 X2.79 Y0.3898
N15365 X2.7945 Y0.3901
N15370 X2.7989 Y0.3904
N15375 X2.8034 Y0.3907
N15380 X2.8079 Y0.391
N15385 X2.8169 Y0.3914
N15390 X2.8213 Y0.3916
N15395 X2.8258 Y0.3918
N15400 X2.8303 Y0.3919
N15405 X2.8348 Y0.392
N15410 X2.8393 Y0.3921
N15415 X2.8437
N15420 X2.8482 Y0.3922
N15425 X2.8572
N15430 X2.8617
N15435 X2.8661 Y0.3921
N15440 X2.8706 Y0.392
N15445 X2.8751 Y0.3919
N15450 X2.8796 Y0.3918
N15455 X2.8886 Y0.3915
N15460 X2.893 Y0.3913
N15465 X2.8975 Y0.3911
N15470 X2.902 Y0.3909
N15475 X2.9065 Y0.3906
N15480 X2.911 Y0.3904
N15485 X2.9199 Y0.3898
N15490 X2.9244 Y0.3894
N15495 X2.9289 Y0.3891
N15500 X2.9309 Y0.3889
N15505 X2.9378 Y0.3883
N15510 X2.9423 Y0.3879
N15515 X2.9468 Y0.3875
N15520 X2.9513 Y0.387
N15525 X2.9602 Y0.386
N15530 X2.9647 Y0.3855
N15535 X2.9692 Y0.385
N15540 X2.9736 Y0.3844
N15545 X2.9782 Y0.3838
N15550 X2.9826 Y0.3832
N15555 X2.9871 Y0.3826
N15560 X2.9916 Y0.382
N15565 X2.9961 Y0.3813
N15570 X3.0006 Y0.3806
N15575 X3.005 Y0.3799
N15580 X3.0095 Y0.3792
N15585 X3.014 Y0.3785
N15590 X3.0185 Y0.3777
N15595 X3.023 Y0.377
N15600 X3.0274 Y0.3762
N15605 X3.0319 Y0.3753
N15610 X3.0364 Y0.3745
N15615 X3.0409 Y0.3736
N15620 X3.0454 Y0.3728
N15625 X3.0499 Y0.3719
N15630 X3.054 Y0.371
N15635 X3.0588 Y0.37
N15640 X3.0633 Y0.369
N15645 X3.0678 Y0.3681
N15650 X3.0723 Y0.3671
N15655 X3.0767 Y0.366
N15660 X3.0812 Y0.365
N15665 X3.0857 Y0.3639
N15670 X3.0902 Y0.3628
N15675 X3.0931 Y0.3621
N15680 X3.0991 Y0.3606
N15685 X3.1036 Y0.3594
N15690 X3.1081 Y0.3582
N15695 X3.1126 Y0.357
N15700 X3.1171 Y0.3557
N15705 X3.1215 Y0.3545
N15710 X3.1261 Y0.3531
N15715 X3.1305 Y0.3518
N15720 X3.135 Y0.3505
N15725 X3.1395 Y0.3491
N15730 X3.1409 Y0.3486
N15735 X3.1439 Y0.3477
N15740 X3.1484 Y0.3463
N15745 X3.1529 Y0.3448
N15750 X3.1574 Y0.3433
N15755 X3.1619 Y0.3418
N15760 X3.1663 Y0.3402
N15765 X3.1678 Y0.3397
N15770 X3.1708 Y0.3386
N15775 X3.1753 Y0.337
N15780 X3.1798 Y0.3353
N15785 X3.1843 Y0.3336
N15790 X3.1887 Y0.3319
N15795 X3.1919 Y0.3308
N15800 X3.1932 Y0.3302
N15805 X3.1977 Y0.3285
N15810 X3.2022 Y0.3267
N15815 X3.2034 Y0.3263
N15820 X3.2067 Y0.325
N15825 X3.2112 Y0.3233
N15830 X3.215 Y0.3218
N15835 X3.2156 Y0.3216
N15840 X3.2201 Y0.3199
N15845 X3.2246 Y0.3184
N15850 X3.2278 Y0.3173
N15855 X3.2291 Y0.3169
N15860 X3.2336 Y0.3156
N15865 X3.238 Y0.3146
N15870 X3.2425 Y0.3137
N15875 X3.247 Y0.3131
N15880 X3.2488 Y0.3129
N15885 X3.2515 Y0.3127
N15890 X3.256 Y0.3125
N15895 X3.2604 Y0.3128
N15900 X3.2616 Y0.3129
N15905 X3.2649 Y0.3132
N15910 X3.2694 Y0.3139
N15915 X3.2739 Y0.3149
N15920 X3.2784 Y0.316
N15925 X3.2828 Y0.3173
N15930 X3.2829
N15935 X3.2873 Y0.3188
N15940 X3.2918 Y0.3204
N15945 X3.2954 Y0.3218
N15950 X3.2963 Y0.3222
N15955 X3.3008 Y0.324
N15960 X3.3052 Y0.3259
N15965 X3.306 Y0.3263
N15970 X3.3097 Y0.328
N15975 X3.3142 Y0.33
N15980 X3.3157 Y0.3308
N15985 X3.3187 Y0.3322
N15990 X3.3232 Y0.3344
N15995 X3.3248 Y0.3352
N16000 X3.3276 Y0.3366
N16005 X3.3321 Y0.339
N16010 X3.3336 Y0.3397
N16015 X3.3366 Y0.3413
N16020 X3.3411 Y0.3437
N16025 X3.3421 Y0.3442
N16030 X3.3456 Y0.346
N16035 X3.3504 Y0.3486
N16040 X3.3545 Y0.3509
N16045 X3.3635 Y0.3557
N16050 X3.368 Y0.3581
N16055 X3.3725 Y0.3605
N16060 X3.3753 Y0.3621
N16065 X3.3814 Y0.3654
N16070 X3.3836 Y0.3665
N16075 X3.3859 Y0.3678
N16080 X3.392 Y0.371
N16085 X3.3949 Y0.3725
N16090 X3.3993 Y0.3749
N16095 X3.4038 Y0.3772
N16100 X3.4083 Y0.3796
N16105 X3.4128 Y0.3819
N16110 X3.4178 Y0.3844
N16115 X3.4217 Y0.3864
N16120 X3.4266 Y0.3889
N16125 X3.4307 Y0.391
N16130 X3.4352 Y0.3932
N16135 X3.4356 Y0.3934
N16140 X3.4397 Y0.3954
N16145 X3.4441 Y0.3976
N16150 X3.4448 Y0.3979
N16155 X3.4486 Y0.3997
N16160 X3.4531 Y0.4018
N16165 X3.4576 Y0.404
N16170 X3.4621 Y0.406
N16175 X3.4637 Y0.4068
N16180 X3.471 Y0.4102
N16185 X3.4736 Y0.4113
N16190 X3.4755 Y0.4121
N16195 X3.48 Y0.4141
N16200 X3.4845 Y0.4161
N16205 X3.4889 Y0.418
N16210 X3.4934 Y0.4199
N16215 X3.4979 Y0.4218
N16220 X3.5024 Y0.4236
N16225 X3.5069 Y0.4255
N16230 X3.5113 Y0.4272
N16235 X3.5158 Y0.429
N16240 X3.5162 Y0.4292
N16245 X3.5203 Y0.4307
N16250 X3.5248 Y0.4324
N16255 X3.5293 Y0.4341
N16260 X3.5338 Y0.4358
N16265 X3.5382 Y0.4374
N16270 X3.5403 Y0.4381
N16275 X3.5472 Y0.4406
N16280 X3.5517 Y0.4421
N16285 X3.5533 Y0.4426
N16290 X3.5562 Y0.4436
N16295 X3.5606 Y0.445
N16300 X3.5651 Y0.4465
N16305 X3.5696 Y0.4479
N16310 X3.5741 Y0.4493
N16315 X3.5786 Y0.4506
N16320 X3.5817 Y0.4516
N16325 X3.5875 Y0.4532
N16330 X3.592 Y0.4545
N16335 X3.5977 Y0.456
N16340 X3.601 Y0.4569
N16345 X3.6054 Y0.458
N16350 X3.6099 Y0.4592
N16355 X3.6154 Y0.4605
N16360 X3.6189 Y0.4613
N16365 X3.6234 Y0.4624
N16370 X3.6278 Y0.4633
N16375 X3.6323 Y0.4643
N16380 X3.6354 Y0.465
N16385 X3.6413 Y0.4662
N16390 X3.6458 Y0.467
N16395 X3.6502 Y0.4679
N16400 X3.6547 Y0.4687
N16405 X3.6592 Y0.4695
N16410 X3.6637 Y0.4702
N16415 X3.6682 Y0.4709
N16420 X3.6726 Y0.4716
N16425 X3.6771 Y0.4723
N16430 X3.6816 Y0.4729
N16435 X3.6861 Y0.4735
N16440 X3.6898 Y0.4739
N16445 X3.6951 Y0.4745
N16450 X3.6995 Y0.475
N16455 X3.704 Y0.4755
N16460 X3.7085 Y0.4759
N16465 X3.713 Y0.4763
N16470 X3.7175 Y0.4766
N16475 X3.7264 Y0.4772
N16480 X3.7309 Y0.4774
N16485 X3.7354 Y0.4777
N16490 X3.7443 Y0.4779
N16495 X3.7488 Y0.478
N16500 X3.7533 Y0.4781
N16505 X3.7578
N16510 X3.7623
N16515 X3.7667 Y0.478
N16520 X3.7712
N16525 X3.7757 Y0.4778
N16530 X3.7802 Y0.4776
N16535 X3.7847 Y0.4775
N16540 X3.7891 Y0.4772
N16545 X3.7936 Y0.477
N16550 X3.8026 Y0.4763
N16555 X3.8071 Y0.4759
N16560 X3.8115 Y0.4755
N16565 X3.8205 Y0.4745
N16570 X3.825 Y0.4739
N16575 X3.8295 Y0.4734
N16580 X3.8339 Y0.4727
N16585 X3.8384 Y0.4721
N16590 X3.8429 Y0.4714
N16595 X3.8474 Y0.4706
N16600 X3.8519 Y0.4699
N16605 X3.8564 Y0.469
N16610 X3.8608 Y0.4681
N16615 X3.8653 Y0.4672
N16620 X3.8698 Y0.4663
N16625 X3.8788 Y0.4642
N16630 X3.8832 Y0.4631
N16635 X3.8877 Y0.462
N16640 X3.8967 Y0.4595
N16645 X3.9012 Y0.4583
N16650 X3.9056 Y0.457
N16655 X3.9146 Y0.4541
N16660 X3.9191 Y0.4526
N16665 X3.9223 Y0.4516
N16670 X3.9236 Y0.4511
N16675 X3.928 Y0.4495
N16680 X3.9325 Y0.4478
N16685 X3.937 Y0.4461
N16690 X3.9415 Y0.4445
N16695 X3.946 Y0.4426
N16700 X3.9504 Y0.4407
N16705 X3.9566 Y0.4381
N16710 X3.9594 Y0.4369
N16715 X3.9639 Y0.4348
N16720 X3.9664 Y0.4337
N16725 X3.9728 Y0.4306
N16730 X3.9759 Y0.4292
N16735 X3.9818 Y0.4262
N16740 X3.9846 Y0.4247
N16745 X3.9908 Y0.4215
N16750 X3.9931 Y0.4202
N16755 X3.9952 Y0.419
N16760 X3.9997 Y0.4165
N16765 X4.0042 Y0.4139
N16770 X4.0087 Y0.4113
N16775 X4.0132 Y0.4085
N16780 X4.0159 Y0.4068
N16785 X4.023 Y0.4023
N16790 X4.0266 Y0.4
N16795 X4.0297 Y0.3979
N16800 X4.0311 Y0.3969
N16805 X4.0362 Y0.3934
N16810 X4.0401 Y0.3906
N16815 X4.0445 Y0.3873
N16820 X4.0483 Y0.3844
N16825 X4.049 Y0.3839
N16830 X4.0535 Y0.3805
N16835 X4.058 Y0.3769
N16840 X4.0597 Y0.3755
N16845 X4.0651 Y0.371
N16850 X4.0669 Y0.3695
N16855 X4.0714 Y0.3656
N16860 X4.0753 Y0.3621
N16865 X4.0759 Y0.3615
N16870 X4.0803 Y0.3576
N16875 X4.085 Y0.3531
N16880 X4.0893 Y0.3489
N16885 X4.0896 Y0.3486
N16890 X4.0938 Y0.3444
N16895 X4.094 Y0.3442
N16900 X4.0983 Y0.3398
N16905 X4.1028 Y0.335
N16910 X4.1067 Y0.3308
N16915 X4.1073 Y0.3301
N16920 X4.1107 Y0.3263
N16925 X4.1146 Y0.3218
N16930 X4.1162 Y0.3199
N16935 X4.1184 Y0.3173
N16940 X4.1207 Y0.3145
N16945 X4.1256 Y0.3084
N16950 X4.1291 Y0.3039
N16955 X4.1297 Y0.3032
N16960 X4.1325 Y0.2994
N16965 X4.1358 Y0.295
N16970 X4.1386 Y0.291
N16975 X4.139 Y0.2905
N16980 X4.1421 Y0.286
N16985 X4.1452 Y0.2815
N16990 X4.1476 Y0.2779
N16995 X4.1481 Y0.2771
N17000 X4.151 Y0.2726
N17005 X4.1521 Y0.2709
N17010 X4.1538 Y0.2681
N17015 X4.1566 Y0.2636
N17020 X4.1592 Y0.2592
N17025 X4.161 Y0.2561
N17030 X4.1618 Y0.2547
N17035 X4.1644 Y0.2502
N17040 X4.1655 Y0.2482
N17045 X4.1668 Y0.2457
N17050 X4.1693 Y0.2413
N17055 X4.1716 Y0.2368
N17060 X4.1739 Y0.2323
N17065 X4.1745 Y0.2313
N17070 X4.1762 Y0.2278
N17075 X4.1784 Y0.2234
N17080 X4.179 Y0.2223
N17085 X4.1806 Y0.2189
N17090 X4.1827 Y0.2144
N17095 X4.1848 Y0.2099
N17100 X4.1868 Y0.2055
N17105 X4.1879 Y0.2031
N17110 X4.1889 Y0.201
N17115 X4.1908 Y0.1965
N17120 X4.1928 Y0.192
N17125 X4.1947 Y0.1876
N17130 X4.1966 Y0.1831
N17135 X4.1969 Y0.1824
N17140 X4.1984 Y0.1786
N17145 X4.2003 Y0.1741
N17150 X4.2014 Y0.1715
N17155 X4.2021 Y0.1697
N17160 X4.2039 Y0.1652
N17165 X4.2057 Y0.1607
N17170 X4.2075 Y0.1563
N17175 X4.2093 Y0.1518
N17180 X4.2103 Y0.1492
N17185 X4.2111 Y0.1473
N17190 X4.2129 Y0.1428
N17195 X4.2148 Y0.1381
N17200 X4.2165 Y0.1339
N17205 X4.2183 Y0.1294
N17210 X4.2193 Y0.1271
N17215 X4.2201 Y0.1249
N17220 X4.222 Y0.1205
N17225 X4.2239 Y0.116
N17230 X4.2258 Y0.1115
N17235 X4.2282 Y0.106
N17240 X4.2298 Y0.1026
N17245 X4.2319 Y0.0981
N17250 X4.2327 Y0.0963
N17255 X4.2341 Y0.0936
N17260 X4.2363 Y0.0891
N17265 X4.2372 Y0.0874
N17270 X4.2387 Y0.0847
N17275 X4.2411 Y0.0802
N17280 X4.2417 Y0.0793
N17285 X4.2438 Y0.0757
N17290 X4.2462 Y0.072
N17295 X4.2466 Y0.0712
N17300 X4.2497 Y0.0668
N17305 X4.2506 Y0.0654
N17310 X4.2529 Y0.0623
N17315 X4.2551 Y0.0596
N17320 X4.2566 Y0.0578
N17325 X4.2596 Y0.0543
N17330 X4.2605 Y0.0533
N17335 X4.2641 Y0.0497
N17340 X4.2649 Y0.0489
N17345 X4.2686 Y0.0456
N17350 X4.27 Y0.0444
N17355 X4.273 Y0.042
N17360 X4.2759 Y0.0399
N17365 X4.2775 Y0.0389
N17370 X4.282 Y0.0362
N17375 X4.2834 Y0.0354
N17380 X4.2865 Y0.0339
N17385 X4.291 Y0.032
N17390 X4.294 Y0.031
N17395 X4.2954 Y0.0305
N17400 X4.2999 Y0.0294
N17405 X4.3044 Y0.0285
N17410 X4.3089 Y0.028
N17415 X4.3134 Y0.0279
N17420 X4.3178 Y0.028
N17425 X4.3223 Y0.0284
N17430 X4.3268 Y0.0292
N17435 X4.3313 Y0.0302
N17440 X4.3341 Y0.031
N17445 X4.3358 Y0.0315
N17450 X4.3403 Y0.0331
N17455 X4.3447 Y0.0351
N17460 X4.3455 Y0.0354
N17465 X4.3492 Y0.0373
N17470 X4.3537 Y0.0398
N17475 X4.3538 Y0.0399
N17480 X4.3582 Y0.0426
N17485 X4.3608 Y0.0444
N17490 X4.3627 Y0.0458
N17495 X4.3667 Y0.0489
N17500 X4.3671 Y0.0492
N17505 X4.3716 Y0.0529
N17510 X4.3721 Y0.0533
N17515 X4.3761 Y0.0568
N17520 X4.3772 Y0.0578
N17525 X4.3806 Y0.061
N17530 X4.3819 Y0.0623
N17535 X4.3851 Y0.0654
N17540 X4.3864 Y0.0668
N17545 X4.3895 Y0.0701
N17550 X4.3906 Y0.0712
N17555 X4.394 Y0.075
N17560 X4.3947 Y0.0757
N17565 X4.3985 Y0.08
N17570 X4.3987 Y0.0802
N17575 X4.4025 Y0.0847
N17580 X4.403 Y0.0852
N17585 X4.4063 Y0.0891
N17590 X4.41 Y0.0936
N17595 X4.4119 Y0.096
N17600 X4.4164 Y0.1014
N17605 X4.421 Y0.107
N17610 X4.4254 Y0.1124
N17615 X4.4283 Y0.116
N17620 X4.4299 Y0.1179
N17625 X4.4343 Y0.1232
N17630 X4.4358 Y0.1249
N17635 X4.4395 Y0.1294
N17640 X4.4433 Y0.1339
N17645 X4.4472 Y0.1384
N17650 X4.4523 Y0.144
N17655 X4.4552 Y0.1473
N17660 X4.4567 Y0.149
N17665 X4.4593 Y0.1518
N17670 X4.4657 Y0.1585
N17675 X4.4678 Y0.1607
N17680 X4.4702 Y0.1631
N17685 X4.4723 Y0.1652
N17690 X4.4791 Y0.1718
N17695 X4.4816 Y0.1741
N17700 X4.4836 Y0.1761
N17705 X4.4864 Y0.1786
N17710 X4.4926 Y0.184
N17715 X4.4967 Y0.1876
N17720 X4.4971 Y0.1879
N17725 X4.5016 Y0.1916
N17730 X4.5078 Y0.1965
N17735 X4.5105 Y0.1986
N17740 X4.5136 Y0.201
N17745 X4.515 Y0.2021
N17750 X4.5198 Y0.2055
N17755 X4.524 Y0.2084
N17760 X4.5284 Y0.2116
N17765 X4.5327 Y0.2144
N17770 X4.5329 Y0.2146
N17775 X4.5374 Y0.2174
N17780 X4.5464 Y0.223
N17785 X4.547 Y0.2234
N17790 X4.5508 Y0.2256
N17795 X4.5549 Y0.2278
N17800 X4.5598 Y0.2306
N17805 X4.563 Y0.2323
N17810 X4.5688 Y0.2353
N17815 X4.5718 Y0.2368
N17820 X4.5777 Y0.2397
N17825 X4.5811 Y0.2413
N17830 X4.5822 Y0.2418
N17835 X4.5867 Y0.2438
N17840 X4.5956 Y0.2477
N17845 X4.6001 Y0.2495
N17850 X4.6017 Y0.2502
N17855 X4.6046 Y0.2513
N17860 X4.6091 Y0.253
N17865 X4.6136 Y0.2547
N17870 X4.618 Y0.2564
N17875 X4.6225 Y0.2579
N17880 X4.6264 Y0.2592
N17885 X4.6315 Y0.2608
N17890 X4.636 Y0.2623
N17895 X4.6407 Y0.2636
N17900 X4.6449 Y0.2649
N17905 X4.6494 Y0.2661
N17910 X4.6539 Y0.2674
N17915 X4.6567 Y0.2681
N17920 X4.6584 Y0.2685
N17925 X4.6629 Y0.2697
N17930 X4.6673 Y0.2708
N17935 X4.6718 Y0.2719
N17940 X4.675 Y0.2726
N17945 X4.6808 Y0.2739
N17950 X4.6853 Y0.2749
N17955 X4.6897 Y0.2759
N17960 X4.6942 Y0.2769
N17965 X4.6987 Y0.2778
N17970 X4.7032 Y0.2788
N17975 X4.7077 Y0.2798
N17980 X4.7121 Y0.2807
N17985 X4.7166 Y0.2817
N17990 X4.7211 Y0.2828
N17995 X4.7256 Y0.2839
N18000 X4.7301 Y0.2851
N18005 X4.733 Y0.286
N18010 X4.7345 Y0.2865
N18015 X4.739 Y0.2879
N18020 X4.7435 Y0.2895
N18025 X4.7458 Y0.2905
N18030 X4.748 Y0.2914
N18035 X4.7525 Y0.2936
N18040 X4.7551 Y0.295
N18045 X4.7569 Y0.2961
N18050 X4.7614 Y0.299
N18055 X4.762 Y0.2994
N18060 X4.7659 Y0.3026
N18065 X4.7674 Y0.3039
N18070 X4.7704 Y0.3069
N18075 X4.7718 Y0.3084
N18080 X4.7749 Y0.3121
N18085 X4.7755 Y0.3129
N18090 X4.7787 Y0.3173
N18095 X4.7793 Y0.3183
N18100 X4.7816 Y0.3218
N18105 X4.7838 Y0.3256
N18110 X4.7842 Y0.3263
N18115 X4.7866 Y0.3308
N18120 X4.7883 Y0.3341
N18125 X4.7888 Y0.3352
N18130 X4.7909 Y0.3397
N18135 X4.7928 Y0.344
N18140 X4.7929 Y0.3442
N18145 X4.7947 Y0.3486
N18150 X4.7965 Y0.3531
N18155 X4.7973 Y0.3551
N18160 X4.7982 Y0.3576
N18165 X4.7999 Y0.3621
N18170 X4.8015 Y0.3665
N18175 X4.803 Y0.371
N18180 X4.8045 Y0.3755
N18185 X4.8062 Y0.3807
N18190 X4.8074 Y0.3844
N18195 X4.8088 Y0.3889
N18200 X4.8102 Y0.3934
N18205 X4.8107 Y0.3951
N18210 X4.8115 Y0.3979
N18215 X4.8128 Y0.4023
N18220 X4.8141 Y0.4068
N18225 X4.8152 Y0.4106
N18230 X4.8166 Y0.4158
N18235 X4.8179 Y0.4202
N18240 X4.819 Y0.4247
N18245 X4.8202 Y0.4292
N18250 X4.8214 Y0.4337
N18255 X4.8225 Y0.4381
N18260 X4.8242 Y0.4447
N18265 X4.8247 Y0.4471
N18270 X4.8258 Y0.4516
N18275 X4.8268 Y0.456
N18280 X4.8279 Y0.4605
N18285 X4.8286 Y0.4639
N18290 X4.8289 Y0.465
N18295 X4.8299 Y0.4695
N18300 X4.8318 Y0.4784
N18305 X4.8327 Y0.4829
N18310 X4.8331 Y0.485
N18315 X4.8336 Y0.4874
N18320 X4.8345 Y0.4918
N18325 X4.8353 Y0.4963
N18330 X4.8362 Y0.5008
N18335 X4.837 Y0.5053
N18340 X4.8378 Y0.5097
N18345 X4.8385 Y0.5142
N18350 X4.8393 Y0.5187
N18355 X4.8401 Y0.5231
N18360 X4.8408 Y0.5276
N18365 X4.8415 Y0.5321
N18370 X4.8428 Y0.541
N18375 X4.8435 Y0.5455
N18380 X4.8441 Y0.55
N18385 X4.8447 Y0.5545
N18390 X4.8453 Y0.5589
N18395 X4.8458 Y0.5634
N18400 X4.8463 Y0.5679
N18405 X4.8466 Y0.5697
N18410 X4.8469 Y0.5724
N18415 X4.8473 Y0.5768
N18420 X4.8478 Y0.5813
N18425 X4.8482 Y0.5858
N18430 X4.8486 Y0.5903
N18435 X4.849 Y0.5947
N18440 X4.8494 Y0.5992
N18445 X4.8496 Y0.602
N18450 X4.8497 Y0.6037
N18455 X4.85 Y0.6082
N18460 X4.8503 Y0.6126
N18465 X4.8505 Y0.6171
N18470 X4.8508 Y0.6216
N18475 X4.851 Y0.6264
N18480 X4.8512 Y0.6305
N18485 X4.8515 Y0.6395
N18490 X4.8517 Y0.644
N18495 X4.8518 Y0.6484
N18500 Y0.6529
N18505 X4.8519 Y0.6574
N18510 Y0.6619
N18515 X4.852 Y0.6663
N18520 Y0.6708
N18525 Y0.6753
N18530 X4.8519 Y0.6798
N18535 X4.8518 Y0.6842
N18540 Y0.6887
N18545 X4.8517 Y0.6932
N18550 X4.8515 Y0.6976
N18555 X4.8514 Y0.7021
N18560 X4.8512 Y0.7066
N18565 X4.851 Y0.7111
N18570 X4.8508 Y0.7155
N18575 X4.8506 Y0.72
N18580 X4.8504 Y0.7245
N18585 X4.8501 Y0.729
N18590 X4.8498 Y0.7334
N18595 X4.8495 Y0.7379
N18600 X4.8492 Y0.7424
N18605 X4.8489 Y0.7469
N18610 X4.8485 Y0.7513
N18615 X4.8482 Y0.7558
N18620 X4.8478 Y0.7603
N18625 X4.8474 Y0.7648
N18630 X4.8469 Y0.7692
N18635 X4.8465 Y0.7737
N18640 X4.846 Y0.7782
N18645 X4.8455 Y0.7827
N18650 X4.845 Y0.7871
N18655 X4.844 Y0.7961
N18660 X4.8434 Y0.8006
N18665 X4.8429 Y0.805
N18670 X4.8423 Y0.8095
N18675 X4.8417 Y0.814
N18680 X4.841 Y0.8185
N18685 X4.8397 Y0.8274
N18690 X4.8391 Y0.8319
N18695 X4.8377 Y0.8408
N18700 X4.8376 Y0.8417
N18705 X4.837 Y0.8453
N18710 X4.8355 Y0.8543
N18715 X4.834 Y0.8632
N18720 X4.8332 Y0.8677
N18725 X4.8316 Y0.8766
N18730 X4.831 Y0.8797
N18735 X4.8308 Y0.8806
N18740 X4.8306 Y0.8816
N18745 X4.8303 Y0.8836
N18750 X4.8296 Y0.8874
N18755 X4.8281 Y0.8952 Z-0.0331
N18760 X4.8267 Y0.9027
N18765 X4.8252 Y0.9105 Z-0.0332
N18770 X4.8237 Y0.9182 Z-0.0334
N18775 X4.8222 Y0.9259 Z-0.0335
N18780 X4.8208 Y0.9335 Z-0.0337
N18785 X4.8192 Y0.9412 Z-0.0339
N18790 X4.8185 Y0.9451 Z-0.034
N18795 X4.8177 Y0.9489 Z-0.0341
N18800 X4.8169 Y0.9528 Z-0.0342
N18805 X4.8162 Y0.9567 Z-0.0343
N18810 X4.8154 Y0.9605 Z-0.0344
N18815 X4.8147 Y0.9643 Z-0.0345
N18820 X4.8139 Y0.9681 Z-0.0347
N18825 X4.8131 Y0.972 Z-0.0348
N18830 X4.8123 Y0.9758 Z-0.0349
N18835 X4.8115 Y0.9797 Z-0.0351
N18840 X4.8107 Y0.9836 Z-0.0352
N18845 X4.8099 Y0.9874 Z-0.0354
N18850 X4.8091 Y0.9913 Z-0.0355
N18855 X4.8082 Y0.9951 Z-0.0356
N18860 X4.8074 Y0.9989 Z-0.0358
N18865 X4.8066 Y1.0027 Z-0.0359
N18870 X4.8057 Y1.0066 Z-0.036
N18875 X4.8049 Y1.0104 Z-0.0362
N18880 X4.804 Y1.0142 Z-0.0363
N18885 X4.8031 Y1.0181 Z-0.0365
N18890 X4.8023 Y1.0219 Z-0.0366
N18895 X4.8014 Y1.0258 Z-0.0367
N18900 X4.8005 Y1.0296 Z-0.0369
N18905 X4.7997 Y1.0334 Z-0.037
N18910 X4.7988 Y1.0372 Z-0.0371
N18915 X4.7979 Y1.0411 Z-0.0373
N18920 X4.797 Y1.0449 Z-0.0374
N18925 X4.7942 Y1.0564 Z-0.0378
N18930 X4.7924 Y1.064 Z-0.0381
N18935 X4.7915 Y1.0679 Z-0.0382
N18940 X4.7905 Y1.0717 Z-0.0384
N18945 X4.7896 Y1.0755 Z-0.0385
N18950 X4.7886 Y1.0793 Z-0.0387
N18955 X4.7877 Y1.0831 Z-0.0388
N18960 X4.7867 Y1.0869 Z-0.0389
N18965 X4.7858 Y1.0908 Z-0.0391
N18970 X4.7848 Y1.0946 Z-0.0392
N18975 X4.7838 Y1.0984 Z-0.0393
N18980 X4.7829 Y1.1022 Z-0.0395
N18985 X4.7819 Y1.106 Z-0.0396
N18990 X4.7809 Y1.1098 Z-0.0398
N18995 X4.7799 Y1.1136 Z-0.0399
N19000 X4.7789 Y1.1175 Z-0.04
N19005 X4.7779 Y1.1213 Z-0.0402
N19010 X4.777 Y1.1251 Z-0.0403
N19015 X4.776 Y1.1289 Z-0.0404
N19020 X4.775 Y1.1327 Z-0.0406
N19025 X4.774 Y1.1365 Z-0.0407
N19030 X4.773 Y1.1403 Z-0.0409
N19035 X4.772 Y1.1441 Z-0.041
N19040 X4.7709 Y1.1479 Z-0.0411
N19045 X4.7699 Y1.1517 Z-0.0413
N19050 X4.7689 Y1.1555 Z-0.0414
N19055 X4.7678 Y1.1593 Z-0.0415
N19060 X4.7668 Y1.1631 Z-0.0416
N19065 X4.7657 Y1.1669 Z-0.0418
N19070 X4.7647 Y1.1707 Z-0.0419
N19075 X4.7636 Y1.1745 Z-0.042
N19080 X4.7626 Y1.1783 Z-0.0421
N19085 X4.7604 Y1.1859 Z-0.0423
N19090 X4.7583 Y1.1935 Z-0.0425
N19095 X4.7561 Y1.201 Z-0.0426
N19100 X4.7539 Y1.2086 Z-0.0427
N19105 X4.7517 Y1.2161 Z-0.0429
N19110 X4.7494 Y1.2237
N19115 X4.7471 Y1.2312 Z-0.043
N19120 X4.7448 Y1.2387
N19125 X4.7444 Y1.24
N19130 X4.7443
N19135 X4.7418 Y1.248
N19140 X4.7404 Y1.2525
N19145 X4.732 Y1.2793
N19150 X4.7306 Y1.2838
N19155 X4.7301 Y1.2857
N19160 X4.7211 Y1.3151
N19165 X4.7198 Y1.3196
N19170 X4.7166 Y1.3303
N19175 X4.7158 Y1.333
N19180 X4.7145 Y1.3375
N19185 X4.7119 Y1.3464
N19190 X4.7106 Y1.3509
N19195 X4.709 Y1.3554
N19200 X4.7077 Y1.3585
N19205 X4.707 Y1.3599
N19210 X4.7045 Y1.3643
N19215 X4.7032 Y1.3666
N19220 X4.7016 Y1.3688
N19225 X4.6987 Y1.3726
N19230 X4.6981 Y1.3733
N19235 X4.6942 Y1.3773
N19240 X4.6938 Y1.3778
N19245 X4.6897 Y1.3814
N19250 X4.6886 Y1.3822
N19255 X4.6853 Y1.3847
N19260 X4.682 Y1.3867
N19265 X4.6808 Y1.3874
N19270 X4.6763 Y1.3897
N19275 X4.6729 Y1.3912
N19280 X4.6718 Y1.3916
N19285 X4.6673 Y1.393
N19290 X4.6629 Y1.3942
N19295 X4.6584 Y1.3949
N19300 X4.6539 Y1.3955
N19305 X4.6494 Y1.3956
N19310 X4.6449 Y1.3955
N19315 X4.6404 Y1.3951
N19320 X4.6046 Y1.3921
N19325 X4.6001 Y1.3917
N19330 X4.5939 Y1.3912
N19335 X4.5912 Y1.3909
N19340 X4.5867 Y1.3906
N19345 X4.5464 Y1.3875
N19350 X4.5419 Y1.3871
N19355 X4.5374 Y1.3868
N19360 X4.4971 Y1.384
N19365 X4.4926 Y1.3837
N19370 X4.4881 Y1.3834
N19375 X4.4836 Y1.3831
N19380 X4.4478 Y1.3809
N19385 X4.4433 Y1.3807
N19390 X4.4388 Y1.3804
N19395 X4.403 Y1.3785
N19400 X4.3985 Y1.3782
N19405 X4.394 Y1.378
N19410 X4.3582 Y1.3763
N19415 X4.3537 Y1.3761
N19420 X4.3492 Y1.376
N19425 X4.3268 Y1.3751
N19430 X4.3134 Y1.3746
N19435 X4.3089 Y1.3744
N19440 X4.3044 Y1.3742
N19445 X4.2686 Y1.3731
N19450 X4.2641 Y1.373
N19455 X4.2282 Y1.3721
N19460 X4.2238 Y1.372
N19465 X4.2193
N19470 X4.1834 Y1.3714
N19475 X4.179 Y1.3713
N19480 X4.1476 Y1.371
N19485 X4.1431
N19490 X4.1386
N19495 X4.1073 Y1.3709
N19500 X4.1028
N19505 X4.0669 Y1.3711
N19510 X4.0625
N19515 X4.0311 Y1.3715
N19520 X4.0266
N19525 X4.0221 Y1.3716
N19530 X3.9952 Y1.3721
N19535 X3.9908 Y1.3722
N19540 X3.9863 Y1.3723
N19545 X3.9594 Y1.373
N19550 X3.9549 Y1.3731
N19555 X3.9504 Y1.3732
N19560 X3.928 Y1.3739
N19565 X3.9236 Y1.3741
N19570 X3.9012 Y1.3749
N19575 X3.8967 Y1.375
N19580 X3.8922 Y1.3752
N19585 X3.8743 Y1.3759
N19590 X3.8698 Y1.3761
N19595 X3.8474 Y1.3771
N19600 X3.8429 Y1.3773
N19605 X3.8384 Y1.3775
N19610 X3.7936 Y1.3798
N19615 X3.7891 Y1.38
N19620 X3.7847 Y1.3802
N19625 X3.7399 Y1.3829
N19630 X3.7354 Y1.3831
N19635 X3.7309 Y1.3834
N19640 X3.6906 Y1.386
N19645 X3.6861 Y1.3863
N19650 X3.6816 Y1.3866
N19655 X3.6368 Y1.3899
N19660 X3.6323 Y1.3902
N19665 X3.6278 Y1.3905
N19670 X3.5875 Y1.3936
N19675 X3.583 Y1.394
N19680 X3.5786 Y1.3943
N19685 X3.5382 Y1.3976
N19690 X3.5338 Y1.398
N19695 X3.5293 Y1.3984
N19700 X3.4934 Y1.4014
N19705 X3.4889 Y1.4018
N19710 X3.4845 Y1.4022
N19715 X3.4441 Y1.4057
N19720 X3.4397 Y1.4061
N19725 X3.4352 Y1.4065
N19730 X3.3993 Y1.4097
N19735 X3.3949 Y1.4101
N19740 X3.3859 Y1.4109
N19745 X3.3545 Y1.4137
N19750 X3.3097 Y1.4178
N19755 X3.3068 Y1.418
N19760 X3.3052 Y1.4182
N19765 X3.2694 Y1.4214
N19770 X3.2649 Y1.4218
N19775 X3.2604 Y1.4222
N19780 X3.2291 Y1.4249
N19785 X3.2246 Y1.4253
N19790 X3.2201 Y1.4257
N19795 X3.1843 Y1.4288
N19800 X3.1798 Y1.4292
N19805 X3.1439 Y1.4322
N19810 X3.1395 Y1.4325
N19815 X3.135 Y1.4329
N19820 X3.0973 Y1.4359
N19825 X3.0947 Y1.4361
N19830 X3.0902 Y1.4365
N19835 X3.0543 Y1.4392
N19840 X3.0499 Y1.4395
N19845 X3.014 Y1.4421
N19850 X3.0095 Y1.4424
N19855 X2.9782 Y1.4445
N19860 X2.9737 Y1.4448
N19865 X2.9718 Y1.4449
N19870 X2.9692 Y1.445
N19875 X2.9378 Y1.4469
N19880 X2.9334 Y1.4472
N19885 X2.9289 Y1.4474
N19890 X2.8975 Y1.4491
N19895 X2.893 Y1.4493
N19900 X2.8886 Y1.4496
N19905 X2.8617 Y1.4508
N19910 X2.8572 Y1.451
N19915 X2.8527 Y1.4512
N19920 X2.8482 Y1.4514
N19925 X2.8034 Y1.4531
N19930 X2.7989 Y1.4532
N19935 X2.7541 Y1.4545
N19940 X2.7497 Y1.4546
N19945 X2.7452 Y1.4547
N19950 X2.7317 Y1.4549
N19955 X2.7004 Y1.4554
N19960 X2.6959 Y1.4555
N19965 X2.6914
N19970 X2.6511 Y1.4557
N19975 X2.6466
N19980 X2.6421
N19985 X2.6018 Y1.4553
N19990 X2.5973
N19995 X2.5928 Y1.4552
N20000 X2.5525 Y1.4544
N20005 X2.548 Y1.4543
N20010 X2.5435 Y1.4541
N20015 X2.5077 Y1.453
N20020 X2.5032 Y1.4528
N20025 X2.4987 Y1.4526
N20030 X2.4898 Y1.4522
N20035 X2.4584 Y1.4508
N20040 X2.4539 Y1.4506
N20045 X2.4046 Y1.4478
N20050 X2.4002 Y1.4475
N20055 X2.3957 Y1.4472
N20060 X2.3464 Y1.4436
N20065 X2.3419 Y1.4433
N20070 X2.3374 Y1.443
N20075 X2.333 Y1.4426
N20080 X2.2837 Y1.4383
N20085 X2.2792 Y1.4379
N20090 X2.2747 Y1.4374
N20095 X2.2299 Y1.433
N20100 X2.2254 Y1.4325
N20105 X2.2209 Y1.432
N20110 X2.1757 Y1.427
N20115 X2.1717 Y1.4265
N20120 X2.1672 Y1.426
N20125 X2.1582 Y1.4249
N20130 X2.1224 Y1.4205
N20135 X2.1179 Y1.4199
N20140 X2.1134 Y1.4193
N20145 X2.0686 Y1.4134
N20150 X2.0641 Y1.4128
N20155 X2.0596 Y1.4122
N20160 X2.0148 Y1.4058
N20165 X2.0104 Y1.4052
N20170 X2.0064 Y1.4046
N20175 X1.9656 Y1.3985
N20180 X1.9611 Y1.3978
N20185 X1.9566 Y1.3972
N20190 X1.9521 Y1.3965
N20195 X1.9118 Y1.3902
N20200 X1.9073 Y1.3895
N20205 X1.9028 Y1.3887
N20210 X1.8625 Y1.3822
N20215 X1.858 Y1.3814
N20220 X1.8535 Y1.3807
N20225 X1.8491 Y1.3799
N20230 X1.8087 Y1.373
N20235 X1.8043 Y1.3722
N20240 X1.7998 Y1.3714
N20245 X1.7594 Y1.3642
N20250 X1.755 Y1.3634
N20255 X1.7505 Y1.3626
N20260 X1.7102 Y1.3551
N20265 X1.7057 Y1.3542
N20270 X1.7012 Y1.3534
N20275 X1.6967 Y1.3525
N20280 X1.6564 Y1.3446
N20285 X1.6519 Y1.3437
N20290 X1.6474 Y1.3428
N20295 X1.6071 Y1.3345
N20300 X1.6026 Y1.3335
N20305 X1.6001 Y1.333
N20310 X1.5533 Y1.3228
N20315 X1.5489 Y1.3218
N20320 X1.5444 Y1.3208
N20325 X1.5399 Y1.3198
N20330 X1.4951 Y1.3093
N20335 X1.4906 Y1.3083
N20340 X1.4861 Y1.3072
N20345 X1.4817 Y1.3061
N20350 X1.4368 Y1.2949
N20355 X1.4324 Y1.2938
N20360 X1.4279 Y1.2926
N20365 X1.4234 Y1.2914
N20370 X1.3782 Y1.2793
N20375 X1.3741 Y1.2782
N20380 X1.3696 Y1.2769
N20385 X1.3248 Y1.264
N20390 X1.3204 Y1.2627
N20395 X1.3163 Y1.2614
N20400 X1.2711 Y1.2474
N20405 X1.2666 Y1.246
N20410 X1.2621 Y1.2445
N20415 X1.2173 Y1.2295
N20420 X1.2128 Y1.228
N20425 X1.2083 Y1.2264
N20430 X1.2061 Y1.2256
N20435 X1.2039 Y1.2248
N20440 X1.1591 Y1.2087
N20445 X1.1566 Y1.2077
N20450 X1.1546 Y1.207
N20455 X1.1501 Y1.2052
N20460 X1.1098 Y1.1896
N20465 X1.1053 Y1.1878
N20470 X1.1008 Y1.1859
N20475 X1.0605 Y1.1691
N20480 X1.0565 Y1.1675
N20485 X1.056 Y1.1672
N20490 X1.0515 Y1.1653
N20495 X1.0112 Y1.1473
N20500 X1.0067 Y1.1453
N20505 X1.0062 Y1.1451
N20510 X1.0022 Y1.1432
N20515 X0.9619 Y1.1241
N20520 X0.9591 Y1.1227
N20525 X0.9574 Y1.1219
N20530 X0.9529 Y1.1197
N20535 X0.9485 Y1.1175
N20540 X0.9081 Y1.097
N20545 X0.9059 Y1.0959
N20550 X0.9037 Y1.0947
N20555 X0.8992 Y1.0923
N20560 X0.8633 Y1.073
N20565 X0.8589 Y1.0705
N20570 X0.8562 Y1.069
N20575 X0.8185 Y1.0476
N20580 X0.8168 Y1.0466
N20585 X0.814 Y1.045
N20590 X0.8096 Y1.0423
N20595 X0.7782 Y1.0235
N20600 X0.7737 Y1.0208
N20605 X0.772 Y1.0198
N20610 X0.7692 Y1.0181
N20615 X0.7505 Y1.0064
N20620 X0.7468 Y1.0041
N20625 X0.7434 Y1.0019
N20630 X0.7424 Y1.0012
N20635 X0.7225 Y0.9885
N20640 X0.72 Y0.9868
N20645 X0.6976 Y0.972
N20650 X0.6954 Y0.9706
N20655 X0.6931 Y0.969
N20660 X0.6752 Y0.9568
N20665 X0.6707 Y0.9538
N20670 X0.6691 Y0.9527
N20675 X0.6499 Y0.9393
N20680 X0.6483 Y0.9381
N20685 X0.6438 Y0.9349
N20690 X0.6259 Y0.9221
N20695 X0.6249 Y0.9214
N20700 X0.6066 Y0.9079
N20705 X0.6035 Y0.9056
N20710 X0.6006 Y0.9035
N20715 X0.5855 Y0.8921
N20720 X0.5828 Y0.89
N20725 X0.5811 Y0.8888
N20730 X0.5769 Y0.8856
N20735 X0.5631 Y0.875
N20740 X0.5595 Y0.8721
N20745 X0.5587 Y0.8715
N20750 X0.5539 Y0.8677
N20755 X0.5407 Y0.8573
N20760 X0.5369 Y0.8543
N20765 X0.5228 Y0.8429
N20770 X0.5203 Y0.8408
N20775 X0.5183 Y0.8392
N20780 X0.504 Y0.8274
N20785 X0.5004 Y0.8244
N20790 X0.4987 Y0.8229
N20795 X0.4959 Y0.8206
N20800 X0.4825 Y0.8092
N20805 X0.478 Y0.8053
