%
(1001)
(2MM END MILL 12K)
(T1  D=0.0787 CR=0. - ZMIN=-0.125 - FLAT END MILL)
N10 G90 G94 G17 G91.1
N15 G20
N20 G53 G0 Z0.
(DRILL1)
N25 T1 M6
N30 S12000 M3
N35 G54
N40 M8
N45 G0 X4.5794 Y0.5057
N50 G43 Z0.3 H1
N55 G0 Z0.2
N60 G98 G81 X4.5794 Y0.5057 Z-0.125 R0.177 F1.
N65 X4.6715 Y0.3497
N70 X4.5157 Y0.2542
N75 G80
N80 G0 Z0.3
(BORE1)
N85 G0 X4.2184 Y0.7627
N90 Z0.3
N95 Z0.057
N100 G1 Z-0.0151 F5.
N105 X4.2187 Z-0.0172
N110 X4.2194 Y0.7626 Z-0.0191
N115 X4.2207 Y0.7624 Z-0.0207
N120 X4.2223 Y0.7622 Z-0.0219
N125 X4.2242 Y0.762 Z-0.0227
N130 X4.2262 Y0.7617 Z-0.023
N135 X4.2301 Y0.7613
N140 G3 X4.2389 Y0.7681 I0.001 J0.0078
N145 X4.0113 Y0.796 Z-0.0427 I-0.1138 J0.014
N150 X4.2389 Y0.7681 Z-0.0624 I0.1138 J-0.014
N155 X4.0113 Y0.796 Z-0.0821 I-0.1138 J0.014
N160 X4.2389 Y0.7681 Z-0.1017 I0.1138 J-0.014
N165 X4.0113 Y0.796 Z-0.1214 I-0.1138 J0.014
N170 X4.0218 Y0.7324 Z-0.125 I0.1138 J-0.014
N175 X4.2284 Y0.8318 I0.1033 J0.0497
N180 X4.0218 Y0.7324 I-0.1033 J-0.0497
N185 X4.0323 Y0.7287 I0.0071 J0.0034
N190 G1 X4.0359 Y0.7304
N195 X4.0377 Y0.7313 Z-0.1247
N200 X4.0394 Y0.7321 Z-0.1239
N205 X4.0409 Y0.7328 Z-0.1227
N210 X4.042 Y0.7334 Z-0.1211
N215 X4.0427 Y0.7337 Z-0.1192
N220 X4.043 Y0.7338 Z-0.1171
N225 G0 Z0.2
N230 X1.9614 Y1.2629
N235 Z0.018
N240 G1 Z-0.0541 F5.
N245 X1.9617 Z-0.0562
N250 X1.9625 Y1.2628 Z-0.0581
N255 X1.9637 Y1.2627 Z-0.0597
N260 X1.9653 Y1.2625 Z-0.061
N265 X1.9672 Y1.2622 Z-0.0617
N270 X1.9692 Y1.262 Z-0.062
N275 X1.9731 Y1.2615
N280 G3 X1.9819 Y1.2684 I0.001 J0.0078
N285 X1.9489 Y1.2724 Z-0.0817 I-0.0165 J0.002
N290 X1.9819 Y1.2684 Z-0.1014 I0.0165 J-0.002
N295 X1.9489 Y1.2724 Z-0.1211 I-0.0165 J0.002
N300 X1.9508 Y1.2623 Z-0.125 I0.0165 J-0.002
N305 X1.98 Y1.2784 I0.0146 J0.008
N310 X1.9508 Y1.2623 I-0.0146 J-0.008
N315 X1.9615 Y1.2593 I0.0069 J0.0038
N320 G1 X1.965 Y1.2612
N325 X1.9668 Y1.2621 Z-0.1247
N330 X1.9684 Y1.2631 Z-0.1239
N335 X1.9699 Y1.2639 Z-0.1227
N340 X1.971 Y1.2645 Z-0.1211
N345 X1.9716 Y1.2648 Z-0.1192
N350 X1.9719 Y1.265 Z-0.1171
N355 G0 Z0.2
N360 X0.5463 Y1.2001
N365 Z0.018
N370 G1 Z-0.0541 F5.
N375 X0.5465 Z-0.0562
N380 X0.5473 Y1.2 Z-0.0581
N385 X0.5485 Y1.1998 Z-0.0597
N390 X0.5502 Y1.1996 Z-0.061
N395 X0.552 Y1.1994 Z-0.0617
N400 X0.5541 Y1.1992 Z-0.062
N405 X0.558 Y1.1987
N410 G3 X0.5667 Y1.2055 I0.001 J0.0078
N415 X0.5337 Y1.2096 Z-0.0817 I-0.0165 J0.002
N420 X0.5667 Y1.2055 Z-0.1014 I0.0165 J-0.002
N425 X0.5337 Y1.2096 Z-0.1211 I-0.0165 J0.002
N430 X0.5357 Y1.1995 Z-0.125 I0.0165 J-0.002
N435 X0.5648 Y1.2156 I0.0146 J0.008
N440 X0.5357 Y1.1995 I-0.0146 J-0.008
N445 X0.5464 Y1.1964 I0.0069 J0.0038
N450 G1 X0.5498 Y1.1983
N455 X0.5516 Y1.1993 Z-0.1247
N460 X0.5533 Y1.2003 Z-0.1239
N465 X0.5547 Y1.201 Z-0.1227
N470 X0.5558 Y1.2016 Z-0.1211
N475 X0.5565 Y1.202 Z-0.1192
N480 X0.5567 Y1.2022 Z-0.1171
N485 G0 Z0.2
N490 X0.6902 Y0.6886
N495 Z0.0088
N500 G1 Z-0.0634 F5.
N505 X0.6904 Y0.6885 Z-0.0654
N510 X0.6912 Y0.6884 Z-0.0673
N515 X0.6924 Y0.6883 Z-0.0689
N520 X0.6941 Y0.6881 Z-0.0702
N525 X0.6959 Y0.6878 Z-0.071
N530 X0.698 Y0.6876 Z-0.0712
N535 X0.7019 Y0.6871
N540 G3 X0.7107 Y0.694 I0.001 J0.0078
N545 X0.6499 Y0.7014 Z-0.0909 I-0.0304 J0.0037
N550 X0.7107 Y0.694 Z-0.1106 I0.0304 J-0.0037
N555 X0.6629 Y0.723 Z-0.125 I-0.0304 J0.0037
N560 X0.6976 Y0.6725 I0.0174 J-0.0252
N565 X0.6629 Y0.723 I-0.0174 J0.0252
N570 X0.6609 Y0.712 I0.0045 J-0.0065
N575 G1 X0.6631 Y0.7088
N580 X0.6643 Y0.7071 Z-0.1247
N585 X0.6653 Y0.7055 Z-0.1239
N590 X0.6663 Y0.7042 Z-0.1227
N595 X0.667 Y0.7031 Z-0.1211
N600 X0.6674 Y0.7025 Z-0.1192
N605 X0.6676 Y0.7023 Z-0.1171
N610 G0 Z0.3
(2D ADAPTIVE1)
N615 G0 Z0.6
N620 X0.9998 Y0.9786
N625 Z0.2
N630 Z0.102
N635 G3 X0.9877 Y1.0524 Z0.0979 I-0.006 J0.0369 F1.
N640 X0.9998 Y0.9786 Z0.0938 I0.006 J-0.0369
N645 X0.9877 Y1.0524 Z0.0897 I-0.006 J0.0369
N650 X0.9998 Y0.9786 Z0.0856 I0.006 J-0.0369
N655 X0.9877 Y1.0524 Z0.0815 I-0.006 J0.0369
N660 X0.9998 Y0.9786 Z0.0774 I0.006 J-0.0369
N665 X0.9877 Y1.0524 Z0.0733 I-0.006 J0.0369
N670 X0.9998 Y0.9786 Z0.0692 I0.006 J-0.0369
N675 X0.9877 Y1.0524 Z0.0651 I-0.006 J0.0369
N680 X0.9998 Y0.9786 Z0.061 I0.006 J-0.0369
N685 X0.9877 Y1.0524 Z0.0569 I-0.006 J0.0369
N690 X0.9998 Y0.9786 Z0.0528 I0.006 J-0.0369
N695 X0.9877 Y1.0524 Z0.0487 I-0.006 J0.0369
N700 X0.9998 Y0.9786 Z0.0446 I0.006 J-0.0369
N705 X0.9877 Y1.0524 Z0.0405 I-0.006 J0.0369
N710 X0.9998 Y0.9786 Z0.0363 I0.006 J-0.0369
N715 X0.9877 Y1.0524 Z0.0322 I-0.006 J0.0369
N720 X0.9998 Y0.9786 Z0.0281 I0.006 J-0.0369
N725 X0.9877 Y1.0524 Z0.024 I-0.006 J0.0369
N730 X0.9998 Y0.9786 Z0.0199 I0.006 J-0.0369
N735 X0.9877 Y1.0524 Z0.0158 I-0.006 J0.0369
N740 X0.9998 Y0.9786 Z0.0117 I0.006 J-0.0369
N745 X0.9877 Y1.0524 Z0.0076 I-0.006 J0.0369
N750 X0.9998 Y0.9786 Z0.0035 I0.006 J-0.0369
N755 X0.9877 Y1.0524 Z-0.0006 I-0.006 J0.0369
N760 X0.9998 Y0.9786 Z-0.0047 I0.006 J-0.0369
N765 X0.9877 Y1.0524 Z-0.0088 I-0.006 J0.0369
N770 X0.9998 Y0.9786 Z-0.0129 I0.006 J-0.0369
N775 X0.9877 Y1.0524 Z-0.017 I-0.006 J0.0369
N780 X0.9998 Y0.9786 Z-0.0211 I0.006 J-0.0369
N785 X0.9877 Y1.0524 Z-0.0252 I-0.006 J0.0369
N790 X0.9998 Y0.9786 Z-0.0293 I0.006 J-0.0369
N795 X0.9877 Y1.0524 Z-0.0334 I-0.006 J0.0369
N800 X0.9998 Y0.9786 Z-0.0375 I0.006 J-0.0369
N805 X0.9877 Y1.0524 Z-0.0416 I-0.006 J0.0369
N810 X0.9998 Y0.9786 Z-0.0457 I0.006 J-0.0369
N815 X0.9877 Y1.0524 Z-0.0498 I-0.006 J0.0369
N820 X0.9998 Y0.9786 Z-0.0539 I0.006 J-0.0369
N825 X0.9877 Y1.0524 Z-0.058 I-0.006 J0.0369
N830 X0.9998 Y0.9786 Z-0.0621 I0.006 J-0.0369
N835 X0.9877 Y1.0524 Z-0.0662 I-0.006 J0.0369
N840 X0.9998 Y0.9786 Z-0.0703 I0.006 J-0.0369
N845 X0.9877 Y1.0524 Z-0.0744 I-0.006 J0.0369
N850 X0.9998 Y0.9786 Z-0.0785 I0.006 J-0.0369
N855 X0.9877 Y1.0524 Z-0.0826 I-0.006 J0.0369
N860 X0.9998 Y0.9786 Z-0.0867 I0.006 J-0.0369
N865 X0.9877 Y1.0524 Z-0.0909 I-0.006 J0.0369
N870 X0.9998 Y0.9786 Z-0.095 I0.006 J-0.0369
N875 X0.9877 Y1.0524 Z-0.0991 I-0.006 J0.0369
N880 X0.9998 Y0.9786 Z-0.1032 I0.006 J-0.0369
N885 X1.0311 Y1.0155 Z-0.105 I-0.006 J0.0369
N890 X0.9563 I-0.0374 J0.
N895 X1.0311 I0.0374 J0.
N900 G1 X1.0323 Y1.0387 F5.
N905 X1.0321 Y1.0447
N910 X1.0304 Y1.0504
N915 X1.0276 Y1.0557
N920 X1.0238 Y1.0603
N925 X1.0193 Y1.0643
N930 X1.0143 Y1.0677
N935 X1.0089 Y1.0703
N940 X1.0032 Y1.0722
N945 X0.9973 Y1.0733
N950 X0.9914 Y1.0738
N955 X0.9854 Y1.0736
N960 X0.9794 Y1.0727
N965 X0.9736 Y1.0712
N970 X0.968 Y1.069
N975 X0.9627 Y1.0663
N980 X0.9577 Y1.063
N985 X0.953 Y1.0592
N990 X0.9488 Y1.055
N995 X0.945 Y1.0503
N1000 X0.9417 Y1.0453
N1005 X0.9389 Y1.0399
N1010 X0.9367 Y1.0344
N1015 X0.9351 Y1.0286
N1020 X0.9341 Y1.0227
N1025 X0.9336 Y1.0167
N1030 X0.9338 Y1.0107
N1035 X0.9345 Y1.0048
N1040 X0.9359 Y0.9989
N1045 X0.9378 Y0.9932
N1050 X0.9403 Y0.9878
N1055 X0.9433 Y0.9826
N1060 X0.9468 Y0.9777
N1065 X0.9508 Y0.9732
N1070 X0.9553 Y0.9692
N1075 X0.96 Y0.9656
N1080 X0.9652 Y0.9625
N1085 X0.9706 Y0.9599
N1090 X0.9762 Y0.9579
N1095 X0.9821 Y0.9564
N1100 X0.988 Y0.9555
N1105 X0.994 Y0.9553
N1110 X1. Y0.9556
N1115 X1.0059 Y0.9565
N1120 X1.0117 Y0.958
N1125 X1.0174 Y0.9601
N1130 X1.0228 Y0.9627
N1135 X1.0279 Y0.9659
N1140 X1.0326 Y0.9695
N1145 X1.037 Y0.9736
N1150 X1.041 Y0.9781
N1155 X1.0444 Y0.983
N1160 X1.0474 Y0.9882
N1165 X1.0505 Y0.9948
N1170 X1.0537 Y1.0035
N1175 X1.0562 Y1.0124
N1180 X1.0575 Y1.0192
N1185 X1.0583 Y1.0258
N1190 X1.0584 Y1.0317
N1195 X1.0581 Y1.0377
N1200 X1.0573 Y1.0437
N1205 X1.0559 Y1.0495
N1210 X1.054 Y1.0552
N1215 X1.0516 Y1.0607
N1220 X1.0486 Y1.0659
N1225 X1.0452 Y1.0709
N1230 X1.0414 Y1.0755
N1235 X1.0371 Y1.0797
N1240 X1.0325 Y1.0835
N1245 X1.0276 Y1.0869
N1250 X1.024 Y1.089
N1255 X1.0195 Y1.0908
N1260 X1.0148 Y1.0914
N1265 X1.01 Y1.0907
N1270 X0.9486 Y1.0737
N1275 X0.9429 Y1.0718
N1280 X0.9376 Y1.069
N1285 X0.9328 Y1.0655
N1290 X0.9283 Y1.0614
N1295 X0.9243 Y1.0569
N1300 X0.9208 Y1.0521
N1305 X0.9178 Y1.0469
N1310 X0.9153 Y1.0414
N1315 X0.9132 Y1.0358
N1320 X0.9116 Y1.03
N1325 X0.9104 Y1.024
N1330 X0.9098 Y1.0178
N1335 X0.9096 Y1.0117
N1340 X0.91 Y1.0053
N1345 X0.9109 Y0.9989
N1350 X0.9123 Y0.9925
N1355 X0.9141 Y0.9863
N1360 X0.9166 Y0.9802
N1365 X0.9195 Y0.9742
N1370 X0.923 Y0.9684
N1375 X0.9269 Y0.9629
N1380 X0.9311 Y0.9579
N1385 X0.9358 Y0.9531
N1390 X0.941 Y0.9486
N1395 X0.9465 Y0.9445
N1400 X0.9523 Y0.941
N1405 X0.9557 Y0.9393
N1410 X0.96 Y0.9377
N1415 X0.9645 Y0.9373
N1420 X0.9689 Y0.9379
N1425 X1.0389 Y0.9573
N1430 X1.0446 Y0.9592
N1435 X1.0499 Y0.962
N1440 X1.0548 Y0.9654
N1445 X1.0593 Y0.9694
N1450 X1.0634 Y0.9738
N1455 X1.0673 Y0.9787
N1460 X1.071 Y0.9844
N1465 X1.0744 Y0.9905
N1470 X1.0774 Y0.9971
N1475 X1.0798 Y1.0039
N1480 X1.0817 Y1.011
N1485 X1.0831 Y1.0182
N1490 X1.0838 Y1.0256
N1495 X1.084 Y1.033
N1500 X1.0836 Y1.0404
N1505 X1.0826 Y1.0476
N1510 X1.081 Y1.0547
N1515 X1.0789 Y1.0615
N1520 X1.0762 Y1.0683
N1525 X1.073 Y1.0748
N1530 X1.0692 Y1.0811
N1535 X1.0649 Y1.0871
N1540 X1.0604 Y1.0925
N1545 X1.0585 Y1.0944
N1550 X1.0533 Y1.0981
N1555 X1.047 Y1.0997
N1560 X1.0406 Y1.0991
N1565 X1.01 Y1.0907
N1570 G3 X1.0047 Y1.0816 I0.0024 J-0.0075
N1575 G1 X1.0086 Y1.0626
N1580 X1.0256 Y0.9813
N1585 X1.0293 Y0.9633
N1590 G3 X1.0389 Y0.9573 I0.0077 J0.0016
N1595 G1 X1.0688 Y0.9656
N1600 X1.0745 Y0.9674
N1605 X1.0798 Y0.9703
N1610 X1.0846 Y0.9738
N1615 X1.089 Y0.9779
N1620 X1.0929 Y0.9825
N1625 X1.0963 Y0.9874
N1630 X1.0995 Y0.9928
N1635 X1.1022 Y0.9986
N1640 X1.1047 Y1.0049
N1645 X1.1067 Y1.0119
N1650 X1.1083 Y1.0195
N1655 X1.1093 Y1.0274
N1660 X1.1096 Y1.0356
N1665 X1.1093 Y1.044
N1670 X1.1083 Y1.0524
N1675 X1.1066 Y1.061
N1680 X1.1042 Y1.0696
N1685 X1.101 Y1.0781
N1690 X1.0972 Y1.0861
N1695 X1.0938 Y1.0921
N1700 X1.0899 Y1.0978
N1705 X1.0876 Y1.1007
N1710 X1.0822 Y1.1052
N1715 X1.0755 Y1.1074
N1720 X1.0684 Y1.1068
N1725 X1.0406 Y1.0991
N1730 G3 X1.0352 Y1.0901 I0.0024 J-0.0075
N1735 G1 X1.0391 Y1.0711
N1740 X1.0556 Y0.9896
N1745 X1.0592 Y0.9717
N1750 G3 X1.0688 Y0.9656 I0.0077 J0.0016
N1755 G1 X1.097 Y0.9734
N1760 X1.1027 Y0.9753
N1765 X1.1079 Y0.9782
N1770 X1.1126 Y0.9819
N1775 X1.1168 Y0.9862
N1780 X1.1205 Y0.9909
N1785 X1.1238 Y0.996
N1790 X1.1266 Y1.0014
N1795 X1.1291 Y1.0074
N1800 X1.1314 Y1.0142
N1805 X1.1333 Y1.0217
N1810 X1.1345 Y1.0295
N1815 X1.1352 Y1.038
N1820 Y1.0471
N1825 X1.1345 Y1.0566
N1830 X1.1329 Y1.0664
N1835 X1.1306 Y1.0759
N1840 X1.1276 Y1.085
N1845 X1.1244 Y1.0925
N1850 X1.1211 Y1.0988
N1855 X1.1176 Y1.1043
N1860 X1.1151 Y1.1076
N1865 X1.1097 Y1.1125
N1870 X1.1028 Y1.1148
N1875 X1.0955 Y1.1143
N1880 X1.0684 Y1.1068
N1885 G3 X1.0631 Y1.0977 I0.0024 J-0.0075
N1890 G1 X1.067 Y1.0788
N1895 X1.0838 Y0.9974
N1900 X1.0874 Y0.9794
N1905 G3 X1.097 Y0.9734 I0.0077 J0.0016
N1910 G1 X1.1235 Y0.9807
N1915 X1.1292 Y0.9826
N1920 X1.1344 Y0.9856
N1925 X1.1391 Y0.9893
N1930 X1.1432 Y0.9937
N1935 X1.1468 Y0.9985
N1940 X1.15 Y1.0036
N1945 X1.1527 Y1.0089
N1950 X1.1553 Y1.0153
N1955 X1.1575 Y1.0221
N1960 X1.1593 Y1.0298
N1965 X1.1605 Y1.0384
N1970 X1.1612 Y1.0477
N1975 X1.161 Y1.0572
N1980 X1.1601 Y1.0672
N1985 X1.1583 Y1.0772
N1990 X1.1559 Y1.0868
N1995 X1.1529 Y1.0954
N2000 X1.15 Y1.1017
N2005 X1.1466 Y1.1082
N2010 X1.1433 Y1.1132
N2015 X1.1416 Y1.1153
N2020 X1.1362 Y1.12
N2025 X1.1294 Y1.1223
N2030 X1.1223 Y1.1217
N2035 X1.0955 Y1.1143
N2040 G3 X1.0902 Y1.1053 I0.0024 J-0.0075
N2045 G1 X1.094 Y1.0863
N2050 X1.1103 Y1.0047
N2055 X1.1139 Y0.9868
N2060 G3 X1.1235 Y0.9807 I0.0077 J0.0015
N2065 G1 X1.1492 Y0.9878
N2070 X1.1549 Y0.9897
N2075 X1.1601 Y0.9926
N2080 X1.1648 Y0.9964
N2085 X1.1689 Y1.0007
N2090 X1.1726 Y1.0055
N2095 X1.1757 Y1.0106
N2100 X1.1786 Y1.0162
N2105 X1.1812 Y1.0226
N2110 X1.1834 Y1.0295
N2115 X1.1853 Y1.0376
N2120 X1.1866 Y1.0464
N2125 X1.1872 Y1.0555
N2130 X1.1871 Y1.0654
N2135 X1.1861 Y1.0756
N2140 X1.1844 Y1.0854
N2145 X1.1819 Y1.095
N2150 X1.179 Y1.1034
N2155 X1.1763 Y1.1095
N2160 X1.173 Y1.1157
N2165 X1.1697 Y1.1208
N2170 X1.1682 Y1.1227
N2175 X1.1628 Y1.1274
N2180 X1.156 Y1.1296
N2185 X1.1488 Y1.1291
N2190 X1.1223 Y1.1217
N2195 G3 X1.1169 Y1.1127 I0.0024 J-0.0075
N2200 G1 X1.1205 Y1.0936
N2205 X1.1362 Y1.0118
N2210 X1.1396 Y0.994
N2215 G3 X1.1492 Y0.9878 I0.0077 J0.0015
N2220 G1 X1.1743 Y0.9947
N2225 X1.18 Y0.9966
N2230 X1.1853 Y0.9995
N2235 X1.19 Y1.0031
N2240 X1.1942 Y1.0074
N2245 X1.198 Y1.0121
N2250 X1.2012 Y1.0171
N2255 X1.2042 Y1.0228
N2260 X1.2068 Y1.0288
N2265 X1.2091 Y1.0359
N2270 X1.2112 Y1.044
N2275 X1.2125 Y1.0524
N2280 X1.2133 Y1.0617
N2285 Y1.0716
N2290 X1.2125 Y1.0819
N2295 X1.211 Y1.0917
N2300 X1.2086 Y1.1011
N2305 X1.2058 Y1.1098
N2310 X1.2032 Y1.116
N2315 X1.1999 Y1.1222
N2320 X1.1967 Y1.1273
N2325 X1.1949 Y1.1298
N2330 X1.1895 Y1.1346
N2335 X1.1826 Y1.1369
N2340 X1.1753 Y1.1364
N2345 X1.1488 Y1.1291
N2350 G3 X1.1435 Y1.1202 I0.0024 J-0.0075
N2355 G1 X1.1469 Y1.1009
N2360 X1.1615 Y1.0188
N2365 X1.1647 Y1.001
N2370 G3 X1.1743 Y0.9947 I0.0078 J0.0014
N2375 G1 X1.1999 Y1.0018
N2380 X1.2056 Y1.0037
N2385 X1.2109 Y1.0065
N2390 X1.2157 Y1.0101
N2395 X1.22 Y1.0143
N2400 X1.2238 Y1.019
N2405 X1.2271 Y1.024
N2410 X1.23 Y1.0296
N2415 X1.2327 Y1.0357
N2420 X1.2351 Y1.0427
N2425 X1.2372 Y1.0509
N2430 X1.2387 Y1.0594
N2435 X1.2395 Y1.0686
N2440 X1.2396 Y1.0785
N2445 X1.2388 Y1.0887
N2450 X1.2374 Y1.0985
N2455 X1.2351 Y1.108
N2460 X1.2323 Y1.1166
N2465 X1.2297 Y1.1229
N2470 X1.2265 Y1.1292
N2475 X1.2234 Y1.1343
N2480 X1.2222 Y1.1359
N2485 X1.2176 Y1.1402
N2490 X1.2119 Y1.1428
N2495 X1.2057 Y1.1433
N2500 X1.2025 Y1.143
N2505 X1.1968 Y1.1423
N2510 X1.1753 Y1.1364
N2515 G3 X1.1699 Y1.1276 I0.0024 J-0.0075
N2520 G1 X1.1732 Y1.1082
N2525 X1.1873 Y1.026
N2530 X1.1903 Y1.0082
N2535 G3 X1.1999 Y1.0018 I0.0078 J0.0013
N2540 G1 X1.2267 Y1.0093
N2545 X1.2324 Y1.0111
N2550 X1.2377 Y1.0141
N2555 X1.2424 Y1.0177
N2560 X1.2466 Y1.022
N2565 X1.2503 Y1.0268
N2570 X1.2535 Y1.0318
N2575 X1.2565 Y1.0374
N2580 X1.2592 Y1.0438
N2585 X1.2616 Y1.0508
N2590 X1.2636 Y1.059
N2595 X1.265 Y1.0679
N2600 X1.2658 Y1.0771
N2605 Y1.087
N2610 X1.265 Y1.0972
N2615 X1.2635 Y1.107
N2620 X1.2612 Y1.1165
N2625 X1.2585 Y1.1244
N2630 X1.2559 Y1.1306
N2635 X1.2553 Y1.1317
N2640 X1.2537 Y1.1343
N2645 X1.2517 Y1.1365
N2650 X1.2493 Y1.1384
N2655 G3 X1.2374 Y1.1331 I-0.0042 J-0.0067
N2660 G1 X1.2347 Y1.1178
N2665 X1.2198 Y1.0334
N2670 X1.2171 Y1.0183
N2675 G3 X1.2267 Y1.0093 I0.0078 J-0.0014
N2680 G1 X1.2307 Y1.0104
N2685 X1.2335 Y1.0112
N2690 X1.2363 Y1.0125
N2695 X1.2532 Y1.0206
N2700 X1.2589 Y1.0233
N2705 X1.2596 Y1.0239
N2710 X1.2604 Y1.0246
N2715 X1.273 Y1.0374
N2720 X1.2746 Y1.039
N2725 X1.2758 Y1.0407
N2730 X1.277 Y1.0431
N2735 X1.2847 Y1.06
N2740 X1.285 Y1.0607
N2745 X1.2852 Y1.0614
N2750 X1.2854 Y1.0628
N2755 X1.287 Y1.0825
N2760 Y1.0839
N2765 X1.2869 Y1.0853
N2770 X1.2862 Y1.0882
N2775 X1.2815 Y1.1052
N2780 X1.281 Y1.1065
N2785 X1.2807 Y1.1072
N2790 X1.2803 Y1.1079
N2795 X1.2783 Y1.1107
N2800 X1.2682 Y1.1249
N2805 X1.2675 Y1.1257
N2810 X1.2667 Y1.1264
N2815 X1.2651 Y1.1276
N2820 X1.2532 Y1.1358
N2825 X1.2487 Y1.1389
N2830 X1.2476 Y1.1394
N2835 X1.242 Y1.1409
N2840 X1.228 Y1.1445
N2845 X1.2265 Y1.1449
N2850 X1.225 Y1.145
N2855 X1.2188 Y1.1445
N2860 X1.2057 Y1.1433
N2865 X1.2037 Y1.1428
N2870 X1.2019 Y1.1418
N2875 X1.2004 Y1.1404
N2880 X1.1993 Y1.1387
N2885 X1.1987 Y1.1367
N2890 X1.1982 Y1.135
N2895 X1.1973 Y1.1334
N2900 X1.1961 Y1.1321
N2905 X1.1946 Y1.1311
N2910 X1.193 Y1.1304
N2915 X1.1817 Y1.1274
N2920 X0.9837 Y1.0732
N2925 X0.9816 Y1.0729
N2930 X0.9795 Y1.0732
N2935 G3 X0.9486 Y1.0737 I-0.0164 J-0.0601
N2940 G1 X0.9204 Y1.0659
N2945 X0.9147 Y1.064
N2950 X0.9095 Y1.0611
N2955 X0.9048 Y1.0573
N2960 X0.9006 Y1.053
N2965 X0.897 Y1.0482
N2970 X0.8939 Y1.043
N2975 X0.8914 Y1.0376
N2980 X0.8893 Y1.032
N2985 X0.8876 Y1.026
N2990 X0.8864 Y1.0195
N2995 X0.8856 Y1.0127
N3000 X0.8854 Y1.0057
N3005 X0.8858 Y0.9984
N3010 X0.8868 Y0.9909
N3015 X0.8884 Y0.9832
N3020 X0.8908 Y0.9755
N3025 X0.8937 Y0.9679
N3030 X0.8974 Y0.9604
N3035 X0.9017 Y0.9531
N3040 X0.9066 Y0.9462
N3045 X0.9121 Y0.9395
N3050 X0.9177 Y0.9338
N3055 X0.919 Y0.9327
N3060 X0.9241 Y0.9295
N3065 X0.93 Y0.9282
N3070 X0.936 Y0.9288
N3075 X0.9689 Y0.9379
N3080 G3 X0.9739 Y0.9483 I-0.0024 J0.0075
N3085 G1 X0.9673 Y0.9651
N3090 X0.9368 Y1.0428
N3095 X0.9296 Y1.0611
N3100 G3 X0.9204 Y1.0659 I-0.0073 J-0.0029
N3105 G1 X0.8947 Y1.0588
N3110 X0.889 Y1.0569
N3115 X0.8839 Y1.0538
N3120 X0.8793 Y1.05
N3125 X0.8753 Y1.0455
N3130 X0.8718 Y1.0406
N3135 X0.8689 Y1.0354
N3140 X0.8665 Y1.0299
N3145 X0.8645 Y1.0242
N3150 X0.8629 Y1.0178
N3155 X0.8617 Y1.0108
N3160 X0.861 Y1.0035
N3165 Y0.9957
N3170 X0.8616 Y0.9874
N3175 X0.8629 Y0.9787
N3180 X0.865 Y0.9698
N3185 X0.8679 Y0.9608
N3190 X0.8716 Y0.9519
N3195 X0.8761 Y0.9431
N3200 X0.8807 Y0.9356
N3205 X0.885 Y0.9298
N3210 X0.8877 Y0.9272
N3215 X0.8908 Y0.9253
N3220 X0.8943 Y0.924
N3225 G3 X0.9039 Y0.9317 I0.0017 J0.0077
N3230 G1 Y0.9485
N3235 X0.9044 Y1.0344
N3240 Y1.0511
N3245 G3 X0.8947 Y1.0588 I-0.0079 J0.
N3250 G1 X0.8922 Y1.0581
N3255 X0.8894 Y1.0572
N3260 X0.8865 Y1.056
N3265 X0.8696 Y1.0479
N3270 X0.864 Y1.0451
N3275 X0.8634 Y1.0447
N3280 X0.8628 Y1.0442
N3285 X0.8542 Y1.0355
N3290 X0.8534 Y1.0347
N3295 X0.8527 Y1.034
N3300 X0.8487 Y1.0295
N3305 X0.8455 Y1.0244
N3310 X0.8429 Y1.019
N3315 X0.8409 Y1.0134
N3320 X0.8392 Y1.0072
N3325 X0.838 Y1.0007
N3330 X0.8372 Y0.9934
N3335 X0.837 Y0.9853
N3340 X0.8373 Y0.9793
N3345 X0.8374 Y0.978
N3350 X0.8377 Y0.9767
N3355 X0.838 Y0.9754
N3360 G3 X0.8531 Y0.9759 I0.0075 J0.0024
N3365 G1 X0.8557 Y0.9861
N3370 X0.8632 Y1.016
N3375 X0.8658 Y1.0264
N3380 G3 X0.8527 Y1.034 I-0.0076 J0.0019
N3385 G1 X0.8486 Y1.0298
N3390 X0.8478 Y1.0289
N3395 X0.8471 Y1.0279
N3400 X0.8462 Y1.0262
N3405 X0.8384 Y1.0093
N3410 X0.8378 Y1.0078
N3415 X0.8376 Y1.0071
N3420 X0.8375 Y1.0064
N3425 X0.8372 Y1.0036
N3430 X0.8358 Y0.9857
N3435 X0.8357 Y0.9847
N3440 X0.8358 Y0.9837
N3445 X0.8364 Y0.9811
N3450 X0.8414 Y0.963
N3455 X0.8418 Y0.9618
N3460 X0.8423 Y0.9607
N3465 X0.8439 Y0.9585
N3470 X0.8543 Y0.9439
N3475 X0.8553 Y0.9427
N3480 X0.8565 Y0.9416
N3485 X0.8728 Y0.9304
N3490 X0.874 Y0.9296
N3495 X0.8753 Y0.929
N3500 X0.8809 Y0.9275
N3505 X0.895 Y0.9238
N3510 X0.8964 Y0.9235
N3515 X0.8971 Y0.9234
N3520 X0.8978
N3525 X0.9035 Y0.9238
N3530 X0.9204 Y0.9255
N3535 X0.926 Y0.9261
N3540 X0.936 Y0.9288
N3545 G3 X0.9312 Y0.9438 I-0.0024 J0.0075
N3550 X0.9266 Y0.94 I0.0024 J-0.0075
N3555 G1 X0.9257 Y0.9382 Z-0.1047
N3560 X0.9248 Y0.9365 Z-0.1039
N3565 X0.924 Y0.935 Z-0.1027
N3570 X0.9235 Y0.9339 Z-0.1011
N3575 X0.9231 Y0.9332 Z-0.0992
N3580 X0.923 Y0.933 Z-0.0971
N3585 G0 Z0.6
(CONTOUR3)
N3590 G0 X0.1727 Y0.596
N3595 Z0.3
N3600 Z0.0547
N3605 G1 Z-0.0255 F10.
N3610 G3 X0.1858 Y0.6025 I0.0052 J0.0059
N3615 G1 X0.1854 Y0.6082 F15.
N3620 X0.185 Y0.6126
N3625 X0.1848 Y0.6171
N3630 X0.1846 Y0.6216
N3635 X0.1843 Y0.6261
N3640 X0.1841 Y0.6305
N3645 X0.1838 Y0.6395
N3650 X0.1837 Y0.644
N3655 X0.1835 Y0.6529
N3660 X0.1834 Y0.6574
N3665 Y0.6619
N3670 Y0.6708
N3675 Y0.6753
N3680 X0.1836 Y0.6887
N3685 X0.1837 Y0.6932
N3690 X0.184 Y0.7021
N3695 X0.1841 Y0.7066
N3700 X0.1843 Y0.7111
N3705 X0.1847 Y0.72
N3710 X0.185 Y0.7245
N3715 X0.1852 Y0.729
N3720 X0.1858 Y0.7379
N3725 X0.1861 Y0.7424
N3730 X0.1865 Y0.7469
N3735 X0.1872 Y0.7558
N3740 X0.1876 Y0.7603
N3745 X0.188 Y0.7648
N3750 X0.1894 Y0.7782
N3755 X0.1898 Y0.7827
N3760 X0.1914 Y0.7961
N3765 X0.192 Y0.8006
N3770 X0.1926 Y0.805
N3775 X0.1944 Y0.8185
N3780 X0.1947 Y0.821
N3785 X0.195 Y0.8229
N3790 X0.1977 Y0.8408
N3795 X0.1984 Y0.8453
N3800 X0.2014 Y0.8632
N3805 X0.2022 Y0.8677
N3810 X0.2047 Y0.8811
N3815 X0.2055 Y0.8856
N3820 X0.2064 Y0.89
N3825 X0.21 Y0.9079
N3830 X0.2109 Y0.9124
N3835 X0.2147 Y0.9303
N3840 X0.2157 Y0.9348
N3845 X0.2198 Y0.9527
N3850 X0.2208 Y0.9572
N3855 X0.2216 Y0.9606
N3860 X0.2262 Y0.9795
N3865 X0.2273 Y0.984
N3870 X0.2318 Y1.0019
N3875 X0.2329 Y1.0064
N3880 X0.2341 Y1.0109
N3885 X0.2395 Y1.0314
N3890 X0.24 Y1.0332
N3895 X0.2462 Y1.0556
N3900 X0.2474 Y1.0601
N3905 X0.2538 Y1.0824
N3910 X0.2551 Y1.0869
N3915 X0.2564 Y1.0914
N3920 X0.2683 Y1.1317
N3925 X0.2696 Y1.1361
N3930 X0.2709 Y1.1403
N3935 X0.2724 Y1.1451
N3940 X0.2737 Y1.1496
N3945 X0.3015 Y1.239
N3950 X0.3022 Y1.2414
N3955 X0.3029 Y1.2435
N3960 X0.3043 Y1.248
N3965 X0.3099 Y1.2659
N3970 X0.3113 Y1.2704
N3975 X0.3127 Y1.2748
N3980 X0.3182 Y1.2927
N3985 X0.3195 Y1.2972
N3990 X0.3202 Y1.2993
N3995 X0.3249 Y1.3151
N4000 X0.3263 Y1.3196
N4005 X0.3276 Y1.3241
N4010 X0.3291 Y1.3295
N4015 X0.3327 Y1.342
N4020 X0.3336 Y1.3449
N4025 X0.3341 Y1.3464
N4030 X0.3359 Y1.3509
N4035 X0.3381 Y1.3551
N4040 X0.3382 Y1.3554
N4045 X0.3413 Y1.3599
N4050 X0.3426 Y1.3615
N4055 X0.3452 Y1.3643
N4060 X0.3471 Y1.3661
N4065 X0.3503 Y1.3688
N4070 X0.3515 Y1.3697
N4075 X0.356 Y1.3725
N4080 X0.3576 Y1.3733
N4085 X0.3605 Y1.3746
N4090 X0.365 Y1.3762
N4095 X0.3695 Y1.3773
N4100 X0.3722 Y1.3778
N4105 X0.3739 Y1.378
N4110 X0.3784 Y1.3782
N4115 X0.3829 Y1.378
N4120 X0.4098 Y1.3757
N4125 X0.4143 Y1.3753
N4130 X0.4232 Y1.3745
N4135 X0.4277 Y1.3742
N4140 X0.4546 Y1.372
N4145 X0.4591 Y1.3717
N4150 X0.4635 Y1.3713
N4155 X0.4949 Y1.369
N4160 X0.4977 Y1.3688
N4165 X0.4994 Y1.3687
N4170 X0.5039 Y1.3684
N4175 X0.5352 Y1.3662
N4180 X0.5397 Y1.3659
N4185 X0.5666 Y1.3643
N4190 X0.5711 Y1.364
N4195 X0.5756 Y1.3637
N4200 X0.6024 Y1.3622
N4205 X0.6069 Y1.3619
N4210 X0.6114 Y1.3617
N4215 X0.6383 Y1.3603
N4220 X0.6428 Y1.3601
N4225 X0.6473 Y1.3599
N4230 X0.6741 Y1.3587
N4235 X0.6786 Y1.3585
N4240 X0.7055 Y1.3574
N4245 X0.71 Y1.3573
N4250 X0.7145 Y1.3571
N4255 X0.7369 Y1.3564
N4260 X0.7413 Y1.3562
N4265 X0.7458 Y1.3561
N4270 X0.7727 Y1.3553
N4275 X0.7772 Y1.3552
N4280 X0.7817 Y1.3551
N4285 X0.8041 Y1.3546
N4290 X0.8086 Y1.3545
N4295 X0.8354 Y1.3541
N4300 X0.8399 Y1.354
N4305 X0.8623 Y1.3537
N4310 X0.8668
N4315 X0.8713 Y1.3536
N4320 X0.8937 Y1.3535
N4325 X0.8982
N4330 X0.9026
N4335 X0.925
N4340 X0.9295
N4345 X0.9564 Y1.3536
N4350 X0.9609
N4355 X0.9833 Y1.3539
N4360 X0.9878
N4365 X0.9923 Y1.354
N4370 X1.0102 Y1.3542
N4375 X1.0147 Y1.3543
N4380 X1.0191 Y1.3544
N4385 X1.0415 Y1.3549
N4390 X1.046 Y1.355
N4395 X1.0684 Y1.3555
N4400 X1.0729 Y1.3556
N4405 X1.0908 Y1.3562
N4410 X1.0953 Y1.3563
N4415 X1.0998 Y1.3565
N4420 X1.1043 Y1.3566
N4425 X1.1446 Y1.3581
N4430 X1.1491 Y1.3583
N4435 X1.1536 Y1.3585
N4440 X1.1984 Y1.3605
N4445 X1.2028 Y1.3607
N4450 X1.2073 Y1.3609
N4455 X1.2476 Y1.363
N4460 X1.2521 Y1.3633
N4465 X1.2566 Y1.3635
N4470 X1.2969 Y1.3659
N4475 X1.3014 Y1.3662
N4480 X1.3059 Y1.3665
N4485 X1.3462 Y1.3692
N4490 X1.3507 Y1.3695
N4495 X1.391 Y1.3724
N4500 X1.3955 Y1.3727
N4505 X1.4358 Y1.3758
N4510 X1.4403 Y1.3761
N4515 X1.4448 Y1.3765
N4520 X1.4806 Y1.3794
N4525 X1.4851 Y1.3797
N4530 X1.4896 Y1.3801
N4535 X1.5254 Y1.3831
N4540 X1.5299 Y1.3835
N4545 X1.5344 Y1.3839
N4550 X1.5669 Y1.3867
N4555 X1.5702 Y1.387
N4560 X1.5747 Y1.3874
N4565 X1.6106 Y1.3906
N4570 X1.6151 Y1.391
N4575 X1.6175 Y1.3912
N4580 X1.6509 Y1.3942
N4585 X1.6554 Y1.3946
N4590 X1.6599 Y1.395
N4595 X1.7002 Y1.3986
N4600 X1.736 Y1.4019
N4605 X1.7405 Y1.4023
N4610 X1.7764 Y1.4055
N4615 X1.7808 Y1.4058
N4620 X1.8122 Y1.4086
N4625 X1.8167 Y1.409
N4630 X1.8212 Y1.4094
N4635 X1.8525 Y1.412
N4640 X1.857 Y1.4124
N4645 X1.8615 Y1.4128
N4650 X1.8928 Y1.4154
N4655 X1.8973 Y1.4158
N4660 X1.9287 Y1.4183
N4665 X1.9332 Y1.4186
N4670 X1.9601 Y1.4207
N4675 X1.9645 Y1.421
N4680 X1.969 Y1.4214
N4685 X2.0004 Y1.4236
N4690 X2.0049 Y1.424
N4695 X2.0093 Y1.4243
N4700 X2.0362 Y1.4261
N4705 X2.0407 Y1.4264
N4710 X2.0452 Y1.4267
N4715 X2.0721 Y1.4284
N4720 X2.0766 Y1.4287
N4725 X2.081 Y1.4289
N4730 X2.1079 Y1.4305
N4735 X2.1124 Y1.4307
N4740 X2.1169 Y1.4309
N4745 X2.1393 Y1.4321
N4750 X2.1438 Y1.4323
N4755 X2.1482 Y1.4325
N4760 X2.1751 Y1.4338
N4765 X2.1796 Y1.4339
N4770 X2.2065 Y1.435
N4775 X2.211 Y1.4352
N4780 X2.2154 Y1.4353
N4785 X2.2379 Y1.4361
N4790 X2.2423 Y1.4362
N4795 X2.2468 Y1.4363
N4800 X2.2513 Y1.4365
N4805 X2.2737 Y1.437
N4810 X2.2782 Y1.4372
N4815 X2.3006 Y1.4376
N4820 X2.3051 Y1.4377
N4825 X2.3095
N4830 X2.314 Y1.4378
N4835 X2.3364 Y1.4381
N4840 X2.3409
N4845 X2.3633 Y1.4382
N4850 X2.3678
N4855 X2.3723
N4860 X2.3947
N4865 X2.3992
N4870 X2.4036 Y1.4381
N4875 X2.4081
N4880 X2.4305 Y1.4378
N4885 X2.435
N4890 X2.4574 Y1.4374
N4895 X2.4619 Y1.4373
N4900 X2.4664 Y1.4372
N4905 X2.4888 Y1.4366
N4910 X2.4932 Y1.4364
N4915 X2.4977 Y1.4363
N4920 X2.5201 Y1.4355
N4925 X2.5246 Y1.4354
N4930 X2.5694 Y1.4334
N4935 X2.5739 Y1.4332
N4940 X2.5784 Y1.4329
N4945 X2.5829 Y1.4327
N4950 X2.5918 Y1.4321
N4955 X2.6321 Y1.4298
N4960 X2.6366 Y1.4294
N4965 X2.6411 Y1.4291
N4970 X2.6859 Y1.4258
N4975 X2.6904 Y1.4255
N4980 X2.7352 Y1.4216
N4985 X2.7397 Y1.4212
N4990 X2.7442 Y1.4208
N4995 X2.789 Y1.4164
N5000 X2.7934 Y1.4159
N5005 X2.7979 Y1.4154
N5010 X2.8382 Y1.411
N5015 X2.8427 Y1.4105
N5020 X2.8472 Y1.41
N5025 X2.8517 Y1.4095
N5030 X2.892 Y1.4046
N5035 X2.8965 Y1.404
N5040 X2.901 Y1.4035
N5045 X2.9458 Y1.3976
N5050 X2.9503 Y1.397
N5055 X2.9547 Y1.3964
N5060 X2.9951 Y1.3908
N5065 X2.9995 Y1.3901
N5070 X3.004 Y1.3895
N5075 X3.0444 Y1.3836
N5080 X3.0488 Y1.3829
N5085 X3.0533 Y1.3822
N5090 X3.0936 Y1.376
N5095 X3.0981 Y1.3753
N5100 X3.1026 Y1.3746
N5105 X3.1071 Y1.3739
N5110 X3.1429 Y1.3682
N5115 X3.1474 Y1.3674
N5120 X3.1519 Y1.3667
N5125 X3.1564 Y1.366
N5130 X3.1967 Y1.3592
N5135 X3.2012 Y1.3584
N5140 X3.2057 Y1.3576
N5145 X3.246 Y1.3506
N5150 X3.2505 Y1.3498
N5155 X3.2549 Y1.3489
N5160 X3.293 Y1.342
N5165 X3.2953 Y1.3415
N5170 X3.2997 Y1.3407
N5175 X3.3042 Y1.3399
N5180 X3.3401 Y1.333
N5185 X3.3446 Y1.3321
N5190 X3.349 Y1.3313
N5195 X3.3535 Y1.3304
N5200 X3.3894 Y1.3232
N5205 X3.3938 Y1.3223
N5210 X3.3983 Y1.3213
N5215 X3.4386 Y1.3128
N5220 X3.4431 Y1.3119
N5225 X3.4476 Y1.3109
N5230 X3.4889 Y1.3017
N5235 X3.4924 Y1.3009
N5240 X3.4969 Y1.2998
N5245 X3.5372 Y1.2904
N5250 X3.5417 Y1.2893
N5255 X3.5775 Y1.2803
N5260 X3.582 Y1.2792
N5265 X3.5865 Y1.2781
N5270 X3.6268 Y1.2674
N5275 X3.6313 Y1.2662
N5280 X3.6326 Y1.2659
N5285 X3.6358 Y1.265
N5290 X3.6716 Y1.255
N5295 X3.6761 Y1.2537
N5300 X3.6806 Y1.2524
N5305 X3.6851 Y1.2511
N5310 X3.7209 Y1.2404
N5315 X3.7251 Y1.239
N5320 X3.7254
N5325 X3.7299 Y1.2376
N5330 X3.7674 Y1.2256
N5335 X3.7702 Y1.2247
N5340 X3.7747 Y1.2232
N5345 X3.8105 Y1.2111
N5350 X3.815 Y1.2095
N5355 X3.8509 Y1.1966
N5360 X3.8553 Y1.195
N5365 X3.8573 Y1.1943
N5370 X3.8598 Y1.1934
N5375 X3.8957 Y1.1797
N5380 X3.9001 Y1.1779
N5385 X3.904 Y1.1764
N5390 X3.9405 Y1.1616
N5395 X3.9449 Y1.1597
N5400 X3.9478 Y1.1585
N5405 X3.9808 Y1.1443
N5410 X3.9853 Y1.1423
N5415 X3.9898 Y1.1403
N5420 X3.9942 Y1.1383
N5425 X4.0256 Y1.124
N5430 X4.0284 Y1.1227
N5435 X4.0301 Y1.1219
N5440 X4.0346 Y1.1198
N5445 X4.0659 Y1.1047
N5450 X4.0704 Y1.1025
N5455 X4.1018 Y1.0866
N5460 X4.1062 Y1.0843
N5465 X4.1099 Y1.0824
N5470 X4.1421 Y1.0653
N5475 X4.1436 Y1.0645
N5480 X4.1466 Y1.0629
N5485 X4.1511 Y1.0605
N5490 X4.1779 Y1.0455
N5495 X4.1824 Y1.043
N5500 X4.1869 Y1.0404
N5505 X4.1914 Y1.0378
N5510 X4.2183 Y1.0221
N5515 X4.2221 Y1.0198
N5520 X4.2227 Y1.0194
N5525 X4.2272 Y1.0167
N5530 X4.2541 Y1.0003
N5535 X4.2586 Y0.9976
N5540 X4.2588 Y0.9974
N5545 X4.2631 Y0.9947
N5550 X4.2899 Y0.9776
N5555 X4.294 Y0.9751
N5560 X4.3258 Y0.954
N5565 X4.3278 Y0.9527
N5570 X4.3303 Y0.951
N5575 X4.3572 Y0.9325
N5580 X4.3603 Y0.9303
N5585 X4.3616 Y0.9294
N5590 X4.3885 Y0.9102
N5595 X4.3917 Y0.9079
N5600 X4.393 Y0.907
N5605 X4.3978 Y0.9035
N5610 X4.4199 Y0.8872
N5615 X4.4221 Y0.8856
N5620 X4.4244 Y0.8838
N5625 X4.4468 Y0.8667
N5630 X4.4512 Y0.8633
N5635 X4.4514 Y0.8632
N5640 X4.4557 Y0.8598
N5645 X4.4741 Y0.8453
N5650 X4.4781 Y0.8421
N5655 X4.4798 Y0.8408
N5660 X4.4826 Y0.8386
N5665 X4.505 Y0.8203
N5670 X4.5073 Y0.8185
N5675 X4.5095 Y0.8166
N5680 X4.5286 Y0.8006
N5685 X4.5319 Y0.7977
N5690 X4.5338 Y0.7961
N5695 X4.5364 Y0.7939
N5700 X4.5544 Y0.7782
N5705 X4.5588 Y0.7744
N5710 X4.5595 Y0.7737
N5715 X4.5633 Y0.7703
N5720 X4.5794 Y0.7558
N5725 X4.5812 Y0.7542
N5730 X4.5843 Y0.7513
N5735 X4.5991 Y0.7375
N5740 X4.6036 Y0.7334
N5745 X4.6081 Y0.7291
N5750 X4.6221 Y0.7155
N5755 X4.626 Y0.7118
N5760 X4.6267 Y0.7111
N5765 X4.6305 Y0.7073
N5770 X4.6446 Y0.6932
N5775 X4.6484 Y0.6893
N5780 X4.6619 Y0.6753
N5785 X4.6661 Y0.6708
N5790 X4.6798 Y0.656
N5795 X4.6826 Y0.6529
N5800 X4.6842 Y0.6511
N5805 X4.6984 Y0.635
N5810 X4.7022 Y0.6306
N5815 X4.7135 Y0.6171
N5820 X4.7156 Y0.6145
N5825 X4.7246 Y0.6033
N5830 X4.7278 Y0.5992
N5835 X4.729 Y0.5976
N5840 X4.7312 Y0.5947
N5845 X4.738 Y0.5857
N5850 X4.7413 Y0.5813
N5855 X4.7425 Y0.5797
N5860 X4.7445 Y0.5768
N5865 X4.7514 Y0.567
N5870 X4.754 Y0.5634
N5875 X4.7559 Y0.5605
N5880 X4.7628 Y0.55
N5885 X4.7649 Y0.5468
N5890 X4.7656 Y0.5455
N5895 X4.7711 Y0.5366
N5900 X4.7738 Y0.5321
N5905 X4.7739 Y0.532
N5910 X4.7763 Y0.5276
N5915 X4.7813 Y0.5187
N5920 X4.7828 Y0.5158
N5925 X4.7836 Y0.5142
N5930 X4.7881 Y0.5053
N5935 X4.7903 Y0.5008
N5940 X4.7918 Y0.4975
N5945 X4.7943 Y0.4918
N5950 X4.7963 Y0.4874
N5955 X4.798 Y0.4829
N5960 X4.8007 Y0.4759
N5965 X4.8015 Y0.4739
N5970 X4.8031 Y0.4695
N5975 X4.806 Y0.4605
N5980 X4.8073 Y0.456
N5985 X4.8097 Y0.4471
N5990 X4.8108 Y0.4426
N5995 X4.8126 Y0.4337
N6000 X4.8134 Y0.4292
N6005 X4.8147 Y0.4202
N6010 X4.8153 Y0.4158
N6015 X4.8157 Y0.4113
N6020 X4.816 Y0.4068
N6025 X4.8163 Y0.4023
N6030 X4.8166 Y0.3934
N6035 X4.8165 Y0.3889
N6040 X4.8164 Y0.3844
N6045 X4.8163 Y0.38
N6050 X4.816 Y0.3755
N6055 X4.8156 Y0.371
N6060 X4.8152 Y0.3665
N6065 X4.8146 Y0.3621
N6070 X4.814 Y0.3576
N6075 X4.8134 Y0.3531
N6080 X4.8125 Y0.3486
N6085 X4.8117 Y0.3442
N6090 X4.8108 Y0.3397
N6095 X4.8097 Y0.3352
N6100 X4.8086 Y0.3308
N6105 X4.8075 Y0.3263
N6110 X4.8062 Y0.3218
N6115 X4.8052 Y0.3183
N6120 X4.8049 Y0.3173
N6125 X4.8035 Y0.3129
N6130 X4.8021 Y0.3084
N6135 X4.8007 Y0.3043
N6140 X4.8006 Y0.3039
N6145 X4.799 Y0.2994
N6150 X4.7974 Y0.295
N6155 X4.7963 Y0.2919
N6160 X4.7957 Y0.2905
N6165 X4.7921 Y0.2815
N6170 X4.7918 Y0.2808
N6175 X4.7902 Y0.2771
N6180 X4.7873 Y0.2705
N6185 X4.7862 Y0.2681
N6190 X4.7841 Y0.2636
N6195 X4.7819 Y0.2592
N6200 X4.7798 Y0.2547
N6205 X4.7783 Y0.2519
N6210 X4.7751 Y0.2457
N6215 X4.7739 Y0.2433
N6220 X4.7727 Y0.2413
N6225 X4.7702 Y0.2368
N6230 X4.7624 Y0.2234
N6235 X4.7604 Y0.22
N6240 X4.7597 Y0.2189
N6245 X4.7568 Y0.2144
N6250 X4.747 Y0.1995
N6255 X4.745 Y0.1965
N6260 X4.7425 Y0.193
N6265 X4.738 Y0.1869
N6270 X4.7352 Y0.1831
N6275 X4.729 Y0.1752
N6280 X4.7282 Y0.1741
N6285 X4.7246 Y0.1697
N6290 X4.7201 Y0.1644
N6295 X4.7169 Y0.1607
N6300 X4.7111 Y0.1542
N6305 X4.7089 Y0.1518
N6310 X4.7066 Y0.1494
N6315 X4.7003 Y0.1428
N6320 X4.6977 Y0.1402
N6325 X4.6912 Y0.1339
N6330 X4.6887 Y0.1315
N6335 X4.6864 Y0.1294
N6340 X4.6814 Y0.1249
N6345 X4.6798 Y0.1235
N6350 X4.6762 Y0.1205
N6355 X4.6708 Y0.1159
N6360 X4.6663 Y0.1123
N6365 X4.6594 Y0.107
N6370 X4.6574 Y0.1055
N6375 X4.6533 Y0.1026
N6380 X4.6484 Y0.0991
N6385 X4.6469 Y0.0981
N6390 X4.6439 Y0.0961
N6395 X4.6394 Y0.0932
N6400 X4.635 Y0.0903
N6405 X4.633 Y0.0891
N6410 X4.626 Y0.085
N6415 X4.6255 Y0.0847
N6420 X4.6215 Y0.0824
N6425 X4.617 Y0.08
N6430 X4.6125 Y0.0776
N6435 X4.6089 Y0.0757
N6440 X4.6036 Y0.0731
N6445 X4.5998 Y0.0712
N6450 X4.5946 Y0.0689
N6455 X4.5901 Y0.0668
N6460 X4.59
N6465 X4.5857 Y0.0649
N6470 X4.5812 Y0.0631
N6475 X4.5793 Y0.0623
N6480 X4.5767 Y0.0612
N6485 X4.5722 Y0.0596
N6490 X4.5588 Y0.0548
N6495 X4.5546 Y0.0533
N6500 X4.5543 Y0.0532
N6505 X4.5498 Y0.0519
N6510 X4.5364 Y0.048
N6515 X4.5319 Y0.0467
N6520 X4.5274 Y0.0457
N6525 X4.514 Y0.0425
N6530 X4.5095 Y0.0415
N6535 X4.505 Y0.0407
N6540 X4.5011 Y0.0399
N6545 X4.5005 Y0.0398
N6550 X4.4961 Y0.039
N6555 X4.4916 Y0.0383
N6560 X4.4871 Y0.0376
N6565 X4.4826 Y0.037
N6570 X4.4781 Y0.0363
N6575 X4.4737 Y0.0358
N6580 X4.4707 Y0.0354
N6585 X4.4692 Y0.0353
N6590 X4.4647 Y0.0348
N6595 X4.4602 Y0.0344
N6600 X4.4557 Y0.0341
N6605 X4.4512 Y0.0338
N6610 X4.4468 Y0.0335
N6615 X4.4423 Y0.0333
N6620 X4.4378 Y0.0332
N6625 X4.4333
N6630 X4.4288
N6635 X4.4244
N6640 X4.4199 Y0.0334
N6645 X4.4154 Y0.0337
N6650 X4.4109 Y0.034
N6655 X4.4064 Y0.0345
N6660 X4.402 Y0.0351
N6665 X4.4 Y0.0354
N6670 X4.3975 Y0.0359
N6675 X4.393 Y0.0368
N6680 X4.3885 Y0.038
N6685 X4.384 Y0.0394
N6690 X4.3824 Y0.0399
N6695 X4.3796 Y0.0411
N6700 X4.3751 Y0.0431
N6705 X4.3725 Y0.0444
N6710 X4.3706 Y0.0455
N6715 X4.3661 Y0.0481
N6720 X4.365 Y0.0489
N6725 X4.3616 Y0.0512
N6730 X4.3586 Y0.0533
N6735 X4.3572 Y0.0544
N6740 X4.3528 Y0.0578
N6745 X4.3527 Y0.0579
N6750 X4.3482 Y0.0616
N6755 X4.3474 Y0.0623
N6760 X4.3437 Y0.0654
N6765 X4.3421 Y0.0668
N6770 X4.3392 Y0.0693
N6775 X4.337 Y0.0712
N6780 X4.3348 Y0.0732
N6785 X4.3319 Y0.0757
N6790 X4.3303 Y0.0771
N6795 X4.3258 Y0.081
N6800 X4.3213 Y0.0849
N6805 X4.3168 Y0.0887
N6810 X4.3163 Y0.0891
N6815 X4.3124 Y0.0925
N6820 X4.311 Y0.0936
N6825 X4.3079 Y0.0962
N6830 X4.3056 Y0.0981
N6835 X4.3034 Y0.0999
N6840 X4.3 Y0.1026
N6845 X4.2989 Y0.1034
N6850 X4.2944 Y0.107
N6855 X4.2899 Y0.1104
N6860 X4.2886 Y0.1115
N6865 X4.2855 Y0.1138
N6870 X4.281 Y0.1172
N6875 X4.2765 Y0.1204
N6880 X4.272 Y0.1236
N6885 X4.2702 Y0.1249
N6890 X4.2631 Y0.1298
N6895 X4.2586 Y0.1328
N6900 X4.2541 Y0.1358
N6905 X4.25 Y0.1384
N6910 X4.2451 Y0.1414
N6915 X4.2428 Y0.1428
N6920 X4.2353 Y0.1473
N6925 X4.2317 Y0.1494
N6930 X4.2272 Y0.1518
N6935 X4.2227 Y0.1543
N6940 X4.2138 Y0.159
N6945 X4.2104 Y0.1607
N6950 X4.2048 Y0.1634
N6955 X4.2012 Y0.1652
N6960 X4.2003 Y0.1656
N6965 X4.1912 Y0.1697
N6970 X4.1869 Y0.1715
N6975 X4.1779 Y0.1752
N6980 X4.1735 Y0.1768
N6985 X4.1686 Y0.1786
N6990 X4.1645 Y0.1801
N6995 X4.16 Y0.1816
N7000 X4.1554 Y0.1831
N7005 X4.1511 Y0.1845
N7010 X4.1405 Y0.1876
N7015 X4.1376 Y0.1883
N7020 X4.1286 Y0.1906
N7025 X4.1242 Y0.1917
N7030 X4.1152 Y0.1936
N7035 X4.1107 Y0.1945
N7040 X4.0991 Y0.1965
N7045 X4.0973 Y0.1968
N7050 X4.0928 Y0.1974
N7055 X4.0838 Y0.1986
N7060 X4.0794 Y0.1991
N7065 X4.0704 Y0.1999
N7070 X4.0659 Y0.2003
N7075 X4.057 Y0.2008
N7080 X4.0541 Y0.201
N7085 X4.0525 Y0.2011
N7090 X4.0435 Y0.2013
N7095 X4.039 Y0.2015
N7100 X4.0346
N7105 X4.0256
N7110 X4.0211
N7115 X4.0077 Y0.2012
N7120 X4.0032 Y0.201
N7125 X3.9942 Y0.2007
N7130 X3.9898 Y0.2005
N7135 X3.9853 Y0.2001
N7140 X3.9584 Y0.1983
N7145 X3.9539 Y0.1979
N7150 X3.9225 Y0.1949
N7155 X3.9181 Y0.1945
N7160 X3.8867 Y0.1911
N7165 X3.8822 Y0.1906
N7170 X3.8777 Y0.1902
N7175 X3.8464 Y0.1868
N7180 X3.8419 Y0.1863
N7185 X3.8285 Y0.185
N7190 X3.824 Y0.1845
N7195 X3.8195 Y0.1841
N7200 X3.806 Y0.1828
N7205 X3.8016 Y0.1823
N7210 X3.7836 Y0.1807
N7215 X3.7792 Y0.1804
N7220 X3.7657 Y0.1793
N7225 X3.7612 Y0.1789
N7230 X3.7569 Y0.1786
N7235 X3.7433 Y0.1777
N7240 X3.7388 Y0.1774
N7245 X3.7344 Y0.1771
N7250 X3.7209 Y0.1762
N7255 X3.7164 Y0.176
N7260 X3.712 Y0.1757
N7265 X3.6761 Y0.174
N7270 X3.6716 Y0.1738
N7275 X3.6672 Y0.1736
N7280 X3.6627 Y0.1735
N7285 X3.6268 Y0.1725
N7290 X3.6223 Y0.1724
N7295 X3.6179 Y0.1723
N7300 X3.5775 Y0.1719
N7305 X3.5731 Y0.1718
N7310 X3.5686 Y0.1719
N7315 X3.5283 Y0.1721
N7320 X3.5238 Y0.1722
N7325 X3.5193 Y0.1723
N7330 X3.479 Y0.1732
N7335 X3.4745 Y0.1733
N7340 X3.47 Y0.1735
N7345 X3.4297 Y0.175
N7350 X3.4252 Y0.1752
N7355 X3.4207 Y0.1754
N7360 X3.3804 Y0.1774
N7365 X3.3759 Y0.1777
N7370 X3.3714 Y0.1779
N7375 X3.3311 Y0.1805
N7380 X3.3266 Y0.1808
N7385 X3.3221 Y0.1811
N7390 X3.2863 Y0.1839
N7395 X3.2818 Y0.1842
N7400 X3.2773 Y0.1846
N7405 X3.2729 Y0.185
N7410 X3.237 Y0.1882
N7415 X3.2325 Y0.1886
N7420 X3.2281 Y0.189
N7425 X3.1877 Y0.1932
N7430 X3.1833 Y0.1937
N7435 X3.1788 Y0.1942
N7440 X3.1384 Y0.199
N7445 X3.134 Y0.1995
N7450 X3.1295 Y0.2001
N7455 X3.0892 Y0.2055
N7460 X3.0847 Y0.2061
N7465 X3.0802 Y0.2068
N7470 X3.0444 Y0.2121
N7475 X3.0399 Y0.2128
N7480 X3.0354 Y0.2135
N7485 X3.0309 Y0.2142
N7490 X2.9951 Y0.2201
N7495 X2.9906 Y0.2209
N7500 X2.9861 Y0.2216
N7505 X2.9816 Y0.2224
N7510 X2.9458 Y0.2289
N7515 X2.9413 Y0.2297
N7520 X2.9368 Y0.2306
N7525 X2.9323 Y0.2314
N7530 X2.8965 Y0.2385
N7535 X2.892 Y0.2394
N7540 X2.8875 Y0.2403
N7545 X2.8831 Y0.2412
N7550 X2.8472 Y0.2488
N7555 X2.8427 Y0.2498
N7560 X2.8382 Y0.2508
N7565 X2.8338 Y0.2518
N7570 X2.7979 Y0.26
N7575 X2.7934 Y0.261
N7580 X2.789 Y0.262
N7585 X2.7845 Y0.2631
N7590 X2.7454 Y0.2726
N7595 X2.7442 Y0.2729
N7600 X2.7397 Y0.274
N7605 X2.7352 Y0.2751
N7610 X2.6993 Y0.2844
N7615 X2.6949 Y0.2855
N7620 X2.6931 Y0.286
N7625 X2.6904 Y0.2867
N7630 X2.6501 Y0.2977
N7635 X2.6456 Y0.2989
N7640 X2.6437 Y0.2994
N7645 X2.6053 Y0.3103
N7650 X2.6008 Y0.3116
N7655 X2.5963 Y0.3129
N7660 X2.5605 Y0.3233
N7665 X2.556 Y0.3246
N7670 X2.5515 Y0.3259
N7675 X2.5156 Y0.3366
N7680 X2.5112 Y0.3379
N7685 X2.4798 Y0.3471
N7690 X2.4753 Y0.3484
N7695 X2.4746 Y0.3486
N7700 X2.4708 Y0.3497
N7705 X2.4664 Y0.351
N7710 X2.435 Y0.3599
N7715 X2.4305 Y0.3611
N7720 X2.3992 Y0.3694
N7725 X2.3947 Y0.3705
N7730 X2.3926 Y0.371
N7735 X2.3588 Y0.379
N7740 X2.3543 Y0.3799
N7745 X2.323 Y0.3861
N7750 X2.3185 Y0.3869
N7755 X2.314 Y0.3877
N7760 X2.3051 Y0.3892
N7765 X2.3006 Y0.3899
N7770 X2.2961 Y0.3906
N7775 X2.2827 Y0.3925
N7780 X2.2782 Y0.3931
N7785 X2.2647 Y0.3947
N7790 X2.2603 Y0.3952
N7795 X2.2468 Y0.3965
N7800 X2.2423 Y0.3969
N7805 X2.2289 Y0.3979
N7810 X2.2244 Y0.3982
N7815 X2.2199 Y0.3985
N7820 X2.211 Y0.3989
N7825 X2.2065 Y0.3991
N7830 X2.202 Y0.3993
N7835 X2.1886 Y0.3996
N7840 X2.1841 Y0.3997
N7845 X2.1706
N7850 X2.1662
N7855 X2.1617 Y0.3996
N7860 X2.1482 Y0.3993
N7865 X2.1438 Y0.3992
N7870 X2.1303 Y0.3986
N7875 X2.1258 Y0.3984
N7880 X2.1124 Y0.3976
N7885 X2.1079 Y0.3973
N7890 X2.0945 Y0.3962
N7895 X2.09 Y0.3959
N7900 X2.0855 Y0.3954
N7905 X2.0766 Y0.3945
N7910 X2.0721 Y0.3941
N7915 X2.0676 Y0.3936
N7920 X2.0586 Y0.3925
N7925 X2.0541 Y0.392
N7930 X2.0497 Y0.3914
N7935 X2.0362 Y0.3896
N7940 X2.0317 Y0.3889
N7945 X2.0183 Y0.3869
N7950 X2.0138 Y0.3861
N7955 X2.0041 Y0.3844
N7960 X2.0004 Y0.3838
N7965 X1.9869 Y0.3813
N7970 X1.9825 Y0.3804
N7975 X1.9735 Y0.3786
N7980 X1.969 Y0.3777
N7985 X1.9645 Y0.3767
N7990 X1.9556 Y0.3747
N7995 X1.9511 Y0.3737
N8000 X1.9396 Y0.371
N8005 X1.9377 Y0.3705
N8010 X1.9332 Y0.3694
N8015 X1.9287 Y0.3683
N8020 X1.9242 Y0.3671
N8025 X1.9153 Y0.3647
N8030 X1.9108 Y0.3635
N8035 X1.9018 Y0.361
N8040 X1.8973 Y0.3597
N8045 X1.8884 Y0.357
N8050 X1.8839 Y0.3556
N8055 X1.8794 Y0.3541
N8060 X1.8763 Y0.3531
N8065 X1.8749 Y0.3527
N8070 X1.8704 Y0.3512
N8075 X1.866 Y0.3497
N8080 X1.863 Y0.3486
N8085 X1.857 Y0.3466
N8090 X1.8525 Y0.345
N8095 X1.848 Y0.3433
N8100 X1.8436 Y0.3417
N8105 X1.8391 Y0.34
N8110 X1.8346 Y0.3383
N8115 X1.8301 Y0.3365
N8120 X1.8256 Y0.3348
N8125 X1.8212 Y0.333
N8130 X1.8167 Y0.3313
N8135 X1.8153 Y0.3308
N8140 X1.8122 Y0.3296
N8145 X1.8077 Y0.3279
N8150 X1.8032 Y0.3263
N8155 X1.7988 Y0.3248
N8160 X1.7943 Y0.3234
N8165 X1.7898 Y0.3223
N8170 X1.7878 Y0.3218
N8175 X1.7853 Y0.3213
N8180 X1.7808 Y0.3206
N8185 X1.7764 Y0.3201
N8190 X1.7719 Y0.32
N8195 X1.7674 Y0.3203
N8200 X1.7629 Y0.3207
N8205 X1.7584 Y0.3215
N8210 X1.7573 Y0.3218
N8215 X1.754 Y0.3226
N8220 X1.7495 Y0.3238
N8225 X1.745 Y0.3252
N8230 X1.7419 Y0.3263
N8235 X1.7405 Y0.3268
N8240 X1.736 Y0.3285
N8245 X1.7315 Y0.3303
N8250 X1.7271 Y0.3322
N8255 X1.7226 Y0.3342
N8260 X1.7203 Y0.3352
N8265 X1.7181 Y0.3362
N8270 X1.7136 Y0.3384
N8275 X1.7109 Y0.3397
N8280 X1.7047 Y0.3428
N8285 X1.7019 Y0.3442
N8290 X1.7002 Y0.3451
N8295 X1.6957 Y0.3474
N8300 X1.6933 Y0.3486
N8305 X1.6912 Y0.3498
N8310 X1.6867 Y0.3521
N8315 X1.6849 Y0.3531
N8320 X1.6778 Y0.357
N8325 X1.6766 Y0.3576
N8330 X1.6683 Y0.3621
N8335 X1.6599 Y0.3667
N8340 X1.6554 Y0.3691
N8345 X1.6509 Y0.3715
N8350 X1.6464 Y0.3739
N8355 X1.6375 Y0.3786
N8360 X1.6349 Y0.38
N8365 X1.6264 Y0.3844
N8370 X1.624 Y0.3857
N8375 X1.6151 Y0.3903
N8380 X1.6106 Y0.3926
N8385 X1.6001 Y0.3979
N8390 X1.5971 Y0.3993
N8395 X1.5882 Y0.4037
N8400 X1.5837 Y0.4059
N8405 X1.5747 Y0.4101
N8410 X1.5723 Y0.4113
N8415 X1.5702 Y0.4122
N8420 X1.5613 Y0.4163
N8425 X1.5568 Y0.4184
N8430 X1.5478 Y0.4223
N8435 X1.5434 Y0.4243
N8440 X1.5423 Y0.4247
N8445 X1.5299 Y0.4299
N8450 X1.5254 Y0.4317
N8455 X1.5165 Y0.4353
N8460 X1.512 Y0.4371
N8465 X1.5075 Y0.4388
N8470 X1.4986 Y0.4421
N8475 X1.4973 Y0.4426
N8480 X1.4941 Y0.4438
N8485 X1.4846 Y0.4471
N8490 X1.4806 Y0.4485
N8495 X1.4762 Y0.45
N8500 X1.4672 Y0.4529
N8505 X1.4627 Y0.4544
N8510 X1.4582 Y0.4557
N8515 X1.4493 Y0.4584
N8520 X1.4448 Y0.4597
N8525 X1.4314 Y0.4634
N8530 X1.4269 Y0.4646
N8535 X1.4134 Y0.468
N8540 X1.4089 Y0.469
N8545 X1.3955 Y0.472
N8550 X1.391 Y0.4729
N8555 X1.3776 Y0.4755
N8560 X1.3731 Y0.4763
N8565 X1.3686 Y0.4771
N8570 X1.3552 Y0.4792
N8575 X1.3507 Y0.4798
N8580 X1.3373 Y0.4816
N8585 X1.3328 Y0.4821
N8590 X1.3193 Y0.4834
N8595 X1.3149 Y0.4838
N8600 X1.3014 Y0.4847
N8605 X1.2969 Y0.485
N8610 X1.2925 Y0.4851
N8615 X1.279 Y0.4855
N8620 X1.2745 Y0.4856
N8625 X1.2611 Y0.4855
N8630 X1.2566
N8635 X1.2521 Y0.4853
N8640 X1.2387 Y0.4848
N8645 X1.2342 Y0.4845
N8650 X1.2208 Y0.4834
N8655 X1.2163 Y0.483
N8660 X1.2028 Y0.4815
N8665 X1.1984 Y0.481
N8670 X1.1939 Y0.4803
N8675 X1.1804 Y0.4783
N8680 X1.176 Y0.4775
N8685 X1.1625 Y0.4749
N8690 X1.158 Y0.474
N8695 X1.1446 Y0.4708
N8700 X1.1401 Y0.4698
N8705 X1.1389 Y0.4695
N8710 X1.1222 Y0.4648
N8715 X1.1177 Y0.4634
N8720 X1.1043 Y0.459
N8725 X1.0998 Y0.4575
N8730 X1.0839 Y0.4516
N8735 X1.0819 Y0.4507
N8740 X1.0684 Y0.4451
N8745 X1.0639 Y0.4431
N8750 X1.0505 Y0.4368
N8755 X1.046 Y0.4346
N8760 X1.0326 Y0.4276
N8765 X1.0281 Y0.4251
N8770 X1.0191 Y0.42
N8775 X1.0147 Y0.4174
N8780 X1.0121 Y0.4158
N8785 X1.0012 Y0.4089
N8790 X0.9979 Y0.4068
N8795 X0.9967 Y0.406
N8800 X0.985 Y0.3979
N8805 X0.9833 Y0.3967
N8810 X0.9789 Y0.3934
N8815 X0.9699 Y0.3865
N8820 X0.9672 Y0.3844
N8825 X0.9564 Y0.3755
N8830 X0.9519 Y0.3716
N8835 X0.9414 Y0.3621
N8840 X0.9385 Y0.3593
N8845 X0.9295 Y0.3505
N8850 X0.9276 Y0.3486
N8855 X0.925 Y0.3459
N8860 X0.9192 Y0.3397
N8865 X0.9161 Y0.3364
N8870 X0.915 Y0.3352
N8875 X0.9071 Y0.3261
N8880 X0.9034 Y0.3218
N8885 X0.8962 Y0.3129
N8890 X0.8937 Y0.3097
N8895 X0.8927 Y0.3084
N8900 X0.8847 Y0.2977
N8905 X0.8828 Y0.295
N8910 X0.8758 Y0.2847
N8915 X0.8736 Y0.2815
N8920 X0.8668 Y0.2707
N8925 X0.8652 Y0.2681
N8930 X0.8599 Y0.2592
N8935 X0.8578 Y0.2556
N8940 X0.8573 Y0.2547
N8945 X0.8525 Y0.2457
N8950 X0.8501 Y0.2413
N8955 X0.8489 Y0.239
N8960 X0.8444 Y0.2302
N8965 X0.8432 Y0.2278
N8970 X0.8411 Y0.2234
N8975 X0.8389 Y0.2189
N8980 X0.8368 Y0.2144
N8985 X0.8354 Y0.2114
N8990 X0.8328 Y0.2055
N8995 X0.831 Y0.2014
N9000 X0.8308 Y0.201
N9005 X0.8265 Y0.191
N9010 X0.825 Y0.1876
N9015 X0.822 Y0.1803
N9020 X0.8213 Y0.1786
N9025 X0.8195 Y0.1741
N9030 X0.8159 Y0.1652
N9035 X0.8141 Y0.1607
N9040 X0.8105 Y0.1518
N9045 X0.8086 Y0.147
N9050 X0.8069 Y0.1428
N9055 X0.8051 Y0.1384
N9060 X0.8014 Y0.1294
N9065 X0.7996 Y0.1251
N9070 X0.7976 Y0.1205
N9075 X0.7957 Y0.116
N9080 X0.7938 Y0.1115
N9085 X0.7918 Y0.107
N9090 X0.7897 Y0.1026
N9095 X0.7876 Y0.0981
N9100 X0.7861 Y0.0952
N9105 X0.7854 Y0.0936
N9110 X0.7831 Y0.0891
N9115 X0.7817 Y0.0866
N9120 X0.7806 Y0.0847
N9125 X0.778 Y0.0802
N9130 X0.7751 Y0.0757
N9135 X0.7727 Y0.0721
N9140 X0.7721 Y0.0712
N9145 X0.7689 Y0.0668
N9150 X0.7682 Y0.066
N9155 X0.7653 Y0.0623
N9160 X0.7637 Y0.0605
N9165 X0.7612 Y0.0578
N9170 X0.7593 Y0.0558
N9175 X0.7567 Y0.0533
N9180 X0.7548 Y0.0516
N9185 X0.7514 Y0.0489
N9190 X0.7503 Y0.048
N9195 X0.7458 Y0.0449
N9200 X0.745 Y0.0444
N9205 X0.7413 Y0.0423
N9210 X0.7369 Y0.0401
N9215 X0.7364 Y0.0399
N9220 X0.7324 Y0.0384
N9225 X0.7279 Y0.0371
N9230 X0.7234 Y0.0362
N9235 X0.7189 Y0.0355
N9240 X0.7175 Y0.0354
N9245 X0.7145
N9250 X0.7127
N9255 X0.71 Y0.0355
N9260 X0.7055 Y0.036
N9265 X0.701 Y0.0369
N9270 X0.6965 Y0.038
N9275 X0.6921 Y0.0395
N9280 X0.6908 Y0.0399
N9285 X0.6876 Y0.0413
N9290 X0.6831 Y0.0434
N9295 X0.6812 Y0.0444
N9300 X0.6786 Y0.0458
N9305 X0.6741 Y0.0487
N9310 X0.6738 Y0.0489
N9315 X0.6697 Y0.0518
N9320 X0.6676 Y0.0533
N9325 X0.6652 Y0.0552
N9330 X0.662 Y0.0578
N9335 X0.6607 Y0.0589
N9340 X0.6569 Y0.0623
N9345 X0.6562 Y0.0629
N9350 X0.6521 Y0.0668
N9355 X0.6517 Y0.0671
N9360 X0.6476 Y0.0712
N9365 X0.6473 Y0.0716
N9370 X0.6433 Y0.0757
N9375 X0.6428 Y0.0763
N9380 X0.6383 Y0.0811
N9385 X0.6352 Y0.0847
N9390 X0.6338 Y0.0863
N9395 X0.6313 Y0.0891
N9400 X0.6276 Y0.0936
N9405 X0.6248 Y0.0969
N9410 X0.6159 Y0.1078
N9415 X0.6129 Y0.1115
N9420 X0.6056 Y0.1205
N9425 X0.6024 Y0.1242
N9430 X0.5935 Y0.1349
N9435 X0.5906 Y0.1384
N9440 X0.589 Y0.1401
N9445 X0.5787 Y0.1518
N9450 X0.5756 Y0.1552
N9455 X0.5661 Y0.1652
N9460 X0.5621 Y0.1692
N9465 X0.5524 Y0.1786
N9470 X0.5487 Y0.1821
N9475 X0.5352 Y0.1939
N9480 X0.5321 Y0.1965
N9485 X0.5207 Y0.2055
N9490 X0.5173 Y0.2081
N9495 X0.5147 Y0.2099
N9500 X0.502 Y0.2189
N9505 X0.4994 Y0.2206
N9510 X0.486 Y0.229
N9515 X0.4815 Y0.2317
N9520 X0.468 Y0.2391
N9525 X0.4638 Y0.2413
N9530 X0.4501 Y0.2479
N9535 X0.4456 Y0.25
N9540 X0.4322 Y0.2558
N9545 X0.4277 Y0.2576
N9550 X0.4143 Y0.2627
N9555 X0.4117 Y0.2636
N9560 X0.4098 Y0.2643
N9565 X0.3963 Y0.2687
N9570 X0.3919 Y0.2701
N9575 X0.3784 Y0.2739
N9580 X0.3739 Y0.2751
N9585 X0.365 Y0.2774
N9590 X0.3605 Y0.2785
N9595 X0.356 Y0.2795
N9600 X0.3471 Y0.2816
N9605 X0.3426 Y0.2826
N9610 X0.3381 Y0.2836
N9615 X0.3336 Y0.2845
N9620 X0.3247 Y0.2865
N9625 X0.3202 Y0.2874
N9630 X0.3157 Y0.2884
N9635 X0.3112 Y0.2894
N9640 X0.3067 Y0.2905
N9645 X0.3022 Y0.2917
N9650 X0.2978 Y0.293
N9655 X0.2933 Y0.2943
N9660 X0.2914 Y0.295
N9665 X0.2888 Y0.2959
N9670 X0.2843 Y0.2976
N9675 X0.2804 Y0.2994
N9680 X0.2798 Y0.2997
N9685 X0.2754 Y0.3021
N9690 X0.2725 Y0.3039
N9695 X0.2709 Y0.305
N9700 X0.2688 Y0.3066
N9705 X0.2667 Y0.3084
N9710 X0.2664 Y0.3086
N9715 X0.2621 Y0.3129
N9720 X0.2619 Y0.3131
N9725 X0.2584 Y0.3173
N9730 X0.2574 Y0.3186
N9735 X0.2551 Y0.3218
N9740 X0.253 Y0.3251
N9745 X0.2523 Y0.3263
N9750 X0.2497 Y0.3308
N9755 X0.2485 Y0.3331
N9760 X0.2473 Y0.3352
N9765 X0.2452 Y0.3397
N9770 X0.244 Y0.3422
N9775 X0.2431 Y0.3442
N9780 X0.2412 Y0.3486
N9785 X0.2395 Y0.3528
N9790 X0.2394 Y0.3531
N9795 X0.2376 Y0.3576
N9800 X0.235 Y0.3646
N9805 X0.2343 Y0.3665
N9810 X0.2328 Y0.371
N9815 X0.2312 Y0.3755
N9820 X0.2306 Y0.3775
N9825 X0.2283 Y0.3844
N9830 X0.2269 Y0.3889
N9835 X0.2255 Y0.3934
N9840 X0.2241 Y0.3979
N9845 X0.2215 Y0.4068
N9850 X0.2202 Y0.4113
N9855 X0.2178 Y0.4202
N9860 X0.2171 Y0.4226
N9865 X0.2166 Y0.4247
N9870 X0.2142 Y0.4337
N9875 X0.213 Y0.4381
N9880 X0.2108 Y0.4471
N9885 X0.2097 Y0.4516
N9890 X0.2087 Y0.456
N9895 X0.2066 Y0.465
N9900 X0.2056 Y0.4695
N9905 X0.2028 Y0.4829
N9910 X0.2019 Y0.4874
N9915 X0.2002 Y0.4963
N9920 X0.1992 Y0.5014
N9925 X0.1985 Y0.5053
N9930 X0.1977 Y0.5097
N9935 X0.1954 Y0.5231
N9940 X0.1947 Y0.527
N9945 X0.1946 Y0.5276
N9950 X0.1919 Y0.5455
N9955 X0.1913 Y0.55
N9960 X0.1901 Y0.5589
N9965 X0.1896 Y0.5634
N9970 X0.189 Y0.5679
N9975 X0.1885 Y0.5724
N9980 X0.1881 Y0.5768
N9985 X0.1876 Y0.5813
N9990 X0.1871 Y0.5858
N9995 X0.1868 Y0.5903
N10000 X0.1864 Y0.5947
N10005 X0.186 Y0.5992
N10010 X0.1858 Y0.6025
N10015 X0.1857 Y0.6035
N10020 X0.1856 Y0.6045
N10025 X0.1855 Y0.6065
N10030 X0.1852 Y0.6104
N10035 X0.1847 Y0.6181 Z-0.0256
N10040 X0.1842 Y0.626 Z-0.0257
N10045 X0.1837 Y0.6337 Z-0.0258
N10050 X0.1833 Y0.6415 Z-0.026
N10055 X0.1829 Y0.6494 Z-0.0261
N10060 X0.1827 Y0.6533 Z-0.0262
N10065 X0.1825 Y0.6572 Z-0.0264
N10070 X0.1824 Y0.6611 Z-0.0265
N10075 X0.1823 Y0.665 Z-0.0266
N10080 X0.1821 Y0.6689 Z-0.0267
N10085 X0.182 Y0.6728 Z-0.0269
N10090 X0.1819 Y0.6767 Z-0.027
N10095 X0.1818 Y0.6806 Z-0.0271
N10100 X0.1817 Y0.6846 Z-0.0273
N10105 Y0.6885 Z-0.0274
N10110 X0.1816 Y0.6924 Z-0.0275
N10115 Y0.6963 Z-0.0277
N10120 Y0.7002 Z-0.0278
N10125 Y0.7041 Z-0.0279
N10130 Y0.7081 Z-0.0281
N10135 Y0.712 Z-0.0282
N10140 X0.1817 Y0.7159 Z-0.0284
N10145 Y0.7198 Z-0.0285
N10150 X0.1818 Y0.7237 Z-0.0286
N10155 X0.1819 Y0.7277 Z-0.0288
N10160 X0.1821 Y0.7355 Z-0.029
N10165 X0.1822 Y0.7394 Z-0.0292
N10170 X0.1824 Y0.7434 Z-0.0293
N10175 X0.1825 Y0.7473 Z-0.0295
N10180 X0.1829 Y0.7551 Z-0.0297
N10185 X0.1831 Y0.7591 Z-0.0299
N10190 X0.1833 Y0.763 Z-0.03
N10195 X0.1836 Y0.7669 Z-0.0301
N10200 X0.1838 Y0.7708 Z-0.0303
N10205 X0.1841 Y0.7747 Z-0.0304
N10210 X0.1843 Y0.7787 Z-0.0306
N10215 X0.1846 Y0.7826 Z-0.0307
N10220 X0.1849 Y0.7865 Z-0.0308
N10225 X0.1852 Y0.7904 Z-0.031
N10230 X0.1856 Y0.7943 Z-0.0311
N10235 X0.1859 Y0.7983 Z-0.0312
N10240 X0.1863 Y0.8022 Z-0.0314
N10245 X0.1866 Y0.8061 Z-0.0315
N10250 X0.187 Y0.81 Z-0.0316
N10255 X0.1874 Y0.8139 Z-0.0318
N10260 X0.1878 Y0.8179 Z-0.0319
N10265 X0.1882 Y0.8218 Z-0.032
N10270 X0.1887 Y0.8257 Z-0.0321
N10275 X0.1892 Y0.8296 Z-0.0323
N10280 X0.1896 Y0.8335 Z-0.0324
N10285 X0.1901 Y0.8374 Z-0.0325
N10290 X0.1912 Y0.8452 Z-0.0326
N10295 X0.1924 Y0.853 Z-0.0328
N10300 X0.1936 Y0.8608 Z-0.0329
N10305 X0.1948 Y0.8685 Z-0.033
N10310 X0.1962 Y0.8763
N10315 X0.1965 Y0.878
N10320 X0.1967 Y0.8793
N10325 X0.1968 Y0.8796
N10330 Y0.8797
N10335 X0.1971 Y0.8811
N10340 X0.1992 Y0.8923
N10345 X0.1996 Y0.8945
N10350 X0.2014 Y0.9035
N10355 X0.2023 Y0.9079
N10360 X0.2042 Y0.9169
N10365 X0.2051 Y0.9214
N10370 X0.2071 Y0.9303
N10375 X0.208 Y0.9348
N10380 X0.2101 Y0.9437
N10385 X0.2111 Y0.9482
N10390 X0.2131 Y0.9572
N10395 X0.2141 Y0.9616
N10400 X0.2174 Y0.9751
N10405 X0.2207 Y0.9885
N10410 X0.2216 Y0.9923
N10415 X0.224 Y1.0019
N10420 X0.2252 Y1.0064
N10425 X0.2275 Y1.0153
N10430 X0.2287 Y1.0198
N10435 X0.2322 Y1.0332
N10440 X0.2335 Y1.0377
N10445 X0.2359 Y1.0466
N10450 X0.2372 Y1.0511
N10455 X0.2396 Y1.0601
N10460 X0.2409 Y1.0645
N10465 X0.2447 Y1.078
N10470 X0.246 Y1.0824
N10475 X0.2486 Y1.0914
N10480 X0.2499 Y1.0959
N10485 X0.2578 Y1.1227
N10490 X0.2591 Y1.1272
N10495 X0.2619 Y1.1366
N10500 X0.2631 Y1.1406
N10505 X0.2714 Y1.1675
N10510 X0.2728 Y1.1719
N10515 X0.2908 Y1.2301
N10520 X0.2923 Y1.2346
N10525 X0.2951 Y1.2435
N10530 X0.2965 Y1.248
N10535 X0.2993 Y1.2569
N10540 X0.3006 Y1.2614
N10545 X0.3048 Y1.2748
N10550 X0.3062 Y1.2793
N10555 X0.309 Y1.2883
N10560 X0.3103 Y1.2927
N10565 X0.313 Y1.3017
N10570 X0.3144 Y1.3062
N10575 X0.3171 Y1.3151
N10580 X0.3184 Y1.3196
N10585 X0.3202 Y1.3255
N10590 X0.3211 Y1.3285
N10595 X0.3249 Y1.342
N10600 X0.3262 Y1.3464
N10605 X0.3278 Y1.3509
N10610 X0.3291 Y1.3542
N10615 X0.3297 Y1.3554
N10620 X0.3322 Y1.3599
N10625 X0.3336 Y1.362
N10630 X0.3353 Y1.3643
N10635 X0.3381 Y1.3677
N10640 X0.3391 Y1.3688
N10645 X0.3426 Y1.3722
N10650 X0.3439 Y1.3733
N10655 X0.3471 Y1.3757
N10660 X0.3502 Y1.3778
N10665 X0.3515 Y1.3786
N10670 X0.356 Y1.3808
N10675 X0.3593 Y1.3822
N10680 X0.3605 Y1.3826
N10685 X0.365 Y1.384
N10690 X0.3695 Y1.3849
N10695 X0.3739 Y1.3855
N10700 X0.3784 Y1.3857
N10705 X0.3829 Y1.3855
N10710 X0.3874 Y1.3851
N10715 X0.4277 Y1.3817
N10720 X0.4322 Y1.3813
N10725 X0.4456 Y1.3803
N10730 X0.4501 Y1.3799
N10735 X0.468 Y1.3785
N10740 X0.4725 Y1.3782
N10745 X0.4904 Y1.3769
N10750 X0.4949 Y1.3765
N10755 X0.5128 Y1.3753
N10760 X0.5173 Y1.375
N10765 X0.5352 Y1.3737
N10770 X0.5397 Y1.3735
N10775 X0.5532 Y1.3726
N10780 X0.5576 Y1.3723
N10785 X0.5756 Y1.3712
N10790 X0.58 Y1.371
N10795 X0.5935 Y1.3702
N10800 X0.598 Y1.37
N10805 X0.6159 Y1.369
N10810 X0.6193 Y1.3688
N10815 X0.6338 Y1.3681
N10820 X0.6383 Y1.3678
N10825 X0.6562 Y1.367
N10830 X0.6607 Y1.3668
N10835 X0.6741 Y1.3662
N10840 X0.6786 Y1.366
N10845 X0.6921 Y1.3655
N10850 X0.6965 Y1.3653
N10855 X0.71 Y1.3648
N10860 X0.7145 Y1.3646
N10865 X0.7324 Y1.364
N10870 X0.7369 Y1.3639
N10875 X0.7503 Y1.3634
N10880 X0.7548 Y1.3633
N10885 X0.7682 Y1.3629
N10890 X0.7727 Y1.3628
N10895 X0.7861 Y1.3625
N10900 X0.7906 Y1.3624
N10905 X0.8041 Y1.3621
N10910 X0.8086 Y1.362
N10915 X0.822 Y1.3618
N10920 X0.831 Y1.3616
N10925 X0.8399 Y1.3615
N10930 X0.8444 Y1.3614
N10935 X0.8578 Y1.3613
N10940 X0.8623 Y1.3612
N10945 X0.8758 Y1.3611
N10950 X0.8802
N10955 X0.8892 Y1.361
N10960 X0.8937
N10965 X0.9071
N10970 X0.9116
N10975 X0.925
N10980 X0.9295
N10985 X0.943
N10990 X0.9564 Y1.3611
N10995 X0.9609
N11000 X0.9743 Y1.3613
N11005 X0.9788
N11010 X0.9923 Y1.3615
N11015 X0.9967
N11020 X1.0057 Y1.3617
N11025 X1.0102 Y1.3618
N11030 X1.0236 Y1.362
N11035 X1.0281 Y1.3621
N11040 X1.0371 Y1.3623
N11045 X1.0415 Y1.3624
N11050 X1.055 Y1.3627
N11055 X1.0684 Y1.363
N11060 X1.0729 Y1.3632
N11065 X1.0863 Y1.3635
N11070 X1.0953 Y1.3638
N11075 X1.0998 Y1.364
N11080 X1.1102 Y1.3643
N11085 X1.1132 Y1.3644
N11090 X1.1401 Y1.3654
N11095 X1.1446 Y1.3656
N11100 X1.1491 Y1.3658
N11105 X1.1536 Y1.3659
N11110 X1.1625 Y1.3663
N11115 X1.167 Y1.3665
N11120 X1.1939 Y1.3677
N11125 X1.1984 Y1.368
N11130 X1.2163 Y1.3689
N11135 X1.2208 Y1.3691
N11140 X1.2432 Y1.3703
N11145 X1.2476 Y1.3705
N11150 X1.2656 Y1.3716
N11155 X1.2701 Y1.3718
N11160 X1.2943 Y1.3733
N11165 X1.2969 Y1.3734
N11170 X1.3193 Y1.3749
N11175 X1.3462 Y1.3767
N11180 X1.3507 Y1.377
N11185 X1.391 Y1.3799
N11190 X1.3955 Y1.3802
N11195 X1.4179 Y1.3819
N11200 X1.4224 Y1.3823
N11205 X1.4403 Y1.3837
N11210 X1.4448 Y1.384
N11215 X1.4672 Y1.3858
N11220 X1.4851 Y1.3873
N11225 X1.4896 Y1.3876
N11230 X1.512 Y1.3895
N11235 X1.5165 Y1.3899
N11240 X1.5316 Y1.3912
N11245 X1.5344 Y1.3914
N11250 X1.5568 Y1.3934
N11255 X1.5613 Y1.3937
N11260 X1.5747 Y1.3949
N11265 X1.5792 Y1.3953
N11270 X1.6016 Y1.3973
N11275 X1.6195 Y1.3989
N11280 X1.624 Y1.3993
N11285 X1.6419 Y1.4009
N11290 X1.6464 Y1.4013
N11295 X1.6643 Y1.4029
N11300 X1.6957 Y1.4058
N11305 X1.7047 Y1.4066
N11310 X1.7091 Y1.407
N11315 X1.7271 Y1.4086
N11320 X1.7315 Y1.409
N11325 X1.7495 Y1.4106
N11330 X1.7674 Y1.4122
N11335 X1.7719 Y1.4126
N11340 X1.7898 Y1.4142
N11345 X1.8077 Y1.4157
N11350 X1.8122 Y1.4161
N11355 X1.8301 Y1.4177
N11360 X1.848 Y1.4192
N11365 X1.8525 Y1.4196
N11370 X1.8704 Y1.4211
N11375 X1.8884 Y1.4226
N11380 X1.8928 Y1.4229
N11385 X1.9153 Y1.4247
N11390 X1.9287 Y1.4258
N11395 X1.9332 Y1.4262
N11400 X1.9511 Y1.4275
N11405 X1.9556 Y1.4279
N11410 X1.969 Y1.4289
N11415 X1.9735 Y1.4292
N11420 X1.9869 Y1.4302
N11425 X1.9914 Y1.4305
N11430 X2.0049 Y1.4315
N11435 X2.0093 Y1.4318
N11440 X2.0273 Y1.433
N11445 X2.0317 Y1.4333
N11450 X2.0452 Y1.4342
N11455 X2.0497 Y1.4345
N11460 X2.0631 Y1.4353
N11465 X2.0676 Y1.4356
N11470 X2.081 Y1.4364
N11475 X2.0855 Y1.4367
N11480 X2.1034 Y1.4377
N11485 X2.1169 Y1.4384
N11490 X2.1214 Y1.4387
N11495 X2.1393 Y1.4396
N11500 X2.1438 Y1.4398
N11505 X2.1561 Y1.4404
N11510 X2.1572
N11515 X2.1751 Y1.4413
N11520 X2.1796 Y1.4414
N11525 X2.193 Y1.442
N11530 X2.1975 Y1.4421
N11535 X2.2154 Y1.4428
N11540 X2.2199 Y1.443
N11545 X2.2334 Y1.4434
N11550 X2.2379 Y1.4436
N11555 X2.2558 Y1.4441
N11560 X2.2603 Y1.4442
N11565 X2.2737 Y1.4445
N11570 X2.2782 Y1.4447
N11575 X2.2916 Y1.4449
N11580 X2.2961 Y1.445
N11585 X2.314 Y1.4453
N11590 X2.3185 Y1.4454
N11595 X2.3319 Y1.4455
N11600 X2.3364 Y1.4456
N11605 X2.3499
N11610 X2.3543 Y1.4457
N11615 X2.3723
N11620 X2.3767
N11625 X2.3902
N11630 X2.3947
N11635 X2.4126 Y1.4455
N11640 X2.4171
N11645 X2.4305 Y1.4454
N11650 X2.435 Y1.4453
N11655 X2.444 Y1.4451
N11660 X2.4484 Y1.445
N11665 X2.4664 Y1.4447
N11670 X2.4708 Y1.4446
N11675 X2.4843 Y1.4442
N11680 X2.4888 Y1.4441
N11685 X2.5067 Y1.4435
N11690 X2.5201 Y1.443
N11695 X2.5246 Y1.4429
N11700 X2.556 Y1.4415
N11705 X2.5739 Y1.4407
N11710 X2.5784 Y1.4404
N11715 X2.6008 Y1.4391
N11720 X2.6053 Y1.4389
N11725 X2.6321 Y1.4373
N11730 X2.6366 Y1.4369
N11735 X2.6545 Y1.4356
N11740 X2.659 Y1.4353
N11745 X2.6859 Y1.4333
N11750 X2.6904 Y1.433
N11755 X2.7173 Y1.4307
N11760 X2.7307 Y1.4295
N11765 X2.7397 Y1.4287
N11770 X2.7442 Y1.4283
N11775 X2.771 Y1.4257
N11780 X2.7755 Y1.4252
N11785 X2.7934 Y1.4234
N11790 X2.7979 Y1.423
N11795 X2.8248 Y1.42
N11800 X2.8293 Y1.4195
N11805 X2.8472 Y1.4175
N11810 X2.8517 Y1.417
N11815 X2.8786 Y1.4138
N11820 X2.8804 Y1.4135
N11825 X2.901 Y1.411
N11830 X2.9055 Y1.4105
N11835 X2.9323 Y1.4069
N11840 X2.9547 Y1.404
N11845 X2.9592 Y1.4034
N11850 X2.9824 Y1.4001
N11855 X2.9861 Y1.3996
N11860 X3.004 Y1.3971
N11865 X3.0085 Y1.3964
N11870 X3.0354 Y1.3925
N11875 X3.0578 Y1.3891
N11880 X3.0623 Y1.3885
N11885 X3.0847 Y1.385
N11890 X3.0892 Y1.3843
N11895 X3.1071 Y1.3815
N11900 X3.1116 Y1.3808
N11905 X3.134 Y1.3772
N11910 X3.1384 Y1.3765
N11915 X3.1581 Y1.3733
N11920 X3.1608 Y1.3728
N11925 X3.1848 Y1.3688
N11930 X3.1877 Y1.3683
N11935 X3.2101 Y1.3645
N11940 X3.2146 Y1.3637
N11945 X3.237 Y1.3598
N11950 X3.2415 Y1.359
N11955 X3.2594 Y1.3558
N11960 X3.2615 Y1.3554
N11965 X3.2863 Y1.3508
N11970 X3.2908 Y1.35
N11975 X3.3087 Y1.3466
N11980 X3.3099 Y1.3464
N11985 X3.3356 Y1.3415
N11990 X3.3401 Y1.3406
N11995 X3.358 Y1.3371
N12000 X3.3625 Y1.3362
N12005 X3.3849 Y1.3317
N12010 X3.3894 Y1.3308
N12015 X3.4073 Y1.3271
N12020 X3.4118 Y1.3262
N12025 X3.4342 Y1.3215
N12030 X3.4386 Y1.3205
N12035 X3.4566 Y1.3166
N12040 X3.461 Y1.3156
N12045 X3.4834 Y1.3106
N12050 X3.4879 Y1.3096
N12055 X3.5103 Y1.3044
N12060 X3.5148 Y1.3033
N12065 X3.5372 Y1.2981
N12070 X3.5408 Y1.2972
N12075 X3.5641 Y1.2914
N12080 X3.5686 Y1.2903
N12085 X3.5865 Y1.2858
N12090 X3.591 Y1.2847
N12095 X3.6134 Y1.2788
N12100 X3.6179 Y1.2776
N12105 X3.6403 Y1.2716
N12110 X3.6446 Y1.2704
N12115 X3.6627 Y1.2653
N12120 X3.6672 Y1.264
N12125 X3.6896 Y1.2576
N12130 X3.6917 Y1.2569
N12135 X3.7164 Y1.2496
N12140 X3.7209 Y1.2482
N12145 X3.7388 Y1.2426
N12150 X3.7433 Y1.2412
N12155 X3.7657 Y1.2341
N12160 X3.7702 Y1.2326
N12165 X3.7881 Y1.2266
N12170 X3.791 Y1.2256
N12175 X3.815 Y1.2175
N12180 X3.8173 Y1.2167
N12185 X3.8374 Y1.2094
N12190 X3.8422 Y1.2077
N12195 X3.8598 Y1.2014
N12200 X3.8643 Y1.1997
N12205 X3.8867 Y1.1911
N12210 X3.8901 Y1.1898
N12215 X3.9091 Y1.1824
N12220 X3.913 Y1.1809
N12225 X3.9315 Y1.1734
N12230 X3.935 Y1.1719
N12235 X3.9564 Y1.163
N12240 X3.9584 Y1.1622
N12245 X3.9772 Y1.154
N12250 X3.9808 Y1.1525
N12255 X3.9853 Y1.1505
N12260 X3.9987 Y1.1445
N12265 X4.0032 Y1.1425
N12270 X4.0256 Y1.1323
N12275 X4.0269 Y1.1317
N12280 X4.0457 Y1.1227
N12285 X4.048 Y1.1216
N12290 X4.0659 Y1.113
N12295 X4.0704 Y1.1109
N12300 X4.0735 Y1.1093
N12305 X4.0928 Y1.0995
N12310 X4.1107 Y1.0905
N12315 X4.1152 Y1.0882
N12320 X4.1344 Y1.078
N12325 X4.1376 Y1.0762
N12330 X4.1555 Y1.0666
N12335 X4.1592 Y1.0645
N12340 X4.1753 Y1.0556
N12345 X4.1779 Y1.0541
N12350 X4.1959 Y1.0439
N12355 X4.1988 Y1.0422
N12360 X4.2142 Y1.0332
N12365 X4.2183 Y1.0308
N12370 X4.2366 Y1.0198
N12375 X4.2407 Y1.0173
N12380 X4.2541 Y1.0091
N12385 X4.2586 Y1.0064
N12390 X4.2675 Y1.0008
N12395 X4.272 Y0.998
N12400 X4.2869 Y0.9885
N12405 X4.2899 Y0.9866
N12410 X4.2989 Y0.9808
N12415 X4.3008 Y0.9795
N12420 X4.3279 Y0.9616
N12425 X4.3303 Y0.96
N12430 X4.3392 Y0.954
N12435 X4.3411 Y0.9527
N12440 X4.3572 Y0.9416
N12445 X4.3606 Y0.9393
N12450 X4.367 Y0.9348
N12455 X4.3706 Y0.9322
N12460 X4.3859 Y0.9214
N12465 X4.393 Y0.9163
N12470 X4.3975 Y0.913
N12475 X4.4044 Y0.9079
N12480 X4.4064 Y0.9064
N12485 X4.4226 Y0.8945
N12490 X4.4244 Y0.8932
N12495 X4.4288 Y0.8898
N12500 X4.4333 Y0.8865
N12505 X4.4468 Y0.8762
N12510 X4.4512 Y0.8728
N12515 X4.4579 Y0.8677
N12520 X4.4602 Y0.8658
N12525 X4.4737 Y0.8552
N12530 X4.4749 Y0.8543
N12535 X4.4826 Y0.8482
N12540 X4.4862 Y0.8453
N12545 X4.4917 Y0.8408
N12550 X4.4961 Y0.8373
N12555 X4.505 Y0.83
N12560 X4.5082 Y0.8274
N12565 X4.514 Y0.8226
N12570 X4.5185 Y0.8189
N12575 X4.5296 Y0.8095
N12580 X4.5319 Y0.8076
N12585 X4.5364 Y0.8038
N12590 X4.5401 Y0.8006
N12595 X4.5453 Y0.796
N12600 X4.5498 Y0.7922
N12605 X4.5607 Y0.7827
N12610 X4.5633 Y0.7804
N12615 X4.5677 Y0.7764
N12620 X4.5708 Y0.7737
N12625 X4.5812 Y0.7643
N12630 X4.5857 Y0.7603
N12635 X4.5901 Y0.7562
N12640 X4.6001 Y0.7469
N12645 X4.6036 Y0.7436
N12650 X4.6097 Y0.7379
N12655 X4.6125 Y0.7352
N12660 X4.617 Y0.7309
N12665 X4.619 Y0.729
N12670 X4.6283 Y0.72
N12675 X4.6305 Y0.7179
N12680 X4.635 Y0.7134
N12685 X4.6373 Y0.7111
N12690 X4.6463 Y0.7021
N12695 X4.6484 Y0.7
N12700 X4.6529 Y0.6954
N12705 X4.6551 Y0.6932
N12710 X4.6637 Y0.6842
N12715 X4.6663 Y0.6815
N12720 X4.6708 Y0.6768
N12725 X4.6722 Y0.6753
N12730 X4.6805 Y0.6663
N12735 X4.6842 Y0.6622
N12740 X4.6846 Y0.6619
N12745 X4.6887 Y0.6574
N12750 X4.6932 Y0.6523
N12755 X4.6966 Y0.6484
N12760 X4.7022 Y0.6421
N12765 X4.7044 Y0.6395
N12770 X4.7083 Y0.635
N12775 X4.7111 Y0.6316
N12780 X4.7158 Y0.6261
N12785 X4.7195 Y0.6216
N12790 X4.7201 Y0.6209
N12795 X4.7232 Y0.6171
N12800 X4.7303 Y0.6082
N12805 X4.7338 Y0.6037
N12810 X4.7373 Y0.5992
N12815 X4.7425 Y0.5923
N12820 X4.747 Y0.5863
N12825 X4.7474 Y0.5858
N12830 X4.7506 Y0.5813
N12835 X4.7514 Y0.5801
N12840 X4.7537 Y0.5768
N12845 X4.7569 Y0.5724
N12850 X4.76 Y0.5679
N12855 X4.7604 Y0.5673
N12860 X4.763 Y0.5634
N12865 X4.7659 Y0.5589
N12870 X4.7689 Y0.5545
N12875 X4.7717 Y0.55
N12880 X4.7739 Y0.5465
N12885 X4.7772 Y0.541
N12890 X4.7783 Y0.5391
N12895 X4.7798 Y0.5366
N12900 X4.7824 Y0.5321
N12905 X4.7849 Y0.5276
N12910 X4.7874 Y0.5231
N12915 X4.7898 Y0.5187
N12920 X4.7918 Y0.5147
N12925 X4.7943 Y0.5097
N12930 X4.7963 Y0.5057
N12935 X4.7965 Y0.5053
N12940 X4.7985 Y0.5008
N12945 X4.8007 Y0.4958
N12950 X4.8025 Y0.4918
N12955 X4.8044 Y0.4874
N12960 X4.8052 Y0.4852
N12965 X4.8061 Y0.4829
N12970 X4.8078 Y0.4784
N12975 X4.8095 Y0.4739
N12980 X4.8097 Y0.4732
N12985 X4.8109 Y0.4695
N12990 X4.8124 Y0.465
N12995 X4.8138 Y0.4605
N13000 X4.8142 Y0.4593
N13005 X4.8151 Y0.456
N13010 X4.8163 Y0.4516
N13015 X4.8174 Y0.4471
N13020 X4.8184 Y0.4426
N13025 X4.8194 Y0.4381
N13030 X4.8202 Y0.4337
N13035 X4.821 Y0.4292
N13040 X4.8217 Y0.4247
N13045 X4.8223 Y0.4202
N13050 X4.8228 Y0.4158
N13055 X4.8231 Y0.412
N13060 X4.8232 Y0.4113
N13065 X4.8236 Y0.4068
N13070 X4.8238 Y0.4023
N13075 X4.824 Y0.3979
N13080 X4.8241 Y0.3934
N13085 Y0.3889
N13090 X4.8239 Y0.3844
N13095 X4.8238 Y0.38
N13100 X4.8235 Y0.3755
N13105 X4.8231 Y0.371
N13110 X4.8227 Y0.3665
N13115 X4.8222 Y0.3621
N13120 X4.8216 Y0.3576
N13125 X4.8209 Y0.3531
N13130 X4.8202 Y0.3486
N13135 X4.8193 Y0.3442
N13140 X4.8187 Y0.3409
N13145 X4.8174 Y0.3352
N13150 X4.8163 Y0.3308
N13155 X4.8153 Y0.3263
N13160 X4.814 Y0.3218
N13165 X4.8127 Y0.3173
N13170 X4.8114 Y0.3129
N13175 X4.81 Y0.3084
N13180 X4.8097 Y0.3075
N13185 X4.8085 Y0.3039
N13190 X4.8069 Y0.2994
N13195 X4.8053 Y0.295
N13200 X4.8037 Y0.2905
N13205 X4.802 Y0.286
N13210 X4.8007 Y0.2829
N13215 X4.8002 Y0.2815
N13220 X4.7983 Y0.2771
N13225 X4.7964 Y0.2726
N13230 X4.7944 Y0.2681
N13235 X4.7924 Y0.2636
N13240 X4.7902 Y0.2592
N13245 X4.7859 Y0.2502
N13250 X4.7836 Y0.2457
N13255 X4.7828 Y0.2442
N13260 X4.7813 Y0.2413
N13265 X4.7763 Y0.2323
N13270 X4.7739 Y0.2281
N13275 X4.7694 Y0.2203
N13280 X4.7685 Y0.2189
N13285 X4.7657 Y0.2144
N13290 X4.7629 Y0.2099
N13295 X4.7604 Y0.2061
N13300 X4.7541 Y0.1965
N13305 X4.7514 Y0.1928
N13310 X4.747 Y0.1865
N13315 X4.7445 Y0.1831
N13320 X4.7425 Y0.1803
N13325 X4.7412 Y0.1786
N13330 X4.7377 Y0.1741
N13335 X4.7342 Y0.1697
N13340 X4.7335 Y0.1688
N13345 X4.7306 Y0.1652
N13350 X4.7268 Y0.1607
N13355 X4.7246 Y0.158
N13360 X4.723 Y0.1563
N13365 X4.7201 Y0.153
N13370 X4.7156 Y0.148
N13375 X4.715 Y0.1473
N13380 X4.7111 Y0.1432
N13385 X4.7107 Y0.1428
N13390 X4.7065 Y0.1384
N13395 X4.7022 Y0.1341
N13400 X4.702 Y0.1339
N13405 X4.6977 Y0.1297
N13410 X4.6974 Y0.1294
N13415 X4.6932 Y0.1255
N13420 X4.6926 Y0.1249
N13425 X4.6887 Y0.1214
N13430 X4.6877 Y0.1205
N13435 X4.6842 Y0.1174
N13440 X4.6825 Y0.116
N13445 X4.6798 Y0.1136
N13450 X4.6772 Y0.1115
N13455 X4.6753 Y0.1099
N13460 X4.6717 Y0.107
N13465 X4.6708 Y0.1063
N13470 X4.6663 Y0.1028
N13475 X4.666 Y0.1026
N13480 X4.6618 Y0.0995
N13485 X4.6599 Y0.0981
N13490 X4.6574 Y0.0962
N13495 X4.6536 Y0.0936
N13500 X4.6529 Y0.0931
N13505 X4.6484 Y0.0901
N13510 X4.6439 Y0.0871
N13515 X4.64 Y0.0847
N13520 X4.6394 Y0.0843
N13525 X4.635 Y0.0816
N13530 X4.6326 Y0.0802
N13535 X4.6305 Y0.0789
N13540 X4.626 Y0.0763
N13545 X4.6249 Y0.0757
N13550 X4.6215 Y0.0739
N13555 X4.617 Y0.0715
N13560 X4.6166 Y0.0712
N13565 X4.6125 Y0.0692
N13570 X4.6081 Y0.0669
N13575 X4.6036 Y0.0647
N13580 X4.5991 Y0.0627
N13585 X4.5983 Y0.0623
N13590 X4.5946 Y0.0606
N13595 X4.5901 Y0.0587
N13600 X4.5857 Y0.0568
N13605 X4.5812 Y0.055
N13610 X4.577 Y0.0533
N13615 X4.5767 Y0.0532
N13620 X4.5722 Y0.0516
N13625 X4.5633 Y0.0484
N13630 X4.5588 Y0.0468
N13635 X4.5543 Y0.0454
N13640 X4.5498 Y0.0441
N13645 X4.5453 Y0.0428
N13650 X4.5364 Y0.0402
N13655 X4.5355 Y0.0399
N13660 X4.5319 Y0.039
N13665 X4.5274 Y0.038
N13670 X4.5229 Y0.0369
N13675 X4.514 Y0.0348
N13680 X4.5095 Y0.0339
N13685 X4.505 Y0.0331
N13690 X4.5005 Y0.0322
N13695 X4.4961 Y0.0314
N13700 X4.4934 Y0.031
N13705 X4.4916 Y0.0307
N13710 X4.4871 Y0.03
N13715 X4.4826 Y0.0294
N13720 X4.4781 Y0.0288
N13725 X4.4737 Y0.0282
N13730 X4.4692 Y0.0278
N13735 X4.4647 Y0.0273
N13740 X4.4602 Y0.0269
N13745 X4.4548 Y0.0265
N13750 X4.4512 Y0.0262
N13755 X4.4468 Y0.026
N13760 X4.4423 Y0.0258
N13765 X4.4378 Y0.0257
N13770 X4.4333
N13775 X4.4288
N13780 X4.4244
N13785 X4.4199 Y0.0259
N13790 X4.4154 Y0.0262
N13795 X4.4113 Y0.0265
N13800 X4.4109
N13805 X4.4064 Y0.027
N13810 X4.402 Y0.0276
N13815 X4.3975 Y0.0283
N13820 X4.393 Y0.0291
N13825 X4.3885 Y0.0302
N13830 X4.3858 Y0.031
N13835 X4.384 Y0.0315
N13840 X4.3796 Y0.033
N13845 X4.3751 Y0.0349
N13850 X4.3738 Y0.0354
N13855 X4.3706 Y0.037
N13860 X4.3661 Y0.0394
N13865 X4.3652 Y0.0399
N13870 X4.3616 Y0.0421
N13875 X4.3582 Y0.0444
N13880 X4.3572 Y0.0451
N13885 X4.3527 Y0.0484
N13890 X4.3521 Y0.0489
N13895 X4.3482 Y0.0519
N13900 X4.3464 Y0.0533
N13905 X4.3437 Y0.0556
N13910 X4.341 Y0.0578
N13915 X4.3392 Y0.0593
N13920 X4.3358 Y0.0623
N13925 X4.3348 Y0.0632
N13930 X4.3307 Y0.0668
N13935 X4.3303 Y0.0671
N13940 X4.3256 Y0.0712
N13945 X4.3213 Y0.075
N13950 X4.3205 Y0.0757
N13955 X4.3168 Y0.0788
N13960 X4.3153 Y0.0802
N13965 X4.3124 Y0.0827
N13970 X4.31 Y0.0847
N13975 X4.3079 Y0.0865
N13980 X4.3047 Y0.0891
N13985 X4.3034 Y0.0902
N13990 X4.2992 Y0.0936
N13995 X4.2989 Y0.0938
N14000 X4.2944 Y0.0974
N14005 X4.2936 Y0.0981
N14010 X4.2899 Y0.101
N14015 X4.2879 Y0.1026
N14020 X4.2855 Y0.1044
N14025 X4.282 Y0.107
N14030 X4.281 Y0.1078
N14035 X4.2765 Y0.1112
N14040 X4.276 Y0.1115
N14045 X4.272 Y0.1144
N14050 X4.2698 Y0.116
N14055 X4.2675 Y0.1176
N14060 X4.2635 Y0.1205
N14065 X4.2631 Y0.1207
N14070 X4.2586 Y0.1238
N14075 X4.2569 Y0.1249
N14080 X4.2541 Y0.1268
N14085 X4.2496 Y0.1297
N14090 X4.2451 Y0.1325
N14095 X4.2407 Y0.1354
N14100 X4.2362 Y0.138
N14105 X4.2356 Y0.1384
N14110 X4.2317 Y0.1407
N14115 X4.228 Y0.1428
N14120 X4.2272 Y0.1433
N14125 X4.2227 Y0.1458
N14130 X4.22 Y0.1473
N14135 X4.2183 Y0.1482
N14140 X4.2138 Y0.1506
N14145 X4.2115 Y0.1518
N14150 X4.2093 Y0.1529
N14155 X4.2048 Y0.1551
N14160 X4.2025 Y0.1563
N14165 X4.2003 Y0.1573
N14170 X4.1959 Y0.1594
N14175 X4.1914 Y0.1614
N14180 X4.1869 Y0.1634
N14185 X4.1826 Y0.1652
N14190 X4.1779 Y0.1671
N14195 X4.1735 Y0.1688
N14200 X4.1713 Y0.1697
N14205 X4.169 Y0.1705
N14210 X4.1645 Y0.1722
N14215 X4.16 Y0.1737
N14220 X4.1587 Y0.1741
N14225 X4.1555 Y0.1752
N14230 X4.1511 Y0.1766
N14235 X4.1466 Y0.178
N14240 X4.1445 Y0.1786
N14245 X4.1421 Y0.1793
N14250 X4.1376 Y0.1806
N14255 X4.1331 Y0.1818
N14260 X4.1286 Y0.1829
N14265 X4.1278 Y0.1831
N14270 X4.1242 Y0.184
N14275 X4.1197 Y0.185
N14280 X4.1152 Y0.1859
N14285 X4.1107 Y0.1869
N14290 X4.1062 Y0.1877
N14295 X4.1018 Y0.1885
N14300 X4.0973 Y0.1892
N14305 X4.0928 Y0.1899
N14310 X4.0883 Y0.1905
N14315 X4.0838 Y0.1911
N14320 X4.0794 Y0.1915
N14325 X4.0749 Y0.192
N14330 X4.0704 Y0.1924
N14335 X4.0659 Y0.1928
N14340 X4.0614 Y0.193
N14345 X4.057 Y0.1933
N14350 X4.0525 Y0.1936
N14355 X4.048 Y0.1937
N14360 X4.0435 Y0.1938
N14365 X4.039 Y0.194
N14370 X4.0346
N14375 X4.0301
N14380 X4.0256
N14385 X4.0211
N14390 X4.0166 Y0.1939
N14395 X4.0122 Y0.1938
N14400 X4.0077 Y0.1937
N14405 X4.0032 Y0.1936
N14410 X3.9987 Y0.1934
N14415 X3.9942 Y0.1932
N14420 X3.9898 Y0.1929
N14425 X3.9853 Y0.1927
N14430 X3.9808 Y0.1924
N14435 X3.9629 Y0.1911
N14440 X3.9584 Y0.1907
N14445 X3.9539 Y0.1904
N14450 X3.9494 Y0.1899
N14455 X3.9449 Y0.1895
N14460 X3.927 Y0.1878
N14465 X3.9225 Y0.1874
N14470 X3.9181 Y0.1869
N14475 X3.9136 Y0.1864
N14480 X3.9091 Y0.186
N14485 X3.8912 Y0.1841
N14490 X3.8867 Y0.1836
N14495 X3.8733 Y0.1821
N14500 X3.8553 Y0.1802
N14505 X3.8509 Y0.1797
N14510 X3.8464 Y0.1793
N14515 X3.8419 Y0.1788
N14520 X3.8329 Y0.1779
N14525 X3.8285 Y0.1774
N14530 X3.824 Y0.177
N14535 X3.8195 Y0.1765
N14540 X3.815 Y0.1761
N14545 X3.8105 Y0.1757
N14550 X3.806 Y0.1752
N14555 X3.8016 Y0.1748
N14560 X3.7926 Y0.174
N14565 X3.7881 Y0.1736
N14570 X3.7836 Y0.1732
N14575 X3.7792 Y0.1728
N14580 X3.7702 Y0.1721
N14585 X3.7657 Y0.1718
N14590 X3.7612 Y0.1714
N14595 X3.7568 Y0.1711
N14600 X3.7478 Y0.1705
N14605 X3.7388 Y0.1698
N14610 X3.7364 Y0.1697
N14615 X3.7254 Y0.169
N14620 X3.7209 Y0.1687
N14625 X3.7075 Y0.168
N14630 X3.703 Y0.1678
N14635 X3.6806 Y0.1667
N14640 X3.6761 Y0.1665
N14645 X3.6627 Y0.166
N14650 X3.6582 Y0.1658
N14655 X3.6358 Y0.1652
N14660 X3.6313 Y0.1651
N14665 X3.6134 Y0.1647
N14670 X3.6089 Y0.1646
N14675 X3.5865 Y0.1644
N14680 X3.582
N14685 X3.5641
N14690 X3.5596
N14695 X3.5372 Y0.1645
N14700 X3.5327 Y0.1646
N14705 X3.5148 Y0.1649
N14710 X3.5103 Y0.165
N14715 X3.4879 Y0.1655
N14720 X3.4834 Y0.1656
N14725 X3.47 Y0.166
N14730 X3.4655 Y0.1661
N14735 X3.4386 Y0.1671
N14740 X3.4342 Y0.1673
N14745 X3.4207 Y0.1679
N14750 X3.4162 Y0.1681
N14755 X3.3938 Y0.1692
N14760 X3.3894 Y0.1694
N14765 X3.3714 Y0.1704
N14770 X3.367 Y0.1707
N14775 X3.3446 Y0.1721
N14780 X3.3401 Y0.1724
N14785 X3.3221 Y0.1736
N14790 X3.3177 Y0.1739
N14795 X3.2953 Y0.1756
N14800 X3.2908 Y0.176
N14805 X3.2729 Y0.1774
N14810 X3.2684 Y0.1778
N14815 X3.246 Y0.1798
N14820 X3.2415 Y0.1803
N14825 X3.2236 Y0.1819
N14830 X3.2191 Y0.1824
N14835 X3.1967 Y0.1847
N14840 X3.1922 Y0.1852
N14845 X3.1788 Y0.1867
N14850 X3.1743 Y0.1872
N14855 X3.1519 Y0.1898
N14860 X3.1474 Y0.1903
N14865 X3.1295 Y0.1925
N14870 X3.125 Y0.1931
N14875 X3.1026 Y0.1961
N14880 X3.0995 Y0.1965
N14885 X3.0802 Y0.1992
N14890 X3.0757 Y0.1998
N14895 X3.0533 Y0.2032
N14900 X3.0488 Y0.2039
N14905 X3.0309 Y0.2066
N14910 X3.0264 Y0.2073
N14915 X3.004 Y0.211
N14920 X2.9995 Y0.2118
N14925 X2.9816 Y0.2148
N14930 X2.9771 Y0.2156
N14935 X2.9547 Y0.2197
N14940 X2.9503 Y0.2205
N14945 X2.9345 Y0.2234
N14950 X2.9323 Y0.2238
N14955 X2.9279 Y0.2247
N14960 X2.9055 Y0.2291
N14965 X2.901 Y0.23
N14970 X2.8875 Y0.2326
N14975 X2.8831 Y0.2335
N14980 X2.8786 Y0.2345
N14985 X2.8562 Y0.2393
N14990 X2.8517 Y0.2402
N14995 X2.8338 Y0.2441
N15000 X2.8293 Y0.2451
N15005 X2.8068 Y0.2502
N15010 X2.8024 Y0.2512
N15015 X2.7874 Y0.2547
N15020 X2.7845 Y0.2554
N15025 X2.7755 Y0.2575
N15030 X2.7576 Y0.2619
N15035 X2.7397 Y0.2663
N15040 X2.7352 Y0.2674
N15045 X2.7128 Y0.2732
N15050 X2.7083 Y0.2743
N15055 X2.6904 Y0.279
N15060 X2.6859 Y0.2802
N15065 X2.6635 Y0.2862
N15070 X2.659 Y0.2875
N15075 X2.6456 Y0.2911
N15080 X2.6411 Y0.2924
N15085 X2.6187 Y0.2987
N15090 X2.6161 Y0.2994
N15095 X2.6003 Y0.3039
N15100 X2.5963 Y0.305
N15105 X2.5739 Y0.3116
N15110 X2.5694 Y0.3129
N15115 X2.5605 Y0.3155
N15120 X2.556 Y0.3168
N15125 X2.5542 Y0.3173
N15130 X2.5515 Y0.3181
N15135 X2.547 Y0.3194
N15140 X2.5336 Y0.3234
N15145 X2.5156 Y0.3287
N15150 X2.5067 Y0.3314
N15155 X2.5022 Y0.3327
N15160 X2.4843 Y0.338
N15165 X2.4798 Y0.3393
N15170 X2.4708 Y0.3419
N15175 X2.4664 Y0.3432
N15180 X2.4574 Y0.3458
N15185 X2.4484 Y0.3483
N15190 X2.435 Y0.3521
N15195 X2.4313 Y0.3531
N15200 X2.426 Y0.3545
N15205 X2.4216 Y0.3557
N15210 X2.4036 Y0.3605
N15215 X2.3992 Y0.3616
N15220 X2.3947 Y0.3628
N15225 X2.3902 Y0.3639
N15230 X2.3857 Y0.365
N15235 X2.3812 Y0.366
N15240 X2.3633 Y0.3703
N15245 X2.3599 Y0.371
N15250 X2.3543 Y0.3723
N15255 X2.3499 Y0.3732
N15260 X2.3454 Y0.3741
N15265 X2.3409 Y0.375
N15270 X2.323 Y0.3785
N15275 X2.3185 Y0.3793
N15280 X2.314 Y0.3801
N15285 X2.3095 Y0.3808
N15290 X2.3051 Y0.3816
N15295 X2.3006 Y0.3823
N15300 X2.2961 Y0.383
N15305 X2.2916 Y0.3836
N15310 X2.2827 Y0.3849
N15315 X2.2782 Y0.3855
N15320 X2.2737 Y0.3861
N15325 X2.2692 Y0.3866
N15330 X2.2647 Y0.3872
N15335 X2.2603 Y0.3877
N15340 X2.2513 Y0.3886
N15345 X2.2475 Y0.3889
N15350 X2.2423 Y0.3894
N15355 X2.2379 Y0.3898
N15360 X2.2334 Y0.3901
N15365 X2.2289 Y0.3904
N15370 X2.2244 Y0.3907
N15375 X2.2199 Y0.391
N15380 X2.211 Y0.3914
N15385 X2.2065 Y0.3916
N15390 X2.202 Y0.3918
N15395 X2.1975 Y0.3919
N15400 X2.193 Y0.392
N15405 X2.1886 Y0.3921
N15410 X2.1841
N15415 X2.1796 Y0.3922
N15420 X2.1706
N15425 X2.1662
N15430 X2.1617 Y0.3921
N15435 X2.1572 Y0.392
N15440 X2.1527 Y0.3919
N15445 X2.1482 Y0.3918
N15450 X2.1393 Y0.3915
N15455 X2.1348 Y0.3913
N15460 X2.1303 Y0.3911
N15465 X2.1258 Y0.3909
N15470 X2.1214 Y0.3906
N15475 X2.1169 Y0.3904
N15480 X2.1079 Y0.3898
N15485 X2.1034 Y0.3894
N15490 X2.099 Y0.3891
N15495 X2.0969 Y0.3889
N15500 X2.09 Y0.3883
N15505 X2.0855 Y0.3879
N15510 X2.081 Y0.3875
N15515 X2.0766 Y0.387
N15520 X2.0676 Y0.386
N15525 X2.0631 Y0.3855
N15530 X2.0586 Y0.385
N15535 X2.0543 Y0.3844
N15540 X2.0497 Y0.3838
N15545 X2.0452 Y0.3832
N15550 X2.0407 Y0.3826
N15555 X2.0362 Y0.382
N15560 X2.0317 Y0.3813
N15565 X2.0273 Y0.3806
N15570 X2.0228 Y0.3799
N15575 X2.0183 Y0.3792
N15580 X2.0138 Y0.3785
N15585 X2.0093 Y0.3777
N15590 X2.0049 Y0.377
N15595 X2.0004 Y0.3762
N15600 X1.9959 Y0.3753
N15605 X1.9914 Y0.3745
N15610 X1.9869 Y0.3736
N15615 X1.9825 Y0.3728
N15620 X1.978 Y0.3719
N15625 X1.9738 Y0.371
N15630 X1.969 Y0.37
N15635 X1.9645 Y0.369
N15640 X1.9601 Y0.3681
N15645 X1.9556 Y0.3671
N15650 X1.9511 Y0.366
N15655 X1.9466 Y0.365
N15660 X1.9421 Y0.3639
N15665 X1.9377 Y0.3628
N15670 X1.9347 Y0.3621
N15675 X1.9287 Y0.3606
N15680 X1.9242 Y0.3594
N15685 X1.9197 Y0.3582
N15690 X1.9153 Y0.357
N15695 X1.9108 Y0.3557
N15700 X1.9063 Y0.3545
N15705 X1.9017 Y0.3531
N15710 X1.8973 Y0.3518
N15715 X1.8928 Y0.3505
N15720 X1.8884 Y0.3491
N15725 X1.8869 Y0.3486
N15730 X1.8839 Y0.3477
N15735 X1.8794 Y0.3463
N15740 X1.8749 Y0.3448
N15745 X1.8704 Y0.3433
N15750 X1.866 Y0.3418
N15755 X1.8615 Y0.3402
N15760 X1.8601 Y0.3397
N15765 X1.857 Y0.3386
N15770 X1.8525 Y0.337
N15775 X1.848 Y0.3353
N15780 X1.8436 Y0.3336
N15785 X1.8391 Y0.3319
N15790 X1.836 Y0.3308
N15795 X1.8346 Y0.3302
N15800 X1.8301 Y0.3285
N15805 X1.8256 Y0.3267
N15810 X1.8245 Y0.3263
N15815 X1.8212 Y0.325
N15820 X1.8167 Y0.3233
N15825 X1.8129 Y0.3218
N15830 X1.8122 Y0.3216
N15835 X1.8077 Y0.3199
N15840 X1.8032 Y0.3184
N15845 X1.8001 Y0.3173
N15850 X1.7988 Y0.3169
N15855 X1.7943 Y0.3156
N15860 X1.7898 Y0.3146
N15865 X1.7853 Y0.3137
N15870 X1.7808 Y0.3131
N15875 X1.7791 Y0.3129
N15880 X1.7764 Y0.3127
N15885 X1.7719 Y0.3125
N15890 X1.7674 Y0.3128
N15895 X1.7662 Y0.3129
N15900 X1.7629 Y0.3132
N15905 X1.7584 Y0.3139
N15910 X1.754 Y0.3149
N15915 X1.7495 Y0.316
N15920 X1.745 Y0.3173
N15925 X1.7405 Y0.3188
N15930 X1.736 Y0.3204
N15935 X1.7324 Y0.3218
N15940 X1.7315 Y0.3222
N15945 X1.7271 Y0.324
N15950 X1.7226 Y0.3259
N15955 X1.7218 Y0.3263
N15960 X1.7181 Y0.328
N15965 X1.7136 Y0.33
N15970 X1.7121 Y0.3308
N15975 X1.7091 Y0.3322
N15980 X1.7047 Y0.3344
N15985 X1.703 Y0.3352
N15990 X1.7002 Y0.3366
N15995 X1.6957 Y0.339
N16000 X1.6943 Y0.3397
N16005 X1.6912 Y0.3413
N16010 X1.6867 Y0.3437
N16015 X1.6858 Y0.3442
N16020 X1.6823 Y0.346
N16025 X1.6774 Y0.3486
N16030 X1.6733 Y0.3509
N16035 X1.6643 Y0.3557
N16040 X1.6599 Y0.3581
N16045 X1.6554 Y0.3605
N16050 X1.6525 Y0.3621
N16055 X1.6464 Y0.3654
N16060 X1.6442 Y0.3665
N16065 X1.6419 Y0.3678
N16070 X1.6358 Y0.371
N16075 X1.633 Y0.3725
N16080 X1.6285 Y0.3749
N16085 X1.624 Y0.3772
N16090 X1.6195 Y0.3796
N16095 X1.6151 Y0.3819
N16100 X1.61 Y0.3844
N16105 X1.6061 Y0.3864
N16110 X1.6012 Y0.3889
N16115 X1.5971 Y0.391
N16120 X1.5927 Y0.3932
N16125 X1.5922 Y0.3934
N16130 X1.5882 Y0.3954
N16135 X1.5837 Y0.3976
N16140 X1.5831 Y0.3979
N16145 X1.5792 Y0.3997
N16150 X1.5747 Y0.4018
N16155 X1.5702 Y0.404
N16160 X1.5658 Y0.406
N16165 X1.5641 Y0.4068
N16170 X1.5568 Y0.4102
N16175 X1.5543 Y0.4113
N16180 X1.5523 Y0.4121
N16185 X1.5478 Y0.4141
N16190 X1.5434 Y0.4161
N16195 X1.5389 Y0.418
N16200 X1.5344 Y0.4199
N16205 X1.5299 Y0.4218
N16210 X1.5254 Y0.4236
N16215 X1.521 Y0.4255
N16220 X1.5165 Y0.4272
N16225 X1.512 Y0.429
N16230 X1.5116 Y0.4292
N16235 X1.5075 Y0.4307
N16240 X1.503 Y0.4324
N16245 X1.4986 Y0.4341
N16250 X1.4941 Y0.4358
N16255 X1.4896 Y0.4374
N16260 X1.4875 Y0.4381
N16265 X1.4806 Y0.4406
N16270 X1.4762 Y0.4421
N16275 X1.4746 Y0.4426
N16280 X1.4717 Y0.4436
N16285 X1.4672 Y0.445
N16290 X1.4627 Y0.4465
N16295 X1.4582 Y0.4479
N16300 X1.4538 Y0.4493
N16305 X1.4493 Y0.4506
N16310 X1.4461 Y0.4516
N16315 X1.4403 Y0.4532
N16320 X1.4358 Y0.4545
N16325 X1.4301 Y0.456
N16330 X1.4269 Y0.4569
N16335 X1.4224 Y0.458
N16340 X1.4179 Y0.4592
N16345 X1.4124 Y0.4605
N16350 X1.4089 Y0.4613
N16355 X1.4045 Y0.4624
N16360 X1.4 Y0.4633
N16365 X1.3955 Y0.4643
N16370 X1.3924 Y0.465
N16375 X1.3865 Y0.4662
N16380 X1.3821 Y0.467
N16385 X1.3776 Y0.4679
N16390 X1.3731 Y0.4687
N16395 X1.3686 Y0.4695
N16400 X1.3641 Y0.4702
N16405 X1.3597 Y0.4709
N16410 X1.3552 Y0.4716
N16415 X1.3507 Y0.4723
N16420 X1.3462 Y0.4729
N16425 X1.3417 Y0.4735
N16430 X1.338 Y0.4739
N16435 X1.3328 Y0.4745
N16440 X1.3283 Y0.475
N16445 X1.3238 Y0.4755
N16450 X1.3193 Y0.4759
N16455 X1.3149 Y0.4763
N16460 X1.3104 Y0.4766
N16465 X1.3014 Y0.4772
N16470 X1.2969 Y0.4774
N16475 X1.2925 Y0.4777
N16480 X1.2835 Y0.4779
N16485 X1.279 Y0.478
N16490 X1.2745 Y0.4781
N16495 X1.2701
N16500 X1.2656
N16505 X1.2611 Y0.478
N16510 X1.2566
N16515 X1.2521 Y0.4778
N16520 X1.2476 Y0.4776
N16525 X1.2432 Y0.4775
N16530 X1.2387 Y0.4772
N16535 X1.2342 Y0.477
N16540 X1.2252 Y0.4763
N16545 X1.2208 Y0.4759
N16550 X1.2163 Y0.4755
N16555 X1.2073 Y0.4745
N16560 X1.2028 Y0.4739
N16565 X1.1984 Y0.4734
N16570 X1.1939 Y0.4727
N16575 X1.1894 Y0.4721
N16580 X1.1849 Y0.4714
N16585 X1.1804 Y0.4706
N16590 X1.176 Y0.4699
N16595 X1.1715 Y0.469
N16600 X1.167 Y0.4681
N16605 X1.1625 Y0.4672
N16610 X1.158 Y0.4663
N16615 X1.1491 Y0.4642
N16620 X1.1446 Y0.4631
N16625 X1.1401 Y0.462
N16630 X1.1312 Y0.4595
N16635 X1.1267 Y0.4583
N16640 X1.1222 Y0.457
N16645 X1.1132 Y0.4541
N16650 X1.1088 Y0.4526
N16655 X1.1055 Y0.4516
N16660 X1.1043 Y0.4511
N16665 X1.0998 Y0.4495
N16670 X1.0953 Y0.4478
N16675 X1.0908 Y0.4461
N16680 X1.0863 Y0.4445
N16685 X1.0819 Y0.4426
N16690 X1.0774 Y0.4407
N16695 X1.0712 Y0.4381
N16700 X1.0684 Y0.4369
N16705 X1.0639 Y0.4348
N16710 X1.0614 Y0.4337
N16715 X1.055 Y0.4306
N16720 X1.0519 Y0.4292
N16725 X1.046 Y0.4262
N16730 X1.0432 Y0.4247
N16735 X1.0371 Y0.4215
N16740 X1.0347 Y0.4202
N16745 X1.0326 Y0.419
N16750 X1.0281 Y0.4165
N16755 X1.0236 Y0.4139
N16760 X1.0191 Y0.4113
N16765 X1.0147 Y0.4085
N16770 X1.0119 Y0.4068
N16775 X1.0048 Y0.4023
N16780 X1.0012 Y0.4
N16785 X0.9981 Y0.3979
N16790 X0.9967 Y0.3969
N16795 X0.9917 Y0.3934
N16800 X0.9878 Y0.3906
N16805 X0.9833 Y0.3873
N16810 X0.9795 Y0.3844
N16815 X0.9788 Y0.3839
N16820 X0.9743 Y0.3805
N16825 X0.9699 Y0.3769
N16830 X0.9681 Y0.3755
N16835 X0.9627 Y0.371
N16840 X0.9609 Y0.3695
N16845 X0.9564 Y0.3656
N16850 X0.9525 Y0.3621
N16855 X0.9519 Y0.3615
N16860 X0.9476 Y0.3576
N16865 X0.9429 Y0.3531
N16870 X0.9385 Y0.3489
N16875 X0.9383 Y0.3486
N16880 X0.934 Y0.3444
N16885 X0.9338 Y0.3442
N16890 X0.9295 Y0.3398
N16895 X0.925 Y0.335
N16900 X0.9211 Y0.3308
N16905 X0.9206 Y0.3301
N16910 X0.9171 Y0.3263
N16915 X0.9132 Y0.3218
N16920 X0.9116 Y0.3199
N16925 X0.9095 Y0.3173
N16930 X0.9071 Y0.3145
N16935 X0.9022 Y0.3084
N16940 X0.8987 Y0.3039
N16945 X0.8982 Y0.3032
N16950 X0.8954 Y0.2994
N16955 X0.892 Y0.295
N16960 X0.8892 Y0.291
N16965 X0.8888 Y0.2905
N16970 X0.8857 Y0.286
N16975 X0.8826 Y0.2815
N16980 X0.8802 Y0.2779
N16985 X0.8797 Y0.2771
N16990 X0.8768 Y0.2726
N16995 X0.8758 Y0.2709
N17000 X0.874 Y0.2681
N17005 X0.8713 Y0.2636
N17010 X0.8686 Y0.2592
N17015 X0.8668 Y0.2561
N17020 X0.866 Y0.2547
N17025 X0.8635 Y0.2502
N17030 X0.8623 Y0.2482
N17035 X0.861 Y0.2457
N17040 X0.8586 Y0.2413
N17045 X0.8562 Y0.2368
N17050 X0.8539 Y0.2323
N17055 X0.8534 Y0.2313
N17060 X0.8516 Y0.2278
N17065 X0.8494 Y0.2234
N17070 X0.8489 Y0.2223
N17075 X0.8472 Y0.2189
N17080 X0.8451 Y0.2144
N17085 X0.843 Y0.2099
N17090 X0.841 Y0.2055
N17095 X0.8399 Y0.2031
N17100 X0.839 Y0.201
N17105 X0.837 Y0.1965
N17110 X0.8351 Y0.192
N17115 X0.8331 Y0.1876
N17120 X0.8313 Y0.1831
N17125 X0.831 Y0.1824
N17130 X0.8294 Y0.1786
N17135 X0.8276 Y0.1741
N17140 X0.8265 Y0.1715
N17145 X0.8257 Y0.1697
N17150 X0.8239 Y0.1652
N17155 X0.8221 Y0.1607
N17160 X0.8203 Y0.1563
N17165 X0.8185 Y0.1518
N17170 X0.8175 Y0.1492
N17175 X0.8168 Y0.1473
N17180 X0.815 Y0.1428
N17185 X0.813 Y0.1381
N17190 X0.8113 Y0.1339
N17195 X0.8095 Y0.1294
N17200 X0.8086 Y0.1271
N17205 X0.8077 Y0.1249
N17210 X0.8058 Y0.1205
N17215 X0.8039 Y0.116
N17220 X0.802 Y0.1115
N17225 X0.7996 Y0.106
N17230 X0.798 Y0.1026
N17235 X0.7959 Y0.0981
N17240 X0.7951 Y0.0963
N17245 X0.7938 Y0.0936
N17250 X0.7915 Y0.0891
N17255 X0.7906 Y0.0874
N17260 X0.7892 Y0.0847
N17265 X0.7867 Y0.0802
N17270 X0.7861 Y0.0793
N17275 X0.784 Y0.0757
N17280 X0.7817 Y0.072
N17285 X0.7812 Y0.0712
N17290 X0.7781 Y0.0668
N17295 X0.7772 Y0.0654
N17300 X0.7749 Y0.0623
N17305 X0.7727 Y0.0596
N17310 X0.7713 Y0.0578
N17315 X0.7682 Y0.0543
N17320 X0.7673 Y0.0533
N17325 X0.7637 Y0.0497
N17330 X0.7629 Y0.0489
N17335 X0.7593 Y0.0456
N17340 X0.7579 Y0.0444
N17345 X0.7548 Y0.042
N17350 X0.7519 Y0.0399
N17355 X0.7503 Y0.0389
N17360 X0.7458 Y0.0362
N17365 X0.7445 Y0.0354
N17370 X0.7413 Y0.0339
N17375 X0.7369 Y0.032
N17380 X0.7339 Y0.031
N17385 X0.7324 Y0.0305
N17390 X0.7279 Y0.0294
N17395 X0.7234 Y0.0285
N17400 X0.7189 Y0.028
N17405 X0.7145 Y0.0279
N17410 X0.71 Y0.028
N17415 X0.7055 Y0.0284
N17420 X0.701 Y0.0292
N17425 X0.6965 Y0.0302
N17430 X0.6937 Y0.031
N17435 X0.6921 Y0.0315
N17440 X0.6876 Y0.0331
N17445 X0.6831 Y0.0351
N17450 X0.6824 Y0.0354
N17455 X0.6786 Y0.0373
N17460 X0.6741 Y0.0398
N17465 X0.674 Y0.0399
N17470 X0.6697 Y0.0426
N17475 X0.6671 Y0.0444
N17480 X0.6652 Y0.0458
N17485 X0.6611 Y0.0489
N17490 X0.6607 Y0.0492
N17495 X0.6562 Y0.0529
N17500 X0.6557 Y0.0533
N17505 X0.6517 Y0.0568
N17510 X0.6506 Y0.0578
N17515 X0.6473 Y0.061
N17520 X0.6459 Y0.0623
N17525 X0.6428 Y0.0654
N17530 X0.6415 Y0.0668
N17535 X0.6383 Y0.0701
N17540 X0.6372 Y0.0712
N17545 X0.6338 Y0.075
N17550 X0.6331 Y0.0757
N17555 X0.6293 Y0.08
N17560 X0.6292 Y0.0802
N17565 X0.6253 Y0.0847
N17570 X0.6248 Y0.0852
N17575 X0.6215 Y0.0891
N17580 X0.6178 Y0.0936
N17585 X0.6159 Y0.096
N17590 X0.6114 Y0.1014
N17595 X0.6068 Y0.107
N17600 X0.6024 Y0.1124
N17605 X0.5995 Y0.116
N17610 X0.598 Y0.1179
N17615 X0.5935 Y0.1232
N17620 X0.5921 Y0.1249
N17625 X0.5883 Y0.1294
N17630 X0.5845 Y0.1339
N17635 X0.5806 Y0.1384
N17640 X0.5756 Y0.144
N17645 X0.5726 Y0.1473
N17650 X0.5711 Y0.149
N17655 X0.5685 Y0.1518
N17660 X0.5621 Y0.1585
N17665 X0.56 Y0.1607
N17670 X0.5576 Y0.1631
N17675 X0.5555 Y0.1652
N17680 X0.5487 Y0.1718
N17685 X0.5462 Y0.1741
N17690 X0.5442 Y0.1761
N17695 X0.5414 Y0.1786
N17700 X0.5352 Y0.184
N17705 X0.5311 Y0.1876
N17710 X0.5308 Y0.1879
N17715 X0.5263 Y0.1916
N17720 X0.52 Y0.1965
N17725 X0.5173 Y0.1986
N17730 X0.5143 Y0.201
N17735 X0.5128 Y0.2021
N17740 X0.5081 Y0.2055
N17745 X0.5039 Y0.2084
N17750 X0.4994 Y0.2116
N17755 X0.4952 Y0.2144
N17760 X0.4949 Y0.2146
N17765 X0.4904 Y0.2174
N17770 X0.4815 Y0.223
N17775 X0.4809 Y0.2234
N17780 X0.477 Y0.2256
N17785 X0.473 Y0.2278
N17790 X0.468 Y0.2306
N17795 X0.4648 Y0.2323
N17800 X0.4591 Y0.2353
N17805 X0.456 Y0.2368
N17810 X0.4501 Y0.2397
N17815 X0.4467 Y0.2413
N17820 X0.4456 Y0.2418
N17825 X0.4411 Y0.2438
N17830 X0.4322 Y0.2477
N17835 X0.4277 Y0.2495
N17840 X0.4261 Y0.2502
N17845 X0.4232 Y0.2513
N17850 X0.4187 Y0.253
N17855 X0.4143 Y0.2547
N17860 X0.4098 Y0.2564
N17865 X0.4053 Y0.2579
N17870 X0.4014 Y0.2592
N17875 X0.3963 Y0.2608
N17880 X0.3919 Y0.2623
N17885 X0.3872 Y0.2636
N17890 X0.3829 Y0.2649
N17895 X0.3784 Y0.2661
N17900 X0.3739 Y0.2674
N17905 X0.3711 Y0.2681
N17910 X0.3695 Y0.2685
N17915 X0.365 Y0.2697
N17920 X0.3605 Y0.2708
N17925 X0.356 Y0.2719
N17930 X0.3529 Y0.2726
N17935 X0.3471 Y0.2739
N17940 X0.3426 Y0.2749
N17945 X0.3381 Y0.2759
N17950 X0.3336 Y0.2769
N17955 X0.3291 Y0.2778
N17960 X0.3247 Y0.2788
N17965 X0.3202 Y0.2798
N17970 X0.3157 Y0.2807
N17975 X0.3112 Y0.2817
N17980 X0.3067 Y0.2828
N17985 X0.3022 Y0.2839
N17990 X0.2978 Y0.2851
N17995 X0.2948 Y0.286
N18000 X0.2933 Y0.2865
N18005 X0.2888 Y0.2879
N18010 X0.2843 Y0.2895
N18015 X0.282 Y0.2905
N18020 X0.2798 Y0.2914
N18025 X0.2754 Y0.2936
N18030 X0.2728 Y0.295
N18035 X0.2709 Y0.2961
N18040 X0.2664 Y0.299
N18045 X0.2658 Y0.2994
N18050 X0.2619 Y0.3026
N18055 X0.2605 Y0.3039
N18060 X0.2574 Y0.3069
N18065 X0.2561 Y0.3084
N18070 X0.253 Y0.3121
N18075 X0.2524 Y0.3129
N18080 X0.2491 Y0.3173
N18085 X0.2485 Y0.3183
N18090 X0.2462 Y0.3218
N18095 X0.244 Y0.3256
N18100 X0.2436 Y0.3263
N18105 X0.2412 Y0.3308
N18110 X0.2395 Y0.3341
N18115 X0.239 Y0.3352
N18120 X0.2369 Y0.3397
N18125 X0.235 Y0.344
N18130 Y0.3442
N18135 X0.2331 Y0.3486
N18140 X0.2313 Y0.3531
N18145 X0.2306 Y0.3551
N18150 X0.2296 Y0.3576
N18155 X0.228 Y0.3621
N18160 X0.2264 Y0.3665
N18165 X0.2248 Y0.371
N18170 X0.2233 Y0.3755
N18175 X0.2216 Y0.3807
N18180 X0.2204 Y0.3844
N18185 X0.219 Y0.3889
N18190 X0.2176 Y0.3934
N18195 X0.2171 Y0.3951
N18200 X0.2163 Y0.3979
N18205 X0.215 Y0.4023
N18210 X0.2137 Y0.4068
N18215 X0.2126 Y0.4106
N18220 X0.2112 Y0.4158
N18225 X0.21 Y0.4202
N18230 X0.2088 Y0.4247
N18235 X0.2076 Y0.4292
N18240 X0.2064 Y0.4337
N18245 X0.2053 Y0.4381
N18250 X0.2037 Y0.4447
N18255 X0.2031 Y0.4471
N18260 X0.202 Y0.4516
N18265 X0.201 Y0.456
N18270 X0.2 Y0.4605
N18275 X0.1992 Y0.4639
N18280 X0.1989 Y0.465
N18285 X0.198 Y0.4695
N18290 X0.1961 Y0.4784
N18295 X0.1951 Y0.4829
N18300 X0.1947 Y0.485
N18305 X0.1942 Y0.4874
N18310 X0.1934 Y0.4918
N18315 X0.1925 Y0.4963
N18320 X0.1917 Y0.5008
N18325 X0.1908 Y0.5053
N18330 X0.1901 Y0.5097
N18335 X0.1893 Y0.5142
N18340 X0.1885 Y0.5187
N18345 X0.1877 Y0.5231
N18350 X0.187 Y0.5276
N18355 X0.1863 Y0.5321
N18360 X0.185 Y0.541
N18365 X0.1843 Y0.5455
N18370 X0.1837 Y0.55
N18375 X0.1831 Y0.5545
N18380 X0.1826 Y0.5589
N18385 X0.182 Y0.5634
N18390 X0.1815 Y0.5679
N18395 X0.1813 Y0.5697
N18400 X0.181 Y0.5724
N18405 X0.1805 Y0.5768
N18410 X0.1801 Y0.5813
N18415 X0.1796 Y0.5858
N18420 X0.1792 Y0.5903
N18425 X0.1788 Y0.5947
N18430 X0.1785 Y0.5992
N18435 X0.1783 Y0.602
N18440 X0.1782 Y0.6037
N18445 X0.1778 Y0.6082
N18450 X0.1775 Y0.6126
N18455 X0.1773 Y0.6171
N18460 X0.1771 Y0.6216
N18465 X0.1768 Y0.6264
N18470 X0.1766 Y0.6305
N18475 X0.1763 Y0.6395
N18480 X0.1762 Y0.644
N18485 X0.1761 Y0.6484
N18490 X0.176 Y0.6529
N18495 X0.1759 Y0.6574
N18500 Y0.6619
N18505 Y0.6663
N18510 X0.1758 Y0.6708
N18515 X0.1759 Y0.6753
N18520 Y0.6798
N18525 X0.176 Y0.6842
N18530 X0.1761 Y0.6887
N18535 X0.1762 Y0.6932
N18540 X0.1763 Y0.6976
N18545 X0.1764 Y0.7021
N18550 X0.1766 Y0.7066
N18555 X0.1768 Y0.7111
N18560 X0.177 Y0.7155
N18565 X0.1772 Y0.72
N18570 X0.1774 Y0.7245
N18575 X0.1777 Y0.729
N18580 X0.178 Y0.7334
N18585 X0.1783 Y0.7379
N18590 X0.1786 Y0.7424
N18595 X0.1789 Y0.7469
N18600 X0.1793 Y0.7513
N18605 X0.1797 Y0.7558
N18610 X0.1801 Y0.7603
N18615 X0.1805 Y0.7648
N18620 X0.1809 Y0.7692
N18625 X0.1814 Y0.7737
N18630 X0.1818 Y0.7782
N18635 X0.1823 Y0.7827
N18640 X0.1828 Y0.7871
N18645 X0.1839 Y0.7961
N18650 X0.1844 Y0.8006
N18655 X0.185 Y0.805
N18660 X0.1856 Y0.8095
N18665 X0.1862 Y0.814
N18670 X0.1868 Y0.8185
N18675 X0.1881 Y0.8274
N18680 X0.1888 Y0.8319
N18685 X0.1901 Y0.8408
N18690 X0.1902 Y0.8417
N18695 X0.1908 Y0.8453
N18700 X0.1923 Y0.8543
N18705 X0.1938 Y0.8632
N18710 X0.1946 Y0.8677
N18715 X0.1963 Y0.8766
N18720 X0.1968 Y0.8797
N18725 X0.197 Y0.8806
N18730 X0.1972 Y0.8816
N18735 X0.1975 Y0.8836
N18740 X0.1983 Y0.8874
N18745 X0.1997 Y0.8952 Z-0.0331
N18750 X0.2011 Y0.9027
N18755 X0.2026 Y0.9105 Z-0.0332
N18760 X0.2041 Y0.9182 Z-0.0334
N18765 X0.2056 Y0.9259 Z-0.0335
N18770 X0.207 Y0.9335 Z-0.0337
N18775 X0.2086 Y0.9412 Z-0.0339
N18780 X0.2094 Y0.9451 Z-0.034
N18785 X0.2101 Y0.9489 Z-0.0341
N18790 X0.2109 Y0.9528 Z-0.0342
N18795 X0.2117 Y0.9567 Z-0.0343
N18800 X0.2124 Y0.9605 Z-0.0344
N18805 X0.2132 Y0.9643 Z-0.0345
N18810 X0.214 Y0.9681 Z-0.0347
N18815 X0.2148 Y0.972 Z-0.0348
N18820 X0.2156 Y0.9758 Z-0.0349
N18825 X0.2164 Y0.9797 Z-0.0351
N18830 X0.2172 Y0.9836 Z-0.0352
N18835 X0.218 Y0.9874 Z-0.0354
N18840 X0.2188 Y0.9913 Z-0.0355
N18845 X0.2196 Y0.9951 Z-0.0356
N18850 X0.2204 Y0.9989 Z-0.0358
N18855 X0.2212 Y1.0027 Z-0.0359
N18860 X0.2221 Y1.0066 Z-0.036
N18865 X0.223 Y1.0104 Z-0.0362
N18870 X0.2238 Y1.0142 Z-0.0363
N18875 X0.2247 Y1.0181 Z-0.0365
N18880 X0.2255 Y1.0219 Z-0.0366
N18885 X0.2264 Y1.0258 Z-0.0367
N18890 X0.2273 Y1.0296 Z-0.0369
N18895 X0.2281 Y1.0334 Z-0.037
N18900 X0.2291 Y1.0372 Z-0.0371
N18905 X0.23 Y1.0411 Z-0.0373
N18910 X0.2309 Y1.0449 Z-0.0374
N18915 X0.2336 Y1.0564 Z-0.0378
N18920 X0.2354 Y1.064 Z-0.0381
N18925 X0.2364 Y1.0679 Z-0.0382
N18930 X0.2373 Y1.0717 Z-0.0384
N18935 X0.2382 Y1.0755 Z-0.0385
N18940 X0.2392 Y1.0793 Z-0.0387
N18945 X0.2402 Y1.0831 Z-0.0388
N18950 X0.2411 Y1.0869 Z-0.0389
N18955 X0.2421 Y1.0908 Z-0.0391
N18960 X0.243 Y1.0946 Z-0.0392
N18965 X0.244 Y1.0984 Z-0.0393
N18970 X0.245 Y1.1022 Z-0.0395
N18975 X0.2459 Y1.106 Z-0.0396
N18980 X0.2469 Y1.1098 Z-0.0398
N18985 X0.2479 Y1.1136 Z-0.0399
N18990 X0.2489 Y1.1175 Z-0.04
N18995 X0.2499 Y1.1213 Z-0.0402
N19000 X0.2509 Y1.1251 Z-0.0403
N19005 X0.2519 Y1.1289 Z-0.0404
N19010 X0.2529 Y1.1327 Z-0.0406
N19015 X0.2538 Y1.1365 Z-0.0407
N19020 X0.2548 Y1.1403 Z-0.0409
N19025 X0.2559 Y1.1441 Z-0.041
N19030 X0.2569 Y1.1479 Z-0.0411
N19035 X0.2579 Y1.1517 Z-0.0413
N19040 X0.259 Y1.1555 Z-0.0414
N19045 X0.26 Y1.1593 Z-0.0415
N19050 X0.261 Y1.1631 Z-0.0416
N19055 X0.2621 Y1.1669 Z-0.0418
N19060 X0.2631 Y1.1707 Z-0.0419
N19065 X0.2642 Y1.1745 Z-0.042
N19070 X0.2652 Y1.1783 Z-0.0421
N19075 X0.2674 Y1.1859 Z-0.0423
N19080 X0.2695 Y1.1935 Z-0.0425
N19085 X0.2717 Y1.201 Z-0.0426
N19090 X0.2739 Y1.2086 Z-0.0427
N19095 X0.2762 Y1.2161 Z-0.0429
N19100 X0.2784 Y1.2237
N19105 X0.2807 Y1.2312 Z-0.043
N19110 X0.2831 Y1.2387
N19115 X0.2835 Y1.24
N19120 X0.286 Y1.248
N19125 X0.2874 Y1.2525
N19130 X0.2958 Y1.2793
N19135 X0.2972 Y1.2838
N19140 X0.2978 Y1.2857
N19145 X0.3067 Y1.3151
N19150 X0.3081 Y1.3196
N19155 X0.3112 Y1.3303
N19160 X0.312 Y1.333
N19165 X0.3133 Y1.3375
N19170 X0.3159 Y1.3464
N19175 X0.3172 Y1.3509
N19180 X0.3188 Y1.3554
N19185 X0.3202 Y1.3585
N19190 X0.3208 Y1.3599
N19195 X0.3233 Y1.3643
N19200 X0.3247 Y1.3666
N19205 X0.3263 Y1.3688
N19210 X0.3291 Y1.3726
N19215 X0.3297 Y1.3733
N19220 X0.3336 Y1.3773
N19225 X0.334 Y1.3778
N19230 X0.3381 Y1.3814
N19235 X0.3392 Y1.3822
N19240 X0.3426 Y1.3847
N19245 X0.3458 Y1.3867
N19250 X0.3471 Y1.3874
N19255 X0.3515 Y1.3897
N19260 X0.3549 Y1.3912
N19265 X0.356 Y1.3916
N19270 X0.3605 Y1.393
N19275 X0.365 Y1.3942
N19280 X0.3695 Y1.3949
N19285 X0.3739 Y1.3955
N19290 X0.3784 Y1.3956
N19295 X0.3829 Y1.3955
N19300 X0.3874 Y1.3951
N19305 X0.4232 Y1.3921
N19310 X0.4277 Y1.3917
N19315 X0.4339 Y1.3912
N19320 X0.4367 Y1.3909
N19325 X0.4411 Y1.3906
N19330 X0.4815 Y1.3875
N19335 X0.486 Y1.3871
N19340 X0.4904 Y1.3868
N19345 X0.5308 Y1.384
N19350 X0.5352 Y1.3837
N19355 X0.5397 Y1.3834
N19360 X0.5442 Y1.3831
N19365 X0.58 Y1.3809
N19370 X0.5845 Y1.3807
N19375 X0.589 Y1.3804
N19380 X0.6248 Y1.3785
N19385 X0.6293 Y1.3782
N19390 X0.6338 Y1.378
N19395 X0.6697 Y1.3763
N19400 X0.6741 Y1.3761
N19405 X0.6786 Y1.376
N19410 X0.701 Y1.3751
N19415 X0.7145 Y1.3746
N19420 X0.7189 Y1.3744
N19425 X0.7234 Y1.3742
N19430 X0.7593 Y1.3731
N19435 X0.7637 Y1.373
N19440 X0.7996 Y1.3721
N19445 X0.8041 Y1.372
N19450 X0.8086
N19455 X0.8444 Y1.3714
N19460 X0.8489 Y1.3713
N19465 X0.8802 Y1.371
N19470 X0.8847
N19475 X0.8892
N19480 X0.9206 Y1.3709
N19485 X0.925
N19490 X0.9609 Y1.3711
N19495 X0.9654
N19500 X0.9967 Y1.3715
N19505 X1.0012
N19510 X1.0057 Y1.3716
N19515 X1.0326 Y1.3721
N19520 X1.0371 Y1.3722
N19525 X1.0415 Y1.3723
N19530 X1.0684 Y1.373
N19535 X1.0729 Y1.3731
N19540 X1.0774 Y1.3732
N19545 X1.0998 Y1.3739
N19550 X1.1043 Y1.3741
N19555 X1.1267 Y1.3749
N19560 X1.1312 Y1.375
N19565 X1.1356 Y1.3752
N19570 X1.1536 Y1.3759
N19575 X1.158 Y1.3761
N19580 X1.1804 Y1.3771
N19585 X1.1849 Y1.3773
N19590 X1.1894 Y1.3775
N19595 X1.2342 Y1.3798
N19600 X1.2387 Y1.38
N19605 X1.2432 Y1.3802
N19610 X1.288 Y1.3829
N19615 X1.2925 Y1.3831
N19620 X1.2969 Y1.3834
N19625 X1.3373 Y1.386
N19630 X1.3417 Y1.3863
N19635 X1.3462 Y1.3866
N19640 X1.391 Y1.3899
N19645 X1.3955 Y1.3902
N19650 X1.4 Y1.3905
N19655 X1.4403 Y1.3936
N19660 X1.4448 Y1.394
N19665 X1.4493 Y1.3943
N19670 X1.4896 Y1.3976
N19675 X1.4941 Y1.398
N19680 X1.4986 Y1.3984
N19685 X1.5344 Y1.4014
N19690 X1.5389 Y1.4018
N19695 X1.5434 Y1.4022
N19700 X1.5837 Y1.4057
N19705 X1.5882 Y1.4061
N19710 X1.5927 Y1.4065
N19715 X1.6285 Y1.4097
N19720 X1.633 Y1.4101
N19725 X1.6419 Y1.4109
N19730 X1.6733 Y1.4137
N19735 X1.7181 Y1.4178
N19740 X1.721 Y1.418
N19745 X1.7226 Y1.4182
N19750 X1.7584 Y1.4214
N19755 X1.7629 Y1.4218
N19760 X1.7674 Y1.4222
N19765 X1.7988 Y1.4249
N19770 X1.8032 Y1.4253
N19775 X1.8077 Y1.4257
N19780 X1.8436 Y1.4288
N19785 X1.848 Y1.4292
N19790 X1.8839 Y1.4322
N19795 X1.8884 Y1.4325
N19800 X1.8928 Y1.4329
N19805 X1.9305 Y1.4359
N19810 X1.9332 Y1.4361
N19815 X1.9377 Y1.4365
N19820 X1.9735 Y1.4392
N19825 X1.978 Y1.4395
N19830 X2.0138 Y1.4421
N19835 X2.0183 Y1.4424
N19840 X2.0497 Y1.4445
N19845 X2.0541 Y1.4448
N19850 X2.056 Y1.4449
N19855 X2.0586 Y1.445
N19860 X2.09 Y1.4469
N19865 X2.0945 Y1.4472
N19870 X2.099 Y1.4474
N19875 X2.1303 Y1.4491
N19880 X2.1349 Y1.4493
N19885 X2.1393 Y1.4496
N19890 X2.1662 Y1.4508
N19895 X2.1706 Y1.451
N19900 X2.1751 Y1.4512
N19905 X2.1796 Y1.4514
N19910 X2.2244 Y1.4531
N19915 X2.2289 Y1.4532
N19920 X2.2737 Y1.4545
N19925 X2.2782 Y1.4546
N19930 X2.2827 Y1.4547
N19935 X2.2961 Y1.4549
N19940 X2.3275 Y1.4554
N19945 X2.3319 Y1.4555
N19950 X2.3364
N19955 X2.3767 Y1.4557
N19960 X2.3812
N19965 X2.3857
N19970 X2.426 Y1.4553
N19975 X2.4305
N19980 X2.435 Y1.4552
N19985 X2.4753 Y1.4544
N19990 X2.4798 Y1.4543
N19995 X2.4843 Y1.4541
N20000 X2.5201 Y1.453
N20005 X2.5246 Y1.4528
N20010 X2.5291 Y1.4526
N20015 X2.538 Y1.4522
N20020 X2.5694 Y1.4508
N20025 X2.5739 Y1.4506
N20030 X2.6232 Y1.4478
N20035 X2.6277 Y1.4475
N20040 X2.6321 Y1.4472
N20045 X2.6814 Y1.4436
N20050 X2.6859 Y1.4433
N20055 X2.6904 Y1.443
N20060 X2.6949 Y1.4426
N20065 X2.7442 Y1.4383
N20070 X2.7486 Y1.4379
N20075 X2.7531 Y1.4374
N20080 X2.7979 Y1.433
N20085 X2.8024 Y1.4325
N20090 X2.8069 Y1.432
N20095 X2.8522 Y1.427
N20100 X2.8562 Y1.4265
N20105 X2.8606 Y1.426
N20110 X2.8696 Y1.4249
N20115 X2.9055 Y1.4205
N20120 X2.9099 Y1.4199
N20125 X2.9144 Y1.4193
N20130 X2.9592 Y1.4134
N20135 X2.9637 Y1.4128
N20140 X2.9682 Y1.4122
N20145 X3.013 Y1.4058
N20150 X3.0175 Y1.4052
N20155 X3.0214 Y1.4046
N20160 X3.0623 Y1.3985
N20165 X3.0668 Y1.3978
N20170 X3.0712 Y1.3972
N20175 X3.0757 Y1.3965
N20180 X3.116 Y1.3902
N20185 X3.1205 Y1.3895
N20190 X3.125 Y1.3887
N20195 X3.1653 Y1.3822
N20200 X3.1698 Y1.3814
N20205 X3.1743 Y1.3807
N20210 X3.1788 Y1.3799
N20215 X3.2191 Y1.373
N20220 X3.2236 Y1.3722
N20225 X3.2281 Y1.3714
N20230 X3.2684 Y1.3642
N20235 X3.2729 Y1.3634
N20240 X3.2773 Y1.3626
N20245 X3.3177 Y1.3551
N20250 X3.3221 Y1.3542
N20255 X3.3266 Y1.3534
N20260 X3.3311 Y1.3525
N20265 X3.3714 Y1.3446
N20270 X3.3759 Y1.3437
N20275 X3.3804 Y1.3428
N20280 X3.4207 Y1.3345
N20285 X3.4252 Y1.3335
N20290 X3.4277 Y1.333
N20295 X3.4745 Y1.3228
N20300 X3.479 Y1.3218
N20305 X3.4834 Y1.3208
N20310 X3.4879 Y1.3198
N20315 X3.5327 Y1.3093
N20320 X3.5372 Y1.3083
N20325 X3.5417 Y1.3072
N20330 X3.5462 Y1.3061
N20335 X3.591 Y1.2949
N20340 X3.5955 Y1.2938
N20345 X3.5999 Y1.2926
N20350 X3.6044 Y1.2914
N20355 X3.6496 Y1.2793
N20360 X3.6537 Y1.2782
N20365 X3.6582 Y1.2769
N20370 X3.703 Y1.264
N20375 X3.7075 Y1.2627
N20380 X3.7116 Y1.2614
N20385 X3.7568 Y1.2474
N20390 X3.7612 Y1.246
N20395 X3.7657 Y1.2445
N20400 X3.8105 Y1.2295
N20405 X3.815 Y1.228
N20410 X3.8195 Y1.2264
N20415 X3.8218 Y1.2256
N20420 X3.824 Y1.2248
N20425 X3.8688 Y1.2087
N20430 X3.8713 Y1.2077
N20435 X3.8733 Y1.207
N20440 X3.8777 Y1.2052
N20445 X3.9181 Y1.1896
N20450 X3.9225 Y1.1878
N20455 X3.927 Y1.1859
N20460 X3.9673 Y1.1691
N20465 X3.9713 Y1.1675
N20470 X3.9718 Y1.1672
N20475 X3.9763 Y1.1653
N20480 X4.0166 Y1.1473
N20485 X4.0211 Y1.1453
N20490 X4.0216 Y1.1451
N20495 X4.0256 Y1.1432
N20500 X4.0659 Y1.1241
N20505 X4.0687 Y1.1227
N20510 X4.0704 Y1.1219
N20515 X4.0749 Y1.1197
N20520 X4.0794 Y1.1175
N20525 X4.1197 Y1.097
N20530 X4.1219 Y1.0959
N20535 X4.1242 Y1.0947
N20540 X4.1286 Y1.0923
N20545 X4.1645 Y1.073
N20550 X4.169 Y1.0705
N20555 X4.1717 Y1.069
N20560 X4.2093 Y1.0476
N20565 X4.211 Y1.0466
N20570 X4.2138 Y1.045
N20575 X4.2183 Y1.0423
N20580 X4.2496 Y1.0235
N20585 X4.2541 Y1.0208
N20590 X4.2558 Y1.0198
N20595 X4.2586 Y1.0181
N20600 X4.2773 Y1.0064
N20605 X4.281 Y1.0041
N20610 X4.2844 Y1.0019
N20615 X4.2855 Y1.0012
N20620 X4.3053 Y0.9885
N20625 X4.3079 Y0.9868
N20630 X4.3303 Y0.972
N20635 X4.3324 Y0.9706
N20640 X4.3348 Y0.969
N20645 X4.3527 Y0.9568
N20650 X4.3572 Y0.9538
N20655 X4.3587 Y0.9527
N20660 X4.3779 Y0.9393
N20665 X4.3796 Y0.9381
N20670 X4.384 Y0.9349
N20675 X4.402 Y0.9221
N20680 X4.4029 Y0.9214
N20685 X4.4212 Y0.9079
N20690 X4.4244 Y0.9056
N20695 X4.4272 Y0.9035
N20700 X4.4423 Y0.8921
N20705 X4.4451 Y0.89
N20710 X4.4468 Y0.8888
N20715 X4.4509 Y0.8856
N20720 X4.4647 Y0.875
N20725 X4.4683 Y0.8721
N20730 X4.4692 Y0.8715
N20735 X4.474 Y0.8677
N20740 X4.4871 Y0.8573
N20745 X4.4909 Y0.8543
N20750 X4.505 Y0.8429
N20755 X4.5075 Y0.8408
N20760 X4.5095 Y0.8392
N20765 X4.5238 Y0.8274
N20770 X4.5274 Y0.8244
N20775 X4.5291 Y0.8229
N20780 X4.5319 Y0.8206
N20785 X4.5453 Y0.8092
N20790 X4.5498 Y0.8053
N20795 X4.5605 Y0.7961
N20800 X4.5633 Y0.7937
N20805 X4.5656 Y0.7916
N20810 X4.5807 Y0.7782
