%
(1001)
(6MM END MILL 12K)
(T2  D=0.2362 CR=0. - ZMIN=-0.023 - FLAT END MILL)
N10 G90 G94 G17 G91.1
N15 G20
N20 G53 G0 Z0.
(FACE1)
N25 T2 M6
(0)
N30 S12000 M3
N35 G54
N40 M8
N45 G0 X2.3427 Y-0.5701
N50 G43 Z0.6 H2
N55 G0 Z0.2
N60 G1 Z0.0006 F10.
N65 G18 G3 X2.319 Z-0.023 I-0.0236 K0.
N70 G1 X2.2357
N75 X0.3287 F20.
N80 G3 X0.305 Z0.0006 I0. K0.0236 F10.
N85 G0 Z0.2
N90 X2.4089 Y-0.3492
N95 G1 Z0.0006 F10.
N100 G3 X2.3852 Z-0.023 I-0.0236 K0.
N105 G1 X2.2553
N110 X-1.1239 F20.
N115 G3 X-1.1475 Z0.0006 I0. K0.0236 F10.
N120 G0 Z0.2
N125 X-1.5381 Y-0.5701
N130 G1 Z0.0006 F10.
N135 G3 X-1.5617 Z-0.023 I-0.0236 K0.
N140 G1 X-1.6448
N145 X-2.0473 F20.
N150 X-2.2426
N155 G17 G2 Y-0.3492 I0. J0.1104
N160 G1 X-1.2974
N165 G18 G2 X-1.2738 Z0.0006 I0. K0.0236 F10.
N170 G0 Z0.2
N175 X-2.4081 Y-0.1284
N180 G1 Z0.0006 F10.
N185 G2 X-2.3845 Z-0.023 I0.0236 K0.
N190 G1 X-2.2555
N195 X2.2291 F20.
N200 G17 G3 Y0.0924 I0. J0.1104
N205 G1 X2.0647
N210 X-2.2537
N215 G2 Y0.3133 I0. J0.1104
N220 G1 X-2.2192
N225 X1.796
N230 G3 Y0.5341 I0. J0.1104
N235 G1 X1.366
N240 X-2.1575
N245 G18 G3 X-2.1812 Z0.0006 I0. K0.0236 F10.
N250 G0 Z0.6
N255 G17
N260 M9
N265 G53 G0 Z0.
N270 M30
%
