%
(1001)
(6MM END MILL 12K)
(T2  D=0.2362 CR=0. - ZMIN=-0.023 - FLAT END MILL)
N10 G90 G94 G17 G91.1
N15 G20
N20 G53 G0 Z0.
(FACE1)
N25 T2 M6
(0)
N30 S12000 M3
N35 G54
N40 M8
N45 G0 X4.8427 Y0.1799
N50 G43 Z0.6 H2
N55 G0 Z0.2
N60 G1 Z0.0006 F10.
N65 G18 G3 X4.819 Z-0.023 I-0.0236 K0.
N70 G1 X4.7357
N75 X2.8287 F20.
N80 G3 X2.805 Z0.0006 I0. K0.0236 F10.
N85 G0 Z0.2
N90 X4.9089 Y0.4008
N95 G1 Z0.0006 F10.
N100 G3 X4.8852 Z-0.023 I-0.0236 K0.
N105 G1 X4.7553
N110 X1.3761 F20.
N115 G3 X1.3525 Z0.0006 I0. K0.0236 F10.
N120 G0 Z0.2
N125 X0.9619 Y0.1799
N130 G1 Z0.0006 F10.
N135 G3 X0.9383 Z-0.023 I-0.0236 K0.
N140 G1 X0.8552
N145 X0.4527 F20.
N150 X0.2574
N155 G17 G2 Y0.4008 I0. J0.1104
N160 G1 X1.2026
N165 G18 G2 X1.2262 Z0.0006 I0. K0.0236 F10.
N170 G0 Z0.2
N175 X0.0919 Y0.6216
N180 G1 Z0.0006 F10.
N185 G2 X0.1155 Z-0.023 I0.0236 K0.
N190 G1 X0.2445
N195 X4.7291 F20.
N200 G17 G3 Y0.8424 I0. J0.1104
N205 G1 X4.5647
N210 X0.2463
N215 G2 Y1.0633 I0. J0.1104
N220 G1 X0.2808
N225 X4.296
N230 G3 Y1.2841 I0. J0.1104
N235 G1 X3.866
N240 X0.3425
N245 G18 G3 X0.3188 Z0.0006 I0. K0.0236 F10.
N250 G0 Z0.6
N255 G17
N260 M9
N265 G53 G0 Z0.
N270 M30
%
