%
(1001)
(6MM END MILL 12K)
(T2  D=0.2362 CR=0. - ZMIN=-0.023 - FLAT END MILL)
N10 G90 G94 G17 G91.1
N15 G20
N20 G53 G0 Z0.
(FACE1)
N25 T2 M6
(0)
N30 S12000 M3
N35 G54
N40 M8
N45 G0 X4.9385 Y-0.0496
N50 G43 Z0.3 H2
N55 G0 Z0.2
N60 G1 Z0.0006 F10.
N65 G18 G3 X4.9148 Z-0.023 I-0.0236 K0.
N70 G1 X4.8459
N75 X2.9441
N80 G3 X2.9205 Z0.0006 I0. K0.0236
N85 G0 Z0.2
N90 X1.4442 Y0.1419
N95 G1 Z0.0006 F10.
N100 G2 X1.4678 Z-0.023 I0.0236 K0.
N105 G1 X1.5221
N110 X4.9525
N115 G2 X4.9762 Z0.0006 I0. K0.0236
N120 G0 Z0.2
N125 X1.059 Y-0.0496
N130 G1 Z0.0006 F10.
N135 G3 X1.0353 Z-0.023 I-0.0236 K0.
N140 G1 X0.9473
N145 X0.4385
N150 X0.1083
N155 G17 G2 Y0.1419 I0. J0.0957
N160 G1 X1.0648
N165 G18 G2 X1.0884 Z0.0006 I0. K0.0236
N170 G0 Z0.2
N175 X-0.0807 Y0.3333
N180 G1 Z0.0006 F10.
N185 G2 X-0.0571 Z-0.023 I0.0236 K0.
N190 G1 X0.0478
N195 X4.9747
N200 G17 G3 Y0.5248 I0. J0.0957
N205 G1 X4.9744
N210 X0.0256
N215 X0.0253
N220 G2 Y0.7163 I0. J0.0957
N225 G1 X4.9181
N230 G3 Y0.9078 I0. J0.0957
N235 G1 X4.7711
N240 X0.0316
N245 G2 Y1.0992 I0. J0.0957
N250 G1 X0.0641
N255 X4.557
N260 G3 Y1.2907 I0. J0.0957
N265 G1 X4.2742
N270 X0.1156
N275 G2 Y1.4822 I0. J0.0957
N280 G1 X0.1744
N285 X3.8519
N290 G18 G2 X3.8755 Z0.0006 I0. K0.0236
N295 G0 Z0.3
N300 G17
N305 M9
N310 G53 G0 Z0.
N315 M30
%
