%
(1001)
(2MM END MILL 12K)
(T1  D=0.0787 CR=0. - ZMIN=-0.125 - FLAT END MILL)
N10 G90 G94 G17 G91.1
N15 G20
N20 G53 G0 Z0.
(2D CONTOUR1)
N25 T1 M6
N30 S12000 M3
N35 G54
N40 M8
N45 G0 X4.8612 Y0.4317
N50 G43 Z0.6 H1
N55 G0 Z0.2
N60 G1 Z0.0694 F1.
N65 Z-0.0221
N70 X4.8609 Z-0.0242
N75 X4.8601 Y0.4316 Z-0.0261
N80 X4.8589 Y0.4315 Z-0.0277
N85 X4.8573 Y0.4313 Z-0.0289
N90 X4.8554 Y0.4312 Z-0.0297
N95 X4.8533 Y0.431 Z-0.03
N100 X4.8455 Y0.4302 F10.
N105 G3 X4.8384 Y0.4216 I0.0008 J-0.0078
N110 G1 X4.8385 Y0.4204 F20.
N115 X4.8396 Y0.4044
N120 X4.8397 Y0.4021
N125 X4.8398 Y0.3864
N130 X4.8397 Y0.3841
N135 X4.8389 Y0.3687
N140 X4.8388 Y0.3664
N145 X4.8371 Y0.3513
N150 X4.8368 Y0.3492
N155 X4.8344 Y0.3343
N160 X4.834 Y0.3322
N165 X4.8307 Y0.3175
N170 X4.8303 Y0.3156
N175 X4.8263 Y0.3011
N180 X4.8257 Y0.2992
N185 X4.821 Y0.2849
N190 X4.8204 Y0.2831
N195 X4.815 Y0.269
N200 X4.8143 Y0.2673
N205 X4.8082 Y0.2534
N210 X4.8074 Y0.2518
N215 X4.8006 Y0.2381
N220 X4.7998 Y0.2365
N225 X4.7923 Y0.2231
N230 X4.7914 Y0.2215
N235 X4.7833 Y0.2084
N240 X4.7822 Y0.2068
N245 X4.7734 Y0.194
N250 X4.7723 Y0.1925
N255 X4.7629 Y0.18
N260 X4.7617 Y0.1785
N265 X4.7516 Y0.1664
N270 X4.7503 Y0.165
N275 X4.7396 Y0.1533
N280 X4.7383 Y0.152
N285 X4.7268 Y0.1407
N290 X4.7255 Y0.1395
N295 X4.7135 Y0.1287
N300 X4.7121 Y0.1275
N305 X4.6995 Y0.1172
N310 X4.6981 Y0.1161
N315 X4.685 Y0.1063
N320 X4.6837 Y0.1054
N325 X4.6701 Y0.0961
N330 X4.6687 Y0.0952
N335 X4.6548 Y0.0865
N340 X4.6535 Y0.0858
N345 X4.6392 Y0.0776
N350 X4.638 Y0.0769
N355 X4.6235 Y0.0693
N360 X4.6224 Y0.0687
N365 X4.6078 Y0.0616
N370 X4.6067 Y0.0612
N375 X4.5921 Y0.0546
N380 X4.5911 Y0.0542
N385 X4.5766 Y0.0481
N390 X4.5753 Y0.0476
N395 X4.5469 Y0.0369
N400 X4.5454 Y0.0364
N405 X4.5186 Y0.0275
N410 X4.5173 Y0.0271
N415 X4.4927 Y0.0199
N420 X4.4915 Y0.0196
N425 X4.4697 Y0.0139
N430 X4.4684 Y0.0136
N435 X4.4494 Y0.0093
N440 X4.4478 Y0.0089
N445 X4.4317 Y0.006
N450 X4.4292 Y0.0057
N455 X4.4156 Y0.0041
N460 X4.4118 Y0.0038
N465 X4.4003 Y0.0037
N470 X4.3976
N475 X4.3948 Y0.004
N480 X4.3849 Y0.0052
N485 X4.3825 Y0.0056
N490 X4.38 Y0.0061
N495 X4.3755 Y0.0073
N500 X4.3722 Y0.0083
N505 X4.3678 Y0.0099
N510 X4.3635 Y0.0117
N515 X4.3548 Y0.016
N520 X4.3507 Y0.0183
N525 X4.3417 Y0.0242
N530 X4.3393 Y0.0259
N535 X4.3295 Y0.0334
N540 X4.3284 Y0.0343
N545 X4.3172 Y0.0435
N550 X4.3171 Y0.0436
N555 X4.2896 Y0.0664
N560 X4.2733 Y0.0793
N565 X4.2549 Y0.0929
N570 X4.2343 Y0.1069
N575 X4.2235 Y0.1136
N580 X4.2121 Y0.1203
N585 X4.2003 Y0.1267
N590 X4.188 Y0.1328
N595 X4.1754 Y0.1386
N600 X4.1623 Y0.144
N605 X4.1488 Y0.1489
N610 X4.135 Y0.1532
N615 X4.1207 Y0.157
N620 X4.1059 Y0.1603
N625 X4.0907 Y0.1629
N630 X4.0748 Y0.165
N635 X4.0584 Y0.1665
N640 X4.0412 Y0.1674
N645 X4.0234 Y0.1677
N650 X4.0047 Y0.1675
N655 X3.9852 Y0.1668
N660 X3.9649 Y0.1657
N665 X3.9213 Y0.1625
N670 X3.8742 Y0.1582
N675 X3.8741
N680 X3.7701 Y0.1491
N685 X3.7695
N690 X3.7133 Y0.1451
N695 X3.7127 Y0.145
N700 X3.6543 Y0.1418
N705 X3.6536
N710 X3.5936 Y0.1395
N715 X3.5929
N720 X3.5319 Y0.1382
N725 X3.5312
N730 X3.4699 Y0.138
N735 X3.4692
N740 X3.408 Y0.1389
N745 X3.4073
N750 X3.3465 Y0.141
N755 X3.3457
N760 X3.2854 Y0.1443
N765 X3.2846
N770 X3.2246 Y0.1488
N775 X3.2238 Y0.1489
N780 X3.164 Y0.1547
N785 X3.1631 Y0.1548
N790 X3.1032 Y0.162
N795 X3.1023 Y0.1621
N800 X3.0421 Y0.1707
N805 X3.0412 Y0.1708
N810 X2.9804 Y0.1809
N815 X2.9796 Y0.181
N820 X2.9184 Y0.1924
N825 X2.9177 Y0.1926
N830 X2.8563 Y0.2053
N835 X2.8556 Y0.2055
N840 X2.7946 Y0.2193
N845 X2.7939 Y0.2195
N850 X2.7339 Y0.2343
N855 X2.7333 Y0.2344
N860 X2.6748 Y0.2498
N865 X2.6742 Y0.25
N870 X2.6177 Y0.2658
N875 X2.6173 Y0.2659
N880 X2.5632 Y0.2816
N885 X2.5631
N890 X2.4624 Y0.3112
N895 X2.4154 Y0.3241
N900 X2.3927 Y0.3297
N905 X2.3703 Y0.335
N910 X2.348 Y0.3396
N915 X2.3259 Y0.3437
N920 X2.3038 Y0.3472
N925 X2.2817 Y0.35
N930 X2.2595 Y0.3523
N935 X2.2372 Y0.3538
N940 X2.2148 Y0.3547
N945 X2.1923 Y0.355
N950 X2.1698 Y0.3547
N955 X2.1473 Y0.3538
N960 X2.1249 Y0.3523
N965 X2.1028 Y0.3504
N970 X2.081 Y0.3479
N975 X2.0597 Y0.345
N980 X2.039 Y0.3418
N985 X2.0193 Y0.3383
N990 X1.9818 Y0.3305
N995 X1.9486 Y0.3223
N1000 X1.9199 Y0.314
N1005 X1.8956 Y0.3061
N1010 X1.8752 Y0.2987
N1015 X1.8579 Y0.292
N1020 X1.8578
N1025 X1.843 Y0.2863
N1030 X1.8415 Y0.2857
N1035 X1.8287 Y0.2814
N1040 X1.8252 Y0.2804
N1045 X1.8135 Y0.2776
N1050 X1.8095 Y0.2768
N1055 X1.8038 Y0.2761
N1060 X1.8007 Y0.2758
N1065 X1.795 Y0.2755
N1070 X1.7917 Y0.2754
N1075 X1.7859 Y0.2756
N1080 X1.7827 Y0.2758
N1085 X1.7767 Y0.2765
N1090 X1.7738 Y0.2769
N1095 X1.7675 Y0.2781
N1100 X1.7649 Y0.2786
N1105 X1.7582 Y0.2804
N1110 X1.7552 Y0.2813
N1115 X1.7406 Y0.2863
N1120 X1.7377 Y0.2874
N1125 X1.7211 Y0.2947
N1130 X1.7193 Y0.2955
N1135 X1.7003 Y0.3049
N1140 X1.6994 Y0.3054
N1145 X1.6777 Y0.3168
N1150 X1.6775 Y0.3169
N1155 X1.6258 Y0.3446
N1160 X1.596 Y0.3597
N1165 X1.5633 Y0.3752
N1170 X1.5463 Y0.3828
N1175 X1.5284 Y0.3903
N1180 X1.5099 Y0.3975
N1185 X1.4908 Y0.4044
N1190 X1.4711 Y0.411
N1195 X1.451 Y0.4171
N1200 X1.4303 Y0.4226
N1205 X1.4092 Y0.4275
N1210 X1.3877 Y0.4318
N1215 X1.366 Y0.4353
N1220 X1.3439 Y0.438
N1225 X1.3217 Y0.4399
N1230 X1.2994 Y0.4408
N1235 X1.277
N1240 X1.2546 Y0.4398
N1245 X1.2323 Y0.4378
N1250 X1.2102 Y0.4348
N1255 X1.1884 Y0.4307
N1260 X1.1668 Y0.4256
N1265 X1.1456 Y0.4194
N1270 X1.1249 Y0.4122
N1275 X1.1047 Y0.404
N1280 X1.0851 Y0.3949
N1285 X1.0662 Y0.3849
N1290 X1.048 Y0.374
N1295 X1.0306 Y0.3623
N1300 X1.0141 Y0.3499
N1305 X0.9984 Y0.3369
N1310 X0.9837 Y0.3232
N1315 X0.9699 Y0.3091
N1320 X0.9571 Y0.2946
N1325 X0.9452 Y0.2798
N1330 X0.9342 Y0.2647
N1335 X0.9241 Y0.2494
N1340 X0.9149 Y0.234
N1345 X0.9064 Y0.2185
N1350 X0.8987 Y0.203
N1355 X0.8916 Y0.1877
N1360 X0.8785 Y0.157
N1365 X0.8557 Y0.1005
N1370 X0.8552 Y0.0993
N1375 X0.8498 Y0.0869
N1380 X0.8492 Y0.0857
N1385 X0.8436 Y0.0742
N1390 X0.8429 Y0.0727
N1395 X0.8371 Y0.062
N1400 X0.836 Y0.0601
N1405 X0.8301 Y0.0504
N1410 X0.8286 Y0.0482
N1415 X0.8225 Y0.0395
N1420 X0.8205 Y0.037
N1425 X0.8141 Y0.0294
N1430 X0.8117 Y0.0267
N1435 X0.805 Y0.0201
N1440 X0.8019 Y0.0173
N1445 X0.795 Y0.0117
N1450 X0.7914 Y0.0092
N1455 X0.7842 Y0.0046
N1460 X0.78 Y0.0023
N1465 X0.7726 Y-0.0012
N1470 X0.7703 Y-0.0022
N1475 X0.768 Y-0.0031
N1480 X0.7605 Y-0.0055
N1485 X0.758 Y-0.0063
N1490 X0.7555 Y-0.0068
N1495 X0.7479 Y-0.0082
N1500 X0.7454 Y-0.0086
N1505 X0.7428 Y-0.0089
N1510 X0.7351 Y-0.0093
N1515 X0.7301
N1520 X0.7224 Y-0.0087
N1525 X0.7177 Y-0.0081
N1530 X0.71 Y-0.0066
N1535 X0.7057 Y-0.0056
N1540 X0.6981 Y-0.0032
N1545 X0.6943 Y-0.0017
N1550 X0.6867 Y0.0015
N1555 X0.6834 Y0.0031
N1560 X0.676 Y0.0072
N1565 X0.6732 Y0.0089
N1570 X0.6658 Y0.0137
N1575 X0.6635 Y0.0153
N1580 X0.6563 Y0.0209
N1585 X0.6545 Y0.0224
N1590 X0.6474 Y0.0286
N1595 X0.6459 Y0.0299
N1600 X0.6389 Y0.0367
N1605 X0.6373 Y0.0383
N1610 X0.6234 Y0.0533
N1615 X0.622 Y0.0549
N1620 X0.5937 Y0.0891
N1625 X0.5791 Y0.1067
N1630 X0.564 Y0.1238
N1635 X0.5482 Y0.1401
N1640 X0.5312 Y0.1557
N1645 X0.5228 Y0.1628
N1650 X0.5139 Y0.1698
N1655 X0.5047 Y0.1765
N1660 X0.4954 Y0.1828
N1665 X0.4859 Y0.1889
N1670 X0.4765 Y0.1944
N1675 X0.4565 Y0.2049
N1680 X0.4365 Y0.2139
N1685 X0.4165 Y0.2215
N1690 X0.3968 Y0.2278
N1695 X0.3778 Y0.233
N1700 X0.3415 Y0.2413
N1705 X0.3255 Y0.2447
N1710 X0.3245 Y0.245
N1715 X0.31 Y0.2485
N1720 X0.3076 Y0.2492
N1725 X0.2949 Y0.2532
N1730 X0.292 Y0.2543
N1735 X0.2862 Y0.2566
N1740 X0.2837 Y0.2577
N1745 X0.2784 Y0.2603
N1750 X0.2756 Y0.2618
N1755 X0.2706 Y0.2648
N1760 X0.2676 Y0.2668
N1765 X0.2629 Y0.2702
N1770 X0.26 Y0.2725
N1775 X0.2555 Y0.2764
N1780 X0.2529 Y0.279
N1785 X0.2487 Y0.2834
N1790 X0.2464 Y0.2861
N1795 X0.2424 Y0.2912
N1800 X0.2406 Y0.2937
N1805 X0.2367 Y0.2995
N1810 X0.2353 Y0.3018
N1815 X0.2315 Y0.3084
N1820 X0.2304 Y0.3104
N1825 X0.2266 Y0.3179
N1830 X0.2256 Y0.3202
N1835 X0.2179 Y0.3383
N1840 X0.217 Y0.3405
N1845 X0.209 Y0.3632
N1850 X0.2085 Y0.3648
N1855 X0.1999 Y0.3929
N1860 X0.1995 Y0.3942
N1865 X0.1903 Y0.4286
N1870 X0.19 Y0.4296
N1875 X0.1853 Y0.4495
N1880 X0.1851 Y0.4503
N1885 X0.1804 Y0.4721
N1890 X0.1802 Y0.473
N1895 X0.1756 Y0.4969
N1900 X0.1754 Y0.4979
N1905 X0.1711 Y0.5241
N1910 X0.1709 Y0.5252
N1915 X0.167 Y0.5539
N1920 X0.1669 Y0.5552
N1925 X0.1637 Y0.5865
N1930 X0.1635 Y0.5879
N1935 X0.1613 Y0.6222
N1940 X0.1612 Y0.6237
N1945 X0.1602 Y0.6611
N1950 Y0.6623
N1955 X0.1603 Y0.6822
N1960 Y0.6831
N1965 X0.1608 Y0.7039
N1970 Y0.7047
N1975 X0.1618 Y0.7264
N1980 X0.1619 Y0.7273
N1985 X0.1635 Y0.7499
N1990 Y0.7507
N1995 X0.1657 Y0.7743
N2000 X0.1658 Y0.7751
N2005 X0.1685 Y0.7996
N2010 X0.1686 Y0.8004
N2015 X0.172 Y0.8259
N2020 X0.1721 Y0.8267
N2025 X0.1762 Y0.8531
N2030 X0.1763 Y0.8538
N2035 X0.1811 Y0.8811
N2040 X0.1812 Y0.8819
N2045 X0.1867 Y0.9101
N2050 X0.1868 Y0.9107
N2055 X0.193 Y0.9398
N2060 X0.1931 Y0.9405
N2065 X0.2 Y0.9704
N2070 X0.2001 Y0.9709
N2075 X0.2076 Y1.0016
N2080 X0.2078 Y1.0021
N2085 X0.2159 Y1.0335
N2090 X0.2161 Y1.0341
N2095 X0.234 Y1.0984
N2100 X0.2342 Y1.0993
N2105 X0.3119 Y1.3542
N2110 X0.312 Y1.3544
N2115 X0.3127 Y1.3567
N2120 X0.3133 Y1.3586
N2125 X0.3142 Y1.3609
N2130 X0.3149 Y1.3627
N2135 X0.3159 Y1.365
N2140 X0.3166 Y1.3668
N2145 X0.3177 Y1.369
N2150 X0.3186 Y1.3707
N2155 X0.3198 Y1.3729
N2160 X0.3208 Y1.3746
N2165 X0.3221 Y1.3767
N2170 X0.3231 Y1.3783
N2175 X0.3245 Y1.3804
N2180 X0.3256 Y1.3819
N2185 X0.3271 Y1.3839
N2190 X0.3283 Y1.3855
N2195 X0.3299 Y1.3873
N2200 X0.3312 Y1.3888
N2205 X0.3329 Y1.3906
N2210 X0.3342 Y1.392
N2215 X0.336 Y1.3937
N2220 X0.3374 Y1.3951
N2225 X0.3393 Y1.3967
N2230 X0.3407 Y1.398
N2235 X0.3427 Y1.3995
N2240 X0.3442 Y1.4007
N2245 X0.3462 Y1.4021
N2250 X0.3478 Y1.4033
N2255 X0.3499 Y1.4046
N2260 X0.3515 Y1.4056
N2265 X0.3536 Y1.4069
N2270 X0.3554 Y1.4078
N2275 X0.3576 Y1.4089
N2280 X0.3593 Y1.4098
N2285 X0.3615 Y1.4108
N2290 X0.3633 Y1.4116
N2295 X0.3656 Y1.4125
N2300 X0.3674 Y1.4132
N2305 X0.3697 Y1.414
N2310 X0.3717 Y1.4146
N2315 X0.374 Y1.4153
N2320 X0.3759 Y1.4158
N2325 X0.3783 Y1.4163
N2330 X0.3802 Y1.4167
N2335 X0.3826 Y1.4172
N2340 X0.3845 Y1.4175
N2345 X0.3869 Y1.4178
N2350 X0.3889 Y1.418
N2355 X0.3914 Y1.4182
N2360 X0.3933 Y1.4184
N2365 X0.3958
N2370 X0.3977 Y1.4185
N2375 X0.4002 Y1.4184
N2380 X0.4021 Y1.4183
N2385 X0.4046 Y1.4182
N2390 X0.4053 Y1.4181
N2395 X0.5008 Y1.4104
N2400 X0.5912 Y1.4043
N2405 X0.677 Y1.3997
N2410 X0.7588 Y1.3966
N2415 X0.8369 Y1.3946
N2420 X0.9116 Y1.3938
N2425 X0.9832 Y1.394
N2430 X1.0522 Y1.395
N2435 X1.1186 Y1.3968
N2440 X1.1828 Y1.3992
N2445 X1.245 Y1.4022
N2450 X1.3053 Y1.4057
N2455 X1.3639 Y1.4096
N2460 X1.421 Y1.4138
N2465 X1.5313 Y1.4227
N2470 X1.9295 Y1.4586
N2475 X1.9299
N2480 X2.0205 Y1.4659
N2485 X2.0209
N2490 X2.1082 Y1.472
N2495 X2.1087
N2500 X2.193 Y1.4768
N2505 X2.1935 Y1.4769
N2510 X2.2749 Y1.4803
N2515 X2.2755 Y1.4804
N2520 X2.3541 Y1.4824
N2525 X2.3548 Y1.4825
N2530 X2.4309 Y1.4832
N2535 X2.4316
N2540 X2.5053 Y1.4826
N2545 X2.506
N2550 X2.5776 Y1.4807
N2555 X2.5783 Y1.4806
N2560 X2.6479 Y1.4776
N2565 X2.6486 Y1.4775
N2570 X2.7165 Y1.4733
N2575 X2.7172
N2580 X2.7836 Y1.4681
N2585 X2.7842
N2590 X2.8493 Y1.462
N2595 X2.8498
N2600 X2.9138 Y1.4551
N2605 X2.9142
N2610 X2.9772 Y1.4476
N2615 X2.9777 Y1.4475
N2620 X3.0398 Y1.4394
N2625 X3.0402 Y1.4393
N2630 X3.1017 Y1.4307
N2635 X3.102 Y1.4306
N2640 X3.1629 Y1.4214
N2645 X3.1633
N2650 X3.2236 Y1.4117
N2655 X3.224
N2660 X3.2839 Y1.4015
N2665 X3.2843 Y1.4014
N2670 X3.3437 Y1.3907
N2675 X3.3441 Y1.3906
N2680 X3.4031 Y1.3793
N2685 X3.4035 Y1.3792
N2690 X3.462 Y1.3673
N2695 X3.4626 Y1.3671
N2700 X3.5206 Y1.3545
N2705 X3.5212 Y1.3543
N2710 X3.5786 Y1.3409
N2715 X3.5793 Y1.3407
N2720 X3.6361 Y1.3264
N2725 X3.6368 Y1.3262
N2730 X3.693 Y1.3109
N2735 X3.6938 Y1.3107
N2740 X3.7492 Y1.2945
N2745 X3.7501 Y1.2942
N2750 X3.8047 Y1.2769
N2755 X3.8056 Y1.2766
N2760 X3.8593 Y1.2583
N2765 X3.8602 Y1.2579
N2770 X3.9129 Y1.2385
N2775 X3.9139 Y1.2381
N2780 X3.9655 Y1.2176
N2785 X3.9665 Y1.2172
N2790 X4.017 Y1.1956
N2795 X4.018 Y1.1952
N2800 X4.0673 Y1.1726
N2805 X4.0682 Y1.1721
N2810 X4.1163 Y1.1486
N2815 X4.1172 Y1.1481
N2820 X4.1639 Y1.1237
N2825 X4.1647 Y1.1233
N2830 X4.21 Y1.0981
N2835 X4.2109 Y1.0976
N2840 X4.2547 Y1.0718
N2845 X4.2555 Y1.0713
N2850 X4.2978 Y1.045
N2855 X4.2986 Y1.0445
N2860 X4.3393 Y1.0178
N2865 X4.3401 Y1.0173
N2870 X4.3791 Y0.9902
N2875 X4.3799 Y0.9897
N2880 X4.4173 Y0.9625
N2885 X4.418 Y0.962
N2890 X4.4537 Y0.9348
N2895 X4.4544 Y0.9342
N2900 X4.4884 Y0.9071
N2905 X4.4891 Y0.9065
N2910 X4.5214 Y0.8795
N2915 X4.5221 Y0.8789
N2920 X4.5526 Y0.8522
N2925 X4.5533 Y0.8516
N2930 X4.582 Y0.8252
N2935 X4.5827 Y0.8246
N2940 X4.6097 Y0.7986
N2945 X4.6104 Y0.7979
N2950 X4.6357 Y0.7725
N2955 X4.6364 Y0.7718
N2960 X4.6599 Y0.7468
N2965 X4.6606 Y0.746
N2970 X4.6824 Y0.7217
N2975 X4.6831 Y0.7208
N2980 X4.7033 Y0.697
N2985 X4.704 Y0.6962
N2990 X4.7224 Y0.673
N2995 X4.7232 Y0.672
N3000 X4.74 Y0.6495
N3005 X4.7408 Y0.6484
N3010 X4.756 Y0.6266
N3015 X4.7568 Y0.6254
N3020 X4.7705 Y0.6042
N3025 X4.7713 Y0.6029
N3030 X4.7835 Y0.5823
N3035 X4.7843 Y0.5809
N3040 X4.795 Y0.5609
N3045 X4.7958 Y0.5594
N3050 X4.8052 Y0.54
N3055 X4.8059 Y0.5383
N3060 X4.8139 Y0.5195
N3065 X4.8146 Y0.5177
N3070 X4.8213 Y0.4995
N3075 X4.822 Y0.4975
N3080 X4.8274 Y0.4798
N3085 X4.828 Y0.4777
N3090 X4.8322 Y0.4604
N3095 X4.8327 Y0.4582
N3100 X4.8359 Y0.4414
N3105 X4.8362 Y0.4392
N3110 X4.8383 Y0.4228
N3115 X4.8384 Y0.4216
N3120 G3 X4.847 Y0.4145 I0.0078 J0.0008 F10.
N3125 G1 X4.8549 Y0.4153
N3130 X4.8569 Y0.4155 Z-0.0297
N3135 X4.8588 Y0.4157 Z-0.0289
N3140 X4.8604 Y0.4158 Z-0.0277
N3145 X4.8616 Y0.4159 Z-0.0261
N3150 X4.8624 Y0.416 Z-0.0242
N3155 X4.8627 Z-0.0221
N3160 G0 Z0.2
N3165 X4.8612 Y0.4317
N3170 G1 Z0.0394 F1.
N3175 Z-0.0521
N3180 X4.8609 Z-0.0542
N3185 X4.8601 Y0.4316 Z-0.0561
N3190 X4.8589 Y0.4315 Z-0.0577
N3195 X4.8573 Y0.4313 Z-0.0589
N3200 X4.8554 Y0.4312 Z-0.0597
N3205 X4.8533 Y0.431 Z-0.06
N3210 X4.8455 Y0.4302 F10.
N3215 G3 X4.8384 Y0.4216 I0.0008 J-0.0078
N3220 G1 X4.8385 Y0.4204 F20.
N3225 X4.8396 Y0.4044
N3230 X4.8397 Y0.4021
N3235 X4.8398 Y0.3864
N3240 X4.8397 Y0.3841
N3245 X4.8389 Y0.3687
N3250 X4.8388 Y0.3664
N3255 X4.8371 Y0.3513
N3260 X4.8368 Y0.3492
N3265 X4.8344 Y0.3343
N3270 X4.834 Y0.3322
N3275 X4.8307 Y0.3175
N3280 X4.8303 Y0.3156
N3285 X4.8263 Y0.3011
N3290 X4.8257 Y0.2992
N3295 X4.821 Y0.2849
N3300 X4.8204 Y0.2831
N3305 X4.815 Y0.269
N3310 X4.8143 Y0.2673
N3315 X4.8082 Y0.2534
N3320 X4.8074 Y0.2518
N3325 X4.8006 Y0.2381
N3330 X4.7998 Y0.2365
N3335 X4.7923 Y0.2231
N3340 X4.7914 Y0.2215
N3345 X4.7833 Y0.2084
N3350 X4.7822 Y0.2068
N3355 X4.7734 Y0.194
N3360 X4.7723 Y0.1925
N3365 X4.7629 Y0.18
N3370 X4.7617 Y0.1785
N3375 X4.7516 Y0.1664
N3380 X4.7503 Y0.165
N3385 X4.7396 Y0.1533
N3390 X4.7383 Y0.152
N3395 X4.7268 Y0.1407
N3400 X4.7255 Y0.1395
N3405 X4.7135 Y0.1287
N3410 X4.7121 Y0.1275
N3415 X4.6995 Y0.1172
N3420 X4.6981 Y0.1161
N3425 X4.685 Y0.1063
N3430 X4.6837 Y0.1054
N3435 X4.6701 Y0.0961
N3440 X4.6687 Y0.0952
N3445 X4.6548 Y0.0865
N3450 X4.6535 Y0.0858
N3455 X4.6392 Y0.0776
N3460 X4.638 Y0.0769
N3465 X4.6235 Y0.0693
N3470 X4.6224 Y0.0687
N3475 X4.6078 Y0.0616
N3480 X4.6067 Y0.0612
N3485 X4.5921 Y0.0546
N3490 X4.5911 Y0.0542
N3495 X4.5766 Y0.0481
N3500 X4.5753 Y0.0476
N3505 X4.5469 Y0.0369
N3510 X4.5454 Y0.0364
N3515 X4.5186 Y0.0275
N3520 X4.5173 Y0.0271
N3525 X4.4927 Y0.0199
N3530 X4.4915 Y0.0196
N3535 X4.4697 Y0.0139
N3540 X4.4684 Y0.0136
N3545 X4.4494 Y0.0093
N3550 X4.4478 Y0.0089
N3555 X4.4317 Y0.006
N3560 X4.4292 Y0.0057
N3565 X4.4156 Y0.0041
N3570 X4.4118 Y0.0038
N3575 X4.4003 Y0.0037
N3580 X4.3976
N3585 X4.3948 Y0.004
N3590 X4.3849 Y0.0052
N3595 X4.3825 Y0.0056
N3600 X4.38 Y0.0061
N3605 X4.3755 Y0.0073
N3610 X4.3722 Y0.0083
N3615 X4.3678 Y0.0099
N3620 X4.3635 Y0.0117
N3625 X4.3548 Y0.016
N3630 X4.3507 Y0.0183
N3635 X4.3417 Y0.0242
N3640 X4.3393 Y0.0259
N3645 X4.3295 Y0.0334
N3650 X4.3284 Y0.0343
N3655 X4.3172 Y0.0435
N3660 X4.3171 Y0.0436
N3665 X4.2896 Y0.0664
N3670 X4.2733 Y0.0793
N3675 X4.2549 Y0.0929
N3680 X4.2343 Y0.1069
N3685 X4.2235 Y0.1136
N3690 X4.2121 Y0.1203
N3695 X4.2003 Y0.1267
N3700 X4.188 Y0.1328
N3705 X4.1754 Y0.1386
N3710 X4.1623 Y0.144
N3715 X4.1488 Y0.1489
N3720 X4.135 Y0.1532
N3725 X4.1207 Y0.157
N3730 X4.1059 Y0.1603
N3735 X4.0907 Y0.1629
N3740 X4.0748 Y0.165
N3745 X4.0584 Y0.1665
N3750 X4.0412 Y0.1674
N3755 X4.0234 Y0.1677
N3760 X4.0047 Y0.1675
N3765 X3.9852 Y0.1668
N3770 X3.9649 Y0.1657
N3775 X3.9213 Y0.1625
N3780 X3.8742 Y0.1582
N3785 X3.8741
N3790 X3.7701 Y0.1491
N3795 X3.7695
N3800 X3.7133 Y0.1451
N3805 X3.7127 Y0.145
N3810 X3.6543 Y0.1418
N3815 X3.6536
N3820 X3.5936 Y0.1395
N3825 X3.5929
N3830 X3.5319 Y0.1382
N3835 X3.5312
N3840 X3.4699 Y0.138
N3845 X3.4692
N3850 X3.408 Y0.1389
N3855 X3.4073
N3860 X3.3465 Y0.141
N3865 X3.3457
N3870 X3.2854 Y0.1443
N3875 X3.2846
N3880 X3.2246 Y0.1488
N3885 X3.2238 Y0.1489
N3890 X3.164 Y0.1547
N3895 X3.1631 Y0.1548
N3900 X3.1032 Y0.162
N3905 X3.1023 Y0.1621
N3910 X3.0421 Y0.1707
N3915 X3.0412 Y0.1708
N3920 X2.9804 Y0.1809
N3925 X2.9796 Y0.181
N3930 X2.9184 Y0.1924
N3935 X2.9177 Y0.1926
N3940 X2.8563 Y0.2053
N3945 X2.8556 Y0.2055
N3950 X2.7946 Y0.2193
N3955 X2.7939 Y0.2195
N3960 X2.7339 Y0.2343
N3965 X2.7333 Y0.2344
N3970 X2.6748 Y0.2498
N3975 X2.6742 Y0.25
N3980 X2.6177 Y0.2658
N3985 X2.6173 Y0.2659
N3990 X2.5632 Y0.2816
N3995 X2.5631
N4000 X2.4624 Y0.3112
N4005 X2.4154 Y0.3241
N4010 X2.3927 Y0.3297
N4015 X2.3703 Y0.335
N4020 X2.348 Y0.3396
N4025 X2.3259 Y0.3437
N4030 X2.3038 Y0.3472
N4035 X2.2817 Y0.35
N4040 X2.2595 Y0.3523
N4045 X2.2372 Y0.3538
N4050 X2.2148 Y0.3547
N4055 X2.1923 Y0.355
N4060 X2.1698 Y0.3547
N4065 X2.1473 Y0.3538
N4070 X2.1249 Y0.3523
N4075 X2.1028 Y0.3504
N4080 X2.081 Y0.3479
N4085 X2.0597 Y0.345
N4090 X2.039 Y0.3418
N4095 X2.0193 Y0.3383
N4100 X1.9818 Y0.3305
N4105 X1.9486 Y0.3223
N4110 X1.9199 Y0.314
N4115 X1.8956 Y0.3061
N4120 X1.8752 Y0.2987
N4125 X1.8579 Y0.292
N4130 X1.8578
N4135 X1.843 Y0.2863
N4140 X1.8415 Y0.2857
N4145 X1.8287 Y0.2814
N4150 X1.8252 Y0.2804
N4155 X1.8135 Y0.2776
N4160 X1.8095 Y0.2768
N4165 X1.8038 Y0.2761
N4170 X1.8007 Y0.2758
N4175 X1.795 Y0.2755
N4180 X1.7917 Y0.2754
N4185 X1.7859 Y0.2756
N4190 X1.7827 Y0.2758
N4195 X1.7767 Y0.2765
N4200 X1.7738 Y0.2769
N4205 X1.7675 Y0.2781
N4210 X1.7649 Y0.2786
N4215 X1.7582 Y0.2804
N4220 X1.7552 Y0.2813
N4225 X1.7406 Y0.2863
N4230 X1.7377 Y0.2874
N4235 X1.7211 Y0.2947
N4240 X1.7193 Y0.2955
N4245 X1.7003 Y0.3049
N4250 X1.6994 Y0.3054
N4255 X1.6777 Y0.3168
N4260 X1.6775 Y0.3169
N4265 X1.6258 Y0.3446
N4270 X1.596 Y0.3597
N4275 X1.5633 Y0.3752
N4280 X1.5463 Y0.3828
N4285 X1.5284 Y0.3903
N4290 X1.5099 Y0.3975
N4295 X1.4908 Y0.4044
N4300 X1.4711 Y0.411
N4305 X1.451 Y0.4171
N4310 X1.4303 Y0.4226
N4315 X1.4092 Y0.4275
N4320 X1.3877 Y0.4318
N4325 X1.366 Y0.4353
N4330 X1.3439 Y0.438
N4335 X1.3217 Y0.4399
N4340 X1.2994 Y0.4408
N4345 X1.277
N4350 X1.2546 Y0.4398
N4355 X1.2323 Y0.4378
N4360 X1.2102 Y0.4348
N4365 X1.1884 Y0.4307
N4370 X1.1668 Y0.4256
N4375 X1.1456 Y0.4194
N4380 X1.1249 Y0.4122
N4385 X1.1047 Y0.404
N4390 X1.0851 Y0.3949
N4395 X1.0662 Y0.3849
N4400 X1.048 Y0.374
N4405 X1.0306 Y0.3623
N4410 X1.0141 Y0.3499
N4415 X0.9984 Y0.3369
N4420 X0.9837 Y0.3232
N4425 X0.9699 Y0.3091
N4430 X0.9571 Y0.2946
N4435 X0.9452 Y0.2798
N4440 X0.9342 Y0.2647
N4445 X0.9241 Y0.2494
N4450 X0.9149 Y0.234
N4455 X0.9064 Y0.2185
N4460 X0.8987 Y0.203
N4465 X0.8916 Y0.1877
N4470 X0.8785 Y0.157
N4475 X0.8557 Y0.1005
N4480 X0.8552 Y0.0993
N4485 X0.8498 Y0.0869
N4490 X0.8492 Y0.0857
N4495 X0.8436 Y0.0742
N4500 X0.8429 Y0.0727
N4505 X0.8371 Y0.062
N4510 X0.836 Y0.0601
N4515 X0.8301 Y0.0504
N4520 X0.8286 Y0.0482
N4525 X0.8225 Y0.0395
N4530 X0.8205 Y0.037
N4535 X0.8141 Y0.0294
N4540 X0.8117 Y0.0267
N4545 X0.805 Y0.0201
N4550 X0.8019 Y0.0173
N4555 X0.795 Y0.0117
N4560 X0.7914 Y0.0092
N4565 X0.7842 Y0.0046
N4570 X0.78 Y0.0023
N4575 X0.7726 Y-0.0012
N4580 X0.7703 Y-0.0022
N4585 X0.768 Y-0.0031
N4590 X0.7605 Y-0.0055
N4595 X0.758 Y-0.0063
N4600 X0.7555 Y-0.0068
N4605 X0.7479 Y-0.0082
N4610 X0.7454 Y-0.0086
N4615 X0.7428 Y-0.0089
N4620 X0.7351 Y-0.0093
N4625 X0.7301
N4630 X0.7224 Y-0.0087
N4635 X0.7177 Y-0.0081
N4640 X0.71 Y-0.0066
N4645 X0.7057 Y-0.0056
N4650 X0.6981 Y-0.0032
N4655 X0.6943 Y-0.0017
N4660 X0.6867 Y0.0015
N4665 X0.6834 Y0.0031
N4670 X0.676 Y0.0072
N4675 X0.6732 Y0.0089
N4680 X0.6658 Y0.0137
N4685 X0.6635 Y0.0153
N4690 X0.6563 Y0.0209
N4695 X0.6545 Y0.0224
N4700 X0.6474 Y0.0286
N4705 X0.6459 Y0.0299
N4710 X0.6389 Y0.0367
N4715 X0.6373 Y0.0383
N4720 X0.6234 Y0.0533
N4725 X0.622 Y0.0549
N4730 X0.5937 Y0.0891
N4735 X0.5791 Y0.1067
N4740 X0.564 Y0.1238
N4745 X0.5482 Y0.1401
N4750 X0.5312 Y0.1557
N4755 X0.5228 Y0.1628
N4760 X0.5139 Y0.1698
N4765 X0.5047 Y0.1765
N4770 X0.4954 Y0.1828
N4775 X0.4859 Y0.1889
N4780 X0.4765 Y0.1944
N4785 X0.4565 Y0.2049
N4790 X0.4365 Y0.2139
N4795 X0.4165 Y0.2215
N4800 X0.3968 Y0.2278
N4805 X0.3778 Y0.233
N4810 X0.3415 Y0.2413
N4815 X0.3255 Y0.2447
N4820 X0.3245 Y0.245
N4825 X0.31 Y0.2485
N4830 X0.3076 Y0.2492
N4835 X0.2949 Y0.2532
N4840 X0.292 Y0.2543
N4845 X0.2862 Y0.2566
N4850 X0.2837 Y0.2577
N4855 X0.2784 Y0.2603
N4860 X0.2756 Y0.2618
N4865 X0.2706 Y0.2648
N4870 X0.2676 Y0.2668
N4875 X0.2629 Y0.2702
N4880 X0.26 Y0.2725
N4885 X0.2555 Y0.2764
N4890 X0.2529 Y0.279
N4895 X0.2487 Y0.2834
N4900 X0.2464 Y0.2861
N4905 X0.2424 Y0.2912
N4910 X0.2406 Y0.2937
N4915 X0.2367 Y0.2995
N4920 X0.2353 Y0.3018
N4925 X0.2315 Y0.3084
N4930 X0.2304 Y0.3104
N4935 X0.2266 Y0.3179
N4940 X0.2256 Y0.3202
N4945 X0.2179 Y0.3383
N4950 X0.217 Y0.3405
N4955 X0.209 Y0.3632
N4960 X0.2085 Y0.3648
N4965 X0.1999 Y0.3929
N4970 X0.1995 Y0.3942
N4975 X0.1903 Y0.4286
N4980 X0.19 Y0.4296
N4985 X0.1853 Y0.4495
N4990 X0.1851 Y0.4503
N4995 X0.1804 Y0.4721
N5000 X0.1802 Y0.473
N5005 X0.1756 Y0.4969
N5010 X0.1754 Y0.4979
N5015 X0.1711 Y0.5241
N5020 X0.1709 Y0.5252
N5025 X0.167 Y0.5539
N5030 X0.1669 Y0.5552
N5035 X0.1637 Y0.5865
N5040 X0.1635 Y0.5879
N5045 X0.1613 Y0.6222
N5050 X0.1612 Y0.6237
N5055 X0.1602 Y0.6611
N5060 Y0.6623
N5065 X0.1603 Y0.6822
N5070 Y0.6831
N5075 X0.1608 Y0.7039
N5080 Y0.7047
N5085 X0.1618 Y0.7264
N5090 X0.1619 Y0.7273
N5095 X0.1635 Y0.7499
N5100 Y0.7507
N5105 X0.1657 Y0.7743
N5110 X0.1658 Y0.7751
N5115 X0.1685 Y0.7996
N5120 X0.1686 Y0.8004
N5125 X0.172 Y0.8259
N5130 X0.1721 Y0.8267
N5135 X0.1762 Y0.8531
N5140 X0.1763 Y0.8538
N5145 X0.1811 Y0.8811
N5150 X0.1812 Y0.8819
N5155 X0.1867 Y0.9101
N5160 X0.1868 Y0.9107
N5165 X0.193 Y0.9398
N5170 X0.1931 Y0.9405
N5175 X0.2 Y0.9704
N5180 X0.2001 Y0.9709
N5185 X0.2076 Y1.0016
N5190 X0.2078 Y1.0021
N5195 X0.2159 Y1.0335
N5200 X0.2161 Y1.0341
N5205 X0.234 Y1.0984
N5210 X0.2342 Y1.0993
N5215 X0.3119 Y1.3542
N5220 X0.312 Y1.3544
N5225 X0.3127 Y1.3567
N5230 X0.3133 Y1.3586
N5235 X0.3142 Y1.3609
N5240 X0.3149 Y1.3627
N5245 X0.3159 Y1.365
N5250 X0.3166 Y1.3668
N5255 X0.3177 Y1.369
N5260 X0.3186 Y1.3707
N5265 X0.3198 Y1.3729
N5270 X0.3208 Y1.3746
N5275 X0.3221 Y1.3767
N5280 X0.3231 Y1.3783
N5285 X0.3245 Y1.3804
N5290 X0.3256 Y1.3819
N5295 X0.3271 Y1.3839
N5300 X0.3283 Y1.3855
N5305 X0.3299 Y1.3873
N5310 X0.3312 Y1.3888
N5315 X0.3329 Y1.3906
N5320 X0.3342 Y1.392
N5325 X0.336 Y1.3937
N5330 X0.3374 Y1.3951
N5335 X0.3393 Y1.3967
N5340 X0.3407 Y1.398
N5345 X0.3427 Y1.3995
N5350 X0.3442 Y1.4007
N5355 X0.3462 Y1.4021
N5360 X0.3478 Y1.4033
N5365 X0.3499 Y1.4046
N5370 X0.3515 Y1.4056
N5375 X0.3536 Y1.4069
N5380 X0.3554 Y1.4078
N5385 X0.3576 Y1.4089
N5390 X0.3593 Y1.4098
N5395 X0.3615 Y1.4108
N5400 X0.3633 Y1.4116
N5405 X0.3656 Y1.4125
N5410 X0.3674 Y1.4132
N5415 X0.3697 Y1.414
N5420 X0.3717 Y1.4146
N5425 X0.374 Y1.4153
N5430 X0.3759 Y1.4158
N5435 X0.3783 Y1.4163
N5440 X0.3802 Y1.4167
N5445 X0.3826 Y1.4172
N5450 X0.3845 Y1.4175
N5455 X0.3869 Y1.4178
N5460 X0.3889 Y1.418
N5465 X0.3914 Y1.4182
N5470 X0.3933 Y1.4184
N5475 X0.3958
N5480 X0.3977 Y1.4185
N5485 X0.4002 Y1.4184
N5490 X0.4021 Y1.4183
N5495 X0.4046 Y1.4182
N5500 X0.4053 Y1.4181
N5505 X0.5008 Y1.4104
N5510 X0.5912 Y1.4043
N5515 X0.677 Y1.3997
N5520 X0.7588 Y1.3966
N5525 X0.8369 Y1.3946
N5530 X0.9116 Y1.3938
N5535 X0.9832 Y1.394
N5540 X1.0522 Y1.395
N5545 X1.1186 Y1.3968
N5550 X1.1828 Y1.3992
N5555 X1.245 Y1.4022
N5560 X1.3053 Y1.4057
N5565 X1.3639 Y1.4096
N5570 X1.421 Y1.4138
N5575 X1.5313 Y1.4227
N5580 X1.9295 Y1.4586
N5585 X1.9299
N5590 X2.0205 Y1.4659
N5595 X2.0209
N5600 X2.1082 Y1.472
N5605 X2.1087
N5610 X2.193 Y1.4768
N5615 X2.1935 Y1.4769
N5620 X2.2749 Y1.4803
N5625 X2.2755 Y1.4804
N5630 X2.3541 Y1.4824
N5635 X2.3548 Y1.4825
N5640 X2.4309 Y1.4832
N5645 X2.4316
N5650 X2.5053 Y1.4826
N5655 X2.506
N5660 X2.5776 Y1.4807
N5665 X2.5783 Y1.4806
N5670 X2.6479 Y1.4776
N5675 X2.6486 Y1.4775
N5680 X2.7165 Y1.4733
N5685 X2.7172
N5690 X2.7836 Y1.4681
N5695 X2.7842
N5700 X2.8493 Y1.462
N5705 X2.8498
N5710 X2.9138 Y1.4551
N5715 X2.9142
N5720 X2.9772 Y1.4476
N5725 X2.9777 Y1.4475
N5730 X3.0398 Y1.4394
N5735 X3.0402 Y1.4393
N5740 X3.1017 Y1.4307
N5745 X3.102 Y1.4306
N5750 X3.1629 Y1.4214
N5755 X3.1633
N5760 X3.2236 Y1.4117
N5765 X3.224
N5770 X3.2839 Y1.4015
N5775 X3.2843 Y1.4014
N5780 X3.3437 Y1.3907
N5785 X3.3441 Y1.3906
N5790 X3.4031 Y1.3793
N5795 X3.4035 Y1.3792
N5800 X3.462 Y1.3673
N5805 X3.4626 Y1.3671
N5810 X3.5206 Y1.3545
N5815 X3.5212 Y1.3543
N5820 X3.5786 Y1.3409
N5825 X3.5793 Y1.3407
N5830 X3.6361 Y1.3264
N5835 X3.6368 Y1.3262
N5840 X3.693 Y1.3109
N5845 X3.6938 Y1.3107
N5850 X3.7492 Y1.2945
N5855 X3.7501 Y1.2942
N5860 X3.8047 Y1.2769
N5865 X3.8056 Y1.2766
N5870 X3.8593 Y1.2583
N5875 X3.8602 Y1.2579
N5880 X3.9129 Y1.2385
N5885 X3.9139 Y1.2381
N5890 X3.9655 Y1.2176
N5895 X3.9665 Y1.2172
N5900 X4.017 Y1.1956
N5905 X4.018 Y1.1952
N5910 X4.0673 Y1.1726
N5915 X4.0682 Y1.1721
N5920 X4.1163 Y1.1486
N5925 X4.1172 Y1.1481
N5930 X4.1639 Y1.1237
N5935 X4.1647 Y1.1233
N5940 X4.21 Y1.0981
N5945 X4.2109 Y1.0976
N5950 X4.2547 Y1.0718
N5955 X4.2555 Y1.0713
N5960 X4.2978 Y1.045
N5965 X4.2986 Y1.0445
N5970 X4.3393 Y1.0178
N5975 X4.3401 Y1.0173
N5980 X4.3791 Y0.9902
N5985 X4.3799 Y0.9897
N5990 X4.4173 Y0.9625
N5995 X4.418 Y0.962
N6000 X4.4537 Y0.9348
N6005 X4.4544 Y0.9342
N6010 X4.4884 Y0.9071
N6015 X4.4891 Y0.9065
N6020 X4.5214 Y0.8795
N6025 X4.5221 Y0.8789
N6030 X4.5526 Y0.8522
N6035 X4.5533 Y0.8516
N6040 X4.582 Y0.8252
N6045 X4.5827 Y0.8246
N6050 X4.6097 Y0.7986
N6055 X4.6104 Y0.7979
N6060 X4.6357 Y0.7725
N6065 X4.6364 Y0.7718
N6070 X4.6599 Y0.7468
N6075 X4.6606 Y0.746
N6080 X4.6824 Y0.7217
N6085 X4.6831 Y0.7208
N6090 X4.7033 Y0.697
N6095 X4.704 Y0.6962
N6100 X4.7224 Y0.673
N6105 X4.7232 Y0.672
N6110 X4.74 Y0.6495
N6115 X4.7408 Y0.6484
N6120 X4.756 Y0.6266
N6125 X4.7568 Y0.6254
N6130 X4.7705 Y0.6042
N6135 X4.7713 Y0.6029
N6140 X4.7835 Y0.5823
N6145 X4.7843 Y0.5809
N6150 X4.795 Y0.5609
N6155 X4.7958 Y0.5594
N6160 X4.8052 Y0.54
N6165 X4.8059 Y0.5383
N6170 X4.8139 Y0.5195
N6175 X4.8146 Y0.5177
N6180 X4.8213 Y0.4995
N6185 X4.822 Y0.4975
N6190 X4.8274 Y0.4798
N6195 X4.828 Y0.4777
N6200 X4.8322 Y0.4604
N6205 X4.8327 Y0.4582
N6210 X4.8359 Y0.4414
N6215 X4.8362 Y0.4392
N6220 X4.8383 Y0.4228
N6225 X4.8384 Y0.4216
N6230 G3 X4.847 Y0.4145 I0.0078 J0.0008 F10.
N6235 G1 X4.8549 Y0.4153
N6240 X4.8569 Y0.4155 Z-0.0597
N6245 X4.8588 Y0.4157 Z-0.0589
N6250 X4.8604 Y0.4158 Z-0.0577
N6255 X4.8616 Y0.4159 Z-0.0561
N6260 X4.8624 Y0.416 Z-0.0542
N6265 X4.8627 Z-0.0521
N6270 G0 Z0.2
N6275 X4.8612 Y0.4317
N6280 G1 Z0.0094 F1.
N6285 Z-0.0821
N6290 X4.8609 Z-0.0842
N6295 X4.8601 Y0.4316 Z-0.0861
N6300 X4.8589 Y0.4315 Z-0.0877
N6305 X4.8573 Y0.4313 Z-0.0889
N6310 X4.8554 Y0.4312 Z-0.0897
N6315 X4.8533 Y0.431 Z-0.09
N6320 X4.8455 Y0.4302 F10.
N6325 G3 X4.8384 Y0.4216 I0.0008 J-0.0078
N6330 G1 X4.8385 Y0.4204 F20.
N6335 X4.8396 Y0.4044
N6340 X4.8397 Y0.4021
N6345 X4.8398 Y0.3864
N6350 X4.8397 Y0.3841
N6355 X4.8389 Y0.3687
N6360 X4.8388 Y0.3664
N6365 X4.8371 Y0.3513
N6370 X4.8368 Y0.3492
N6375 X4.8344 Y0.3343
N6380 X4.834 Y0.3322
N6385 X4.8307 Y0.3175
N6390 X4.8303 Y0.3156
N6395 X4.8263 Y0.3011
N6400 X4.8257 Y0.2992
N6405 X4.821 Y0.2849
N6410 X4.8204 Y0.2831
N6415 X4.815 Y0.269
N6420 X4.8143 Y0.2673
N6425 X4.8082 Y0.2534
N6430 X4.8074 Y0.2518
N6435 X4.8006 Y0.2381
N6440 X4.7998 Y0.2365
N6445 X4.7923 Y0.2231
N6450 X4.7914 Y0.2215
N6455 X4.7833 Y0.2084
N6460 X4.7822 Y0.2068
N6465 X4.7734 Y0.194
N6470 X4.7723 Y0.1925
N6475 X4.7629 Y0.18
N6480 X4.7617 Y0.1785
N6485 X4.7516 Y0.1664
N6490 X4.7503 Y0.165
N6495 X4.7396 Y0.1533
N6500 X4.7383 Y0.152
N6505 X4.7268 Y0.1407
N6510 X4.7255 Y0.1395
N6515 X4.7135 Y0.1287
N6520 X4.7121 Y0.1275
N6525 X4.6995 Y0.1172
N6530 X4.6981 Y0.1161
N6535 X4.685 Y0.1063
N6540 X4.6837 Y0.1054
N6545 X4.6701 Y0.0961
N6550 X4.6687 Y0.0952
N6555 X4.6548 Y0.0865
N6560 X4.6535 Y0.0858
N6565 X4.6392 Y0.0776
N6570 X4.638 Y0.0769
N6575 X4.6235 Y0.0693
N6580 X4.6224 Y0.0687
N6585 X4.6078 Y0.0616
N6590 X4.6067 Y0.0612
N6595 X4.5921 Y0.0546
N6600 X4.5911 Y0.0542
N6605 X4.5766 Y0.0481
N6610 X4.5753 Y0.0476
N6615 X4.5469 Y0.0369
N6620 X4.5454 Y0.0364
N6625 X4.5186 Y0.0275
N6630 X4.5173 Y0.0271
N6635 X4.4927 Y0.0199
N6640 X4.4915 Y0.0196
N6645 X4.4697 Y0.0139
N6650 X4.4684 Y0.0136
N6655 X4.4494 Y0.0093
N6660 X4.4478 Y0.0089
N6665 X4.4317 Y0.006
N6670 X4.4292 Y0.0057
N6675 X4.4156 Y0.0041
N6680 X4.4118 Y0.0038
N6685 X4.4003 Y0.0037
N6690 X4.3976
N6695 X4.3948 Y0.004
N6700 X4.3849 Y0.0052
N6705 X4.3825 Y0.0056
N6710 X4.38 Y0.0061
N6715 X4.3755 Y0.0073
N6720 X4.3722 Y0.0083
N6725 X4.3678 Y0.0099
N6730 X4.3635 Y0.0117
N6735 X4.3548 Y0.016
N6740 X4.3507 Y0.0183
N6745 X4.3417 Y0.0242
N6750 X4.3393 Y0.0259
N6755 X4.3295 Y0.0334
N6760 X4.3284 Y0.0343
N6765 X4.3172 Y0.0435
N6770 X4.3171 Y0.0436
N6775 X4.2896 Y0.0664
N6780 X4.2733 Y0.0793
N6785 X4.2549 Y0.0929
N6790 X4.2343 Y0.1069
N6795 X4.2235 Y0.1136
N6800 X4.2121 Y0.1203
N6805 X4.2003 Y0.1267
N6810 X4.188 Y0.1328
N6815 X4.1754 Y0.1386
N6820 X4.1623 Y0.144
N6825 X4.1488 Y0.1489
N6830 X4.135 Y0.1532
N6835 X4.1207 Y0.157
N6840 X4.1059 Y0.1603
N6845 X4.0907 Y0.1629
N6850 X4.0748 Y0.165
N6855 X4.0584 Y0.1665
N6860 X4.0412 Y0.1674
N6865 X4.0234 Y0.1677
N6870 X4.0047 Y0.1675
N6875 X3.9852 Y0.1668
N6880 X3.9649 Y0.1657
N6885 X3.9213 Y0.1625
N6890 X3.8742 Y0.1582
N6895 X3.8741
N6900 X3.7701 Y0.1491
N6905 X3.7695
N6910 X3.7133 Y0.1451
N6915 X3.7127 Y0.145
N6920 X3.6543 Y0.1418
N6925 X3.6536
N6930 X3.5936 Y0.1395
N6935 X3.5929
N6940 X3.5319 Y0.1382
N6945 X3.5312
N6950 X3.4699 Y0.138
N6955 X3.4692
N6960 X3.408 Y0.1389
N6965 X3.4073
N6970 X3.3465 Y0.141
N6975 X3.3457
N6980 X3.2854 Y0.1443
N6985 X3.2846
N6990 X3.2246 Y0.1488
N6995 X3.2238 Y0.1489
N7000 X3.164 Y0.1547
N7005 X3.1631 Y0.1548
N7010 X3.1032 Y0.162
N7015 X3.1023 Y0.1621
N7020 X3.0421 Y0.1707
N7025 X3.0412 Y0.1708
N7030 X2.9804 Y0.1809
N7035 X2.9796 Y0.181
N7040 X2.9184 Y0.1924
N7045 X2.9177 Y0.1926
N7050 X2.8563 Y0.2053
N7055 X2.8556 Y0.2055
N7060 X2.7946 Y0.2193
N7065 X2.7939 Y0.2195
N7070 X2.7339 Y0.2343
N7075 X2.7333 Y0.2344
N7080 X2.6748 Y0.2498
N7085 X2.6742 Y0.25
N7090 X2.6177 Y0.2658
N7095 X2.6173 Y0.2659
N7100 X2.5632 Y0.2816
N7105 X2.5631
N7110 X2.4624 Y0.3112
N7115 X2.4154 Y0.3241
N7120 X2.3927 Y0.3297
N7125 X2.3703 Y0.335
N7130 X2.348 Y0.3396
N7135 X2.3259 Y0.3437
N7140 X2.3038 Y0.3472
N7145 X2.2817 Y0.35
N7150 X2.2595 Y0.3523
N7155 X2.2372 Y0.3538
N7160 X2.2148 Y0.3547
N7165 X2.1923 Y0.355
N7170 X2.1698 Y0.3547
N7175 X2.1473 Y0.3538
N7180 X2.1249 Y0.3523
N7185 X2.1028 Y0.3504
N7190 X2.081 Y0.3479
N7195 X2.0597 Y0.345
N7200 X2.039 Y0.3418
N7205 X2.0193 Y0.3383
N7210 X1.9818 Y0.3305
N7215 X1.9486 Y0.3223
N7220 X1.9199 Y0.314
N7225 X1.8956 Y0.3061
N7230 X1.8752 Y0.2987
N7235 X1.8579 Y0.292
N7240 X1.8578
N7245 X1.843 Y0.2863
N7250 X1.8415 Y0.2857
N7255 X1.8287 Y0.2814
N7260 X1.8252 Y0.2804
N7265 X1.8135 Y0.2776
N7270 X1.8095 Y0.2768
N7275 X1.8038 Y0.2761
N7280 X1.8007 Y0.2758
N7285 X1.795 Y0.2755
N7290 X1.7917 Y0.2754
N7295 X1.7859 Y0.2756
N7300 X1.7827 Y0.2758
N7305 X1.7767 Y0.2765
N7310 X1.7738 Y0.2769
N7315 X1.7675 Y0.2781
N7320 X1.7649 Y0.2786
N7325 X1.7582 Y0.2804
N7330 X1.7552 Y0.2813
N7335 X1.7406 Y0.2863
N7340 X1.7377 Y0.2874
N7345 X1.7211 Y0.2947
N7350 X1.7193 Y0.2955
N7355 X1.7003 Y0.3049
N7360 X1.6994 Y0.3054
N7365 X1.6777 Y0.3168
N7370 X1.6775 Y0.3169
N7375 X1.6258 Y0.3446
N7380 X1.596 Y0.3597
N7385 X1.5633 Y0.3752
N7390 X1.5463 Y0.3828
N7395 X1.5284 Y0.3903
N7400 X1.5099 Y0.3975
N7405 X1.4908 Y0.4044
N7410 X1.4711 Y0.411
N7415 X1.451 Y0.4171
N7420 X1.4303 Y0.4226
N7425 X1.4092 Y0.4275
N7430 X1.3877 Y0.4318
N7435 X1.366 Y0.4353
N7440 X1.3439 Y0.438
N7445 X1.3217 Y0.4399
N7450 X1.2994 Y0.4408
N7455 X1.277
N7460 X1.2546 Y0.4398
N7465 X1.2323 Y0.4378
N7470 X1.2102 Y0.4348
N7475 X1.1884 Y0.4307
N7480 X1.1668 Y0.4256
N7485 X1.1456 Y0.4194
N7490 X1.1249 Y0.4122
N7495 X1.1047 Y0.404
N7500 X1.0851 Y0.3949
N7505 X1.0662 Y0.3849
N7510 X1.048 Y0.374
N7515 X1.0306 Y0.3623
N7520 X1.0141 Y0.3499
N7525 X0.9984 Y0.3369
N7530 X0.9837 Y0.3232
N7535 X0.9699 Y0.3091
N7540 X0.9571 Y0.2946
N7545 X0.9452 Y0.2798
N7550 X0.9342 Y0.2647
N7555 X0.9241 Y0.2494
N7560 X0.9149 Y0.234
N7565 X0.9064 Y0.2185
N7570 X0.8987 Y0.203
N7575 X0.8916 Y0.1877
N7580 X0.8785 Y0.157
N7585 X0.8557 Y0.1005
N7590 X0.8552 Y0.0993
N7595 X0.8498 Y0.0869
N7600 X0.8492 Y0.0857
N7605 X0.8436 Y0.0742
N7610 X0.8429 Y0.0727
N7615 X0.8371 Y0.062
N7620 X0.836 Y0.0601
N7625 X0.8301 Y0.0504
N7630 X0.8286 Y0.0482
N7635 X0.8225 Y0.0395
N7640 X0.8205 Y0.037
N7645 X0.8141 Y0.0294
N7650 X0.8117 Y0.0267
N7655 X0.805 Y0.0201
N7660 X0.8019 Y0.0173
N7665 X0.795 Y0.0117
N7670 X0.7914 Y0.0092
N7675 X0.7842 Y0.0046
N7680 X0.78 Y0.0023
N7685 X0.7726 Y-0.0012
N7690 X0.7703 Y-0.0022
N7695 X0.768 Y-0.0031
N7700 X0.7605 Y-0.0055
N7705 X0.758 Y-0.0063
N7710 X0.7555 Y-0.0068
N7715 X0.7479 Y-0.0082
N7720 X0.7454 Y-0.0086
N7725 X0.7428 Y-0.0089
N7730 X0.7351 Y-0.0093
N7735 X0.7301
N7740 X0.7224 Y-0.0087
N7745 X0.7177 Y-0.0081
N7750 X0.71 Y-0.0066
N7755 X0.7057 Y-0.0056
N7760 X0.6981 Y-0.0032
N7765 X0.6943 Y-0.0017
N7770 X0.6867 Y0.0015
N7775 X0.6834 Y0.0031
N7780 X0.676 Y0.0072
N7785 X0.6732 Y0.0089
N7790 X0.6658 Y0.0137
N7795 X0.6635 Y0.0153
N7800 X0.6563 Y0.0209
N7805 X0.6545 Y0.0224
N7810 X0.6474 Y0.0286
N7815 X0.6459 Y0.0299
N7820 X0.6389 Y0.0367
N7825 X0.6373 Y0.0383
N7830 X0.6234 Y0.0533
N7835 X0.622 Y0.0549
N7840 X0.5937 Y0.0891
N7845 X0.5791 Y0.1067
N7850 X0.564 Y0.1238
N7855 X0.5482 Y0.1401
N7860 X0.5312 Y0.1557
N7865 X0.5228 Y0.1628
N7870 X0.5139 Y0.1698
N7875 X0.5047 Y0.1765
N7880 X0.4954 Y0.1828
N7885 X0.4859 Y0.1889
N7890 X0.4765 Y0.1944
N7895 X0.4565 Y0.2049
N7900 X0.4365 Y0.2139
N7905 X0.4165 Y0.2215
N7910 X0.3968 Y0.2278
N7915 X0.3778 Y0.233
N7920 X0.3415 Y0.2413
N7925 X0.3255 Y0.2447
N7930 X0.3245 Y0.245
N7935 X0.31 Y0.2485
N7940 X0.3076 Y0.2492
N7945 X0.2949 Y0.2532
N7950 X0.292 Y0.2543
N7955 X0.2862 Y0.2566
N7960 X0.2837 Y0.2577
N7965 X0.2784 Y0.2603
N7970 X0.2756 Y0.2618
N7975 X0.2706 Y0.2648
N7980 X0.2676 Y0.2668
N7985 X0.2629 Y0.2702
N7990 X0.26 Y0.2725
N7995 X0.2555 Y0.2764
N8000 X0.2529 Y0.279
N8005 X0.2487 Y0.2834
N8010 X0.2464 Y0.2861
N8015 X0.2424 Y0.2912
N8020 X0.2406 Y0.2937
N8025 X0.2367 Y0.2995
N8030 X0.2353 Y0.3018
N8035 X0.2315 Y0.3084
N8040 X0.2304 Y0.3104
N8045 X0.2266 Y0.3179
N8050 X0.2256 Y0.3202
N8055 X0.2179 Y0.3383
N8060 X0.217 Y0.3405
N8065 X0.209 Y0.3632
N8070 X0.2085 Y0.3648
N8075 X0.1999 Y0.3929
N8080 X0.1995 Y0.3942
N8085 X0.1903 Y0.4286
N8090 X0.19 Y0.4296
N8095 X0.1853 Y0.4495
N8100 X0.1851 Y0.4503
N8105 X0.1804 Y0.4721
N8110 X0.1802 Y0.473
N8115 X0.1756 Y0.4969
N8120 X0.1754 Y0.4979
N8125 X0.1711 Y0.5241
N8130 X0.1709 Y0.5252
N8135 X0.167 Y0.5539
N8140 X0.1669 Y0.5552
N8145 X0.1637 Y0.5865
N8150 X0.1635 Y0.5879
N8155 X0.1613 Y0.6222
N8160 X0.1612 Y0.6237
N8165 X0.1602 Y0.6611
N8170 Y0.6623
N8175 X0.1603 Y0.6822
N8180 Y0.6831
N8185 X0.1608 Y0.7039
N8190 Y0.7047
N8195 X0.1618 Y0.7264
N8200 X0.1619 Y0.7273
N8205 X0.1635 Y0.7499
N8210 Y0.7507
N8215 X0.1657 Y0.7743
N8220 X0.1658 Y0.7751
N8225 X0.1685 Y0.7996
N8230 X0.1686 Y0.8004
N8235 X0.172 Y0.8259
N8240 X0.1721 Y0.8267
N8245 X0.1762 Y0.8531
N8250 X0.1763 Y0.8538
N8255 X0.1811 Y0.8811
N8260 X0.1812 Y0.8819
N8265 X0.1867 Y0.9101
N8270 X0.1868 Y0.9107
N8275 X0.193 Y0.9398
N8280 X0.1931 Y0.9405
N8285 X0.2 Y0.9704
N8290 X0.2001 Y0.9709
N8295 X0.2076 Y1.0016
N8300 X0.2078 Y1.0021
N8305 X0.2159 Y1.0335
N8310 X0.2161 Y1.0341
N8315 X0.234 Y1.0984
N8320 X0.2342 Y1.0993
N8325 X0.3119 Y1.3542
N8330 X0.312 Y1.3544
N8335 X0.3127 Y1.3567
N8340 X0.3133 Y1.3586
N8345 X0.3142 Y1.3609
N8350 X0.3149 Y1.3627
N8355 X0.3159 Y1.365
N8360 X0.3166 Y1.3668
N8365 X0.3177 Y1.369
N8370 X0.3186 Y1.3707
N8375 X0.3198 Y1.3729
N8380 X0.3208 Y1.3746
N8385 X0.3221 Y1.3767
N8390 X0.3231 Y1.3783
N8395 X0.3245 Y1.3804
N8400 X0.3256 Y1.3819
N8405 X0.3271 Y1.3839
N8410 X0.3283 Y1.3855
N8415 X0.3299 Y1.3873
N8420 X0.3312 Y1.3888
N8425 X0.3329 Y1.3906
N8430 X0.3342 Y1.392
N8435 X0.336 Y1.3937
N8440 X0.3374 Y1.3951
N8445 X0.3393 Y1.3967
N8450 X0.3407 Y1.398
N8455 X0.3427 Y1.3995
N8460 X0.3442 Y1.4007
N8465 X0.3462 Y1.4021
N8470 X0.3478 Y1.4033
N8475 X0.3499 Y1.4046
N8480 X0.3515 Y1.4056
N8485 X0.3536 Y1.4069
N8490 X0.3554 Y1.4078
N8495 X0.3576 Y1.4089
N8500 X0.3593 Y1.4098
N8505 X0.3615 Y1.4108
N8510 X0.3633 Y1.4116
N8515 X0.3656 Y1.4125
N8520 X0.3674 Y1.4132
N8525 X0.3697 Y1.414
N8530 X0.3717 Y1.4146
N8535 X0.374 Y1.4153
N8540 X0.3759 Y1.4158
N8545 X0.3783 Y1.4163
N8550 X0.3802 Y1.4167
N8555 X0.3826 Y1.4172
N8560 X0.3845 Y1.4175
N8565 X0.3869 Y1.4178
N8570 X0.3889 Y1.418
N8575 X0.3914 Y1.4182
N8580 X0.3933 Y1.4184
N8585 X0.3958
N8590 X0.3977 Y1.4185
N8595 X0.4002 Y1.4184
N8600 X0.4021 Y1.4183
N8605 X0.4046 Y1.4182
N8610 X0.4053 Y1.4181
N8615 X0.5008 Y1.4104
N8620 X0.5912 Y1.4043
N8625 X0.677 Y1.3997
N8630 X0.7588 Y1.3966
N8635 X0.8369 Y1.3946
N8640 X0.9116 Y1.3938
N8645 X0.9832 Y1.394
N8650 X1.0522 Y1.395
N8655 X1.1186 Y1.3968
N8660 X1.1828 Y1.3992
N8665 X1.245 Y1.4022
N8670 X1.3053 Y1.4057
N8675 X1.3639 Y1.4096
N8680 X1.421 Y1.4138
N8685 X1.5313 Y1.4227
N8690 X1.9295 Y1.4586
N8695 X1.9299
N8700 X2.0205 Y1.4659
N8705 X2.0209
N8710 X2.1082 Y1.472
N8715 X2.1087
N8720 X2.193 Y1.4768
N8725 X2.1935 Y1.4769
N8730 X2.2749 Y1.4803
N8735 X2.2755 Y1.4804
N8740 X2.3541 Y1.4824
N8745 X2.3548 Y1.4825
N8750 X2.4309 Y1.4832
N8755 X2.4316
N8760 X2.5053 Y1.4826
N8765 X2.506
N8770 X2.5776 Y1.4807
N8775 X2.5783 Y1.4806
N8780 X2.6479 Y1.4776
N8785 X2.6486 Y1.4775
N8790 X2.7165 Y1.4733
N8795 X2.7172
N8800 X2.7836 Y1.4681
N8805 X2.7842
N8810 X2.8493 Y1.462
N8815 X2.8498
N8820 X2.9138 Y1.4551
N8825 X2.9142
N8830 X2.9772 Y1.4476
N8835 X2.9777 Y1.4475
N8840 X3.0398 Y1.4394
N8845 X3.0402 Y1.4393
N8850 X3.1017 Y1.4307
N8855 X3.102 Y1.4306
N8860 X3.1629 Y1.4214
N8865 X3.1633
N8870 X3.2236 Y1.4117
N8875 X3.224
N8880 X3.2839 Y1.4015
N8885 X3.2843 Y1.4014
N8890 X3.3437 Y1.3907
N8895 X3.3441 Y1.3906
N8900 X3.4031 Y1.3793
N8905 X3.4035 Y1.3792
N8910 X3.462 Y1.3673
N8915 X3.4626 Y1.3671
N8920 X3.5206 Y1.3545
N8925 X3.5212 Y1.3543
N8930 X3.5786 Y1.3409
N8935 X3.5793 Y1.3407
N8940 X3.6361 Y1.3264
N8945 X3.6368 Y1.3262
N8950 X3.693 Y1.3109
N8955 X3.6938 Y1.3107
N8960 X3.7492 Y1.2945
N8965 X3.7501 Y1.2942
N8970 X3.8047 Y1.2769
N8975 X3.8056 Y1.2766
N8980 X3.8593 Y1.2583
N8985 X3.8602 Y1.2579
N8990 X3.9129 Y1.2385
N8995 X3.9139 Y1.2381
N9000 X3.9655 Y1.2176
N9005 X3.9665 Y1.2172
N9010 X4.017 Y1.1956
N9015 X4.018 Y1.1952
N9020 X4.0673 Y1.1726
N9025 X4.0682 Y1.1721
N9030 X4.1163 Y1.1486
N9035 X4.1172 Y1.1481
N9040 X4.1639 Y1.1237
N9045 X4.1647 Y1.1233
N9050 X4.21 Y1.0981
N9055 X4.2109 Y1.0976
N9060 X4.2547 Y1.0718
N9065 X4.2555 Y1.0713
N9070 X4.2978 Y1.045
N9075 X4.2986 Y1.0445
N9080 X4.3393 Y1.0178
N9085 X4.3401 Y1.0173
N9090 X4.3791 Y0.9902
N9095 X4.3799 Y0.9897
N9100 X4.4173 Y0.9625
N9105 X4.418 Y0.962
N9110 X4.4537 Y0.9348
N9115 X4.4544 Y0.9342
N9120 X4.4884 Y0.9071
N9125 X4.4891 Y0.9065
N9130 X4.5214 Y0.8795
N9135 X4.5221 Y0.8789
N9140 X4.5526 Y0.8522
N9145 X4.5533 Y0.8516
N9150 X4.582 Y0.8252
N9155 X4.5827 Y0.8246
N9160 X4.6097 Y0.7986
N9165 X4.6104 Y0.7979
N9170 X4.6357 Y0.7725
N9175 X4.6364 Y0.7718
N9180 X4.6599 Y0.7468
N9185 X4.6606 Y0.746
N9190 X4.6824 Y0.7217
N9195 X4.6831 Y0.7208
N9200 X4.7033 Y0.697
N9205 X4.704 Y0.6962
N9210 X4.7224 Y0.673
N9215 X4.7232 Y0.672
N9220 X4.74 Y0.6495
N9225 X4.7408 Y0.6484
N9230 X4.756 Y0.6266
N9235 X4.7568 Y0.6254
N9240 X4.7705 Y0.6042
N9245 X4.7713 Y0.6029
N9250 X4.7835 Y0.5823
N9255 X4.7843 Y0.5809
N9260 X4.795 Y0.5609
N9265 X4.7958 Y0.5594
N9270 X4.8052 Y0.54
N9275 X4.8059 Y0.5383
N9280 X4.8139 Y0.5195
N9285 X4.8146 Y0.5177
N9290 X4.8213 Y0.4995
N9295 X4.822 Y0.4975
N9300 X4.8274 Y0.4798
N9305 X4.828 Y0.4777
N9310 X4.8322 Y0.4604
N9315 X4.8327 Y0.4582
N9320 X4.8359 Y0.4414
N9325 X4.8362 Y0.4392
N9330 X4.8383 Y0.4228
N9335 X4.8384 Y0.4216
N9340 G3 X4.847 Y0.4145 I0.0078 J0.0008 F10.
N9345 G1 X4.8549 Y0.4153
N9350 X4.8569 Y0.4155 Z-0.0897
N9355 X4.8588 Y0.4157 Z-0.0889
N9360 X4.8604 Y0.4158 Z-0.0877
N9365 X4.8616 Y0.4159 Z-0.0861
N9370 X4.8624 Y0.416 Z-0.0842
N9375 X4.8627 Z-0.0821
N9380 G0 Z0.2
N9385 X4.8612 Y0.4317
N9390 G1 Z-0.0206 F1.
N9395 Z-0.1091
N9400 X4.8609 Z-0.1112
N9405 X4.8601 Y0.4316 Z-0.1131
N9410 X4.8589 Y0.4315 Z-0.1147
N9415 X4.8573 Y0.4313 Z-0.1159
N9420 X4.8554 Y0.4312 Z-0.1167
N9425 X4.8533 Y0.431 Z-0.117
N9430 X4.8455 Y0.4302 F10.
N9435 G3 X4.8384 Y0.4216 I0.0008 J-0.0078
N9440 G1 X4.8385 Y0.4204 F20.
N9445 X4.8396 Y0.4044
N9450 X4.8397 Y0.4021
N9455 X4.8398 Y0.3864
N9460 X4.8397 Y0.3841
N9465 X4.8389 Y0.3687
N9470 X4.8388 Y0.3664
N9475 X4.8371 Y0.3513
N9480 X4.8368 Y0.3492
N9485 X4.8344 Y0.3343
N9490 X4.834 Y0.3322
N9495 X4.8307 Y0.3175
N9500 X4.8303 Y0.3156
N9505 X4.8263 Y0.3011
N9510 X4.8257 Y0.2992
N9515 X4.821 Y0.2849
N9520 X4.8204 Y0.2831
N9525 X4.815 Y0.269
N9530 X4.8143 Y0.2673
N9535 X4.8082 Y0.2534
N9540 X4.8074 Y0.2518
N9545 X4.8006 Y0.2381
N9550 X4.7998 Y0.2365
N9555 X4.7923 Y0.2231
N9560 X4.7914 Y0.2215
N9565 X4.7833 Y0.2084
N9570 X4.7822 Y0.2068
N9575 X4.7734 Y0.194
N9580 X4.7723 Y0.1925
N9585 X4.7629 Y0.18
N9590 X4.7617 Y0.1785
N9595 X4.7516 Y0.1664
N9600 X4.7503 Y0.165
N9605 X4.7396 Y0.1533
N9610 X4.7383 Y0.152
N9615 X4.7268 Y0.1407
N9620 X4.7255 Y0.1395
N9625 X4.7135 Y0.1287
N9630 X4.7121 Y0.1275
N9635 X4.6995 Y0.1172
N9640 X4.6981 Y0.1161
N9645 X4.685 Y0.1063
N9650 X4.6837 Y0.1054
N9655 X4.6701 Y0.0961
N9660 X4.6687 Y0.0952
N9665 X4.6548 Y0.0865
N9670 X4.6535 Y0.0858
N9675 X4.6392 Y0.0776
N9680 X4.638 Y0.0769
N9685 X4.6235 Y0.0693
N9690 X4.6224 Y0.0687
N9695 X4.6078 Y0.0616
N9700 X4.6067 Y0.0612
N9705 X4.5921 Y0.0546
N9710 X4.5911 Y0.0542
N9715 X4.5766 Y0.0481
N9720 X4.5753 Y0.0476
N9725 X4.5469 Y0.0369
N9730 X4.5454 Y0.0364
N9735 X4.5186 Y0.0275
N9740 X4.5173 Y0.0271
N9745 X4.4927 Y0.0199
N9750 X4.4915 Y0.0196
N9755 X4.4697 Y0.0139
N9760 X4.4684 Y0.0136
N9765 X4.4494 Y0.0093
N9770 X4.4478 Y0.0089
N9775 X4.4317 Y0.006
N9780 X4.4292 Y0.0057
N9785 X4.4156 Y0.0041
N9790 X4.4118 Y0.0038
N9795 X4.4003 Y0.0037
N9800 X4.3976
N9805 X4.3948 Y0.004
N9810 X4.3849 Y0.0052
N9815 X4.3825 Y0.0056
N9820 X4.38 Y0.0061
N9825 X4.3755 Y0.0073
N9830 X4.3722 Y0.0083
N9835 X4.3678 Y0.0099
N9840 X4.3635 Y0.0117
N9845 X4.3548 Y0.016
N9850 X4.3507 Y0.0183
N9855 X4.3417 Y0.0242
N9860 X4.3393 Y0.0259
N9865 X4.3295 Y0.0334
N9870 X4.3284 Y0.0343
N9875 X4.3172 Y0.0435
N9880 X4.3171 Y0.0436
N9885 X4.2896 Y0.0664
N9890 X4.2733 Y0.0793
N9895 X4.2549 Y0.0929
N9900 X4.2343 Y0.1069
N9905 X4.2235 Y0.1136
N9910 X4.2121 Y0.1203
N9915 X4.2003 Y0.1267
N9920 X4.188 Y0.1328
N9925 X4.1754 Y0.1386
N9930 X4.1623 Y0.144
N9935 X4.1488 Y0.1489
N9940 X4.135 Y0.1532
N9945 X4.1207 Y0.157
N9950 X4.1059 Y0.1603
N9955 X4.0907 Y0.1629
N9960 X4.0748 Y0.165
N9965 X4.0584 Y0.1665
N9970 X4.0412 Y0.1674
N9975 X4.0234 Y0.1677
N9980 X4.0047 Y0.1675
N9985 X3.9852 Y0.1668
N9990 X3.9649 Y0.1657
N9995 X3.9213 Y0.1625
N10000 X3.8742 Y0.1582
N10005 X3.8741
N10010 X3.7701 Y0.1491
N10015 X3.7695
N10020 X3.7133 Y0.1451
N10025 X3.7127 Y0.145
N10030 X3.6543 Y0.1418
N10035 X3.6536
N10040 X3.5936 Y0.1395
N10045 X3.5929
N10050 X3.5319 Y0.1382
N10055 X3.5312
N10060 X3.4699 Y0.138
N10065 X3.4692
N10070 X3.408 Y0.1389
N10075 X3.4073
N10080 X3.3465 Y0.141
N10085 X3.3457
N10090 X3.2854 Y0.1443
N10095 X3.2846
N10100 X3.2246 Y0.1488
N10105 X3.2238 Y0.1489
N10110 X3.164 Y0.1547
N10115 X3.1631 Y0.1548
N10120 X3.1032 Y0.162
N10125 X3.1023 Y0.1621
N10130 X3.0421 Y0.1707
N10135 X3.0412 Y0.1708
N10140 X2.9804 Y0.1809
N10145 X2.9796 Y0.181
N10150 X2.9184 Y0.1924
N10155 X2.9177 Y0.1926
N10160 X2.8563 Y0.2053
N10165 X2.8556 Y0.2055
N10170 X2.7946 Y0.2193
N10175 X2.7939 Y0.2195
N10180 X2.7339 Y0.2343
N10185 X2.7333 Y0.2344
N10190 X2.6748 Y0.2498
N10195 X2.6742 Y0.25
N10200 X2.6177 Y0.2658
N10205 X2.6173 Y0.2659
N10210 X2.5632 Y0.2816
N10215 X2.5631
N10220 X2.4624 Y0.3112
N10225 X2.4154 Y0.3241
N10230 X2.3927 Y0.3297
N10235 X2.3703 Y0.335
N10240 X2.348 Y0.3396
N10245 X2.3259 Y0.3437
N10250 X2.3038 Y0.3472
N10255 X2.2817 Y0.35
N10260 X2.2595 Y0.3523
N10265 X2.2372 Y0.3538
N10270 X2.2148 Y0.3547
N10275 X2.1923 Y0.355
N10280 X2.1698 Y0.3547
N10285 X2.1473 Y0.3538
N10290 X2.1249 Y0.3523
N10295 X2.1028 Y0.3504
N10300 X2.081 Y0.3479
N10305 X2.0597 Y0.345
N10310 X2.039 Y0.3418
N10315 X2.0193 Y0.3383
N10320 X1.9818 Y0.3305
N10325 X1.9486 Y0.3223
N10330 X1.9199 Y0.314
N10335 X1.8956 Y0.3061
N10340 X1.8752 Y0.2987
N10345 X1.8579 Y0.292
N10350 X1.8578
N10355 X1.843 Y0.2863
N10360 X1.8415 Y0.2857
N10365 X1.8287 Y0.2814
N10370 X1.8252 Y0.2804
N10375 X1.8135 Y0.2776
N10380 X1.8095 Y0.2768
N10385 X1.8038 Y0.2761
N10390 X1.8007 Y0.2758
N10395 X1.795 Y0.2755
N10400 X1.7917 Y0.2754
N10405 X1.7859 Y0.2756
N10410 X1.7827 Y0.2758
N10415 X1.7767 Y0.2765
N10420 X1.7738 Y0.2769
N10425 X1.7675 Y0.2781
N10430 X1.7649 Y0.2786
N10435 X1.7582 Y0.2804
N10440 X1.7552 Y0.2813
N10445 X1.7406 Y0.2863
N10450 X1.7377 Y0.2874
N10455 X1.7211 Y0.2947
N10460 X1.7193 Y0.2955
N10465 X1.7003 Y0.3049
N10470 X1.6994 Y0.3054
N10475 X1.6777 Y0.3168
N10480 X1.6775 Y0.3169
N10485 X1.6258 Y0.3446
N10490 X1.596 Y0.3597
N10495 X1.5633 Y0.3752
N10500 X1.5463 Y0.3828
N10505 X1.5284 Y0.3903
N10510 X1.5099 Y0.3975
N10515 X1.4908 Y0.4044
N10520 X1.4711 Y0.411
N10525 X1.451 Y0.4171
N10530 X1.4303 Y0.4226
N10535 X1.4092 Y0.4275
N10540 X1.3877 Y0.4318
N10545 X1.366 Y0.4353
N10550 X1.3439 Y0.438
N10555 X1.3217 Y0.4399
N10560 X1.2994 Y0.4408
N10565 X1.277
N10570 X1.2546 Y0.4398
N10575 X1.2323 Y0.4378
N10580 X1.2102 Y0.4348
N10585 X1.1884 Y0.4307
N10590 X1.1668 Y0.4256
N10595 X1.1456 Y0.4194
N10600 X1.1249 Y0.4122
N10605 X1.1047 Y0.404
N10610 X1.0851 Y0.3949
N10615 X1.0662 Y0.3849
N10620 X1.048 Y0.374
N10625 X1.0306 Y0.3623
N10630 X1.0141 Y0.3499
N10635 X0.9984 Y0.3369
N10640 X0.9837 Y0.3232
N10645 X0.9699 Y0.3091
N10650 X0.9571 Y0.2946
N10655 X0.9452 Y0.2798
N10660 X0.9342 Y0.2647
N10665 X0.9241 Y0.2494
N10670 X0.9149 Y0.234
N10675 X0.9064 Y0.2185
N10680 X0.8987 Y0.203
N10685 X0.8916 Y0.1877
N10690 X0.8785 Y0.157
N10695 X0.8557 Y0.1005
N10700 X0.8552 Y0.0993
N10705 X0.8498 Y0.0869
N10710 X0.8492 Y0.0857
N10715 X0.8436 Y0.0742
N10720 X0.8429 Y0.0727
N10725 X0.8371 Y0.062
N10730 X0.836 Y0.0601
N10735 X0.8301 Y0.0504
N10740 X0.8286 Y0.0482
N10745 X0.8225 Y0.0395
N10750 X0.8205 Y0.037
N10755 X0.8141 Y0.0294
N10760 X0.8117 Y0.0267
N10765 X0.805 Y0.0201
N10770 X0.8019 Y0.0173
N10775 X0.795 Y0.0117
N10780 X0.7914 Y0.0092
N10785 X0.7842 Y0.0046
N10790 X0.78 Y0.0023
N10795 X0.7726 Y-0.0012
N10800 X0.7703 Y-0.0022
N10805 X0.768 Y-0.0031
N10810 X0.7605 Y-0.0055
N10815 X0.758 Y-0.0063
N10820 X0.7555 Y-0.0068
N10825 X0.7479 Y-0.0082
N10830 X0.7454 Y-0.0086
N10835 X0.7428 Y-0.0089
N10840 X0.7351 Y-0.0093
N10845 X0.7301
N10850 X0.7224 Y-0.0087
N10855 X0.7177 Y-0.0081
N10860 X0.71 Y-0.0066
N10865 X0.7057 Y-0.0056
N10870 X0.6981 Y-0.0032
N10875 X0.6943 Y-0.0017
N10880 X0.6867 Y0.0015
N10885 X0.6834 Y0.0031
N10890 X0.676 Y0.0072
N10895 X0.6732 Y0.0089
N10900 X0.6658 Y0.0137
N10905 X0.6635 Y0.0153
N10910 X0.6563 Y0.0209
N10915 X0.6545 Y0.0224
N10920 X0.6474 Y0.0286
N10925 X0.6459 Y0.0299
N10930 X0.6389 Y0.0367
N10935 X0.6373 Y0.0383
N10940 X0.6234 Y0.0533
N10945 X0.622 Y0.0549
N10950 X0.5937 Y0.0891
N10955 X0.5791 Y0.1067
N10960 X0.564 Y0.1238
N10965 X0.5482 Y0.1401
N10970 X0.5312 Y0.1557
N10975 X0.5228 Y0.1628
N10980 X0.5139 Y0.1698
N10985 X0.5047 Y0.1765
N10990 X0.4954 Y0.1828
N10995 X0.4859 Y0.1889
N11000 X0.4765 Y0.1944
N11005 X0.4565 Y0.2049
N11010 X0.4365 Y0.2139
N11015 X0.4165 Y0.2215
N11020 X0.3968 Y0.2278
N11025 X0.3778 Y0.233
N11030 X0.3415 Y0.2413
N11035 X0.3255 Y0.2447
N11040 X0.3245 Y0.245
N11045 X0.31 Y0.2485
N11050 X0.3076 Y0.2492
N11055 X0.2949 Y0.2532
N11060 X0.292 Y0.2543
N11065 X0.2862 Y0.2566
N11070 X0.2837 Y0.2577
N11075 X0.2784 Y0.2603
N11080 X0.2756 Y0.2618
N11085 X0.2706 Y0.2648
N11090 X0.2676 Y0.2668
N11095 X0.2629 Y0.2702
N11100 X0.26 Y0.2725
N11105 X0.2555 Y0.2764
N11110 X0.2529 Y0.279
N11115 X0.2487 Y0.2834
N11120 X0.2464 Y0.2861
N11125 X0.2424 Y0.2912
N11130 X0.2406 Y0.2937
N11135 X0.2367 Y0.2995
N11140 X0.2353 Y0.3018
N11145 X0.2315 Y0.3084
N11150 X0.2304 Y0.3104
N11155 X0.2266 Y0.3179
N11160 X0.2256 Y0.3202
N11165 X0.2179 Y0.3383
N11170 X0.217 Y0.3405
N11175 X0.209 Y0.3632
N11180 X0.2085 Y0.3648
N11185 X0.1999 Y0.3929
N11190 X0.1995 Y0.3942
N11195 X0.1903 Y0.4286
N11200 X0.19 Y0.4296
N11205 X0.1853 Y0.4495
N11210 X0.1851 Y0.4503
N11215 X0.1804 Y0.4721
N11220 X0.1802 Y0.473
N11225 X0.1756 Y0.4969
N11230 X0.1754 Y0.4979
N11235 X0.1711 Y0.5241
N11240 X0.1709 Y0.5252
N11245 X0.167 Y0.5539
N11250 X0.1669 Y0.5552
N11255 X0.1637 Y0.5865
N11260 X0.1635 Y0.5879
N11265 X0.1613 Y0.6222
N11270 X0.1612 Y0.6237
N11275 X0.1602 Y0.6611
N11280 Y0.6623
N11285 X0.1603 Y0.6822
N11290 Y0.6831
N11295 X0.1608 Y0.7039
N11300 Y0.7047
N11305 X0.1618 Y0.7264
N11310 X0.1619 Y0.7273
N11315 X0.1635 Y0.7499
N11320 Y0.7507
N11325 X0.1657 Y0.7743
N11330 X0.1658 Y0.7751
N11335 X0.1685 Y0.7996
N11340 X0.1686 Y0.8004
N11345 X0.172 Y0.8259
N11350 X0.1721 Y0.8267
N11355 X0.1762 Y0.8531
N11360 X0.1763 Y0.8538
N11365 X0.1811 Y0.8811
N11370 X0.1812 Y0.8819
N11375 X0.1867 Y0.9101
N11380 X0.1868 Y0.9107
N11385 X0.193 Y0.9398
N11390 X0.1931 Y0.9405
N11395 X0.2 Y0.9704
N11400 X0.2001 Y0.9709
N11405 X0.2076 Y1.0016
N11410 X0.2078 Y1.0021
N11415 X0.2159 Y1.0335
N11420 X0.2161 Y1.0341
N11425 X0.234 Y1.0984
N11430 X0.2342 Y1.0993
N11435 X0.3119 Y1.3542
N11440 X0.312 Y1.3544
N11445 X0.3127 Y1.3567
N11450 X0.3133 Y1.3586
N11455 X0.3142 Y1.3609
N11460 X0.3149 Y1.3627
N11465 X0.3159 Y1.365
N11470 X0.3166 Y1.3668
N11475 X0.3177 Y1.369
N11480 X0.3186 Y1.3707
N11485 X0.3198 Y1.3729
N11490 X0.3208 Y1.3746
N11495 X0.3221 Y1.3767
N11500 X0.3231 Y1.3783
N11505 X0.3245 Y1.3804
N11510 X0.3256 Y1.3819
N11515 X0.3271 Y1.3839
N11520 X0.3283 Y1.3855
N11525 X0.3299 Y1.3873
N11530 X0.3312 Y1.3888
N11535 X0.3329 Y1.3906
N11540 X0.3342 Y1.392
N11545 X0.336 Y1.3937
N11550 X0.3374 Y1.3951
N11555 X0.3393 Y1.3967
N11560 X0.3407 Y1.398
N11565 X0.3427 Y1.3995
N11570 X0.3442 Y1.4007
N11575 X0.3462 Y1.4021
N11580 X0.3478 Y1.4033
N11585 X0.3499 Y1.4046
N11590 X0.3515 Y1.4056
N11595 X0.3536 Y1.4069
N11600 X0.3554 Y1.4078
N11605 X0.3576 Y1.4089
N11610 X0.3593 Y1.4098
N11615 X0.3615 Y1.4108
N11620 X0.3633 Y1.4116
N11625 X0.3656 Y1.4125
N11630 X0.3674 Y1.4132
N11635 X0.3697 Y1.414
N11640 X0.3717 Y1.4146
N11645 X0.374 Y1.4153
N11650 X0.3759 Y1.4158
N11655 X0.3783 Y1.4163
N11660 X0.3802 Y1.4167
N11665 X0.3826 Y1.4172
N11670 X0.3845 Y1.4175
N11675 X0.3869 Y1.4178
N11680 X0.3889 Y1.418
N11685 X0.3914 Y1.4182
N11690 X0.3933 Y1.4184
N11695 X0.3958
N11700 X0.3977 Y1.4185
N11705 X0.4002 Y1.4184
N11710 X0.4021 Y1.4183
N11715 X0.4046 Y1.4182
N11720 X0.4053 Y1.4181
N11725 X0.5008 Y1.4104
N11730 X0.5912 Y1.4043
N11735 X0.677 Y1.3997
N11740 X0.7588 Y1.3966
N11745 X0.8369 Y1.3946
N11750 X0.9116 Y1.3938
N11755 X0.9832 Y1.394
N11760 X1.0522 Y1.395
N11765 X1.1186 Y1.3968
N11770 X1.1828 Y1.3992
N11775 X1.245 Y1.4022
N11780 X1.3053 Y1.4057
N11785 X1.3639 Y1.4096
N11790 X1.421 Y1.4138
N11795 X1.5313 Y1.4227
N11800 X1.9295 Y1.4586
N11805 X1.9299
N11810 X2.0205 Y1.4659
N11815 X2.0209
N11820 X2.1082 Y1.472
N11825 X2.1087
N11830 X2.193 Y1.4768
N11835 X2.1935 Y1.4769
N11840 X2.2749 Y1.4803
N11845 X2.2755 Y1.4804
N11850 X2.3541 Y1.4824
N11855 X2.3548 Y1.4825
N11860 X2.4309 Y1.4832
N11865 X2.4316
N11870 X2.5053 Y1.4826
N11875 X2.506
N11880 X2.5776 Y1.4807
N11885 X2.5783 Y1.4806
N11890 X2.6479 Y1.4776
N11895 X2.6486 Y1.4775
N11900 X2.7165 Y1.4733
N11905 X2.7172
N11910 X2.7836 Y1.4681
N11915 X2.7842
N11920 X2.8493 Y1.462
N11925 X2.8498
N11930 X2.9138 Y1.4551
N11935 X2.9142
N11940 X2.9772 Y1.4476
N11945 X2.9777 Y1.4475
N11950 X3.0398 Y1.4394
N11955 X3.0402 Y1.4393
N11960 X3.1017 Y1.4307
N11965 X3.102 Y1.4306
N11970 X3.1629 Y1.4214
N11975 X3.1633
N11980 X3.2236 Y1.4117
N11985 X3.224
N11990 X3.2839 Y1.4015
N11995 X3.2843 Y1.4014
N12000 X3.3437 Y1.3907
N12005 X3.3441 Y1.3906
N12010 X3.4031 Y1.3793
N12015 X3.4035 Y1.3792
N12020 X3.462 Y1.3673
N12025 X3.4626 Y1.3671
N12030 X3.5206 Y1.3545
N12035 X3.5212 Y1.3543
N12040 X3.5786 Y1.3409
N12045 X3.5793 Y1.3407
N12050 X3.6361 Y1.3264
N12055 X3.6368 Y1.3262
N12060 X3.693 Y1.3109
N12065 X3.6938 Y1.3107
N12070 X3.7492 Y1.2945
N12075 X3.7501 Y1.2942
N12080 X3.8047 Y1.2769
N12085 X3.8056 Y1.2766
N12090 X3.8593 Y1.2583
N12095 X3.8602 Y1.2579
N12100 X3.9129 Y1.2385
N12105 X3.9139 Y1.2381
N12110 X3.9655 Y1.2176
N12115 X3.9665 Y1.2172
N12120 X4.017 Y1.1956
N12125 X4.018 Y1.1952
N12130 X4.0673 Y1.1726
N12135 X4.0682 Y1.1721
N12140 X4.1163 Y1.1486
N12145 X4.1172 Y1.1481
N12150 X4.1639 Y1.1237
N12155 X4.1647 Y1.1233
N12160 X4.21 Y1.0981
N12165 X4.2109 Y1.0976
N12170 X4.2547 Y1.0718
N12175 X4.2555 Y1.0713
N12180 X4.2978 Y1.045
N12185 X4.2986 Y1.0445
N12190 X4.3393 Y1.0178
N12195 X4.3401 Y1.0173
N12200 X4.3791 Y0.9902
N12205 X4.3799 Y0.9897
N12210 X4.4173 Y0.9625
N12215 X4.418 Y0.962
N12220 X4.4537 Y0.9348
N12225 X4.4544 Y0.9342
N12230 X4.4884 Y0.9071
N12235 X4.4891 Y0.9065
N12240 X4.5214 Y0.8795
N12245 X4.5221 Y0.8789
N12250 X4.5526 Y0.8522
N12255 X4.5533 Y0.8516
N12260 X4.582 Y0.8252
N12265 X4.5827 Y0.8246
N12270 X4.6097 Y0.7986
N12275 X4.6104 Y0.7979
N12280 X4.6357 Y0.7725
N12285 X4.6364 Y0.7718
N12290 X4.6599 Y0.7468
N12295 X4.6606 Y0.746
N12300 X4.6824 Y0.7217
N12305 X4.6831 Y0.7208
N12310 X4.7033 Y0.697
N12315 X4.704 Y0.6962
N12320 X4.7224 Y0.673
N12325 X4.7232 Y0.672
N12330 X4.74 Y0.6495
N12335 X4.7408 Y0.6484
N12340 X4.756 Y0.6266
N12345 X4.7568 Y0.6254
N12350 X4.7705 Y0.6042
N12355 X4.7713 Y0.6029
N12360 X4.7835 Y0.5823
N12365 X4.7843 Y0.5809
N12370 X4.795 Y0.5609
N12375 X4.7958 Y0.5594
N12380 X4.8052 Y0.54
N12385 X4.8059 Y0.5383
N12390 X4.8139 Y0.5195
N12395 X4.8146 Y0.5177
N12400 X4.8213 Y0.4995
N12405 X4.822 Y0.4975
N12410 X4.8274 Y0.4798
N12415 X4.828 Y0.4777
N12420 X4.8322 Y0.4604
N12425 X4.8327 Y0.4582
N12430 X4.8359 Y0.4414
N12435 X4.8362 Y0.4392
N12440 X4.8383 Y0.4228
N12445 X4.8384 Y0.4216
N12450 G3 X4.847 Y0.4145 I0.0078 J0.0008 F10.
N12455 G1 X4.8549 Y0.4153
N12460 X4.8569 Y0.4155 Z-0.1167
N12465 X4.8588 Y0.4157 Z-0.1159
N12470 X4.8604 Y0.4158 Z-0.1147
N12475 X4.8616 Y0.4159 Z-0.1131
N12480 X4.8624 Y0.416 Z-0.1112
N12485 X4.8627 Z-0.1091
N12490 G0 Z0.2
N12495 X4.8612 Y0.4317
N12500 G1 Z-0.0476 F1.
N12505 Z-0.1171
N12510 X4.8609 Z-0.1192
N12515 X4.8601 Y0.4316 Z-0.1211
N12520 X4.8589 Y0.4315 Z-0.1227
N12525 X4.8573 Y0.4313 Z-0.1239
N12530 X4.8554 Y0.4312 Z-0.1247
N12535 X4.8533 Y0.431 Z-0.125
N12540 X4.8455 Y0.4302 F10.
N12545 G3 X4.8384 Y0.4216 I0.0008 J-0.0078
N12550 G1 X4.8385 Y0.4204 F20.
N12555 X4.8396 Y0.4044
N12560 X4.8397 Y0.4021
N12565 X4.8398 Y0.3864
N12570 X4.8397 Y0.3841
N12575 X4.8389 Y0.3687
N12580 X4.8388 Y0.3664
N12585 X4.8371 Y0.3513
N12590 X4.8368 Y0.3492
N12595 X4.8344 Y0.3343
N12600 X4.834 Y0.3322
N12605 X4.8307 Y0.3175
N12610 X4.8303 Y0.3156
N12615 X4.8263 Y0.3011
N12620 X4.8257 Y0.2992
N12625 X4.821 Y0.2849
N12630 X4.8204 Y0.2831
N12635 X4.815 Y0.269
N12640 X4.8143 Y0.2673
N12645 X4.8082 Y0.2534
N12650 X4.8074 Y0.2518
N12655 X4.8006 Y0.2381
N12660 X4.7998 Y0.2365
N12665 X4.7923 Y0.2231
N12670 X4.7914 Y0.2215
N12675 X4.7833 Y0.2084
N12680 X4.7822 Y0.2068
N12685 X4.7734 Y0.194
N12690 X4.7723 Y0.1925
N12695 X4.7629 Y0.18
N12700 X4.7617 Y0.1785
N12705 X4.7516 Y0.1664
N12710 X4.7503 Y0.165
N12715 X4.7396 Y0.1533
N12720 X4.7383 Y0.152
N12725 X4.7268 Y0.1407
N12730 X4.7255 Y0.1395
N12735 X4.7135 Y0.1287
N12740 X4.7121 Y0.1275
N12745 X4.6995 Y0.1172
N12750 X4.6981 Y0.1161
N12755 X4.685 Y0.1063
N12760 X4.6837 Y0.1054
N12765 X4.6701 Y0.0961
N12770 X4.6687 Y0.0952
N12775 X4.6548 Y0.0865
N12780 X4.6535 Y0.0858
N12785 X4.6392 Y0.0776
N12790 X4.638 Y0.0769
N12795 X4.6235 Y0.0693
N12800 X4.6224 Y0.0687
N12805 X4.6078 Y0.0616
N12810 X4.6067 Y0.0612
N12815 X4.5921 Y0.0546
N12820 X4.5911 Y0.0542
N12825 X4.5766 Y0.0481
N12830 X4.5753 Y0.0476
N12835 X4.5469 Y0.0369
N12840 X4.5454 Y0.0364
N12845 X4.5186 Y0.0275
N12850 X4.5173 Y0.0271
N12855 X4.4927 Y0.0199
N12860 X4.4915 Y0.0196
N12865 X4.4697 Y0.0139
N12870 X4.4684 Y0.0136
N12875 X4.4494 Y0.0093
N12880 X4.4478 Y0.0089
N12885 X4.4317 Y0.006
N12890 X4.4292 Y0.0057
N12895 X4.4156 Y0.0041
N12900 X4.4118 Y0.0038
N12905 X4.4003 Y0.0037
N12910 X4.3976
N12915 X4.3948 Y0.004
N12920 X4.3849 Y0.0052
N12925 X4.3825 Y0.0056
N12930 X4.38 Y0.0061
N12935 X4.3755 Y0.0073
N12940 X4.3722 Y0.0083
N12945 X4.3678 Y0.0099
N12950 X4.3635 Y0.0117
N12955 X4.3548 Y0.016
N12960 X4.3507 Y0.0183
N12965 X4.3417 Y0.0242
N12970 X4.3393 Y0.0259
N12975 X4.3295 Y0.0334
N12980 X4.3284 Y0.0343
N12985 X4.3172 Y0.0435
N12990 X4.3171 Y0.0436
N12995 X4.2896 Y0.0664
N13000 X4.2733 Y0.0793
N13005 X4.2549 Y0.0929
N13010 X4.2343 Y0.1069
N13015 X4.2235 Y0.1136
N13020 X4.2121 Y0.1203
N13025 X4.2003 Y0.1267
N13030 X4.188 Y0.1328
N13035 X4.1754 Y0.1386
N13040 X4.1623 Y0.144
N13045 X4.1488 Y0.1489
N13050 X4.135 Y0.1532
N13055 X4.1207 Y0.157
N13060 X4.1059 Y0.1603
N13065 X4.0907 Y0.1629
N13070 X4.0748 Y0.165
N13075 X4.0584 Y0.1665
N13080 X4.0412 Y0.1674
N13085 X4.0234 Y0.1677
N13090 X4.0047 Y0.1675
N13095 X3.9852 Y0.1668
N13100 X3.9649 Y0.1657
N13105 X3.9213 Y0.1625
N13110 X3.8742 Y0.1582
N13115 X3.8741
N13120 X3.7701 Y0.1491
N13125 X3.7695
N13130 X3.7133 Y0.1451
N13135 X3.7127 Y0.145
N13140 X3.6543 Y0.1418
N13145 X3.6536
N13150 X3.5936 Y0.1395
N13155 X3.5929
N13160 X3.5319 Y0.1382
N13165 X3.5312
N13170 X3.4699 Y0.138
N13175 X3.4692
N13180 X3.408 Y0.1389
N13185 X3.4073
N13190 X3.3465 Y0.141
N13195 X3.3457
N13200 X3.2854 Y0.1443
N13205 X3.2846
N13210 X3.2246 Y0.1488
N13215 X3.2238 Y0.1489
N13220 X3.164 Y0.1547
N13225 X3.1631 Y0.1548
N13230 X3.1032 Y0.162
N13235 X3.1023 Y0.1621
N13240 X3.0421 Y0.1707
N13245 X3.0412 Y0.1708
N13250 X2.9804 Y0.1809
N13255 X2.9796 Y0.181
N13260 X2.9184 Y0.1924
N13265 X2.9177 Y0.1926
N13270 X2.8563 Y0.2053
N13275 X2.8556 Y0.2055
N13280 X2.7946 Y0.2193
N13285 X2.7939 Y0.2195
N13290 X2.7339 Y0.2343
N13295 X2.7333 Y0.2344
N13300 X2.6748 Y0.2498
N13305 X2.6742 Y0.25
N13310 X2.6177 Y0.2658
N13315 X2.6173 Y0.2659
N13320 X2.5632 Y0.2816
N13325 X2.5631
N13330 X2.4624 Y0.3112
N13335 X2.4154 Y0.3241
N13340 X2.3927 Y0.3297
N13345 X2.3703 Y0.335
N13350 X2.348 Y0.3396
N13355 X2.3259 Y0.3437
N13360 X2.3038 Y0.3472
N13365 X2.2817 Y0.35
N13370 X2.2595 Y0.3523
N13375 X2.2372 Y0.3538
N13380 X2.2148 Y0.3547
N13385 X2.1923 Y0.355
N13390 X2.1698 Y0.3547
N13395 X2.1473 Y0.3538
N13400 X2.1249 Y0.3523
N13405 X2.1028 Y0.3504
N13410 X2.081 Y0.3479
N13415 X2.0597 Y0.345
N13420 X2.039 Y0.3418
N13425 X2.0193 Y0.3383
N13430 X1.9818 Y0.3305
N13435 X1.9486 Y0.3223
N13440 X1.9199 Y0.314
N13445 X1.8956 Y0.3061
N13450 X1.8752 Y0.2987
N13455 X1.8579 Y0.292
N13460 X1.8578
N13465 X1.843 Y0.2863
N13470 X1.8415 Y0.2857
N13475 X1.8287 Y0.2814
N13480 X1.8252 Y0.2804
N13485 X1.8135 Y0.2776
N13490 X1.8095 Y0.2768
N13495 X1.8038 Y0.2761
N13500 X1.8007 Y0.2758
N13505 X1.795 Y0.2755
N13510 X1.7917 Y0.2754
N13515 X1.7859 Y0.2756
N13520 X1.7827 Y0.2758
N13525 X1.7767 Y0.2765
N13530 X1.7738 Y0.2769
N13535 X1.7675 Y0.2781
N13540 X1.7649 Y0.2786
N13545 X1.7582 Y0.2804
N13550 X1.7552 Y0.2813
N13555 X1.7406 Y0.2863
N13560 X1.7377 Y0.2874
N13565 X1.7211 Y0.2947
N13570 X1.7193 Y0.2955
N13575 X1.7003 Y0.3049
N13580 X1.6994 Y0.3054
N13585 X1.6777 Y0.3168
N13590 X1.6775 Y0.3169
N13595 X1.6258 Y0.3446
N13600 X1.596 Y0.3597
N13605 X1.5633 Y0.3752
N13610 X1.5463 Y0.3828
N13615 X1.5284 Y0.3903
N13620 X1.5099 Y0.3975
N13625 X1.4908 Y0.4044
N13630 X1.4711 Y0.411
N13635 X1.451 Y0.4171
N13640 X1.4303 Y0.4226
N13645 X1.4092 Y0.4275
N13650 X1.3877 Y0.4318
N13655 X1.366 Y0.4353
N13660 X1.3439 Y0.438
N13665 X1.3217 Y0.4399
N13670 X1.2994 Y0.4408
N13675 X1.277
N13680 X1.2546 Y0.4398
N13685 X1.2323 Y0.4378
N13690 X1.2102 Y0.4348
N13695 X1.1884 Y0.4307
N13700 X1.1668 Y0.4256
N13705 X1.1456 Y0.4194
N13710 X1.1249 Y0.4122
N13715 X1.1047 Y0.404
N13720 X1.0851 Y0.3949
N13725 X1.0662 Y0.3849
N13730 X1.048 Y0.374
N13735 X1.0306 Y0.3623
N13740 X1.0141 Y0.3499
N13745 X0.9984 Y0.3369
N13750 X0.9837 Y0.3232
N13755 X0.9699 Y0.3091
N13760 X0.9571 Y0.2946
N13765 X0.9452 Y0.2798
N13770 X0.9342 Y0.2647
N13775 X0.9241 Y0.2494
N13780 X0.9149 Y0.234
N13785 X0.9064 Y0.2185
N13790 X0.8987 Y0.203
N13795 X0.8916 Y0.1877
N13800 X0.8785 Y0.157
N13805 X0.8557 Y0.1005
N13810 X0.8552 Y0.0993
N13815 X0.8498 Y0.0869
N13820 X0.8492 Y0.0857
N13825 X0.8436 Y0.0742
N13830 X0.8429 Y0.0727
N13835 X0.8371 Y0.062
N13840 X0.836 Y0.0601
N13845 X0.8301 Y0.0504
N13850 X0.8286 Y0.0482
N13855 X0.8225 Y0.0395
N13860 X0.8205 Y0.037
N13865 X0.8141 Y0.0294
N13870 X0.8117 Y0.0267
N13875 X0.805 Y0.0201
N13880 X0.8019 Y0.0173
N13885 X0.795 Y0.0117
N13890 X0.7914 Y0.0092
N13895 X0.7842 Y0.0046
N13900 X0.78 Y0.0023
N13905 X0.7726 Y-0.0012
N13910 X0.7703 Y-0.0022
N13915 X0.768 Y-0.0031
N13920 X0.7605 Y-0.0055
N13925 X0.758 Y-0.0063
N13930 X0.7555 Y-0.0068
N13935 X0.7479 Y-0.0082
N13940 X0.7454 Y-0.0086
N13945 X0.7428 Y-0.0089
N13950 X0.7351 Y-0.0093
N13955 X0.7301
N13960 X0.7224 Y-0.0087
N13965 X0.7177 Y-0.0081
N13970 X0.71 Y-0.0066
N13975 X0.7057 Y-0.0056
N13980 X0.6981 Y-0.0032
N13985 X0.6943 Y-0.0017
N13990 X0.6867 Y0.0015
N13995 X0.6834 Y0.0031
N14000 X0.676 Y0.0072
N14005 X0.6732 Y0.0089
N14010 X0.6658 Y0.0137
N14015 X0.6635 Y0.0153
N14020 X0.6563 Y0.0209
N14025 X0.6545 Y0.0224
N14030 X0.6474 Y0.0286
N14035 X0.6459 Y0.0299
N14040 X0.6389 Y0.0367
N14045 X0.6373 Y0.0383
N14050 X0.6234 Y0.0533
N14055 X0.622 Y0.0549
N14060 X0.5937 Y0.0891
N14065 X0.5791 Y0.1067
N14070 X0.564 Y0.1238
N14075 X0.5482 Y0.1401
N14080 X0.5312 Y0.1557
N14085 X0.5228 Y0.1628
N14090 X0.5139 Y0.1698
N14095 X0.5047 Y0.1765
N14100 X0.4954 Y0.1828
N14105 X0.4859 Y0.1889
N14110 X0.4765 Y0.1944
N14115 X0.4565 Y0.2049
N14120 X0.4365 Y0.2139
N14125 X0.4165 Y0.2215
N14130 X0.3968 Y0.2278
N14135 X0.3778 Y0.233
N14140 X0.3415 Y0.2413
N14145 X0.3255 Y0.2447
N14150 X0.3245 Y0.245
N14155 X0.31 Y0.2485
N14160 X0.3076 Y0.2492
N14165 X0.2949 Y0.2532
N14170 X0.292 Y0.2543
N14175 X0.2862 Y0.2566
N14180 X0.2837 Y0.2577
N14185 X0.2784 Y0.2603
N14190 X0.2756 Y0.2618
N14195 X0.2706 Y0.2648
N14200 X0.2676 Y0.2668
N14205 X0.2629 Y0.2702
N14210 X0.26 Y0.2725
N14215 X0.2555 Y0.2764
N14220 X0.2529 Y0.279
N14225 X0.2487 Y0.2834
N14230 X0.2464 Y0.2861
N14235 X0.2424 Y0.2912
N14240 X0.2406 Y0.2937
N14245 X0.2367 Y0.2995
N14250 X0.2353 Y0.3018
N14255 X0.2315 Y0.3084
N14260 X0.2304 Y0.3104
N14265 X0.2266 Y0.3179
N14270 X0.2256 Y0.3202
N14275 X0.2179 Y0.3383
N14280 X0.217 Y0.3405
N14285 X0.209 Y0.3632
N14290 X0.2085 Y0.3648
N14295 X0.1999 Y0.3929
N14300 X0.1995 Y0.3942
N14305 X0.1903 Y0.4286
N14310 X0.19 Y0.4296
N14315 X0.1853 Y0.4495
N14320 X0.1851 Y0.4503
N14325 X0.1804 Y0.4721
N14330 X0.1802 Y0.473
N14335 X0.1756 Y0.4969
N14340 X0.1754 Y0.4979
N14345 X0.1711 Y0.5241
N14350 X0.1709 Y0.5252
N14355 X0.167 Y0.5539
N14360 X0.1669 Y0.5552
N14365 X0.1637 Y0.5865
N14370 X0.1635 Y0.5879
N14375 X0.1613 Y0.6222
N14380 X0.1612 Y0.6237
N14385 X0.1602 Y0.6611
N14390 Y0.6623
N14395 X0.1603 Y0.6822
N14400 Y0.6831
N14405 X0.1608 Y0.7039
N14410 Y0.7047
N14415 X0.1618 Y0.7264
N14420 X0.1619 Y0.7273
N14425 X0.1635 Y0.7499
N14430 Y0.7507
N14435 X0.1657 Y0.7743
N14440 X0.1658 Y0.7751
N14445 X0.1685 Y0.7996
N14450 X0.1686 Y0.8004
N14455 X0.172 Y0.8259
N14460 X0.1721 Y0.8267
N14465 X0.1762 Y0.8531
N14470 X0.1763 Y0.8538
N14475 X0.1811 Y0.8811
N14480 X0.1812 Y0.8819
N14485 X0.1867 Y0.9101
N14490 X0.1868 Y0.9107
N14495 X0.193 Y0.9398
N14500 X0.1931 Y0.9405
N14505 X0.2 Y0.9704
N14510 X0.2001 Y0.9709
N14515 X0.2076 Y1.0016
N14520 X0.2078 Y1.0021
N14525 X0.2159 Y1.0335
N14530 X0.2161 Y1.0341
N14535 X0.234 Y1.0984
N14540 X0.2342 Y1.0993
N14545 X0.3119 Y1.3542
N14550 X0.312 Y1.3544
N14555 X0.3127 Y1.3567
N14560 X0.3133 Y1.3586
N14565 X0.3142 Y1.3609
N14570 X0.3149 Y1.3627
N14575 X0.3159 Y1.365
N14580 X0.3166 Y1.3668
N14585 X0.3177 Y1.369
N14590 X0.3186 Y1.3707
N14595 X0.3198 Y1.3729
N14600 X0.3208 Y1.3746
N14605 X0.3221 Y1.3767
N14610 X0.3231 Y1.3783
N14615 X0.3245 Y1.3804
N14620 X0.3256 Y1.3819
N14625 X0.3271 Y1.3839
N14630 X0.3283 Y1.3855
N14635 X0.3299 Y1.3873
N14640 X0.3312 Y1.3888
N14645 X0.3329 Y1.3906
N14650 X0.3342 Y1.392
N14655 X0.336 Y1.3937
N14660 X0.3374 Y1.3951
N14665 X0.3393 Y1.3967
N14670 X0.3407 Y1.398
N14675 X0.3427 Y1.3995
N14680 X0.3442 Y1.4007
N14685 X0.3462 Y1.4021
N14690 X0.3478 Y1.4033
N14695 X0.3499 Y1.4046
N14700 X0.3515 Y1.4056
N14705 X0.3536 Y1.4069
N14710 X0.3554 Y1.4078
N14715 X0.3576 Y1.4089
N14720 X0.3593 Y1.4098
N14725 X0.3615 Y1.4108
N14730 X0.3633 Y1.4116
N14735 X0.3656 Y1.4125
N14740 X0.3674 Y1.4132
N14745 X0.3697 Y1.414
N14750 X0.3717 Y1.4146
N14755 X0.374 Y1.4153
N14760 X0.3759 Y1.4158
N14765 X0.3783 Y1.4163
N14770 X0.3802 Y1.4167
N14775 X0.3826 Y1.4172
N14780 X0.3845 Y1.4175
N14785 X0.3869 Y1.4178
N14790 X0.3889 Y1.418
N14795 X0.3914 Y1.4182
N14800 X0.3933 Y1.4184
N14805 X0.3958
N14810 X0.3977 Y1.4185
N14815 X0.4002 Y1.4184
N14820 X0.4021 Y1.4183
N14825 X0.4046 Y1.4182
N14830 X0.4053 Y1.4181
N14835 X0.5008 Y1.4104
N14840 X0.5912 Y1.4043
N14845 X0.677 Y1.3997
N14850 X0.7588 Y1.3966
N14855 X0.8369 Y1.3946
N14860 X0.9116 Y1.3938
N14865 X0.9832 Y1.394
N14870 X1.0522 Y1.395
N14875 X1.1186 Y1.3968
N14880 X1.1828 Y1.3992
N14885 X1.245 Y1.4022
N14890 X1.3053 Y1.4057
N14895 X1.3639 Y1.4096
N14900 X1.421 Y1.4138
N14905 X1.5313 Y1.4227
N14910 X1.9295 Y1.4586
N14915 X1.9299
N14920 X2.0205 Y1.4659
N14925 X2.0209
N14930 X2.1082 Y1.472
N14935 X2.1087
N14940 X2.193 Y1.4768
N14945 X2.1935 Y1.4769
N14950 X2.2749 Y1.4803
N14955 X2.2755 Y1.4804
N14960 X2.3541 Y1.4824
N14965 X2.3548 Y1.4825
N14970 X2.4309 Y1.4832
N14975 X2.4316
N14980 X2.5053 Y1.4826
N14985 X2.506
N14990 X2.5776 Y1.4807
N14995 X2.5783 Y1.4806
N15000 X2.6479 Y1.4776
N15005 X2.6486 Y1.4775
N15010 X2.7165 Y1.4733
N15015 X2.7172
N15020 X2.7836 Y1.4681
N15025 X2.7842
N15030 X2.8493 Y1.462
N15035 X2.8498
N15040 X2.9138 Y1.4551
N15045 X2.9142
N15050 X2.9772 Y1.4476
N15055 X2.9777 Y1.4475
N15060 X3.0398 Y1.4394
N15065 X3.0402 Y1.4393
N15070 X3.1017 Y1.4307
N15075 X3.102 Y1.4306
N15080 X3.1629 Y1.4214
N15085 X3.1633
N15090 X3.2236 Y1.4117
N15095 X3.224
N15100 X3.2839 Y1.4015
N15105 X3.2843 Y1.4014
N15110 X3.3437 Y1.3907
N15115 X3.3441 Y1.3906
N15120 X3.4031 Y1.3793
N15125 X3.4035 Y1.3792
N15130 X3.462 Y1.3673
N15135 X3.4626 Y1.3671
N15140 X3.5206 Y1.3545
N15145 X3.5212 Y1.3543
N15150 X3.5786 Y1.3409
N15155 X3.5793 Y1.3407
N15160 X3.6361 Y1.3264
N15165 X3.6368 Y1.3262
N15170 X3.693 Y1.3109
N15175 X3.6938 Y1.3107
N15180 X3.7492 Y1.2945
N15185 X3.7501 Y1.2942
N15190 X3.8047 Y1.2769
N15195 X3.8056 Y1.2766
N15200 X3.8593 Y1.2583
N15205 X3.8602 Y1.2579
N15210 X3.9129 Y1.2385
N15215 X3.9139 Y1.2381
N15220 X3.9655 Y1.2176
N15225 X3.9665 Y1.2172
N15230 X4.017 Y1.1956
N15235 X4.018 Y1.1952
N15240 X4.0673 Y1.1726
N15245 X4.0682 Y1.1721
N15250 X4.1163 Y1.1486
N15255 X4.1172 Y1.1481
N15260 X4.1639 Y1.1237
N15265 X4.1647 Y1.1233
N15270 X4.21 Y1.0981
N15275 X4.2109 Y1.0976
N15280 X4.2547 Y1.0718
N15285 X4.2555 Y1.0713
N15290 X4.2978 Y1.045
N15295 X4.2986 Y1.0445
N15300 X4.3393 Y1.0178
N15305 X4.3401 Y1.0173
N15310 X4.3791 Y0.9902
N15315 X4.3799 Y0.9897
N15320 X4.4173 Y0.9625
N15325 X4.418 Y0.962
N15330 X4.4537 Y0.9348
N15335 X4.4544 Y0.9342
N15340 X4.4884 Y0.9071
N15345 X4.4891 Y0.9065
N15350 X4.5214 Y0.8795
N15355 X4.5221 Y0.8789
N15360 X4.5526 Y0.8522
N15365 X4.5533 Y0.8516
N15370 X4.582 Y0.8252
N15375 X4.5827 Y0.8246
N15380 X4.6097 Y0.7986
N15385 X4.6104 Y0.7979
N15390 X4.6357 Y0.7725
N15395 X4.6364 Y0.7718
N15400 X4.6599 Y0.7468
N15405 X4.6606 Y0.746
N15410 X4.6824 Y0.7217
N15415 X4.6831 Y0.7208
N15420 X4.7033 Y0.697
N15425 X4.704 Y0.6962
N15430 X4.7224 Y0.673
N15435 X4.7232 Y0.672
N15440 X4.74 Y0.6495
N15445 X4.7408 Y0.6484
N15450 X4.756 Y0.6266
N15455 X4.7568 Y0.6254
N15460 X4.7705 Y0.6042
N15465 X4.7713 Y0.6029
N15470 X4.7835 Y0.5823
N15475 X4.7843 Y0.5809
N15480 X4.795 Y0.5609
N15485 X4.7958 Y0.5594
N15490 X4.8052 Y0.54
N15495 X4.8059 Y0.5383
N15500 X4.8139 Y0.5195
N15505 X4.8146 Y0.5177
N15510 X4.8213 Y0.4995
N15515 X4.822 Y0.4975
N15520 X4.8274 Y0.4798
N15525 X4.828 Y0.4777
N15530 X4.8322 Y0.4604
N15535 X4.8327 Y0.4582
N15540 X4.8359 Y0.4414
N15545 X4.8362 Y0.4392
N15550 X4.8383 Y0.4228
N15555 X4.8384 Y0.4216
N15560 G3 X4.847 Y0.4145 I0.0078 J0.0008 F10.
N15565 G1 X4.8549 Y0.4153
N15570 X4.8569 Y0.4155 Z-0.1247
N15575 X4.8588 Y0.4157 Z-0.1239
N15580 X4.8604 Y0.4158 Z-0.1227
N15585 X4.8616 Y0.4159 Z-0.1211
N15590 X4.8624 Y0.416 Z-0.1192
N15595 X4.8627 Z-0.1171
N15600 G0 Z0.6
(BORE1)
N15605 G0 X4.2077 Y0.7761
N15610 Z0.6
N15615 Z0.057
N15620 G1 Z-0.0151 F5.
N15625 X4.208 Y0.776 Z-0.0172
N15630 X4.2088 Y0.7759 Z-0.0191
N15635 X4.21 Y0.7758 Z-0.0207
N15640 X4.2117 Y0.7756 Z-0.0219
N15645 X4.2135 Y0.7753 Z-0.0227
N15650 X4.2156 Y0.7751 Z-0.023
N15655 X4.2195 Y0.7746
N15660 G3 X4.2282 Y0.7815 I0.001 J0.0078
N15665 X4.0007 Y0.8094 Z-0.0427 I-0.1138 J0.014
N15670 X4.2282 Y0.7815 Z-0.0624 I0.1138 J-0.014
N15675 X4.0007 Y0.8094 Z-0.0821 I-0.1138 J0.014
N15680 X4.2282 Y0.7815 Z-0.1017 I0.1138 J-0.014
N15685 X4.0007 Y0.8094 Z-0.1214 I-0.1138 J0.014
N15690 X4.0112 Y0.7458 Z-0.125 I0.1138 J-0.014
N15695 X4.2178 Y0.8451 I0.1033 J0.0497
N15700 X4.0112 Y0.7458 I-0.1033 J-0.0497
N15705 X4.0217 Y0.7421 I0.0071 J0.0034
N15710 G1 X4.0252 Y0.7438
N15715 X4.0271 Y0.7447 Z-0.1247
N15720 X4.0288 Y0.7455 Z-0.1239
N15725 X4.0302 Y0.7462 Z-0.1227
N15730 X4.0314 Y0.7467 Z-0.1211
N15735 X4.0321 Y0.7471 Z-0.1192
N15740 X4.0323 Y0.7472 Z-0.1171
N15745 G0 Z0.2
N15750 X1.9758 Y1.2622
N15755 Z0.018
N15760 G1 Z-0.0541 F5.
N15765 X1.9761 Y1.2621 Z-0.0562
N15770 X1.9769 Z-0.0581
N15775 X1.9781 Y1.2619 Z-0.0597
N15780 X1.9797 Y1.2617 Z-0.061
N15785 X1.9816 Y1.2615 Z-0.0617
N15790 X1.9836 Y1.2612 Z-0.062
N15795 X1.9876 Y1.2607
N15800 G3 X1.9963 Y1.2676 I0.001 J0.0078
N15805 X1.9633 Y1.2717 Z-0.0817 I-0.0165 J0.002
N15810 X1.9963 Y1.2676 Z-0.1014 I0.0165 J-0.002
N15815 X1.9633 Y1.2717 Z-0.1211 I-0.0165 J0.002
N15820 X1.9653 Y1.2616 Z-0.125 I0.0165 J-0.002
N15825 X1.9944 Y1.2777 I0.0146 J0.008
N15830 X1.9653 Y1.2616 I-0.0146 J-0.008
N15835 X1.976 Y1.2585 I0.0069 J0.0038
N15840 G1 X1.9794 Y1.2604
N15845 X1.9812 Y1.2614 Z-0.1247
N15850 X1.9829 Y1.2623 Z-0.1239
N15855 X1.9843 Y1.2631 Z-0.1227
N15860 X1.9854 Y1.2637 Z-0.1211
N15865 X1.9861 Y1.2641 Z-0.1192
N15870 X1.9863 Y1.2642 Z-0.1171
N15875 G0 Z0.2
N15880 X0.5655 Y1.1979
N15885 Z0.018
N15890 G1 Z-0.0541 F5.
N15895 X0.5657 Z-0.0562
N15900 X0.5665 Y1.1978 Z-0.0581
N15905 X0.5678 Y1.1976 Z-0.0597
N15910 X0.5694 Y1.1974 Z-0.061
N15915 X0.5713 Y1.1972 Z-0.0617
N15920 X0.5733 Y1.1969 Z-0.062
N15925 X0.5772 Y1.1965
N15930 G3 X0.586 Y1.2033 I0.001 J0.0078
N15935 X0.553 Y1.2074 Z-0.0817 I-0.0165 J0.002
N15940 X0.586 Y1.2033 Z-0.1014 I0.0165 J-0.002
N15945 X0.553 Y1.2074 Z-0.1211 I-0.0165 J0.002
N15950 X0.5549 Y1.1973 Z-0.125 I0.0165 J-0.002
N15955 X0.584 Y1.2134 I0.0146 J0.008
N15960 X0.5549 Y1.1973 I-0.0146 J-0.008
N15965 X0.5656 Y1.1942 I0.0069 J0.0038
N15970 G1 X0.5691 Y1.1961
N15975 X0.5708 Y1.1971 Z-0.1247
N15980 X0.5725 Y1.198 Z-0.1239
N15985 X0.5739 Y1.1988 Z-0.1227
N15990 X0.575 Y1.1994 Z-0.1211
N15995 X0.5757 Y1.1998 Z-0.1192
N16000 X0.576 Y1.1999 Z-0.1171
N16005 G0 Z0.2
N16010 X0.7094 Y0.6863
N16015 Z0.0088
N16020 G1 Z-0.0634 F5.
N16025 X0.7097 Z-0.0654
N16030 X0.7104 Y0.6862 Z-0.0673
N16035 X0.7117 Y0.686 Z-0.0689
N16040 X0.7133 Y0.6858 Z-0.0702
N16045 X0.7152 Y0.6856 Z-0.071
N16050 X0.7172 Y0.6854 Z-0.0712
N16055 X0.7211 Y0.6849
N16060 G3 X0.7299 Y0.6917 I0.001 J0.0078
N16065 X0.6691 Y0.6992 Z-0.0909 I-0.0304 J0.0037
N16070 X0.7299 Y0.6917 Z-0.1106 I0.0304 J-0.0037
N16075 X0.6821 Y0.7207 Z-0.125 I-0.0304 J0.0037
N16080 X0.7168 Y0.6702 I0.0174 J-0.0252
N16085 X0.6821 Y0.7207 I-0.0174 J0.0252
N16090 X0.6801 Y0.7098 I0.0045 J-0.0065
N16095 G1 X0.6823 Y0.7065
N16100 X0.6835 Y0.7048 Z-0.1247
N16105 X0.6846 Y0.7033 Z-0.1239
N16110 X0.6855 Y0.7019 Z-0.1227
N16115 X0.6862 Y0.7009 Z-0.1211
N16120 X0.6866 Y0.7003 Z-0.1192
N16125 X0.6868 Y0.7 Z-0.1171
N16130 G0 Z0.6
(2D ADAPTIVE1)
N16135 G0 X1.2029 Y1.0267
N16140 Z0.6
N16145 Z0.2
N16150 Z0.102
N16155 G3 X1.1908 Y1.1005 Z0.0979 I-0.006 J0.0369 F2.
N16160 X1.2029 Y1.0267 Z0.0938 I0.006 J-0.0369
N16165 X1.1908 Y1.1005 Z0.0897 I-0.006 J0.0369
N16170 X1.2029 Y1.0267 Z0.0856 I0.006 J-0.0369
N16175 X1.1908 Y1.1005 Z0.0815 I-0.006 J0.0369
N16180 X1.2029 Y1.0267 Z0.0774 I0.006 J-0.0369
N16185 X1.1908 Y1.1005 Z0.0733 I-0.006 J0.0369
N16190 X1.2029 Y1.0267 Z0.0692 I0.006 J-0.0369
N16195 X1.1908 Y1.1005 Z0.0651 I-0.006 J0.0369
N16200 X1.2029 Y1.0267 Z0.061 I0.006 J-0.0369
N16205 X1.1908 Y1.1005 Z0.0569 I-0.006 J0.0369
N16210 X1.2029 Y1.0267 Z0.0528 I0.006 J-0.0369
N16215 X1.1908 Y1.1005 Z0.0487 I-0.006 J0.0369
N16220 X1.2029 Y1.0267 Z0.0446 I0.006 J-0.0369
N16225 X1.1908 Y1.1005 Z0.0405 I-0.006 J0.0369
N16230 X1.2029 Y1.0267 Z0.0363 I0.006 J-0.0369
N16235 X1.1908 Y1.1005 Z0.0322 I-0.006 J0.0369
N16240 X1.2029 Y1.0267 Z0.0281 I0.006 J-0.0369
N16245 X1.1908 Y1.1005 Z0.024 I-0.006 J0.0369
N16250 X1.2029 Y1.0267 Z0.0199 I0.006 J-0.0369
N16255 X1.1908 Y1.1005 Z0.0158 I-0.006 J0.0369
N16260 X1.2029 Y1.0267 Z0.0117 I0.006 J-0.0369
N16265 X1.1908 Y1.1005 Z0.0076 I-0.006 J0.0369
N16270 X1.2029 Y1.0267 Z0.0035 I0.006 J-0.0369
N16275 X1.1908 Y1.1005 Z-0.0006 I-0.006 J0.0369
N16280 X1.2029 Y1.0267 Z-0.0047 I0.006 J-0.0369
N16285 X1.1908 Y1.1005 Z-0.0088 I-0.006 J0.0369
N16290 X1.2029 Y1.0267 Z-0.0129 I0.006 J-0.0369
N16295 X1.1908 Y1.1005 Z-0.017 I-0.006 J0.0369
N16300 X1.2029 Y1.0267 Z-0.0211 I0.006 J-0.0369
N16305 X1.1908 Y1.1005 Z-0.0252 I-0.006 J0.0369
N16310 X1.2029 Y1.0267 Z-0.0293 I0.006 J-0.0369
N16315 X1.1908 Y1.1005 Z-0.0334 I-0.006 J0.0369
N16320 X1.2029 Y1.0267 Z-0.0375 I0.006 J-0.0369
N16325 X1.1908 Y1.1005 Z-0.0416 I-0.006 J0.0369
N16330 X1.2029 Y1.0267 Z-0.0457 I0.006 J-0.0369
N16335 X1.1908 Y1.1005 Z-0.0498 I-0.006 J0.0369
N16340 X1.2029 Y1.0267 Z-0.0539 I0.006 J-0.0369
N16345 X1.1908 Y1.1005 Z-0.058 I-0.006 J0.0369
N16350 X1.2029 Y1.0267 Z-0.0621 I0.006 J-0.0369
N16355 X1.1908 Y1.1005 Z-0.0662 I-0.006 J0.0369
N16360 X1.2029 Y1.0267 Z-0.0703 I0.006 J-0.0369
N16365 X1.1908 Y1.1005 Z-0.0744 I-0.006 J0.0369
N16370 X1.2029 Y1.0267 Z-0.0785 I0.006 J-0.0369
N16375 X1.1908 Y1.1005 Z-0.0826 I-0.006 J0.0369
N16380 X1.2029 Y1.0267 Z-0.0867 I0.006 J-0.0369
N16385 X1.1908 Y1.1005 Z-0.0909 I-0.006 J0.0369
N16390 X1.2029 Y1.0267 Z-0.095 I0.006 J-0.0369
N16395 X1.1908 Y1.1005 Z-0.0991 I-0.006 J0.0369
N16400 X1.2029 Y1.0267 Z-0.1032 I0.006 J-0.0369
N16405 X1.2342 Y1.0636 Z-0.105 I-0.006 J0.0369
N16410 X1.1594 I-0.0374 J0.
N16415 X1.2342 I0.0374 J0.
N16420 G1 X1.2354 Y1.0868 F5.
N16425 X1.2352 Y1.0928
N16430 X1.2335 Y1.0985
N16435 X1.2306 Y1.1038
N16440 X1.2269 Y1.1085
N16445 X1.2224 Y1.1125
N16450 X1.2174 Y1.1158
N16455 X1.212 Y1.1184
N16460 X1.2063 Y1.1203
N16465 X1.2004 Y1.1215
N16470 X1.1944 Y1.1219
N16475 X1.1885 Y1.1217
N16480 X1.1825 Y1.1208
N16485 X1.1767 Y1.1193
N16490 X1.1711 Y1.1171
N16495 X1.1658 Y1.1144
N16500 X1.1608 Y1.1111
N16505 X1.1561 Y1.1073
N16510 X1.1519 Y1.1031
N16515 X1.1481 Y1.0984
N16520 X1.1448 Y1.0934
N16525 X1.142 Y1.0881
N16530 X1.1398 Y1.0825
N16535 X1.1382 Y1.0767
N16540 X1.1372 Y1.0708
N16545 X1.1367 Y1.0648
N16550 X1.1369 Y1.0588
N16555 X1.1376 Y1.0529
N16560 X1.139 Y1.047
N16565 X1.1409 Y1.0414
N16570 X1.1434 Y1.0359
N16575 X1.1464 Y1.0307
N16580 X1.1499 Y1.0259
N16585 X1.1539 Y1.0214
N16590 X1.1583 Y1.0173
N16595 X1.1631 Y1.0137
N16600 X1.1683 Y1.0106
N16605 X1.1737 Y1.008
N16610 X1.1793 Y1.006
N16615 X1.1852 Y1.0045
N16620 X1.1911 Y1.0037
N16625 X1.1971 Y1.0034
N16630 X1.2031 Y1.0037
N16635 X1.209 Y1.0046
N16640 X1.2148 Y1.0061
N16645 X1.2204 Y1.0082
N16650 X1.2258 Y1.0108
N16655 X1.231 Y1.014
N16660 X1.2357 Y1.0176
N16665 X1.2401 Y1.0217
N16670 X1.2441 Y1.0262
N16675 X1.2475 Y1.0311
N16680 X1.2505 Y1.0363
N16685 X1.2536 Y1.0429
N16690 X1.2568 Y1.0517
N16695 X1.2593 Y1.0605
N16700 X1.2606 Y1.0673
N16705 X1.2613 Y1.0739
N16710 X1.2615 Y1.0799
N16715 X1.2612 Y1.0859
N16720 X1.2604 Y1.0918
N16725 X1.259 Y1.0977
N16730 X1.2571 Y1.1034
N16735 X1.2547 Y1.1088
N16740 X1.2517 Y1.1141
N16745 X1.2483 Y1.119
N16750 X1.2445 Y1.1236
N16755 X1.2402 Y1.1278
N16760 X1.2356 Y1.1317
N16765 X1.2307 Y1.1351
N16770 X1.2303 Y1.1353
N16775 X1.2269 Y1.1368
N16780 X1.2232 Y1.1376
N16785 X1.2195
N16790 X1.2081 Y1.1365
N16795 X1.2025 Y1.1359
N16800 X1.1522 Y1.122
N16805 X1.1465 Y1.1201
N16810 X1.1412 Y1.1173
N16815 X1.1363 Y1.1139
N16820 X1.1318 Y1.1099
N16825 X1.1278 Y1.1054
N16830 X1.1242 Y1.1006
N16835 X1.1212 Y1.0954
N16840 X1.1186 Y1.09
N16845 X1.1164 Y1.0844
N16850 X1.1148 Y1.0787
N16855 X1.1136 Y1.0726
N16860 X1.1129 Y1.0665
N16865 X1.1127 Y1.0604
N16870 X1.113 Y1.054
N16875 X1.1139 Y1.0475
N16880 X1.1152 Y1.0412
N16885 X1.117 Y1.035
N16890 X1.1194 Y1.0289
N16895 X1.1223 Y1.0228
N16900 X1.1258 Y1.017
N16905 X1.1296 Y1.0116
N16910 X1.1338 Y1.0065
N16915 X1.1385 Y1.0016
N16920 X1.1436 Y0.9971
N16925 X1.1491 Y0.993
N16930 X1.1548 Y0.9895
N16935 X1.1587 Y0.9875
N16940 X1.163 Y0.9859
N16945 X1.1675 Y0.9854
N16950 X1.172 Y0.9861
N16955 X1.2363 Y1.0039
N16960 X1.2391 Y1.0047
N16965 X1.242 Y1.0059
N16970 X1.2476 Y1.0086
N16975 X1.2529 Y1.0115
N16980 X1.2579 Y1.0148
N16985 X1.2624 Y1.0187
N16990 X1.2666 Y1.0231
N16995 X1.2703 Y1.0278
N17000 X1.274 Y1.0332
N17005 X1.2773 Y1.0392
N17010 X1.2802 Y1.0455
N17015 X1.2827 Y1.0521
N17020 X1.2846 Y1.0591
N17025 X1.286 Y1.0662
N17030 X1.2868 Y1.0735
N17035 X1.287 Y1.0808
N17040 X1.2866 Y1.0881
N17045 X1.2857 Y1.0953
N17050 X1.2842 Y1.1023
N17055 X1.284 Y1.103
N17060 X1.2833 Y1.1049
N17065 X1.2824 Y1.1067
N17070 X1.2813 Y1.1084
N17075 G3 X1.2676 Y1.1062 I-0.0062 J-0.0048
N17080 G1 X1.263 Y1.093
N17085 X1.2412 Y1.0304
N17090 X1.237 Y1.0185
N17095 G3 X1.2476 Y1.0086 I0.0074 J-0.0026
N17100 G1 X1.2607 Y1.0149
N17105 X1.2645 Y1.0168
N17110 X1.2656 Y1.0175
N17115 X1.2666 Y1.0184
N17120 X1.2807 Y1.0328
N17125 X1.2815 Y1.0338
N17130 X1.2833 Y1.0374
N17135 X1.2884 Y1.0487
N17140 X1.2909 Y1.0543
N17145 X1.2913 Y1.0558
N17150 X1.2914 Y1.0572
N17155 X1.293 Y1.0769
N17160 X1.2929 Y1.0781
N17165 X1.2927 Y1.0793
N17170 X1.2872 Y1.0994
N17175 X1.2865 Y1.101
N17180 X1.2856 Y1.1024
N17185 X1.2745 Y1.118
N17190 X1.2738 Y1.1189
N17195 X1.2729 Y1.1198
N17200 X1.2699 Y1.122
N17205 X1.2561 Y1.1315
N17210 X1.2547 Y1.1324
N17215 X1.2532 Y1.1331
N17220 X1.2527 Y1.1332
N17225 X1.2335 Y1.1382
N17230 X1.2321 Y1.1385
N17235 X1.2307 Y1.1386
N17240 X1.222 Y1.1378
N17245 X1.2195 Y1.1376
N17250 X1.2175 Y1.1371
N17255 X1.2157 Y1.1362
N17260 X1.2142 Y1.1348
N17265 X1.2131 Y1.133
N17270 X1.2125 Y1.1311
N17275 X1.2119 Y1.1292
N17280 X1.2109 Y1.1275
N17285 X1.2095 Y1.1262
N17290 X1.2079 Y1.1252
N17295 X1.206 Y1.1246
N17300 X1.1953 Y1.1228
N17305 X1.1865 Y1.1213
N17310 X1.1848 Y1.1212
N17315 X1.1831 Y1.1215
N17320 G3 X1.1522 Y1.122 I-0.0164 J-0.0601
N17325 G1 X1.1235 Y1.114
N17330 X1.1178 Y1.1121
N17335 X1.1126 Y1.1092
N17340 X1.1079 Y1.1055
N17345 X1.1037 Y1.1011
N17350 X1.1001 Y1.0963
N17355 X1.097 Y1.0912
N17360 X1.0945 Y1.0858
N17365 X1.0924 Y1.0801
N17370 X1.0907 Y1.0741
N17375 X1.0895 Y1.0676
N17380 X1.0887 Y1.0608
N17385 X1.0885 Y1.0538
N17390 X1.0889 Y1.0466
N17395 X1.0899 Y1.039
N17400 X1.0915 Y1.0314
N17405 X1.0938 Y1.0237
N17410 X1.0968 Y1.0161
N17415 X1.1004 Y1.0086
N17420 X1.1047 Y1.0013
N17425 X1.1097 Y0.9943
N17430 X1.1152 Y0.9877
N17435 X1.1208 Y0.9819
N17440 X1.1221 Y0.9808
N17445 X1.1272 Y0.9777
N17450 X1.1331 Y0.9763
N17455 X1.1391 Y0.977
N17460 X1.172 Y0.9861
N17465 G3 X1.177 Y0.9965 I-0.0024 J0.0075
N17470 G1 X1.1704 Y1.0132
N17475 X1.1398 Y1.091
N17480 X1.1327 Y1.1093
N17485 G3 X1.1235 Y1.114 I-0.0073 J-0.0029
N17490 G1 X1.0978 Y1.1069
N17495 X1.0921 Y1.105
N17500 X1.087 Y1.102
N17505 X1.0824 Y1.0981
N17510 X1.0784 Y1.0937
N17515 X1.0749 Y1.0887
N17520 X1.072 Y1.0835
N17525 X1.0696 Y1.078
N17530 X1.0676 Y1.0723
N17535 X1.066 Y1.0659
N17540 X1.0648 Y1.0589
N17545 X1.0641 Y1.0516
N17550 Y1.0438
N17555 X1.0647 Y1.0355
N17560 X1.066 Y1.0269
N17565 X1.0681 Y1.0179
N17570 X1.071 Y1.009
N17575 X1.0747 Y1.0001
N17580 X1.0791 Y0.9913
N17585 X1.0838 Y0.9838
N17590 X1.0881 Y0.978
N17595 X1.091 Y0.9745
N17600 X1.0964 Y0.9703
N17605 X1.103 Y0.9683
N17610 X1.1098 Y0.9689
N17615 X1.1391 Y0.977
N17620 G3 X1.1442 Y0.9869 I-0.0024 J0.0075
N17625 G1 X1.1385 Y1.0045
N17630 X1.113 Y1.0835
N17635 X1.1071 Y1.1017
N17640 G3 X1.0978 Y1.1069 I-0.0075 J-0.0024
N17645 G1 X1.0727 Y1.1
N17650 X1.067 Y1.0981
N17655 X1.0619 Y1.0949
N17660 X1.0574 Y1.091
N17665 X1.0535 Y1.0864
N17670 X1.0501 Y1.0815
N17675 X1.0472 Y1.0762
N17680 X1.0449 Y1.0707
N17685 X1.0428 Y1.0645
N17690 X1.0411 Y1.0578
N17695 X1.0399 Y1.0505
N17700 X1.0392 Y1.0425
N17705 Y1.0336
N17710 X1.0399 Y1.0246
N17715 X1.0414 Y1.0152
N17720 X1.0438 Y1.0053
N17725 X1.0471 Y0.9954
N17730 X1.051 Y0.9861
N17735 X1.0546 Y0.9791
N17740 X1.0586 Y0.9727
N17745 X1.0622 Y0.9679
N17750 X1.0632 Y0.9667
N17755 X1.0686 Y0.9625
N17760 X1.0751 Y0.9606
N17765 X1.0819 Y0.9611
N17770 X1.1098 Y0.9689
N17775 G3 X1.115 Y0.9785 I-0.0024 J0.0075
N17780 G1 X1.1099 Y0.9966
N17785 X1.0873 Y1.0763
N17790 X1.0821 Y1.0945
N17795 G3 X1.0727 Y1.1 I-0.0076 J-0.0021
N17800 G1 X1.0484 Y1.0933
N17805 X1.0427 Y1.0914
N17810 X1.0376 Y1.0882
N17815 X1.0331 Y1.0843
N17820 X1.0291 Y1.0798
N17825 X1.0257 Y1.0749
N17830 X1.0228 Y1.0697
N17835 X1.0202 Y1.064
N17840 X1.0181 Y1.0579
N17845 X1.0163 Y1.051
N17850 X1.0148 Y1.0432
N17855 X1.014 Y1.0348
N17860 X1.0139 Y1.0259
N17865 X1.0145 Y1.0161
N17870 X1.0159 Y1.0058
N17875 X1.0182 Y0.9958
N17880 X1.0213 Y0.986
N17885 X1.0248 Y0.9772
N17890 X1.0279 Y0.9711
N17895 X1.0316 Y0.965
N17900 X1.0351 Y0.9601
N17905 X1.0358 Y0.9593
N17910 X1.0412 Y0.955
N17915 X1.0478 Y0.953
N17920 X1.0546 Y0.9536
N17925 X1.0819 Y0.9611
N17930 G3 X1.0872 Y0.9706 I-0.0024 J0.0075
N17935 G1 X1.0826 Y0.989
N17940 X1.0624 Y1.0694
N17945 X1.0579 Y1.0875
N17950 G3 X1.0484 Y1.0933 I-0.0076 J-0.0019
N17955 G1 X1.0245 Y1.0866
N17960 X1.0188 Y1.0847
N17965 X1.0136 Y1.0818
N17970 X1.009 Y1.0779
N17975 X1.0049 Y1.0735
N17980 X1.0013 Y1.0687
N17985 X0.9983 Y1.0635
N17990 X0.9956 Y1.0579
N17995 X0.9933 Y1.0519
N18000 X0.9913 Y1.0449
N18005 X0.9896 Y1.0369
N18010 X0.9886 Y1.0285
N18015 X0.9882 Y1.0192
N18020 X0.9886 Y1.0092
N18025 X0.9898 Y0.9988
N18030 X0.9918 Y0.9889
N18035 X0.9945 Y0.9793
N18040 X0.9978 Y0.9706
N18045 X1.0007 Y0.9645
N18050 X1.0041 Y0.9585
N18055 X1.0075 Y0.9535
N18060 X1.0086 Y0.9522
N18065 X1.014 Y0.9477
N18070 X1.0207 Y0.9456
N18075 X1.0277 Y0.9462
N18080 X1.0546 Y0.9536
N18085 G3 X1.06 Y0.9628 I-0.0024 J0.0075
N18090 G1 X1.0558 Y0.9816
N18095 X1.038 Y1.0627
N18100 X1.034 Y1.0807
N18105 G3 X1.0245 Y1.0866 I-0.0077 J-0.0017
N18110 G1 X0.9994 Y1.0797
N18115 X0.9937 Y1.0778
N18120 X0.9885 Y1.0748
N18125 X0.9838 Y1.071
N18130 X0.9797 Y1.0666
N18135 X0.9762 Y1.0618
N18140 X0.973 Y1.0567
N18145 X0.9703 Y1.051
N18150 X0.9678 Y1.0448
N18155 X0.9657 Y1.0377
N18160 X0.9639 Y1.0294
N18165 X0.9628 Y1.0209
N18170 X0.9623 Y1.0115
N18175 X0.9626 Y1.0015
N18180 X0.9637 Y0.9912
N18185 X0.9656 Y0.9813
N18190 X0.9682 Y0.9718
N18195 X0.9712 Y0.9634
N18200 X0.974 Y0.9574
N18205 X0.9774 Y0.9513
N18210 X0.9807 Y0.9464
N18215 X0.9819 Y0.9449
N18220 X0.9873 Y0.9404
N18225 X0.994 Y0.9382
N18230 X1.0011 Y0.9388
N18235 X1.0277 Y0.9462
N18240 G3 X1.0331 Y0.9552 I-0.0024 J0.0075
N18245 G1 X1.0292 Y0.9742
N18250 X1.0126 Y1.0557
N18255 X1.0089 Y1.0736
N18260 G3 X0.9994 Y1.0797 I-0.0077 J-0.0016
N18265 G1 X0.9737 Y1.0726
N18270 X0.968 Y1.0707
N18275 X0.9628 Y1.0677
N18280 X0.9582 Y1.0639
N18285 X0.9541 Y1.0595
N18290 X0.9505 Y1.0547
N18295 X0.9474 Y1.0495
N18300 X0.9445 Y1.0437
N18305 X0.942 Y1.0375
N18310 X0.9398 Y1.0303
N18315 X0.9379 Y1.022
N18320 X0.9367 Y1.0133
N18325 X0.9362 Y1.0039
N18330 X0.9364 Y0.9938
N18335 X0.9375 Y0.9835
N18340 X0.9393 Y0.9737
N18345 X0.9418 Y0.9643
N18350 X0.9448 Y0.9561
N18355 X0.9474 Y0.9502
N18360 X0.9508 Y0.9441
N18365 X0.9541 Y0.9391
N18370 X0.9553 Y0.9376
N18375 X0.9607 Y0.9331
N18380 X0.9674 Y0.9309
N18385 X0.9745 Y0.9314
N18390 X1.0011 Y0.9388
N18395 G3 X1.0064 Y0.9478 I-0.0024 J0.0075
N18400 G1 X1.0027 Y0.9669
N18405 X0.9868 Y1.0486
N18410 X0.9833 Y1.0664
N18415 G3 X0.9737 Y1.0726 I-0.0077 J-0.0015
N18420 G1 X0.9486 Y1.0656
N18425 X0.9429 Y1.0638
N18430 X0.9377 Y1.0608
N18435 X0.933 Y1.0571
N18440 X0.9288 Y1.0528
N18445 X0.9251 Y1.0481
N18450 X0.9219 Y1.043
N18455 X0.919 Y1.0372
N18460 X0.9164 Y1.0311
N18465 X0.914 Y1.0239
N18470 X0.9121 Y1.0157
N18475 X0.9108 Y1.0072
N18480 X0.9101 Y0.9978
N18485 Y0.9877
N18490 X0.911 Y0.9775
N18495 X0.9127 Y0.9677
N18500 X0.915 Y0.9583
N18505 X0.9179 Y0.9498
N18510 X0.9205 Y0.9438
N18515 X0.9238 Y0.9377
N18520 X0.927 Y0.9326
N18525 X0.9286 Y0.9306
N18530 X0.934 Y0.9259
N18535 X0.9408 Y0.9236
N18540 X0.948 Y0.9241
N18545 X0.9745 Y0.9314
N18550 G3 X0.9799 Y0.9403 I-0.0024 J0.0075
N18555 G1 X0.9764 Y0.9596
N18560 X0.9614 Y1.0416
N18565 X0.9582 Y1.0594
N18570 G3 X0.9486 Y1.0656 I-0.0077 J-0.0014
N18575 G1 X0.9229 Y1.0585
N18580 X0.9172 Y1.0567
N18585 X0.912 Y1.0538
N18590 X0.9072 Y1.0501
N18595 X0.903 Y1.0458
N18600 X0.8993 Y1.0411
N18605 X0.8961 Y1.0361
N18610 X0.8931 Y1.0304
N18615 X0.8904 Y1.0242
N18620 X0.8881 Y1.0171
N18625 X0.886 Y1.0088
N18630 X0.8846 Y1.0003
N18635 X0.8839 Y0.991
N18640 X0.8838 Y0.981
N18645 X0.8847 Y0.9707
N18650 X0.8862 Y0.961
N18655 X0.8885 Y0.9515
N18660 X0.8913 Y0.9431
N18665 X0.8939 Y0.937
N18670 X0.8972 Y0.9308
N18675 X0.9003 Y0.9257
N18680 X0.9006 Y0.9254
N18685 X0.9052 Y0.9211
N18690 X0.9109 Y0.9186
N18695 X0.9172 Y0.9182
N18700 X0.9317 Y0.9198
N18705 X0.9373 Y0.9211
N18710 X0.948 Y0.9241
N18715 G3 X0.9534 Y0.933 I-0.0024 J0.0075
N18720 G1 X0.95 Y0.9523
N18725 X0.9356 Y1.0344
N18730 X0.9325 Y1.0522
N18735 G3 X0.9229 Y1.0585 I-0.0078 J-0.0014
N18740 G1 X0.8978 Y1.0516
N18745 X0.895 Y1.0507
N18750 X0.8888 Y1.0475
N18755 X0.8837 Y1.0442
N18760 X0.8792 Y1.0403
N18765 X0.8752 Y1.0359
N18770 X0.8717 Y1.031
N18775 X0.8686 Y1.0258
N18780 X0.8659 Y1.0202
N18785 X0.8632 Y1.0134
N18790 X0.861 Y1.0061
N18795 X0.8593 Y0.9979
N18800 X0.858 Y0.9888
N18805 X0.8576 Y0.9791
N18810 X0.8578 Y0.9691
N18815 X0.8589 Y0.9592
N18820 X0.8608 Y0.9497
N18825 X0.8633 Y0.9406
N18830 X0.8642 Y0.9381
N18835 X0.8659 Y0.9347
N18840 X0.8682 Y0.9317
N18845 X0.871 Y0.9292
N18850 G3 X0.883 Y0.9343 I0.0042 J0.0066
N18855 G1 X0.8861 Y0.9497
N18860 X0.9018 Y1.027
N18865 X0.9048 Y1.0416
N18870 G3 X0.895 Y1.0507 I-0.0077 J0.0016
N18875 G1 X0.8865 Y1.0467
N18880 X0.8753 Y1.0413
N18885 X0.8696 Y1.0385
N18890 X0.869 Y1.038
N18895 X0.8683 Y1.0374
N18900 X0.8547 Y1.0236
N18905 X0.8535 Y1.0223
N18910 X0.8527 Y1.021
N18915 X0.8525 Y1.0205
N18920 X0.8447 Y1.0036
N18925 X0.8436 Y1.0008
N18930 X0.8434 Y1.0001
N18935 X0.8433 Y0.9994
N18940 X0.8418 Y0.9811
N18945 X0.8416 Y0.9783
N18950 X0.8417 Y0.9776
N18955 X0.8418 Y0.9768
N18960 X0.8421 Y0.9754
N18965 X0.8471 Y0.9576
N18970 X0.8478 Y0.9552
N18975 X0.8484 Y0.9541
N18980 X0.8583 Y0.9401
N18985 X0.8615 Y0.936
N18990 X0.8621 Y0.9354
N18995 X0.864 Y0.9341
N19000 X0.8793 Y0.9236
N19005 X0.8809 Y0.9227
N19010 X0.8865 Y0.9211
N19015 X0.9021 Y0.9171
N19020 X0.9028 Y0.917
N19025 X0.9035
N19030 X0.9091 Y0.9174
N19035 X0.9161 Y0.9181
N19040 X0.9172 Y0.9182
N19045 G3 X0.9149 Y0.9338 I-0.0011 J0.0078
N19050 X0.9098 Y0.9307 I0.0011 J-0.0078
N19055 G1 X0.9086 Y0.9291 Z-0.1047
N19060 X0.9074 Y0.9276 Z-0.1039
N19065 X0.9064 Y0.9263 Z-0.1027
N19070 X0.9057 Y0.9253 Z-0.1011
N19075 X0.9052 Y0.9246 Z-0.0992
N19080 X0.9051 Y0.9244 Z-0.0971
N19085 G0 Z0.6
N19090 M9
N19095 G53 G0 Z0.
N19100 M30
%
