%
(1001)
(6MM  1000 RPM 14 MINUTES)
(T3  D=0.2362 CR=0. - ZMIN=-0.1 - FLAT END MILL)
N10 G90 G94 G17 G91.1
N15 G20
N20 G53 G0 Z0.
(BORE1)
N25 T3 M6
N30 S1000 M3
N35 G54
N40 M8
N45 G0 X15.0028 Y-1.8439
N50 G43 Z0.8 H3
N55 G0 Z0.08
N60 G1 Z0.0236 F10.
N65 G18 G2 X15.0264 Z0. I0.0236 K0.
N70 G1 X15.0382
N75 G17 G3 X15.0618 Y-1.8203 I0. J0.0236
N80 X12.2981 Z-0.0197 I-1.3819 J0. F30.
N85 X15.0618 Z-0.0394 I1.3819 J0.
N90 X12.2981 Z-0.0591 I-1.3819 J0.
N95 X15.0618 Z-0.0787 I1.3819 J0.
N100 X13.5068 Y-0.4493 Z-0.0894 I-1.3819 J0.
N105 X12.3415 Y-2.164 Z-0.1 I0.1732 J-1.371
N110 X15.0184 Y-1.4766 I1.3385 J0.3437
N115 X12.3415 Y-2.164 I-1.3385 J-0.3437
N120 X12.3702 Y-2.181 I0.0229 J0.0059 F10.
N125 G1 X12.3817 Y-2.178
N130 X12.3853 Y-2.1771 Z-0.0997
N135 X12.3887 Y-2.1762 Z-0.0988
N140 X12.3921 Y-2.1754 Z-0.0974
N145 X12.3951 Y-2.1746 Z-0.0955
N150 X12.3979 Y-2.1739 Z-0.0931
N155 X12.4002 Y-2.1733 Z-0.0903
N160 X12.4021 Y-2.1728 Z-0.0871
N165 X12.4034 Y-2.1724 Z-0.0837
N170 X12.4043 Y-2.1722 Z-0.0801
N175 X12.4046 Y-2.1721 Z-0.0764
N180 G0 Z0.3
N185 X11.7028 Y-1.8439
N190 Z0.08
N195 G1 Z0.0236 F10.
N200 G18 G2 X11.7264 Z0. I0.0236 K0.
N205 G1 X11.7382
N210 G17 G3 X11.7618 Y-1.8203 I0. J0.0236
N215 X9.2981 Z-0.0197 I-1.2319 J0. F30.
N220 X11.7618 Z-0.0394 I1.2319 J0.
N225 X9.2981 Z-0.0591 I-1.2319 J0.
N230 X11.7618 Z-0.0787 I1.2319 J0.
N235 X10.3756 Y-0.5981 Z-0.0894 I-1.2319 J0.
N240 X9.3368 Y-2.1267 Z-0.1 I0.1544 J-1.2222
N245 X11.7231 Y-1.5139 I1.1932 J0.3064
N250 X9.3368 Y-2.1267 I-1.1932 J-0.3064
N255 X9.3655 Y-2.1437 I0.0229 J0.0059 F10.
N260 G1 X9.377 Y-2.1407
N265 X9.3805 Y-2.1398 Z-0.0997
N270 X9.384 Y-2.1389 Z-0.0988
N275 X9.3873 Y-2.1381 Z-0.0974
N280 X9.3904 Y-2.1373 Z-0.0955
N285 X9.3931 Y-2.1366 Z-0.0931
N290 X9.3955 Y-2.136 Z-0.0903
N295 X9.3973 Y-2.1355 Z-0.0871
N300 X9.3987 Y-2.1351 Z-0.0837
N305 X9.3996 Y-2.1349 Z-0.0801
N310 X9.3998 Y-2.1348 Z-0.0764
N315 G0 Z0.3
N320 X8.5028 Y-1.8439
N325 Z0.08
N330 G1 Z0.0236 F10.
N335 G18 G2 X8.5264 Z0. I0.0236 K0.
N340 G1 X8.5382
N345 G17 G3 X8.5618 Y-1.8203 I0. J0.0236
N350 X6.3981 Z-0.0197 I-1.0819 J0. F30.
N355 X8.5618 Z-0.0394 I1.0819 J0.
N360 X6.3981 Z-0.0591 I-1.0819 J0.
N365 X8.5618 Z-0.0787 I1.0819 J0.
N370 X7.3444 Y-0.7469 Z-0.0894 I-1.0819 J0.
N375 X6.4321 Y-2.0893 Z-0.1 I0.1356 J-1.0734
N380 X8.5279 Y-1.5512 I1.0479 J0.2691
N385 X6.4321 Y-2.0893 I-1.0479 J-0.2691
N390 X6.4608 Y-2.1064 I0.0229 J0.0059 F10.
N395 G1 X6.4723 Y-2.1034
N400 X6.4758 Y-2.1025 Z-0.0997
N405 X6.4793 Y-2.1016 Z-0.0988
N410 X6.4826 Y-2.1008 Z-0.0974
N415 X6.4857 Y-2.1 Z-0.0955
N420 X6.4884 Y-2.0993 Z-0.0931
N425 X6.4908 Y-2.0987 Z-0.0903
N430 X6.4926 Y-2.0982 Z-0.0871
N435 X6.494 Y-2.0978 Z-0.0837
N440 X6.4948 Y-2.0976 Z-0.0801
N445 X6.4951 Y-2.0975 Z-0.0764
N450 G0 Z0.3
N455 X5.2528 Y-1.8439
N460 Z0.08
N465 G1 Z0.0236 F10.
N470 G18 G2 X5.2764 Z0. I0.0236 K0.
N475 G1 X5.2882
N480 G17 G3 X5.3118 Y-1.8203 I0. J0.0236
N485 X3.4481 Z-0.0197 I-0.9319 J0. F30.
N490 X5.3118 Z-0.0394 I0.9319 J0.
N495 X3.4481 Z-0.0591 I-0.9319 J0.
N500 X5.3118 Z-0.0787 I0.9319 J0.
N505 X4.2632 Y-0.8958 Z-0.0894 I-0.9319 J0.
N510 X3.4773 Y-2.052 Z-0.1 I0.1168 J-0.9245
N515 X5.2826 Y-1.5885 I0.9026 J0.2318
N520 X3.4773 Y-2.052 I-0.9026 J-0.2318
N525 X3.5061 Y-2.0691 I0.0229 J0.0059 F10.
N530 G1 X3.5175 Y-2.0661
N535 X3.5211 Y-2.0652 Z-0.0997
N540 X3.5246 Y-2.0643 Z-0.0988
N545 X3.5279 Y-2.0634 Z-0.0974
N550 X3.531 Y-2.0627 Z-0.0955
N555 X3.5337 Y-2.062 Z-0.0931
N560 X3.536 Y-2.0614 Z-0.0903
N565 X3.5379 Y-2.0609 Z-0.0871
N570 X3.5393 Y-2.0605 Z-0.0837
N575 X3.5401 Y-2.0603 Z-0.0801
N580 X3.5404 Y-2.0602 Z-0.0764
N585 G0 Z0.3
N590 X2.0028 Y-1.8439
N595 Z0.08
N600 G1 Z0.0236 F10.
N605 G18 G2 X2.0264 Z0. I0.0236 K0.
N610 G1 X2.0382
N615 G17 G3 X2.0618 Y-1.8203 I0. J0.0236
N620 X0.4981 Z-0.0197 I-0.7819 J0. F30.
N625 X2.0618 Z-0.0394 I0.7819 J0.
N630 X0.4981 Z-0.0591 I-0.7819 J0.
N635 X2.0618 Z-0.0787 I0.7819 J0.
N640 X1.182 Y-1.0446 Z-0.0894 I-0.7819 J0.
N645 X0.5226 Y-2.0147 Z-0.1 I0.098 J-0.7757
N650 X2.0373 Y-1.6258 I0.7573 J0.1944
N655 X0.5226 Y-2.0147 I-0.7573 J-0.1944
N660 X0.5514 Y-2.0317 I0.0229 J0.0059 F10.
N665 G1 X0.5628 Y-2.0288
N670 X0.5664 Y-2.0279 Z-0.0997
N675 X0.5699 Y-2.027 Z-0.0988
N680 X0.5732 Y-2.0261 Z-0.0974
N685 X0.5763 Y-2.0254 Z-0.0955
N690 X0.579 Y-2.0247 Z-0.0931
N695 X0.5813 Y-2.0241 Z-0.0903
N700 X0.5832 Y-2.0236 Z-0.0871
N705 X0.5846 Y-2.0232 Z-0.0837
N710 X0.5854 Y-2.023 Z-0.0801
N715 X0.5857 Y-2.0229 Z-0.0764
N720 G0 Z0.3
N725 X2.0028 Y-5.0119
N730 Z0.08
N735 G1 Z0.0236 F10.
N740 G18 G2 X2.0264 Z0. I0.0236 K0.
N745 G1 X2.0382
N750 G17 G3 X2.0618 Y-4.9883 I0. J0.0236
N755 X0.4981 Z-0.0197 I-0.7819 J0. F30.
N760 X2.0618 Z-0.0394 I0.7819 J0.
N765 X0.4981 Z-0.0591 I-0.7819 J0.
N770 X2.0618 Z-0.0787 I0.7819 J0.
N775 X1.182 Y-4.2126 Z-0.0894 I-0.7819 J0.
N780 X0.5226 Y-5.1827 Z-0.1 I0.098 J-0.7757
N785 X2.0373 Y-4.7938 I0.7573 J0.1944
N790 X0.5226 Y-5.1827 I-0.7573 J-0.1944
N795 X0.5514 Y-5.1997 I0.0229 J0.0059 F10.
N800 G1 X0.5628 Y-5.1968
N805 X0.5664 Y-5.1959 Z-0.0997
N810 X0.5699 Y-5.195 Z-0.0988
N815 X0.5732 Y-5.1941 Z-0.0974
N820 X0.5763 Y-5.1934 Z-0.0955
N825 X0.579 Y-5.1927 Z-0.0931
N830 X0.5813 Y-5.1921 Z-0.0903
N835 X0.5832 Y-5.1916 Z-0.0871
N840 X0.5846 Y-5.1912 Z-0.0837
N845 X0.5854 Y-5.191 Z-0.0801
N850 X0.5857 Y-5.1909 Z-0.0764
N855 G0 Z0.3
N860 X5.2528 Y-5.0119
N865 Z0.08
N870 G1 Z0.0236 F10.
N875 G18 G2 X5.2764 Z0. I0.0236 K0.
N880 G1 X5.2882
N885 G17 G3 X5.3118 Y-4.9883 I0. J0.0236
N890 X3.4481 Z-0.0197 I-0.9319 J0. F30.
N895 X5.3118 Z-0.0394 I0.9319 J0.
N900 X3.4481 Z-0.0591 I-0.9319 J0.
N905 X5.3118 Z-0.0787 I0.9319 J0.
N910 X4.2632 Y-4.0638 Z-0.0894 I-0.9319 J0.
N915 X3.4773 Y-5.22 Z-0.1 I0.1168 J-0.9245
N920 X5.2826 Y-4.7565 I0.9026 J0.2318
N925 X3.4773 Y-5.22 I-0.9026 J-0.2318
N930 X3.5061 Y-5.2371 I0.0229 J0.0059 F10.
N935 G1 X3.5175 Y-5.2341
N940 X3.5211 Y-5.2332 Z-0.0997
N945 X3.5246 Y-5.2323 Z-0.0988
N950 X3.5279 Y-5.2314 Z-0.0974
N955 X3.531 Y-5.2307 Z-0.0955
N960 X3.5337 Y-5.23 Z-0.0931
N965 X3.536 Y-5.2294 Z-0.0903
N970 X3.5379 Y-5.2289 Z-0.0871
N975 X3.5393 Y-5.2285 Z-0.0837
N980 X3.5401 Y-5.2283 Z-0.0801
N985 X3.5404 Y-5.2282 Z-0.0764
N990 G0 Z0.3
N995 X8.5028 Y-5.0119
N1000 Z0.08
N1005 G1 Z0.0236 F10.
N1010 G18 G2 X8.5264 Z0. I0.0236 K0.
N1015 G1 X8.5382
N1020 G17 G3 X8.5618 Y-4.9883 I0. J0.0236
N1025 X6.3981 Z-0.0197 I-1.0819 J0. F30.
N1030 X8.5618 Z-0.0394 I1.0819 J0.
N1035 X6.3981 Z-0.0591 I-1.0819 J0.
N1040 X8.5618 Z-0.0787 I1.0819 J0.
N1045 X7.3444 Y-3.9149 Z-0.0894 I-1.0819 J0.
N1050 X6.4321 Y-5.2573 Z-0.1 I0.1356 J-1.0734
N1055 X8.5279 Y-4.7192 I1.0479 J0.2691
N1060 X6.4321 Y-5.2573 I-1.0479 J-0.2691
N1065 X6.4608 Y-5.2744 I0.0229 J0.0059 F10.
N1070 G1 X6.4723 Y-5.2714
N1075 X6.4758 Y-5.2705 Z-0.0997
N1080 X6.4793 Y-5.2696 Z-0.0988
N1085 X6.4826 Y-5.2688 Z-0.0974
N1090 X6.4857 Y-5.268 Z-0.0955
N1095 X6.4884 Y-5.2673 Z-0.0931
N1100 X6.4908 Y-5.2667 Z-0.0903
N1105 X6.4926 Y-5.2662 Z-0.0871
N1110 X6.494 Y-5.2658 Z-0.0837
N1115 X6.4948 Y-5.2656 Z-0.0801
N1120 X6.4951 Y-5.2655 Z-0.0764
N1125 G0 Z0.3
N1130 X11.7028 Y-5.0119
N1135 Z0.08
N1140 G1 Z0.0236 F10.
N1145 G18 G2 X11.7264 Z0. I0.0236 K0.
N1150 G1 X11.7382
N1155 G17 G3 X11.7618 Y-4.9883 I0. J0.0236
N1160 X9.2981 Z-0.0197 I-1.2319 J0. F30.
N1165 X11.7618 Z-0.0394 I1.2319 J0.
N1170 X9.2981 Z-0.0591 I-1.2319 J0.
N1175 X11.7618 Z-0.0787 I1.2319 J0.
N1180 X10.3756 Y-3.7661 Z-0.0894 I-1.2319 J0.
N1185 X9.3368 Y-5.2947 Z-0.1 I0.1544 J-1.2222
N1190 X11.7231 Y-4.6819 I1.1932 J0.3064
N1195 X9.3368 Y-5.2947 I-1.1932 J-0.3064
N1200 X9.3655 Y-5.3117 I0.0229 J0.0059 F10.
N1205 G1 X9.377 Y-5.3087
N1210 X9.3805 Y-5.3078 Z-0.0997
N1215 X9.384 Y-5.3069 Z-0.0988
N1220 X9.3873 Y-5.3061 Z-0.0974
N1225 X9.3904 Y-5.3053 Z-0.0955
N1230 X9.3931 Y-5.3046 Z-0.0931
N1235 X9.3955 Y-5.304 Z-0.0903
N1240 X9.3973 Y-5.3035 Z-0.0871
N1245 X9.3987 Y-5.3031 Z-0.0837
N1250 X9.3996 Y-5.3029 Z-0.0801
N1255 X9.3998 Y-5.3028 Z-0.0764
N1260 G0 Z0.3
N1265 X15.0028 Y-5.0119
N1270 Z0.08
N1275 G1 Z0.0236 F10.
N1280 G18 G2 X15.0264 Z0. I0.0236 K0.
N1285 G1 X15.0382
N1290 G17 G3 X15.0618 Y-4.9883 I0. J0.0236
N1295 X12.2981 Z-0.0197 I-1.3819 J0. F30.
N1300 X15.0618 Z-0.0394 I1.3819 J0.
N1305 X12.2981 Z-0.0591 I-1.3819 J0.
N1310 X15.0618 Z-0.0787 I1.3819 J0.
N1315 X13.5068 Y-3.6173 Z-0.0894 I-1.3819 J0.
N1320 X12.3415 Y-5.332 Z-0.1 I0.1732 J-1.371
N1325 X15.0184 Y-4.6446 I1.3385 J0.3437
N1330 X12.3415 Y-5.332 I-1.3385 J-0.3437
N1335 X12.3702 Y-5.349 I0.0229 J0.0059 F10.
N1340 G1 X12.3817 Y-5.346
N1345 X12.3853 Y-5.3451 Z-0.0997
N1350 X12.3887 Y-5.3442 Z-0.0988
N1355 X12.3921 Y-5.3434 Z-0.0974
N1360 X12.3951 Y-5.3426 Z-0.0955
N1365 X12.3979 Y-5.3419 Z-0.0931
N1370 X12.4002 Y-5.3413 Z-0.0903
N1375 X12.4021 Y-5.3408 Z-0.0871
N1380 X12.4034 Y-5.3404 Z-0.0837
N1385 X12.4043 Y-5.3402 Z-0.0801
N1390 X12.4046 Y-5.3401 Z-0.0764
N1395 G0 Z0.8
N1400 M9
N1405 G53 G0 Z0.
N1410 M30
%
