%
(1001)
(6MM  1000 RPM 14 MINUTES)
(T3  D=0.2362 CR=0. - ZMIN=-0.12 - FLAT END MILL)
N10 G90 G94 G17 G91.1
N15 G20
N20 G53 G0 Z0.
(BORE1)
N25 T3 M6
N30 S1000 M3
N35 G54
N40 M8
N45 G0 X15.0028 Y-1.8439
N50 G43 Z0.8 H3
N55 G0 Z0.08
N60 G1 Z0.0236 F10.
N65 G18 G2 X15.0264 Z0. I0.0236 K0.
N70 G1 X15.0382
N75 G17 G3 X15.0618 Y-1.8203 I0. J0.0236
N80 X12.2981 Z-0.0197 I-1.3819 J0. F30.
N85 X15.0618 Z-0.0394 I1.3819 J0.
N90 X12.2981 Z-0.0591 I-1.3819 J0.
N95 X15.0618 Z-0.0787 I1.3819 J0.
N100 X12.2981 Z-0.0984 I-1.3819 J0.
N105 X13.8876 Y-3.1865 Z-0.1092 I1.3819 J0.
N110 X14.9995 Y-1.4098 Z-0.12 I-0.2076 J1.3662
N115 X12.3604 Y-2.2308 I-1.3195 J-0.4105
N120 X14.9995 Y-1.4098 I1.3195 J0.4105
N125 X14.9699 Y-1.3943 I-0.0226 J-0.007 F10.
N130 G1 X14.9586 Y-1.3978
N135 X14.9551 Y-1.3989 Z-0.1197
N140 X14.9517 Y-1.4 Z-0.1188
N145 X14.9484 Y-1.401 Z-0.1174
N150 X14.9454 Y-1.4019 Z-0.1155
N155 X14.9427 Y-1.4027 Z-0.1131
N160 X14.9404 Y-1.4035 Z-0.1103
N165 X14.9385 Y-1.404 Z-0.1071
N170 X14.9372 Y-1.4045 Z-0.1037
N175 X14.9363 Y-1.4047 Z-0.1001
N180 X14.9361 Y-1.4048 Z-0.0964
N185 G0 Z0.3
N190 X11.7028 Y-1.8439
N195 Z0.08
N200 G1 Z0.0236 F10.
N205 G18 G2 X11.7264 Z0. I0.0236 K0.
N210 G1 X11.7382
N215 G17 G3 X11.7618 Y-1.8203 I0. J0.0236
N220 X9.2981 Z-0.0197 I-1.2319 J0. F30.
N225 X11.7618 Z-0.0394 I1.2319 J0.
N230 X9.2981 Z-0.0591 I-1.2319 J0.
N235 X11.7618 Z-0.0787 I1.2319 J0.
N240 X9.2981 Z-0.0984 I-1.2319 J0.
N245 X10.715 Y-3.0382 Z-0.1092 I1.2319 J0.
N250 X11.7062 Y-1.4544 Z-0.12 I-0.1851 J1.2179
N255 X9.3537 Y-2.1862 I-1.1763 J-0.3659
N260 X11.7062 Y-1.4544 I1.1763 J0.3659
N265 X11.6767 Y-1.4388 I-0.0226 J-0.007 F10.
N270 G1 X11.6654 Y-1.4423
N275 X11.6619 Y-1.4434 Z-0.1197
N280 X11.6584 Y-1.4445 Z-0.1188
N285 X11.6552 Y-1.4455 Z-0.1174
N290 X11.6521 Y-1.4465 Z-0.1155
N295 X11.6494 Y-1.4473 Z-0.1131
N300 X11.6471 Y-1.448 Z-0.1103
N305 X11.6453 Y-1.4486 Z-0.1071
N310 X11.6439 Y-1.449 Z-0.1037
N315 X11.6431 Y-1.4493 Z-0.1001
N320 X11.6428 Y-1.4494 Z-0.0964
N325 G0 Z0.3
N330 X8.5028 Y-1.8439
N335 Z0.08
N340 G1 Z0.0236 F10.
N345 G18 G2 X8.5264 Z0. I0.0236 K0.
N350 G1 X8.5382
N355 G17 G3 X8.5618 Y-1.8203 I0. J0.0236
N360 X6.3981 Z-0.0197 I-1.0819 J0. F30.
N365 X8.5618 Z-0.0394 I1.0819 J0.
N370 X6.3981 Z-0.0591 I-1.0819 J0.
N375 X8.5618 Z-0.0787 I1.0819 J0.
N380 X6.3981 Z-0.0984 I-1.0819 J0.
N385 X7.6425 Y-2.8899 Z-0.1092 I1.0819 J0.
N390 X8.513 Y-1.4989 Z-0.12 I-0.1625 J1.0696
N395 X6.4469 Y-2.1417 I-1.0331 J-0.3214
N400 X8.513 Y-1.4989 I1.0331 J0.3214
N405 X8.4834 Y-1.4834 I-0.0226 J-0.007 F10.
N410 G1 X8.4722 Y-1.4869
N415 X8.4686 Y-1.488 Z-0.1197
N420 X8.4652 Y-1.4891 Z-0.1188
N425 X8.4619 Y-1.4901 Z-0.1174
N430 X8.4589 Y-1.491 Z-0.1155
N435 X8.4562 Y-1.4919 Z-0.1131
N440 X8.4539 Y-1.4926 Z-0.1103
N445 X8.4521 Y-1.4931 Z-0.1071
N450 X8.4507 Y-1.4936 Z-0.1037
N455 X8.4499 Y-1.4938 Z-0.1001
N460 X8.4496 Y-1.4939 Z-0.0964
N465 G0 Z0.3
N470 X5.2528 Y-1.8439
N475 Z0.08
N480 G1 Z0.0236 F10.
N485 G18 G2 X5.2764 Z0. I0.0236 K0.
N490 G1 X5.2882
N495 G17 G3 X5.3118 Y-1.8203 I0. J0.0236
N500 X3.4481 Z-0.0197 I-0.9319 J0. F30.
N505 X5.3118 Z-0.0394 I0.9319 J0.
N510 X3.4481 Z-0.0591 I-0.9319 J0.
N515 X5.3118 Z-0.0787 I0.9319 J0.
N520 X3.4481 Z-0.0984 I-0.9319 J0.
N525 X4.52 Y-2.7416 Z-0.1092 I0.9319 J0.
N530 X5.2698 Y-1.5435 Z-0.12 I-0.14 J0.9213
N535 X3.4901 Y-2.0971 I-0.8898 J-0.2768
N540 X5.2698 Y-1.5435 I0.8898 J0.2768
N545 X5.2402 Y-1.5279 I-0.0226 J-0.007 F10.
N550 G1 X5.2289 Y-1.5315
N555 X5.2254 Y-1.5326 Z-0.1197
N560 X5.222 Y-1.5336 Z-0.1188
N565 X5.2187 Y-1.5346 Z-0.1174
N570 X5.2157 Y-1.5356 Z-0.1155
N575 X5.213 Y-1.5364 Z-0.1131
N580 X5.2107 Y-1.5371 Z-0.1103
N585 X5.2088 Y-1.5377 Z-0.1071
N590 X5.2075 Y-1.5381 Z-0.1037
N595 X5.2067 Y-1.5384 Z-0.1001
N600 X5.2064 Y-1.5385 Z-0.0964
N605 G0 Z0.3
N610 X2.0028 Y-1.8439
N615 Z0.08
N620 G1 Z0.0236 F10.
N625 G18 G2 X2.0264 Z0. I0.0236 K0.
N630 G1 X2.0382
N635 G17 G3 X2.0618 Y-1.8203 I0. J0.0236
N640 X0.4981 Z-0.0197 I-0.7819 J0. F30.
N645 X2.0618 Z-0.0394 I0.7819 J0.
N650 X0.4981 Z-0.0591 I-0.7819 J0.
N655 X2.0618 Z-0.0787 I0.7819 J0.
N660 X0.4981 Z-0.0984 I-0.7819 J0.
N665 X1.3974 Y-2.5933 Z-0.1092 I0.7819 J0.
N670 X2.0266 Y-1.588 Z-0.12 I-0.1175 J0.773
N675 X0.5334 Y-2.0525 I-0.7466 J-0.2323
N680 X2.0266 Y-1.588 I0.7466 J0.2323
N685 X1.997 Y-1.5725 I-0.0226 J-0.007 F10.
N690 G1 X1.9857 Y-1.576
N695 X1.9822 Y-1.5771 Z-0.1197
N700 X1.9787 Y-1.5782 Z-0.1188
N705 X1.9755 Y-1.5792 Z-0.1174
N710 X1.9724 Y-1.5801 Z-0.1155
N715 X1.9698 Y-1.581 Z-0.1131
N720 X1.9675 Y-1.5817 Z-0.1103
N725 X1.9656 Y-1.5823 Z-0.1071
N730 X1.9643 Y-1.5827 Z-0.1037
N735 X1.9634 Y-1.5829 Z-0.1001
N740 X1.9631 Y-1.583 Z-0.0964
N745 G0 Z0.3
N750 X2.0028 Y-5.0119
N755 Z0.08
N760 G1 Z0.0236 F10.
N765 G18 G2 X2.0264 Z0. I0.0236 K0.
N770 G1 X2.0382
N775 G17 G3 X2.0618 Y-4.9883 I0. J0.0236
N780 X0.4981 Z-0.0197 I-0.7819 J0. F30.
N785 X2.0618 Z-0.0394 I0.7819 J0.
N790 X0.4981 Z-0.0591 I-0.7819 J0.
N795 X2.0618 Z-0.0787 I0.7819 J0.
N800 X0.4981 Z-0.0984 I-0.7819 J0.
N805 X1.3974 Y-5.7613 Z-0.1092 I0.7819 J0.
N810 X2.0266 Y-4.756 Z-0.12 I-0.1175 J0.773
N815 X0.5334 Y-5.2205 I-0.7466 J-0.2323
N820 X2.0266 Y-4.756 I0.7466 J0.2323
N825 X1.997 Y-4.7405 I-0.0226 J-0.007 F10.
N830 G1 X1.9857 Y-4.744
N835 X1.9822 Y-4.7451 Z-0.1197
N840 X1.9787 Y-4.7462 Z-0.1188
N845 X1.9755 Y-4.7472 Z-0.1174
N850 X1.9724 Y-4.7481 Z-0.1155
N855 X1.9698 Y-4.749 Z-0.1131
N860 X1.9675 Y-4.7497 Z-0.1103
N865 X1.9656 Y-4.7503 Z-0.1071
N870 X1.9643 Y-4.7507 Z-0.1037
N875 X1.9634 Y-4.7509 Z-0.1001
N880 X1.9631 Y-4.751 Z-0.0964
N885 G0 Z0.3
N890 X5.2528 Y-5.0119
N895 Z0.08
N900 G1 Z0.0236 F10.
N905 G18 G2 X5.2764 Z0. I0.0236 K0.
N910 G1 X5.2882
N915 G17 G3 X5.3118 Y-4.9883 I0. J0.0236
N920 X3.4481 Z-0.0197 I-0.9319 J0. F30.
N925 X5.3118 Z-0.0394 I0.9319 J0.
N930 X3.4481 Z-0.0591 I-0.9319 J0.
N935 X5.3118 Z-0.0787 I0.9319 J0.
N940 X3.4481 Z-0.0984 I-0.9319 J0.
N945 X4.52 Y-5.9096 Z-0.1092 I0.9319 J0.
N950 X5.2698 Y-4.7115 Z-0.12 I-0.14 J0.9213
N955 X3.4901 Y-5.2651 I-0.8898 J-0.2768
N960 X5.2698 Y-4.7115 I0.8898 J0.2768
N965 X5.2402 Y-4.6959 I-0.0226 J-0.007 F10.
N970 G1 X5.2289 Y-4.6995
N975 X5.2254 Y-4.7006 Z-0.1197
N980 X5.222 Y-4.7016 Z-0.1188
N985 X5.2187 Y-4.7026 Z-0.1174
N990 X5.2157 Y-4.7036 Z-0.1155
N995 X5.213 Y-4.7044 Z-0.1131
N1000 X5.2107 Y-4.7051 Z-0.1103
N1005 X5.2088 Y-4.7057 Z-0.1071
N1010 X5.2075 Y-4.7061 Z-0.1037
N1015 X5.2067 Y-4.7064 Z-0.1001
N1020 X5.2064 Y-4.7065 Z-0.0964
N1025 G0 Z0.3
N1030 X8.5028 Y-5.0119
N1035 Z0.08
N1040 G1 Z0.0236 F10.
N1045 G18 G2 X8.5264 Z0. I0.0236 K0.
N1050 G1 X8.5382
N1055 G17 G3 X8.5618 Y-4.9883 I0. J0.0236
N1060 X6.3981 Z-0.0197 I-1.0819 J0. F30.
N1065 X8.5618 Z-0.0394 I1.0819 J0.
N1070 X6.3981 Z-0.0591 I-1.0819 J0.
N1075 X8.5618 Z-0.0787 I1.0819 J0.
N1080 X6.3981 Z-0.0984 I-1.0819 J0.
N1085 X7.6425 Y-6.0579 Z-0.1092 I1.0819 J0.
N1090 X8.513 Y-4.6669 Z-0.12 I-0.1625 J1.0696
N1095 X6.4469 Y-5.3097 I-1.0331 J-0.3214
N1100 X8.513 Y-4.6669 I1.0331 J0.3214
N1105 X8.4834 Y-4.6514 I-0.0226 J-0.007 F10.
N1110 G1 X8.4722 Y-4.6549
N1115 X8.4686 Y-4.656 Z-0.1197
N1120 X8.4652 Y-4.6571 Z-0.1188
N1125 X8.4619 Y-4.6581 Z-0.1174
N1130 X8.4589 Y-4.659 Z-0.1155
N1135 X8.4562 Y-4.6599 Z-0.1131
N1140 X8.4539 Y-4.6606 Z-0.1103
N1145 X8.4521 Y-4.6611 Z-0.1071
N1150 X8.4507 Y-4.6616 Z-0.1037
N1155 X8.4499 Y-4.6618 Z-0.1001
N1160 X8.4496 Y-4.6619 Z-0.0964
N1165 G0 Z0.3
N1170 X11.7028 Y-5.0119
N1175 Z0.08
N1180 G1 Z0.0236 F10.
N1185 G18 G2 X11.7264 Z0. I0.0236 K0.
N1190 G1 X11.7382
N1195 G17 G3 X11.7618 Y-4.9883 I0. J0.0236
N1200 X9.2981 Z-0.0197 I-1.2319 J0. F30.
N1205 X11.7618 Z-0.0394 I1.2319 J0.
N1210 X9.2981 Z-0.0591 I-1.2319 J0.
N1215 X11.7618 Z-0.0787 I1.2319 J0.
N1220 X9.2981 Z-0.0984 I-1.2319 J0.
N1225 X10.715 Y-6.2062 Z-0.1092 I1.2319 J0.
N1230 X11.7062 Y-4.6224 Z-0.12 I-0.1851 J1.2179
N1235 X9.3537 Y-5.3542 I-1.1763 J-0.3659
N1240 X11.7062 Y-4.6224 I1.1763 J0.3659
N1245 X11.6767 Y-4.6068 I-0.0226 J-0.007 F10.
N1250 G1 X11.6654 Y-4.6103
N1255 X11.6619 Y-4.6114 Z-0.1197
N1260 X11.6584 Y-4.6125 Z-0.1188
N1265 X11.6552 Y-4.6135 Z-0.1174
N1270 X11.6521 Y-4.6145 Z-0.1155
N1275 X11.6494 Y-4.6153 Z-0.1131
N1280 X11.6471 Y-4.616 Z-0.1103
N1285 X11.6453 Y-4.6166 Z-0.1071
N1290 X11.6439 Y-4.617 Z-0.1037
N1295 X11.6431 Y-4.6173 Z-0.1001
N1300 X11.6428 Y-4.6174 Z-0.0964
N1305 G0 Z0.3
N1310 X15.0028 Y-5.0119
N1315 Z0.08
N1320 G1 Z0.0236 F10.
N1325 G18 G2 X15.0264 Z0. I0.0236 K0.
N1330 G1 X15.0382
N1335 G17 G3 X15.0618 Y-4.9883 I0. J0.0236
N1340 X12.2981 Z-0.0197 I-1.3819 J0. F30.
N1345 X15.0618 Z-0.0394 I1.3819 J0.
N1350 X12.2981 Z-0.0591 I-1.3819 J0.
N1355 X15.0618 Z-0.0787 I1.3819 J0.
N1360 X12.2981 Z-0.0984 I-1.3819 J0.
N1365 X13.8876 Y-6.3545 Z-0.1092 I1.3819 J0.
N1370 X14.9995 Y-4.5778 Z-0.12 I-0.2076 J1.3662
N1375 X12.3604 Y-5.3988 I-1.3195 J-0.4105
N1380 X14.9995 Y-4.5778 I1.3195 J0.4105
N1385 X14.9699 Y-4.5623 I-0.0226 J-0.007 F10.
N1390 G1 X14.9586 Y-4.5658
N1395 X14.9551 Y-4.5669 Z-0.1197
N1400 X14.9517 Y-4.568 Z-0.1188
N1405 X14.9484 Y-4.569 Z-0.1174
N1410 X14.9454 Y-4.5699 Z-0.1155
N1415 X14.9427 Y-4.5707 Z-0.1131
N1420 X14.9404 Y-4.5715 Z-0.1103
N1425 X14.9385 Y-4.572 Z-0.1071
N1430 X14.9372 Y-4.5725 Z-0.1037
N1435 X14.9363 Y-4.5727 Z-0.1001
N1440 X14.9361 Y-4.5728 Z-0.0964
N1445 G0 Z0.8
N1450 M9
N1455 G53 G0 Z0.
N1460 M30
%
