%
(1001)
(2MM  800 RPM 14 MINUTES)
(T2  D=0.0787 CR=0. - ZMIN=-0.25 - FLAT END MILL)
N10 G90 G94 G17 G91.1
N15 G20
N20 G53 G0 Z0.
(BORE1)
N25 T2 M6
N30 S5000 M3
N35 G54
N40 M8
N45 G0 X15.1209 Y-4.9962
N50 G43 Z0.3 H2
N55 G0 Z0.08
N60 G1 Z0.0079 F39.37
N65 G18 G2 X15.1288 Z0. I0.0079 K0.
N70 G1 X15.1327
N75 G17 G3 X15.1406 Y-4.9883 I0. J0.0079
N80 X12.2193 Z-0.0197 I-1.4606 J0.
N85 X15.1406 Z-0.0394 I1.4606 J0.
N90 X12.2193 Z-0.0591 I-1.4606 J0.
N95 X15.1406 Z-0.0787 I1.4606 J0.
N100 X12.2193 Z-0.0984 I-1.4606 J0.
N105 X15.1406 Z-0.1181 I1.4606 J0.
N110 X12.2193 Z-0.1378 I-1.4606 J0.
N115 X15.1406 Z-0.1575 I1.4606 J0.
N120 X12.2193 Z-0.1772 I-1.4606 J0.
N125 X15.1406 Z-0.1969 I1.4606 J0.
N130 X12.2193 Z-0.2165 I-1.4606 J0.
N135 X15.1406 Z-0.2362 I1.4606 J0.
N140 X12.8214 Y-3.8066 Z-0.25 I-1.4606 J0.
N145 X14.5385 Y-6.17 I0.8585 J-1.1817
N150 X12.8214 Y-3.8066 I-0.8585 J1.1817
N155 X12.8197 Y-3.8176 I0.0046 J-0.0064
N160 G1 X12.822 Y-3.8208
N165 X12.8232 Y-3.8225 Z-0.2497
N170 X12.8243 Y-3.824 Z-0.2489
N175 X12.8253 Y-3.8253 Z-0.2477
N180 X12.826 Y-3.8263 Z-0.2461
N185 X12.8265 Y-3.827 Z-0.2442
N190 X12.8266 Y-3.8272 Z-0.2421
N195 G0 Z0.1
N200 X11.8209 Y-4.9962
N205 Z0.08
N210 G1 Z0.0079 F39.37
N215 G18 G2 X11.8288 Z0. I0.0079 K0.
N220 G1 X11.8327
N225 G17 G3 X11.8406 Y-4.9883 I0. J0.0079
N230 X9.2193 Z-0.0197 I-1.3106 J0.
N235 X11.8406 Z-0.0394 I1.3106 J0.
N240 X9.2193 Z-0.0591 I-1.3106 J0.
N245 X11.8406 Z-0.0787 I1.3106 J0.
N250 X9.2193 Z-0.0984 I-1.3106 J0.
N255 X11.8406 Z-0.1181 I1.3106 J0.
N260 X9.2193 Z-0.1378 I-1.3106 J0.
N265 X11.8406 Z-0.1575 I1.3106 J0.
N270 X9.2193 Z-0.1772 I-1.3106 J0.
N275 X11.8406 Z-0.1969 I1.3106 J0.
N280 X9.2193 Z-0.2165 I-1.3106 J0.
N285 X11.8406 Z-0.2362 I1.3106 J0.
N290 X9.7596 Y-3.928 Z-0.25 I-1.3106 J0.
N295 X11.3003 Y-6.0486 I0.7704 J-1.0603
N300 X9.7596 Y-3.928 I-0.7704 J1.0603
N305 X9.7578 Y-3.939 I0.0046 J-0.0064
N310 G1 X9.7602 Y-3.9422
N315 X9.7614 Y-3.9438 Z-0.2497
N320 X9.7625 Y-3.9453 Z-0.2489
N325 X9.7634 Y-3.9467 Z-0.2477
N330 X9.7642 Y-3.9477 Z-0.2461
N335 X9.7646 Y-3.9483 Z-0.2442
N340 X9.7648 Y-3.9485 Z-0.2421
N345 G0 Z0.1
N350 X8.6209 Y-4.9962
N355 Z0.08
N360 G1 Z0.0079 F39.37
N365 G18 G2 X8.6288 Z0. I0.0079 K0.
N370 G1 X8.6327
N375 G17 G3 X8.6406 Y-4.9883 I0. J0.0079
N380 X6.3193 Z-0.0197 I-1.1606 J0.
N385 X8.6406 Z-0.0394 I1.1606 J0.
N390 X6.3193 Z-0.0591 I-1.1606 J0.
N395 X8.6406 Z-0.0787 I1.1606 J0.
N400 X6.3193 Z-0.0984 I-1.1606 J0.
N405 X8.6406 Z-0.1181 I1.1606 J0.
N410 X6.3193 Z-0.1378 I-1.1606 J0.
N415 X8.6406 Z-0.1575 I1.1606 J0.
N420 X6.3193 Z-0.1772 I-1.1606 J0.
N425 X8.6406 Z-0.1969 I1.1606 J0.
N430 X6.3193 Z-0.2165 I-1.1606 J0.
N435 X8.6406 Z-0.2362 I1.1606 J0.
N440 X6.7978 Y-4.0493 Z-0.25 I-1.1606 J0.
N445 X8.1622 Y-5.9273 I0.6822 J-0.939
N450 X6.7978 Y-4.0493 I-0.6822 J0.939
N455 X6.796 Y-4.0603 I0.0046 J-0.0064
N460 G1 X6.7983 Y-4.0635
N465 X6.7995 Y-4.0652 Z-0.2497
N470 X6.8006 Y-4.0667 Z-0.2489
N475 X6.8016 Y-4.068 Z-0.2477
N480 X6.8023 Y-4.069 Z-0.2461
N485 X6.8028 Y-4.0697 Z-0.2442
N490 X6.803 Y-4.0699 Z-0.2421
N495 G0 Z0.1
N500 X5.3709 Y-4.9962
N505 Z0.08
N510 G1 Z0.0079 F39.37
N515 G18 G2 X5.3788 Z0. I0.0079 K0.
N520 G1 X5.3827
N525 G17 G3 X5.3906 Y-4.9883 I0. J0.0079
N530 X3.3693 Z-0.0197 I-1.0106 J0.
N535 X5.3906 Z-0.0394 I1.0106 J0.
N540 X3.3693 Z-0.0591 I-1.0106 J0.
N545 X5.3906 Z-0.0787 I1.0106 J0.
N550 X3.3693 Z-0.0984 I-1.0106 J0.
N555 X5.3906 Z-0.1181 I1.0106 J0.
N560 X3.3693 Z-0.1378 I-1.0106 J0.
N565 X5.3906 Z-0.1575 I1.0106 J0.
N570 X3.3693 Z-0.1772 I-1.0106 J0.
N575 X5.3906 Z-0.1969 I1.0106 J0.
N580 X3.3693 Z-0.2165 I-1.0106 J0.
N585 X5.3906 Z-0.2362 I1.0106 J0.
N590 X3.7859 Y-4.1707 Z-0.25 I-1.0106 J0.
N595 X4.974 Y-5.8059 I0.594 J-0.8176
N600 X3.7859 Y-4.1707 I-0.594 J0.8176
N605 X3.7842 Y-4.1817 I0.0046 J-0.0064
N610 G1 X3.7865 Y-4.1849
N615 X3.7877 Y-4.1865 Z-0.2497
N620 X3.7888 Y-4.188 Z-0.2489
N625 X3.7898 Y-4.1894 Z-0.2477
N630 X3.7905 Y-4.1904 Z-0.2461
N635 X3.791 Y-4.191 Z-0.2442
N640 X3.7911 Y-4.1912 Z-0.2421
N645 G0 Z0.1
N650 X2.1209 Y-4.9962
N655 Z0.08
N660 G1 Z0.0079 F39.37
N665 G18 G2 X2.1288 Z0. I0.0079 K0.
N670 G1 X2.1327
N675 G17 G3 X2.1406 Y-4.9883 I0. J0.0079
N680 X0.4193 Z-0.0197 I-0.8606 J0.
N685 X2.1406 Z-0.0394 I0.8606 J0.
N690 X0.4193 Z-0.0591 I-0.8606 J0.
N695 X2.1406 Z-0.0787 I0.8606 J0.
N700 X0.4193 Z-0.0984 I-0.8606 J0.
N705 X2.1406 Z-0.1181 I0.8606 J0.
N710 X0.4193 Z-0.1378 I-0.8606 J0.
N715 X2.1406 Z-0.1575 I0.8606 J0.
N720 X0.4193 Z-0.1772 I-0.8606 J0.
N725 X2.1406 Z-0.1969 I0.8606 J0.
N730 X0.4193 Z-0.2165 I-0.8606 J0.
N735 X2.1406 Z-0.2362 I0.8606 J0.
N740 X0.7741 Y-4.292 Z-0.25 I-0.8606 J0.
N745 X1.7858 Y-5.6846 I0.5059 J-0.6963
N750 X0.7741 Y-4.292 I-0.5059 J0.6963
N755 X0.7723 Y-4.303 I0.0046 J-0.0064
N760 G1 X0.7747 Y-4.3062
N765 X0.7759 Y-4.3079 Z-0.2497
N770 X0.777 Y-4.3094 Z-0.2489
N775 X0.7779 Y-4.3107 Z-0.2477
N780 X0.7787 Y-4.3117 Z-0.2461
N785 X0.7791 Y-4.3124 Z-0.2442
N790 X0.7793 Y-4.3126 Z-0.2421
N795 G0 Z0.1
N800 X2.1209 Y-1.8282
N805 Z0.08
N810 G1 Z0.0079 F39.37
N815 G18 G2 X2.1288 Z0. I0.0079 K0.
N820 G1 X2.1327
N825 G17 G3 X2.1406 Y-1.8203 I0. J0.0079
N830 X0.4193 Z-0.0197 I-0.8606 J0.
N835 X2.1406 Z-0.0394 I0.8606 J0.
N840 X0.4193 Z-0.0591 I-0.8606 J0.
N845 X2.1406 Z-0.0787 I0.8606 J0.
N850 X0.4193 Z-0.0984 I-0.8606 J0.
N855 X2.1406 Z-0.1181 I0.8606 J0.
N860 X0.4193 Z-0.1378 I-0.8606 J0.
N865 X2.1406 Z-0.1575 I0.8606 J0.
N870 X0.4193 Z-0.1772 I-0.8606 J0.
N875 X2.1406 Z-0.1969 I0.8606 J0.
N880 X0.4193 Z-0.2165 I-0.8606 J0.
N885 X2.1406 Z-0.2362 I0.8606 J0.
N890 X0.7741 Y-1.124 Z-0.25 I-0.8606 J0.
N895 X1.7858 Y-2.5166 I0.5059 J-0.6963
N900 X0.7741 Y-1.124 I-0.5059 J0.6963
N905 X0.7723 Y-1.135 I0.0046 J-0.0064
N910 G1 X0.7747 Y-1.1382
N915 X0.7759 Y-1.1399 Z-0.2497
N920 X0.777 Y-1.1414 Z-0.2489
N925 X0.7779 Y-1.1427 Z-0.2477
N930 X0.7787 Y-1.1437 Z-0.2461
N935 X0.7791 Y-1.1444 Z-0.2442
N940 X0.7793 Y-1.1446 Z-0.2421
N945 G0 Z0.1
N950 X5.3709 Y-1.8282
N955 Z0.08
N960 G1 Z0.0079 F39.37
N965 G18 G2 X5.3788 Z0. I0.0079 K0.
N970 G1 X5.3827
N975 G17 G3 X5.3906 Y-1.8203 I0. J0.0079
N980 X3.3693 Z-0.0197 I-1.0106 J0.
N985 X5.3906 Z-0.0394 I1.0106 J0.
N990 X3.3693 Z-0.0591 I-1.0106 J0.
N995 X5.3906 Z-0.0787 I1.0106 J0.
N1000 X3.3693 Z-0.0984 I-1.0106 J0.
N1005 X5.3906 Z-0.1181 I1.0106 J0.
N1010 X3.3693 Z-0.1378 I-1.0106 J0.
N1015 X5.3906 Z-0.1575 I1.0106 J0.
N1020 X3.3693 Z-0.1772 I-1.0106 J0.
N1025 X5.3906 Z-0.1969 I1.0106 J0.
N1030 X3.3693 Z-0.2165 I-1.0106 J0.
N1035 X5.3906 Z-0.2362 I1.0106 J0.
N1040 X3.7859 Y-1.0027 Z-0.25 I-1.0106 J0.
N1045 X4.974 Y-2.6379 I0.594 J-0.8176
N1050 X3.7859 Y-1.0027 I-0.594 J0.8176
N1055 X3.7842 Y-1.0137 I0.0046 J-0.0064
N1060 G1 X3.7865 Y-1.0169
N1065 X3.7877 Y-1.0185 Z-0.2497
N1070 X3.7888 Y-1.02 Z-0.2489
N1075 X3.7898 Y-1.0214 Z-0.2477
N1080 X3.7905 Y-1.0224 Z-0.2461
N1085 X3.791 Y-1.023 Z-0.2442
N1090 X3.7911 Y-1.0232 Z-0.2421
N1095 G0 Z0.1
N1100 X8.6209 Y-1.8282
N1105 Z0.08
N1110 G1 Z0.0079 F39.37
N1115 G18 G2 X8.6288 Z0. I0.0079 K0.
N1120 G1 X8.6327
N1125 G17 G3 X8.6406 Y-1.8203 I0. J0.0079
N1130 X6.3193 Z-0.0197 I-1.1606 J0.
N1135 X8.6406 Z-0.0394 I1.1606 J0.
N1140 X6.3193 Z-0.0591 I-1.1606 J0.
N1145 X8.6406 Z-0.0787 I1.1606 J0.
N1150 X6.3193 Z-0.0984 I-1.1606 J0.
N1155 X8.6406 Z-0.1181 I1.1606 J0.
N1160 X6.3193 Z-0.1378 I-1.1606 J0.
N1165 X8.6406 Z-0.1575 I1.1606 J0.
N1170 X6.3193 Z-0.1772 I-1.1606 J0.
N1175 X8.6406 Z-0.1969 I1.1606 J0.
N1180 X6.3193 Z-0.2165 I-1.1606 J0.
N1185 X8.6406 Z-0.2362 I1.1606 J0.
N1190 X6.7978 Y-0.8813 Z-0.25 I-1.1606 J0.
N1195 X8.1622 Y-2.7593 I0.6822 J-0.939
N1200 X6.7978 Y-0.8813 I-0.6822 J0.939
N1205 X6.796 Y-0.8923 I0.0046 J-0.0064
N1210 G1 X6.7983 Y-0.8955
N1215 X6.7995 Y-0.8972 Z-0.2497
N1220 X6.8006 Y-0.8987 Z-0.2489
N1225 X6.8016 Y-0.9 Z-0.2477
N1230 X6.8023 Y-0.901 Z-0.2461
N1235 X6.8028 Y-0.9017 Z-0.2442
N1240 X6.803 Y-0.9019 Z-0.2421
N1245 G0 Z0.1
N1250 X11.8209 Y-1.8282
N1255 Z0.08
N1260 G1 Z0.0079 F39.37
N1265 G18 G2 X11.8288 Z0. I0.0079 K0.
N1270 G1 X11.8327
N1275 G17 G3 X11.8406 Y-1.8203 I0. J0.0079
N1280 X9.2193 Z-0.0197 I-1.3106 J0.
N1285 X11.8406 Z-0.0394 I1.3106 J0.
N1290 X9.2193 Z-0.0591 I-1.3106 J0.
N1295 X11.8406 Z-0.0787 I1.3106 J0.
N1300 X9.2193 Z-0.0984 I-1.3106 J0.
N1305 X11.8406 Z-0.1181 I1.3106 J0.
N1310 X9.2193 Z-0.1378 I-1.3106 J0.
N1315 X11.8406 Z-0.1575 I1.3106 J0.
N1320 X9.2193 Z-0.1772 I-1.3106 J0.
N1325 X11.8406 Z-0.1969 I1.3106 J0.
N1330 X9.2193 Z-0.2165 I-1.3106 J0.
N1335 X11.8406 Z-0.2362 I1.3106 J0.
N1340 X9.7596 Y-0.76 Z-0.25 I-1.3106 J0.
N1345 X11.3003 Y-2.8806 I0.7704 J-1.0603
N1350 X9.7596 Y-0.76 I-0.7704 J1.0603
N1355 X9.7578 Y-0.771 I0.0046 J-0.0064
N1360 G1 X9.7602 Y-0.7742
N1365 X9.7614 Y-0.7758 Z-0.2497
N1370 X9.7625 Y-0.7773 Z-0.2489
N1375 X9.7634 Y-0.7787 Z-0.2477
N1380 X9.7642 Y-0.7797 Z-0.2461
N1385 X9.7646 Y-0.7803 Z-0.2442
N1390 X9.7648 Y-0.7805 Z-0.2421
N1395 G0 Z0.1
N1400 X15.1209 Y-1.8282
N1405 Z0.08
N1410 G1 Z0.0079 F39.37
N1415 G18 G2 X15.1288 Z0. I0.0079 K0.
N1420 G1 X15.1327
N1425 G17 G3 X15.1406 Y-1.8203 I0. J0.0079
N1430 X12.2193 Z-0.0197 I-1.4606 J0.
N1435 X15.1406 Z-0.0394 I1.4606 J0.
N1440 X12.2193 Z-0.0591 I-1.4606 J0.
N1445 X15.1406 Z-0.0787 I1.4606 J0.
N1450 X12.2193 Z-0.0984 I-1.4606 J0.
N1455 X15.1406 Z-0.1181 I1.4606 J0.
N1460 X12.2193 Z-0.1378 I-1.4606 J0.
N1465 X15.1406 Z-0.1575 I1.4606 J0.
N1470 X12.2193 Z-0.1772 I-1.4606 J0.
N1475 X15.1406 Z-0.1969 I1.4606 J0.
N1480 X12.2193 Z-0.2165 I-1.4606 J0.
N1485 X15.1406 Z-0.2362 I1.4606 J0.
N1490 X12.8214 Y-0.6386 Z-0.25 I-1.4606 J0.
N1495 X14.5385 Y-3.002 I0.8585 J-1.1817
N1500 X12.8214 Y-0.6386 I-0.8585 J1.1817
N1505 X12.8197 Y-0.6496 I0.0046 J-0.0064
N1510 G1 X12.822 Y-0.6528
N1515 X12.8232 Y-0.6545 Z-0.2497
N1520 X12.8243 Y-0.656 Z-0.2489
N1525 X12.8253 Y-0.6573 Z-0.2477
N1530 X12.826 Y-0.6583 Z-0.2461
N1535 X12.8265 Y-0.659 Z-0.2442
N1540 X12.8266 Y-0.6592 Z-0.2421
N1545 G0 Z0.3
N1550 M9
N1555 G53 G0 Z0.
N1560 M30
%
