%
(1001)
(2MM  800 RPM 14 MINUTES)
(T2  D=0.0787 CR=0. - ZMIN=-0.13 - FLAT END MILL)
N10 G90 G94 G17 G91.1
N15 G20
N20 G53 G0 Z0.
(BORE1)
N25 T2 M6
N30 S5000 M3
N35 G54
N40 M8
N45 G0 X15.1209 Y-1.8282
N50 G43 Z0.3 H2
N55 G0 Z0.08
N60 G1 Z0.0079 F39.37
N65 G18 G2 X15.1288 Z0. I0.0079 K0.
N70 G1 X15.1327
N75 G17 G3 X15.1406 Y-1.8203 I0. J0.0079
N80 X12.2193 Z-0.0197 I-1.4606 J0.
N85 X15.1406 Z-0.0394 I1.4606 J0.
N90 X12.2193 Z-0.0591 I-1.4606 J0.
N95 X15.1406 Z-0.0787 I1.4606 J0.
N100 X12.2193 Z-0.0984 I-1.4606 J0.
N105 X15.1406 Z-0.1181 I1.4606 J0.
N110 X13.2112 Y-0.4369 Z-0.13 I-1.4606 J0.
N115 X14.1487 Y-3.2037 I0.4688 J-1.3834
N120 X13.2112 Y-0.4369 I-0.4688 J1.3834
N125 X13.2062 Y-0.4469 I0.0025 J-0.0075
N130 G1 X13.2075 Y-0.4506
N135 X13.2082 Y-0.4526 Z-0.1297
N140 X13.2088 Y-0.4544 Z-0.1289
N145 X13.2093 Y-0.4559 Z-0.1277
N150 X13.2097 Y-0.4571 Z-0.1261
N155 X13.21 Y-0.4579 Z-0.1242
N160 Y-0.4581 Z-0.1221
N165 G0 Z0.1
N170 X11.8209 Y-1.8282
N175 Z0.08
N180 G1 Z0.0079 F39.37
N185 G18 G2 X11.8288 Z0. I0.0079 K0.
N190 G1 X11.8327
N195 G17 G3 X11.8406 Y-1.8203 I0. J0.0079
N200 X9.2193 Z-0.0197 I-1.3106 J0.
N205 X11.8406 Z-0.0394 I1.3106 J0.
N210 X9.2193 Z-0.0591 I-1.3106 J0.
N215 X11.8406 Z-0.0787 I1.3106 J0.
N220 X9.2193 Z-0.0984 I-1.3106 J0.
N225 X11.8406 Z-0.1181 I1.3106 J0.
N230 X10.1093 Y-0.579 Z-0.13 I-1.3106 J0.
N235 X10.9506 Y-3.0616 I0.4206 J-1.2413
N240 X10.1093 Y-0.579 I-0.4206 J1.2413
N245 X10.1044 Y-0.589 I0.0025 J-0.0075
N250 G1 X10.1057 Y-0.5927
N255 X10.1063 Y-0.5946 Z-0.1297
N260 X10.1069 Y-0.5964 Z-0.1289
N265 X10.1074 Y-0.598 Z-0.1277
N270 X10.1078 Y-0.5992 Z-0.1261
N275 X10.1081 Y-0.5999 Z-0.1242
N280 X10.1082 Y-0.6002 Z-0.1221
N285 G0 Z0.1
N290 X8.6209 Y-1.8282
N295 Z0.08
N300 G1 Z0.0079 F39.37
N305 G18 G2 X8.6288 Z0. I0.0079 K0.
N310 G1 X8.6327
N315 G17 G3 X8.6406 Y-1.8203 I0. J0.0079
N320 X6.3193 Z-0.0197 I-1.1606 J0.
N325 X8.6406 Z-0.0394 I1.1606 J0.
N330 X6.3193 Z-0.0591 I-1.1606 J0.
N335 X8.6406 Z-0.0787 I1.1606 J0.
N340 X6.3193 Z-0.0984 I-1.1606 J0.
N345 X8.6406 Z-0.1181 I1.1606 J0.
N350 X7.1075 Y-0.7211 Z-0.13 I-1.1606 J0.
N355 X7.8525 Y-2.9195 I0.3725 J-1.0992
N360 X7.1075 Y-0.7211 I-0.3725 J1.0992
N365 X7.1025 Y-0.731 I0.0025 J-0.0075
N370 G1 X7.1038 Y-0.7348
N375 X7.1044 Y-0.7367 Z-0.1297
N380 X7.1051 Y-0.7385 Z-0.1289
N385 X7.1056 Y-0.7401 Z-0.1277
N390 X7.106 Y-0.7412 Z-0.1261
N395 X7.1062 Y-0.742 Z-0.1242
N400 X7.1063 Y-0.7422 Z-0.1221
N405 G0 Z0.1
N410 X5.3709 Y-1.8282
N415 Z0.08
N420 G1 Z0.0079 F39.37
N425 G18 G2 X5.3788 Z0. I0.0079 K0.
N430 G1 X5.3827
N435 G17 G3 X5.3906 Y-1.8203 I0. J0.0079
N440 X3.3693 Z-0.0197 I-1.0106 J0.
N445 X5.3906 Z-0.0394 I1.0106 J0.
N450 X3.3693 Z-0.0591 I-1.0106 J0.
N455 X5.3906 Z-0.0787 I1.0106 J0.
N460 X3.3693 Z-0.0984 I-1.0106 J0.
N465 X5.3906 Z-0.1181 I1.0106 J0.
N470 X4.0556 Y-0.8631 Z-0.13 I-1.0106 J0.
N475 X4.7043 Y-2.7775 I0.3244 J-0.9572
N480 X4.0556 Y-0.8631 I-0.3244 J0.9572
N485 X4.0507 Y-0.8731 I0.0025 J-0.0075
N490 G1 X4.0519 Y-0.8768
N495 X4.0526 Y-0.8788 Z-0.1297
N500 X4.0532 Y-0.8806 Z-0.1289
N505 X4.0537 Y-0.8821 Z-0.1277
N510 X4.0541 Y-0.8833 Z-0.1261
N515 X4.0544 Y-0.884 Z-0.1242
N520 X4.0545 Y-0.8843 Z-0.1221
N525 G0 Z0.1
N530 X2.1209 Y-1.8282
N535 Z0.08
N540 G1 Z0.0079 F39.37
N545 G18 G2 X2.1288 Z0. I0.0079 K0.
N550 G1 X2.1327
N555 G17 G3 X2.1406 Y-1.8203 I0. J0.0079
N560 X0.4193 Z-0.0197 I-0.8606 J0.
N565 X2.1406 Z-0.0394 I0.8606 J0.
N570 X0.4193 Z-0.0591 I-0.8606 J0.
N575 X2.1406 Z-0.0787 I0.8606 J0.
N580 X0.4193 Z-0.0984 I-0.8606 J0.
N585 X2.1406 Z-0.1181 I0.8606 J0.
N590 X1.0037 Y-1.0052 Z-0.13 I-0.8606 J0.
N595 X1.5562 Y-2.6354 I0.2762 J-0.8151
N600 X1.0037 Y-1.0052 I-0.2762 J0.8151
N605 X0.9988 Y-1.0152 I0.0025 J-0.0075
N610 G1 X1.0001 Y-1.0189
N615 X1.0007 Y-1.0208 Z-0.1297
N620 X1.0013 Y-1.0226 Z-0.1289
N625 X1.0019 Y-1.0242 Z-0.1277
N630 X1.0023 Y-1.0254 Z-0.1261
N635 X1.0025 Y-1.0261 Z-0.1242
N640 X1.0026 Y-1.0264 Z-0.1221
N645 G0 Z0.1
N650 X2.1209 Y-4.9962
N655 Z0.08
N660 G1 Z0.0079 F39.37
N665 G18 G2 X2.1288 Z0. I0.0079 K0.
N670 G1 X2.1327
N675 G17 G3 X2.1406 Y-4.9883 I0. J0.0079
N680 X0.4193 Z-0.0197 I-0.8606 J0.
N685 X2.1406 Z-0.0394 I0.8606 J0.
N690 X0.4193 Z-0.0591 I-0.8606 J0.
N695 X2.1406 Z-0.0787 I0.8606 J0.
N700 X0.4193 Z-0.0984 I-0.8606 J0.
N705 X2.1406 Z-0.1181 I0.8606 J0.
N710 X1.0037 Y-4.1732 Z-0.13 I-0.8606 J0.
N715 X1.5562 Y-5.8034 I0.2762 J-0.8151
N720 X1.0037 Y-4.1732 I-0.2762 J0.8151
N725 X0.9988 Y-4.1832 I0.0025 J-0.0075
N730 G1 X1.0001 Y-4.1869
N735 X1.0007 Y-4.1888 Z-0.1297
N740 X1.0013 Y-4.1906 Z-0.1289
N745 X1.0019 Y-4.1922 Z-0.1277
N750 X1.0023 Y-4.1934 Z-0.1261
N755 X1.0025 Y-4.1941 Z-0.1242
N760 X1.0026 Y-4.1944 Z-0.1221
N765 G0 Z0.1
N770 X5.3709 Y-4.9962
N775 Z0.08
N780 G1 Z0.0079 F39.37
N785 G18 G2 X5.3788 Z0. I0.0079 K0.
N790 G1 X5.3827
N795 G17 G3 X5.3906 Y-4.9883 I0. J0.0079
N800 X3.3693 Z-0.0197 I-1.0106 J0.
N805 X5.3906 Z-0.0394 I1.0106 J0.
N810 X3.3693 Z-0.0591 I-1.0106 J0.
N815 X5.3906 Z-0.0787 I1.0106 J0.
N820 X3.3693 Z-0.0984 I-1.0106 J0.
N825 X5.3906 Z-0.1181 I1.0106 J0.
N830 X4.0556 Y-4.0311 Z-0.13 I-1.0106 J0.
N835 X4.7043 Y-5.9455 I0.3244 J-0.9572
N840 X4.0556 Y-4.0311 I-0.3244 J0.9572
N845 X4.0507 Y-4.0411 I0.0025 J-0.0075
N850 G1 X4.0519 Y-4.0448
N855 X4.0526 Y-4.0468 Z-0.1297
N860 X4.0532 Y-4.0486 Z-0.1289
N865 X4.0537 Y-4.0501 Z-0.1277
N870 X4.0541 Y-4.0513 Z-0.1261
N875 X4.0544 Y-4.052 Z-0.1242
N880 X4.0545 Y-4.0523 Z-0.1221
N885 G0 Z0.1
N890 X8.6209 Y-4.9962
N895 Z0.08
N900 G1 Z0.0079 F39.37
N905 G18 G2 X8.6288 Z0. I0.0079 K0.
N910 G1 X8.6327
N915 G17 G3 X8.6406 Y-4.9883 I0. J0.0079
N920 X6.3193 Z-0.0197 I-1.1606 J0.
N925 X8.6406 Z-0.0394 I1.1606 J0.
N930 X6.3193 Z-0.0591 I-1.1606 J0.
N935 X8.6406 Z-0.0787 I1.1606 J0.
N940 X6.3193 Z-0.0984 I-1.1606 J0.
N945 X8.6406 Z-0.1181 I1.1606 J0.
N950 X7.1075 Y-3.8891 Z-0.13 I-1.1606 J0.
N955 X7.8525 Y-6.0875 I0.3725 J-1.0992
N960 X7.1075 Y-3.8891 I-0.3725 J1.0992
N965 X7.1025 Y-3.899 I0.0025 J-0.0075
N970 G1 X7.1038 Y-3.9028
N975 X7.1044 Y-3.9047 Z-0.1297
N980 X7.1051 Y-3.9065 Z-0.1289
N985 X7.1056 Y-3.9081 Z-0.1277
N990 X7.106 Y-3.9092 Z-0.1261
N995 X7.1062 Y-3.91 Z-0.1242
N1000 X7.1063 Y-3.9102 Z-0.1221
N1005 G0 Z0.1
N1010 X11.8209 Y-4.9962
N1015 Z0.08
N1020 G1 Z0.0079 F39.37
N1025 G18 G2 X11.8288 Z0. I0.0079 K0.
N1030 G1 X11.8327
N1035 G17 G3 X11.8406 Y-4.9883 I0. J0.0079
N1040 X9.2193 Z-0.0197 I-1.3106 J0.
N1045 X11.8406 Z-0.0394 I1.3106 J0.
N1050 X9.2193 Z-0.0591 I-1.3106 J0.
N1055 X11.8406 Z-0.0787 I1.3106 J0.
N1060 X9.2193 Z-0.0984 I-1.3106 J0.
N1065 X11.8406 Z-0.1181 I1.3106 J0.
N1070 X10.1093 Y-3.747 Z-0.13 I-1.3106 J0.
N1075 X10.9506 Y-6.2296 I0.4206 J-1.2413
N1080 X10.1093 Y-3.747 I-0.4206 J1.2413
N1085 X10.1044 Y-3.757 I0.0025 J-0.0075
N1090 G1 X10.1057 Y-3.7607
N1095 X10.1063 Y-3.7626 Z-0.1297
N1100 X10.1069 Y-3.7644 Z-0.1289
N1105 X10.1074 Y-3.766 Z-0.1277
N1110 X10.1078 Y-3.7672 Z-0.1261
N1115 X10.1081 Y-3.7679 Z-0.1242
N1120 X10.1082 Y-3.7682 Z-0.1221
N1125 G0 Z0.1
N1130 X15.1209 Y-4.9962
N1135 Z0.08
N1140 G1 Z0.0079 F39.37
N1145 G18 G2 X15.1288 Z0. I0.0079 K0.
N1150 G1 X15.1327
N1155 G17 G3 X15.1406 Y-4.9883 I0. J0.0079
N1160 X12.2193 Z-0.0197 I-1.4606 J0.
N1165 X15.1406 Z-0.0394 I1.4606 J0.
N1170 X12.2193 Z-0.0591 I-1.4606 J0.
N1175 X15.1406 Z-0.0787 I1.4606 J0.
N1180 X12.2193 Z-0.0984 I-1.4606 J0.
N1185 X15.1406 Z-0.1181 I1.4606 J0.
N1190 X13.2112 Y-3.6049 Z-0.13 I-1.4606 J0.
N1195 X14.1487 Y-6.3717 I0.4688 J-1.3834
N1200 X13.2112 Y-3.6049 I-0.4688 J1.3834
N1205 X13.2062 Y-3.6149 I0.0025 J-0.0075
N1210 G1 X13.2075 Y-3.6186
N1215 X13.2082 Y-3.6206 Z-0.1297
N1220 X13.2088 Y-3.6224 Z-0.1289
N1225 X13.2093 Y-3.6239 Z-0.1277
N1230 X13.2097 Y-3.6251 Z-0.1261
N1235 X13.21 Y-3.6259 Z-0.1242
N1240 Y-3.6261 Z-0.1221
N1245 G0 Z0.3
N1250 M9
N1255 G53 G0 Z0.
N1260 M30
%
