%
(1001)
(6MM  1000 RPM 14 MINUTES)
(T3  D=0.2362 CR=0. - ZMIN=-0.13 - FLAT END MILL)
N10 G90 G94 G17 G91.1
N15 G20
N20 G53 G0 Z0.
(BORE1)
N25 T3 M6
N30 S1000 M3
N35 G54
N40 M8
N45 G0 X15.0028 Y-1.8439
N50 G43 Z0.3 H3
N55 G0 Z0.08
N60 G1 Z0.0236 F10.
N65 G18 G2 X15.0264 Z0. I0.0236 K0.
N70 G1 X15.0382
N75 G17 G3 X15.0618 Y-1.8203 I0. J0.0236
N80 X12.2981 Z-0.0197 I-1.3819 J0. F30.
N85 X15.0618 Z-0.0394 I1.3819 J0.
N90 X12.2981 Z-0.0591 I-1.3819 J0.
N95 X15.0618 Z-0.0787 I1.3819 J0.
N100 X12.2981 Z-0.0984 I-1.3819 J0.
N105 X15.0618 Z-0.1181 I1.3819 J0.
N110 X13.2364 Y-0.5115 Z-0.13 I-1.3819 J0.
N115 X14.1235 Y-3.1291 I0.4435 J-1.3088
N120 X13.2364 Y-0.5115 I-0.4435 J1.3088
N125 X13.2217 Y-0.5415 I0.0076 J-0.0224 F10.
N130 G1 X13.2254 Y-0.5526
N135 X13.2266 Y-0.5561 Z-0.1297
N140 X13.2278 Y-0.5596 Z-0.1288
N145 X13.2289 Y-0.5628 Z-0.1274
N150 X13.2299 Y-0.5658 Z-0.1255
N155 X13.2308 Y-0.5685 Z-0.1231
N160 X13.2316 Y-0.5707 Z-0.1203
N165 X13.2322 Y-0.5726 Z-0.1171
N170 X13.2327 Y-0.5739 Z-0.1137
N175 X13.2329 Y-0.5747 Z-0.1101
N180 X13.233 Y-0.575 Z-0.1064
N185 G0 Z0.1
N190 X11.7028 Y-1.8439
N195 Z0.08
N200 G1 Z0.0236 F10.
N205 G18 G2 X11.7264 Z0. I0.0236 K0.
N210 G1 X11.7382
N215 G17 G3 X11.7618 Y-1.8203 I0. J0.0236
N220 X9.2981 Z-0.0197 I-1.2319 J0. F30.
N225 X11.7618 Z-0.0394 I1.2319 J0.
N230 X9.2981 Z-0.0591 I-1.2319 J0.
N235 X11.7618 Z-0.0787 I1.2319 J0.
N240 X9.2981 Z-0.0984 I-1.2319 J0.
N245 X11.7618 Z-0.1181 I1.2319 J0.
N250 X10.1346 Y-0.6536 Z-0.13 I-1.2319 J0.
N255 X10.9253 Y-2.987 I0.3954 J-1.1667
N260 X10.1346 Y-0.6536 I-0.3954 J1.1667
N265 X10.1198 Y-0.6835 I0.0076 J-0.0224 F10.
N270 G1 X10.1236 Y-0.6947
N275 X10.1248 Y-0.6982 Z-0.1297
N280 X10.1259 Y-0.7016 Z-0.1288
N285 X10.127 Y-0.7049 Z-0.1274
N290 X10.128 Y-0.7079 Z-0.1255
N295 X10.1289 Y-0.7105 Z-0.1231
N300 X10.1297 Y-0.7128 Z-0.1203
N305 X10.1303 Y-0.7146 Z-0.1171
N310 X10.1308 Y-0.716 Z-0.1137
N315 X10.1311 Y-0.7168 Z-0.1101
N320 X10.1312 Y-0.7171 Z-0.1064
N325 G0 Z0.1
N330 X8.5028 Y-1.8439
N335 Z0.08
N340 G1 Z0.0236 F10.
N345 G18 G2 X8.5264 Z0. I0.0236 K0.
N350 G1 X8.5382
N355 G17 G3 X8.5618 Y-1.8203 I0. J0.0236
N360 X6.3981 Z-0.0197 I-1.0819 J0. F30.
N365 X8.5618 Z-0.0394 I1.0819 J0.
N370 X6.3981 Z-0.0591 I-1.0819 J0.
N375 X8.5618 Z-0.0787 I1.0819 J0.
N380 X6.3981 Z-0.0984 I-1.0819 J0.
N385 X8.5618 Z-0.1181 I1.0819 J0.
N390 X7.1327 Y-0.7956 Z-0.13 I-1.0819 J0.
N395 X7.8272 Y-2.8449 I0.3472 J-1.0247
N400 X7.1327 Y-0.7956 I-0.3472 J1.0247
N405 X7.1179 Y-0.8256 I0.0076 J-0.0224 F10.
N410 G1 X7.1217 Y-0.8368
N415 X7.1229 Y-0.8403 Z-0.1297
N420 X7.1241 Y-0.8437 Z-0.1288
N425 X7.1252 Y-0.8469 Z-0.1274
N430 X7.1262 Y-0.8499 Z-0.1255
N435 X7.1271 Y-0.8526 Z-0.1231
N440 X7.1279 Y-0.8549 Z-0.1203
N445 X7.1285 Y-0.8567 Z-0.1171
N450 X7.1289 Y-0.8581 Z-0.1137
N455 X7.1292 Y-0.8589 Z-0.1101
N460 X7.1293 Y-0.8592 Z-0.1064
N465 G0 Z0.1
N470 X5.2528 Y-1.8439
N475 Z0.08
N480 G1 Z0.0236 F10.
N485 G18 G2 X5.2764 Z0. I0.0236 K0.
N490 G1 X5.2882
N495 G17 G3 X5.3118 Y-1.8203 I0. J0.0236
N500 X3.4481 Z-0.0197 I-0.9319 J0. F30.
N505 X5.3118 Z-0.0394 I0.9319 J0.
N510 X3.4481 Z-0.0591 I-0.9319 J0.
N515 X5.3118 Z-0.0787 I0.9319 J0.
N520 X3.4481 Z-0.0984 I-0.9319 J0.
N525 X5.3118 Z-0.1181 I0.9319 J0.
N530 X4.0809 Y-0.9377 Z-0.13 I-0.9319 J0.
N535 X4.679 Y-2.7029 I0.2991 J-0.8826
N540 X4.0809 Y-0.9377 I-0.2991 J0.8826
N545 X4.0661 Y-0.9677 I0.0076 J-0.0224 F10.
N550 G1 X4.0699 Y-0.9788
N555 X4.0711 Y-0.9823 Z-0.1297
N560 X4.0722 Y-0.9858 Z-0.1288
N565 X4.0733 Y-0.989 Z-0.1274
N570 X4.0743 Y-0.992 Z-0.1255
N575 X4.0752 Y-0.9947 Z-0.1231
N580 X4.076 Y-0.9969 Z-0.1203
N585 X4.0766 Y-0.9988 Z-0.1171
N590 X4.0771 Y-1.0001 Z-0.1137
N595 X4.0774 Y-1.0009 Z-0.1101
N600 X4.0775 Y-1.0012 Z-0.1064
N605 G0 Z0.1
N610 X2.0028 Y-1.8439
N615 Z0.08
N620 G1 Z0.0236 F10.
N625 G18 G2 X2.0264 Z0. I0.0236 K0.
N630 G1 X2.0382
N635 G17 G3 X2.0618 Y-1.8203 I0. J0.0236
N640 X0.4981 Z-0.0197 I-0.7819 J0. F30.
N645 X2.0618 Z-0.0394 I0.7819 J0.
N650 X0.4981 Z-0.0591 I-0.7819 J0.
N655 X2.0618 Z-0.0787 I0.7819 J0.
N660 X0.4981 Z-0.0984 I-0.7819 J0.
N665 X2.0618 Z-0.1181 I0.7819 J0.
N670 X1.029 Y-1.0798 Z-0.13 I-0.7819 J0.
N675 X1.5309 Y-2.5608 I0.2509 J-0.7405
N680 X1.029 Y-1.0798 I-0.2509 J0.7405
N685 X1.0142 Y-1.1097 I0.0076 J-0.0224 F10.
N690 G1 X1.018 Y-1.1209
N695 X1.0192 Y-1.1244 Z-0.1297
N700 X1.0204 Y-1.1278 Z-0.1288
N705 X1.0215 Y-1.1311 Z-0.1274
N710 X1.0225 Y-1.1341 Z-0.1255
N715 X1.0234 Y-1.1367 Z-0.1231
N720 X1.0241 Y-1.139 Z-0.1203
N725 X1.0248 Y-1.1408 Z-0.1171
N730 X1.0252 Y-1.1422 Z-0.1137
N735 X1.0255 Y-1.143 Z-0.1101
N740 X1.0256 Y-1.1433 Z-0.1064
N745 G0 Z0.1
N750 X2.0028 Y-5.0119
N755 Z0.08
N760 G1 Z0.0236 F10.
N765 G18 G2 X2.0264 Z0. I0.0236 K0.
N770 G1 X2.0382
N775 G17 G3 X2.0618 Y-4.9883 I0. J0.0236
N780 X0.4981 Z-0.0197 I-0.7819 J0. F30.
N785 X2.0618 Z-0.0394 I0.7819 J0.
N790 X0.4981 Z-0.0591 I-0.7819 J0.
N795 X2.0618 Z-0.0787 I0.7819 J0.
N800 X0.4981 Z-0.0984 I-0.7819 J0.
N805 X2.0618 Z-0.1181 I0.7819 J0.
N810 X1.029 Y-4.2478 Z-0.13 I-0.7819 J0.
N815 X1.5309 Y-5.7288 I0.2509 J-0.7405
N820 X1.029 Y-4.2478 I-0.2509 J0.7405
N825 X1.0142 Y-4.2777 I0.0076 J-0.0224 F10.
N830 G1 X1.018 Y-4.2889
N835 X1.0192 Y-4.2924 Z-0.1297
N840 X1.0204 Y-4.2958 Z-0.1288
N845 X1.0215 Y-4.2991 Z-0.1274
N850 X1.0225 Y-4.3021 Z-0.1255
N855 X1.0234 Y-4.3047 Z-0.1231
N860 X1.0241 Y-4.307 Z-0.1203
N865 X1.0248 Y-4.3088 Z-0.1171
N870 X1.0252 Y-4.3102 Z-0.1137
N875 X1.0255 Y-4.311 Z-0.1101
N880 X1.0256 Y-4.3113 Z-0.1064
N885 G0 Z0.1
N890 X5.2528 Y-5.0119
N895 Z0.08
N900 G1 Z0.0236 F10.
N905 G18 G2 X5.2764 Z0. I0.0236 K0.
N910 G1 X5.2882
N915 G17 G3 X5.3118 Y-4.9883 I0. J0.0236
N920 X3.4481 Z-0.0197 I-0.9319 J0. F30.
N925 X5.3118 Z-0.0394 I0.9319 J0.
N930 X3.4481 Z-0.0591 I-0.9319 J0.
N935 X5.3118 Z-0.0787 I0.9319 J0.
N940 X3.4481 Z-0.0984 I-0.9319 J0.
N945 X5.3118 Z-0.1181 I0.9319 J0.
N950 X4.0809 Y-4.1057 Z-0.13 I-0.9319 J0.
N955 X4.679 Y-5.8709 I0.2991 J-0.8826
N960 X4.0809 Y-4.1057 I-0.2991 J0.8826
N965 X4.0661 Y-4.1357 I0.0076 J-0.0224 F10.
N970 G1 X4.0699 Y-4.1468
N975 X4.0711 Y-4.1503 Z-0.1297
N980 X4.0722 Y-4.1538 Z-0.1288
N985 X4.0733 Y-4.157 Z-0.1274
N990 X4.0743 Y-4.16 Z-0.1255
N995 X4.0752 Y-4.1627 Z-0.1231
N1000 X4.076 Y-4.1649 Z-0.1203
N1005 X4.0766 Y-4.1668 Z-0.1171
N1010 X4.0771 Y-4.1681 Z-0.1137
N1015 X4.0774 Y-4.1689 Z-0.1101
N1020 X4.0775 Y-4.1692 Z-0.1064
N1025 G0 Z0.1
N1030 X8.5028 Y-5.0119
N1035 Z0.08
N1040 G1 Z0.0236 F10.
N1045 G18 G2 X8.5264 Z0. I0.0236 K0.
N1050 G1 X8.5382
N1055 G17 G3 X8.5618 Y-4.9883 I0. J0.0236
N1060 X6.3981 Z-0.0197 I-1.0819 J0. F30.
N1065 X8.5618 Z-0.0394 I1.0819 J0.
N1070 X6.3981 Z-0.0591 I-1.0819 J0.
N1075 X8.5618 Z-0.0787 I1.0819 J0.
N1080 X6.3981 Z-0.0984 I-1.0819 J0.
N1085 X8.5618 Z-0.1181 I1.0819 J0.
N1090 X7.1327 Y-3.9636 Z-0.13 I-1.0819 J0.
N1095 X7.8272 Y-6.0129 I0.3472 J-1.0247
N1100 X7.1327 Y-3.9636 I-0.3472 J1.0247
N1105 X7.1179 Y-3.9936 I0.0076 J-0.0224 F10.
N1110 G1 X7.1217 Y-4.0048
N1115 X7.1229 Y-4.0083 Z-0.1297
N1120 X7.1241 Y-4.0117 Z-0.1288
N1125 X7.1252 Y-4.0149 Z-0.1274
N1130 X7.1262 Y-4.0179 Z-0.1255
N1135 X7.1271 Y-4.0206 Z-0.1231
N1140 X7.1279 Y-4.0229 Z-0.1203
N1145 X7.1285 Y-4.0247 Z-0.1171
N1150 X7.1289 Y-4.0261 Z-0.1137
N1155 X7.1292 Y-4.0269 Z-0.1101
N1160 X7.1293 Y-4.0272 Z-0.1064
N1165 G0 Z0.1
N1170 X11.7028 Y-5.0119
N1175 Z0.08
N1180 G1 Z0.0236 F10.
N1185 G18 G2 X11.7264 Z0. I0.0236 K0.
N1190 G1 X11.7382
N1195 G17 G3 X11.7618 Y-4.9883 I0. J0.0236
N1200 X9.2981 Z-0.0197 I-1.2319 J0. F30.
N1205 X11.7618 Z-0.0394 I1.2319 J0.
N1210 X9.2981 Z-0.0591 I-1.2319 J0.
N1215 X11.7618 Z-0.0787 I1.2319 J0.
N1220 X9.2981 Z-0.0984 I-1.2319 J0.
N1225 X11.7618 Z-0.1181 I1.2319 J0.
N1230 X10.1346 Y-3.8216 Z-0.13 I-1.2319 J0.
N1235 X10.9253 Y-6.155 I0.3954 J-1.1667
N1240 X10.1346 Y-3.8216 I-0.3954 J1.1667
N1245 X10.1198 Y-3.8515 I0.0076 J-0.0224 F10.
N1250 G1 X10.1236 Y-3.8627
N1255 X10.1248 Y-3.8662 Z-0.1297
N1260 X10.1259 Y-3.8696 Z-0.1288
N1265 X10.127 Y-3.8729 Z-0.1274
N1270 X10.128 Y-3.8759 Z-0.1255
N1275 X10.1289 Y-3.8785 Z-0.1231
N1280 X10.1297 Y-3.8808 Z-0.1203
N1285 X10.1303 Y-3.8826 Z-0.1171
N1290 X10.1308 Y-3.884 Z-0.1137
N1295 X10.1311 Y-3.8848 Z-0.1101
N1300 X10.1312 Y-3.8851 Z-0.1064
N1305 G0 Z0.1
N1310 X15.0028 Y-5.0119
N1315 Z0.08
N1320 G1 Z0.0236 F10.
N1325 G18 G2 X15.0264 Z0. I0.0236 K0.
N1330 G1 X15.0382
N1335 G17 G3 X15.0618 Y-4.9883 I0. J0.0236
N1340 X12.2981 Z-0.0197 I-1.3819 J0. F30.
N1345 X15.0618 Z-0.0394 I1.3819 J0.
N1350 X12.2981 Z-0.0591 I-1.3819 J0.
N1355 X15.0618 Z-0.0787 I1.3819 J0.
N1360 X12.2981 Z-0.0984 I-1.3819 J0.
N1365 X15.0618 Z-0.1181 I1.3819 J0.
N1370 X13.2364 Y-3.6795 Z-0.13 I-1.3819 J0.
N1375 X14.1235 Y-6.2971 I0.4435 J-1.3088
N1380 X13.2364 Y-3.6795 I-0.4435 J1.3088
N1385 X13.2217 Y-3.7095 I0.0076 J-0.0224 F10.
N1390 G1 X13.2254 Y-3.7206
N1395 X13.2266 Y-3.7241 Z-0.1297
N1400 X13.2278 Y-3.7276 Z-0.1288
N1405 X13.2289 Y-3.7308 Z-0.1274
N1410 X13.2299 Y-3.7338 Z-0.1255
N1415 X13.2308 Y-3.7365 Z-0.1231
N1420 X13.2316 Y-3.7387 Z-0.1203
N1425 X13.2322 Y-3.7406 Z-0.1171
N1430 X13.2327 Y-3.7419 Z-0.1137
N1435 X13.2329 Y-3.7427 Z-0.1101
N1440 X13.233 Y-3.743 Z-0.1064
N1445 G0 Z0.3
N1450 M9
N1455 G53 G0 Z0.
N1460 M30
%
