%
(MERMAID_BOOKEND)
(MERMAID_BOOKEND PROFILE 12 ENDMILL)
(T2  D=0.5 CR=0. - ZMIN=-0.75 - FLAT END MILL)
N10 G90 G94 G17 G91.1
N15 G20
N20 G53 G0 Z0.
(2D CONTOUR2)
N25 M9
N30 T2 M6
N35 S2000 M3
N40 G54
N45 M8
N55 G0 X-4.8519 Y-1.6489
N60 G43 Z0.5 H2
N65 G0 Z0.2894
N70 G1 Z-0.2 F202.
N75 X-4.8516 Z-0.2056
N80 X-4.8506 Y-1.6492 Z-0.2111
N85 X-4.8491 Y-1.6496 Z-0.2165
N90 X-4.8471 Y-1.6501 Z-0.2217
N95 X-4.8444 Y-1.6508 Z-0.2266
N100 X-4.8413 Y-1.6516 Z-0.2312
N105 X-4.8377 Y-1.6525 Z-0.2354
N110 X-4.8336 Y-1.6536 Z-0.2391
N115 X-4.8292 Y-1.6547 Z-0.2423
N120 X-4.8244 Y-1.6559 Z-0.245
N125 X-4.8194 Y-1.6572 Z-0.2472
N130 X-4.8142 Y-1.6586 Z-0.2487
N135 X-4.8089 Y-1.6599 Z-0.2497
N140 X-4.8034 Y-1.6613 Z-0.25
N145 X-4.755 Y-1.6738 F20.
N150 G3 X-4.6941 Y-1.6379 I0.0125 J0.0484
N155 G2 X-4.464 Y-1.4506 I0.2421 J-0.0624
N160 G1 X-4.4538 Y-1.4501
N165 X-4.4521 Y-1.45
N170 G3 X-4.4368 Y-1.4327 I-0.0365 J0.0479
N175 X-4.4035 Y-1.3628 I-0.2426 J0.1583
N180 X-4.3702 Y-1.1914 I-0.6377 J0.2129
N185 X-4.3737 Y-0.9973 I-1.146 J0.0767
N190 G2 X-4.3899 Y-0.8157 I7.6581 J0.7749
N195 G1 X-4.392 Y-0.7736
N200 G2 X-4.3923 Y-0.7643 I0.2497 J0.0128
N205 G1 X-4.3928 Y-0.7224
N210 G2 X-4.3927 Y-0.7104 I0.25 J0.0035
N215 G1 X-4.3913 Y-0.6687
N220 G2 X-4.3905 Y-0.6551 I0.2499 J-0.0085
N225 G1 X-4.3868 Y-0.6135
N230 G2 X-4.3849 Y-0.5981 I0.249 J-0.0222
N235 G1 X-4.3786 Y-0.5567
N240 G2 X-4.3755 Y-0.5401 I0.2471 J-0.0376
N245 G1 X-4.3664 Y-0.499
N250 G2 X-4.362 Y-0.4821 I0.244 J-0.0542
N255 G1 X-4.3499 Y-0.4414
N260 G2 X-4.3457 Y-0.4285 I0.2397 J-0.0711
N265 G1 X-4.3385 Y-0.4083
N270 G2 X-4.335 Y-0.3993 I0.2354 J-0.0841
N275 G1 X-4.327 Y-0.3792
N280 G2 X-4.3236 Y-0.3712 I0.232 J-0.0931
N285 G1 X-4.3148 Y-0.3513
N290 G2 X-4.3106 Y-0.3422 I0.2286 J-0.1012
N295 G1 X-4.3009 Y-0.3226
N300 G2 X-4.2967 Y-0.3144 I0.2244 J-0.1103
N305 G1 X-4.2863 Y-0.2951
N310 G2 X-4.2816 Y-0.2867 I0.2202 J-0.1184
N315 G1 X-4.2704 Y-0.2676
N320 G2 X-4.2653 Y-0.2594 I0.2155 J-0.1268
N325 G1 X-4.2532 Y-0.2405
N330 G2 X-4.2477 Y-0.2323 I0.2105 J-0.1349
N335 G1 X-4.2348 Y-0.2138
N340 G2 X-4.2294 Y-0.2063 I0.2049 J-0.1432
N345 G1 X-4.2156 Y-0.1881
N350 G2 X-4.2098 Y-0.1806 I0.1995 J-0.1506
N355 G1 X-4.1952 Y-0.1628
N360 G2 X-4.1889 Y-0.1553 I0.1937 J-0.1581
N365 G1 X-4.1734 Y-0.1379
N370 G2 X-4.1671 Y-0.1309 I0.1873 J-0.1656
N375 G1 X-4.1508 Y-0.1139
N380 G2 X-4.1444 Y-0.1074 I0.181 J-0.1725
N385 G1 X-4.1274 Y-0.0908
N390 G2 X-4.1204 Y-0.0843 I0.1746 J-0.1789
N395 G1 X-4.1025 Y-0.0681
N400 G2 X-4.0957 Y-0.0622 I0.1676 J-0.1855
N405 G1 X-4.077 Y-0.0464
N410 G2 X-4.07 Y-0.0408 I0.1608 J-0.1914
N415 G1 X-4.0505 Y-0.0255
N420 G2 X-4.0435 Y-0.0202 I0.1539 J-0.197
N425 G1 X-4.0231 Y-0.0054
N430 G2 X-4.016 Y-0.0005 I0.1469 J-0.2023
N435 X-3.921 Y0.0579 I0.58 J-0.8365
N440 G1 X-3.9299 Y0.0674
N445 G2 X-3.9376 Y0.0759 I0.182 J0.1714
N450 G1 X-3.9707 Y0.1146
N455 G2 X-3.9781 Y0.1235 I0.1897 J0.1628
N460 G1 X-4.0098 Y0.1641
N465 G2 X-4.0169 Y0.1737 I0.1971 J0.1538
N470 G1 X-4.0468 Y0.216
N475 G2 X-4.0537 Y0.2263 I0.2042 J0.1443
N480 G1 X-4.0816 Y0.2702
N485 G2 X-4.0882 Y0.2813 I0.211 J0.134
N490 G1 X-4.1138 Y0.3265
N495 G2 X-4.1201 Y0.3386 I0.2177 J0.1229
N500 G1 X-4.1431 Y0.3849
N505 G2 X-4.149 Y0.3979 I0.2241 J0.1109
N510 G1 X-4.1691 Y0.4451
N515 G2 X-4.1733 Y0.4556 I0.23 J0.0979
N520 X-4.2256 Y0.6382 I0.973 J0.3775
N525 G1 X-4.2277 Y0.6499
N530 X-4.2351 Y0.6984
N535 G2 X-4.2369 Y0.7136 I0.2471 J0.0377
N540 G1 X-4.2413 Y0.7621
N545 G2 X-4.2421 Y0.7762 I0.249 J0.0224
N550 G1 X-4.2438 Y0.8246
N555 G2 X-4.2439 Y0.8368 I0.2499 J0.0083
N560 G1 X-4.2431 Y0.8849
N565 G2 X-4.2428 Y0.8946 I0.25 J-0.0039
N570 X-4.2396 Y0.9508 I1.645 J-0.0647
N575 G1 X-4.2312 Y1.0461
N580 X-4.2233 Y1.1367
N585 G3 X-4.2242 Y1.2781 I-0.777 J0.0655
N590 X-4.2656 Y1.4362 I-0.6033 J-0.0734
N595 X-4.3898 Y1.6666 I-1.2186 J-0.5081
N600 G1 X-4.3969 Y1.6767
N605 X-4.4036 Y1.6872
N610 X-4.4097 Y1.698
N615 X-4.4153 Y1.709
N620 X-4.4203 Y1.7204
N625 X-4.4248 Y1.732
N630 X-4.4287 Y1.7437
N635 X-4.4319 Y1.7557
N640 X-4.4346 Y1.7678
N645 X-4.4367 Y1.7801
N650 X-4.4382 Y1.7924
N655 X-4.439 Y1.8048
N660 X-4.4393 Y1.8172
N665 X-4.4389 Y1.8296
N670 X-4.4379 Y1.8419
N675 X-4.4363 Y1.8542
N680 X-4.4341 Y1.8664
N685 X-4.4313 Y1.8785
N690 X-4.4279 Y1.8905
N695 X-4.4239 Y1.9022
N700 X-4.4193 Y1.9137
N705 X-4.4142 Y1.925
N710 X-4.4085 Y1.9361
N715 X-4.4023 Y1.9468
N720 X-4.3955 Y1.9572
N725 X-4.3882 Y1.9673
N730 X-4.3805 Y1.977
N735 X-4.3722 Y1.9862
N740 X-4.3636 Y1.9951
N745 X-4.3538 Y2.0046
N750 G2 X-4.3351 Y2.021 I0.1742 J-0.1793
N755 G1 X-4.3242 Y2.0297
N760 G2 X-4.3042 Y2.044 I0.1555 J-0.1958
N765 G1 X-4.2922 Y2.0518
N770 G2 X-4.2733 Y2.0628 I0.1355 J-0.2101
N775 G1 X-4.2601 Y2.0697
N780 G2 X-4.2412 Y2.0787 I0.1166 J-0.2212
N785 G1 X-4.2269 Y2.0848
N790 G2 X-4.2091 Y2.0915 I0.0976 J-0.2302
N795 G1 X-4.1937 Y2.0967
N800 G2 X-4.1773 Y2.1017 I0.0798 J-0.2369
N805 G1 X-4.1608 Y2.106
N810 G2 X-4.1456 Y2.1094 I0.0633 J-0.2418
N815 G1 X-4.1281 Y2.1129
N820 G2 X-4.1141 Y2.1152 I0.0482 J-0.2453
N825 G1 X-4.0954 Y2.1178
N830 G2 X-4.0827 Y2.1192 I0.0342 J-0.2477
N835 G1 X-4.063 Y2.1209
N840 G2 X-4.0513 Y2.1217 I0.0215 J-0.2491
N845 G1 X-4.0305 Y2.1225
N850 G2 X-4.0199 Y2.1227 I0.0098 J-0.2498
N855 G1 X-3.9981 Y2.1226
N860 G2 X-3.9884 Y2.1224 I-0.0008 J-0.25
N865 G1 X-3.9656 Y2.1214
N870 G2 X-3.9567 Y2.1209 I-0.0105 J-0.2498
N875 X-3.6182 Y2.045 I-0.0929 J-1.2067
N880 X-3.3076 Y1.8822 I-0.4459 J-1.2289
N885 G1 X-3.3007 Y1.8772
N890 X-3.2744 Y1.8575
N895 G2 X-3.2675 Y1.8522 I-0.1494 J-0.2004
N900 G1 X-3.2418 Y1.8317
N905 G2 X-3.235 Y1.826 I-0.1563 J-0.1951
N910 G1 X-3.2101 Y1.8045
N915 G2 X-3.2034 Y1.7985 I-0.1632 J-0.1894
N920 G1 X-3.1794 Y1.7763
N925 G2 X-3.1728 Y1.7699 I-0.1699 J-0.1834
N930 G1 X-3.1497 Y1.7469
N935 G2 X-3.1433 Y1.7403 I-0.1765 J-0.177
N940 G1 X-3.1211 Y1.7165
N945 G2 X-3.115 Y1.7097 I-0.1829 J-0.1704
N950 G1 X-3.0937 Y1.6851
N955 G2 X-3.088 Y1.6782 I-0.189 J-0.1636
N960 G1 X-3.0677 Y1.653
N965 G2 X-3.0623 Y1.646 I-0.1948 J-0.1567
N970 G1 X-3.0429 Y1.6201
N975 G2 X-3.0379 Y1.6132 I-0.2002 J-0.1498
N980 X-2.939 Y1.4508 I-1.0599 J-0.7563
N985 G1 X-2.9349 Y1.4429
N990 X-2.9071 Y1.3857
N995 G2 X-2.903 Y1.3769 I-0.2247 J-0.1095
N1000 X-2.8062 Y1.1371 I-3.2429 J-1.4487
N1005 G1 X-2.7856 Y1.0854
N1010 X-2.766 Y1.0381
N1015 X-2.7468 Y0.9952
N1020 G3 X-2.6673 Y0.8613 I0.6754 J0.3099
N1025 X-2.5423 Y0.7366 I0.5499 J0.4265
N1030 X-2.2746 Y0.572 I0.9182 J1.1934
N1035 G1 X-2.2388 Y0.5545
N1040 X-2.2106 Y0.5416
N1045 G3 X-2.0894 Y0.522 I0.1449 J0.5095
N1050 X-1.8323 Y0.5218 I0.1299 J1.909
N1055 X-1.3495 Y0.5722 I-0.2753 J4.9702
N1060 X-0.5494 Y0.7313 I-1.1861 J8.0564
N1065 X0.145 Y0.9222 I-3.6856 J14.7658
N1070 G1 X0.2679 Y0.9581
N1075 X0.5169 Y1.0309
N1080 X0.5188 Y1.0314
N1085 G2 X1.0273 Y1.1662 I2.8188 J-9.6089
N1090 X1.4644 Y1.2448 I0.9787 J-4.187
N1095 X1.8197 Y1.2618 I0.2955 J-2.4594
N1100 X2.2842 Y1.1843 I-0.0502 J-1.731
N1105 X2.5403 Y1.0827 I-0.6542 J-2.0232
N1110 X2.7527 Y0.9787 I-3.5656 J-7.5502
N1115 G1 X2.8138 Y0.9496
N1120 X2.8727 Y0.9237
N1125 G3 X3.05 Y0.8684 I0.3472 J0.8016
N1130 X3.2931 Y0.8753 I0.1044 J0.6011
N1135 X3.4351 Y0.9165 I-0.2264 J1.0464
N1140 G1 X3.4987 Y0.9402
N1145 X3.563 Y0.9662
N1150 G2 X3.8439 Y1.0852 I6.336 J-14.5658
N1155 X4.1397 Y1.1851 I0.938 J-2.29
N1160 X4.4332 Y1.2333 I0.4108 J-1.5813
N1165 G1 X4.4457 Y1.234
N1170 X4.4582
N1175 X4.4706 Y1.2333
N1180 X4.483 Y1.2321
N1185 X4.4954 Y1.2302
N1190 X4.5076 Y1.2278
N1195 X4.5197 Y1.2247
N1200 X4.5316 Y1.221
N1205 X4.5433 Y1.2167
N1210 X4.5548 Y1.2119
N1215 X4.5661 Y1.2065
N1220 X4.577 Y1.2005
N1225 X4.5877 Y1.194
N1230 X4.598 Y1.187
N1235 X4.6079 Y1.1794
N1240 X4.6175 Y1.1714
N1245 X4.6266 Y1.1629
N1250 X4.6353 Y1.154
N1255 X4.6436 Y1.1446
N1260 X4.6514 Y1.1349
N1265 X4.6586 Y1.1247
N1270 X4.6654 Y1.1143
N1275 X4.6716 Y1.1035
N1280 X4.6773 Y1.0923
N1285 X4.6825 Y1.081
N1290 X4.687 Y1.0694
N1295 X4.691 Y1.0575
N1300 X4.6943 Y1.0455
N1305 X4.6971 Y1.0334
N1310 X4.6993 Y1.0211
N1315 X4.7008 Y1.0087
N1320 X4.7017 Y0.9963
N1325 X4.702 Y0.9838
N1330 Y-1.0366
N1335 G2 X4.4721 Y-1.2858 I-0.25 J0.
N1340 G1 X4.4374 Y-1.2886
N1345 G2 X4.4287 Y-1.2891 I-0.02 J0.2492
N1350 G1 X4.3941 Y-1.2907
N1355 G2 X4.3854 Y-1.291 I-0.0114 J0.2497
N1360 G1 X4.3507 Y-1.2913
N1365 G2 X4.3421 I-0.0028 J0.25
N1370 G1 X4.3075 Y-1.2905
N1375 G2 X4.2988 Y-1.2901 I0.0059 J0.2499
N1380 G1 X4.2643 Y-1.2881
N1385 G2 X4.2557 Y-1.2874 I0.0146 J0.2496
N1390 X3.8802 Y-1.2024 I0.1181 J1.3924
N1395 G1 X3.8119 Y-1.1764
N1400 G2 X3.8037 Y-1.1731 I0.0896 J0.2334
N1405 X3.6608 Y-1.1104 I1.2996 J3.1521
N1410 G1 X3.5284 Y-1.0492
N1415 X3.4669 Y-1.0224
N1420 G3 X3.313 Y-0.9719 I-0.3541 J-0.8185
N1425 X3.1052 Y-0.9817 I-0.0851 J-0.4015
N1430 X2.9522 Y-1.044 I0.2674 J-0.8762
N1435 X2.7628 Y-1.1439 I2.4627 J-4.8998
N1440 G2 X2.4993 Y-1.272 I-1.4383 J2.6238
N1445 X1.8733 Y-1.4093 I-0.697 J1.6812
N1450 X1.4742 Y-1.3982 I-0.1265 J2.6276
N1455 X0.9147 Y-1.3071 I0.4523 J4.5436
N1460 X0.4012 Y-1.177 I1.7328 J7.9153
N1465 X-0.2206 Y-0.9877 I5.4556 J19.0407
N1470 G3 X-0.8359 Y-0.7978 I-8.7086 J-27.1151
N1475 X-1.3109 Y-0.6778 I-1.9552 J-6.7421
N1480 X-2.1688 Y-0.5899 I-0.8462 J-4.0277
N1485 X-2.3288 Y-0.5995 I0.0219 J-1.7056
N1490 X-2.6243 Y-0.7112 I0.091 J-0.6873
N1495 X-2.8601 Y-0.9147 I0.7122 J-1.0638
N1500 X-3.0733 Y-1.2302 I0.8756 J-0.8213
N1505 X-3.1508 Y-1.4048 I4.5913 J-2.1431
N1510 G2 X-3.2202 Y-1.5509 I-2.2129 J0.9625
N1515 G1 X-3.2244 Y-1.5587
N1520 X-3.249 Y-1.6032
N1525 G2 X-3.2543 Y-1.6123 I-0.2189 J0.1208
N1530 G1 X-3.2809 Y-1.6561
N1535 G2 X-3.2873 Y-1.666 I-0.2136 J0.1299
N1540 G1 X-3.3162 Y-1.7089
N1545 G2 X-3.3237 Y-1.7193 I-0.2072 J0.1399
N1550 G1 X-3.355 Y-1.7609
N1555 G2 X-3.3636 Y-1.7718 I-0.1997 J0.1504
N1560 G1 X-3.3973 Y-1.8117
N1565 G2 X-3.4046 Y-1.82 I-0.1911 J0.1612
N1570 X-3.4959 Y-1.91 I-0.7963 J0.7157
N1575 X-3.5023 Y-1.9156 I-0.1668 J0.1862
N1580 G1 X-3.5223 Y-1.9323
N1585 G2 X-3.5291 Y-1.9378 I-0.1604 J0.1918
N1590 G1 X-3.5495 Y-1.9537
N1595 G2 X-3.5569 Y-1.9592 I-0.1535 J0.1973
N1600 G1 X-3.5778 Y-1.9743
N1605 G2 X-3.5856 Y-1.9796 I-0.1462 J0.2028
N1610 G1 X-3.6069 Y-1.9939
N1615 G2 X-3.6153 Y-1.9992 I-0.1384 J0.2082
N1620 G1 X-3.6371 Y-2.0124
N1625 G2 X-3.6458 Y-2.0176 I-0.1301 J0.2135
N1630 G1 X-3.6681 Y-2.0299
N1635 G2 X-3.6774 Y-2.0348 I-0.1213 J0.2186
N1640 G1 X-3.7 Y-2.0461
N1645 G2 X-3.7099 Y-2.0508 I-0.1119 J0.2235
N1650 G1 X-3.7329 Y-2.0611
N1655 G2 X-3.7434 Y-2.0655 I-0.102 J0.2282
N1660 G1 X-3.7666 Y-2.0747
N1665 G2 X-3.7776 Y-2.0787 I-0.0915 J0.2326
N1670 G1 X-3.8012 Y-2.0867
N1675 G2 X-3.8127 Y-2.0903 I-0.0806 J0.2367
N1680 G1 X-3.8366 Y-2.0972
N1685 G2 X-3.8485 Y-2.1003 I-0.069 J0.2403
N1690 G1 X-3.8726 Y-2.106
N1695 G2 X-3.8851 Y-2.1085 I-0.0571 J0.2434
N1700 G1 X-3.9095 Y-2.113
N1705 G2 X-3.922 Y-2.1149 I-0.0447 J0.246
N1710 G1 X-3.9466 Y-2.1181
N1715 G2 X-3.9595 Y-2.1195 I-0.0322 J0.2479
N1720 G1 X-3.9843 Y-2.1214
N1725 G2 X-3.9973 Y-2.122 I-0.0193 J0.2493
N1730 G1 X-4.0224 Y-2.1227
N1735 G2 X-4.0353 I-0.0063 J0.2499
N1740 G1 X-4.0606 Y-2.122
N1745 G2 X-4.0734 Y-2.1213 I0.0066 J0.2499
N1750 G1 X-4.0989 Y-2.1193
N1755 G2 X-4.1115 Y-2.118 I0.0195 J0.2492
N1760 G1 X-4.1371 Y-2.1147
N1765 G2 X-4.1494 Y-2.1128 I0.0321 J0.2479
N1770 G1 X-4.1752 Y-2.1081
N1775 G2 X-4.1872 Y-2.1057 I0.0444 J0.246
N1780 G1 X-4.2131 Y-2.0997
N1785 G2 X-4.2244 Y-2.0968 I0.0564 J0.2436
N1790 G1 X-4.2506 Y-2.0894
N1795 G2 X-4.2616 Y-2.086 I0.0677 J0.2407
N1800 G1 X-4.2879 Y-2.0773
N1805 G2 X-4.2982 Y-2.0737 I0.0787 J0.2373
N1810 G1 X-4.3246 Y-2.0636
N1815 G2 X-4.3344 Y-2.0596 I0.089 J0.2336
N1820 G1 X-4.361 Y-2.0482
N1825 G2 X-4.3702 Y-2.044 I0.0988 J0.2296
N1830 G1 X-4.3969 Y-2.0312
N1835 G2 X-4.4055 Y-2.0269 I0.1081 J0.2254
N1840 G1 X-4.4323 Y-2.0127
N1845 G2 X-4.4403 Y-2.0083 I0.1166 J0.2211
N1850 G1 X-4.4673 Y-1.9928
N1855 G2 X-4.4748 Y-1.9883 I0.1246 J0.2167
N1860 X-4.6036 Y-1.8991 I0.6711 J1.1065
N1865 G1 X-4.6131 Y-1.8915
N1870 X-4.6222 Y-1.8834
N1875 X-4.631 Y-1.8749
N1880 X-4.6393 Y-1.866
N1885 X-4.6471 Y-1.8566
N1890 X-4.6545 Y-1.8469
N1895 X-4.6615 Y-1.8369
N1900 X-4.6679 Y-1.8265
N1905 X-4.6738 Y-1.8158
N1910 X-4.6791 Y-1.8048
N1915 X-4.684 Y-1.7936
N1920 X-4.6883 Y-1.7822
N1925 X-4.692 Y-1.7706
N1930 X-4.6951 Y-1.7588
N1935 X-4.6977 Y-1.7468
N1940 X-4.6997 Y-1.7348
N1945 X-4.701 Y-1.7227
N1950 X-4.7018 Y-1.7105
N1955 X-4.702 Y-1.6983
N1960 X-4.7016 Y-1.6861
N1965 X-4.7006 Y-1.6739
N1970 X-4.6991 Y-1.6618
N1975 X-4.6969 Y-1.6498
N1980 X-4.6941 Y-1.6379
N1985 G3 X-4.73 Y-1.577 I-0.0484 J0.0125
N1990 G1 X-4.7785 Y-1.5645
N1995 X-4.7839 Y-1.5631 Z-0.2497
N2000 X-4.7892 Y-1.5617 Z-0.2487
N2005 X-4.7945 Y-1.5604 Z-0.2472
N2010 X-4.7995 Y-1.5591 Z-0.245
N2015 X-4.8042 Y-1.5579 Z-0.2423
N2020 X-4.8086 Y-1.5567 Z-0.2391
N2025 X-4.8127 Y-1.5557 Z-0.2354
N2030 X-4.8163 Y-1.5547 Z-0.2312
N2035 X-4.8195 Y-1.5539 Z-0.2266
N2040 X-4.8221 Y-1.5533 Z-0.2217
N2045 X-4.8242 Y-1.5527 Z-0.2165
N2050 X-4.8257 Y-1.5523 Z-0.2111
N2055 X-4.8266 Y-1.5521 Z-0.2056
N2060 X-4.8269 Y-1.552 Z-0.2
N2065 X-4.8519 Y-1.6489
N2070 Z-0.45 F202.
N2075 X-4.8516 Z-0.4556
N2080 X-4.8506 Y-1.6492 Z-0.4611
N2085 X-4.8491 Y-1.6496 Z-0.4665
N2090 X-4.8471 Y-1.6501 Z-0.4717
N2095 X-4.8444 Y-1.6508 Z-0.4766
N2100 X-4.8413 Y-1.6516 Z-0.4812
N2105 X-4.8377 Y-1.6525 Z-0.4854
N2110 X-4.8336 Y-1.6536 Z-0.4891
N2115 X-4.8292 Y-1.6547 Z-0.4923
N2120 X-4.8244 Y-1.6559 Z-0.495
N2125 X-4.8194 Y-1.6572 Z-0.4972
N2130 X-4.8142 Y-1.6586 Z-0.4987
N2135 X-4.8089 Y-1.6599 Z-0.4997
N2140 X-4.8034 Y-1.6613 Z-0.5
N2145 X-4.755 Y-1.6738 F20.
N2150 G3 X-4.6941 Y-1.6379 I0.0125 J0.0484
N2155 G2 X-4.464 Y-1.4506 I0.2421 J-0.0624
N2160 G1 X-4.4538 Y-1.4501
N2165 X-4.4521 Y-1.45
N2170 G3 X-4.4368 Y-1.4327 I-0.0365 J0.0479
N2175 X-4.4035 Y-1.3628 I-0.2426 J0.1583
N2180 X-4.3702 Y-1.1914 I-0.6377 J0.2129
N2185 X-4.3737 Y-0.9973 I-1.146 J0.0767
N2190 G2 X-4.3899 Y-0.8157 I7.6581 J0.7749
N2195 G1 X-4.392 Y-0.7736
N2200 G2 X-4.3923 Y-0.7643 I0.2497 J0.0128
N2205 G1 X-4.3928 Y-0.7224
N2210 G2 X-4.3927 Y-0.7104 I0.25 J0.0035
N2215 G1 X-4.3913 Y-0.6687
N2220 G2 X-4.3905 Y-0.6551 I0.2499 J-0.0085
N2225 G1 X-4.3868 Y-0.6135
N2230 G2 X-4.3849 Y-0.5981 I0.249 J-0.0222
N2235 G1 X-4.3786 Y-0.5567
N2240 G2 X-4.3755 Y-0.5401 I0.2471 J-0.0376
N2245 G1 X-4.3664 Y-0.499
N2250 G2 X-4.362 Y-0.4821 I0.244 J-0.0542
N2255 G1 X-4.3499 Y-0.4414
N2260 G2 X-4.3457 Y-0.4285 I0.2397 J-0.0711
N2265 G1 X-4.3385 Y-0.4083
N2270 G2 X-4.335 Y-0.3993 I0.2354 J-0.0841
N2275 G1 X-4.327 Y-0.3792
N2280 G2 X-4.3236 Y-0.3712 I0.232 J-0.0931
N2285 G1 X-4.3148 Y-0.3513
N2290 G2 X-4.3106 Y-0.3422 I0.2286 J-0.1012
N2295 G1 X-4.3009 Y-0.3226
N2300 G2 X-4.2967 Y-0.3144 I0.2244 J-0.1103
N2305 G1 X-4.2863 Y-0.2951
N2310 G2 X-4.2816 Y-0.2867 I0.2202 J-0.1184
N2315 G1 X-4.2704 Y-0.2676
N2320 G2 X-4.2653 Y-0.2594 I0.2155 J-0.1268
N2325 G1 X-4.2532 Y-0.2405
N2330 G2 X-4.2477 Y-0.2323 I0.2105 J-0.1349
N2335 G1 X-4.2348 Y-0.2138
N2340 G2 X-4.2294 Y-0.2063 I0.2049 J-0.1432
N2345 G1 X-4.2156 Y-0.1881
N2350 G2 X-4.2098 Y-0.1806 I0.1995 J-0.1506
N2355 G1 X-4.1952 Y-0.1628
N2360 G2 X-4.1889 Y-0.1553 I0.1937 J-0.1581
N2365 G1 X-4.1734 Y-0.1379
N2370 G2 X-4.1671 Y-0.1309 I0.1873 J-0.1656
N2375 G1 X-4.1508 Y-0.1139
N2380 G2 X-4.1444 Y-0.1074 I0.181 J-0.1725
N2385 G1 X-4.1274 Y-0.0908
N2390 G2 X-4.1204 Y-0.0843 I0.1746 J-0.1789
N2395 G1 X-4.1025 Y-0.0681
N2400 G2 X-4.0957 Y-0.0622 I0.1676 J-0.1855
N2405 G1 X-4.077 Y-0.0464
N2410 G2 X-4.07 Y-0.0408 I0.1608 J-0.1914
N2415 G1 X-4.0505 Y-0.0255
N2420 G2 X-4.0435 Y-0.0202 I0.1539 J-0.197
N2425 G1 X-4.0231 Y-0.0054
N2430 G2 X-4.016 Y-0.0005 I0.1469 J-0.2023
N2435 X-3.921 Y0.0579 I0.58 J-0.8365
N2440 G1 X-3.9299 Y0.0674
N2445 G2 X-3.9376 Y0.0759 I0.182 J0.1714
N2450 G1 X-3.9707 Y0.1146
N2455 G2 X-3.9781 Y0.1235 I0.1897 J0.1628
N2460 G1 X-4.0098 Y0.1641
N2465 G2 X-4.0169 Y0.1737 I0.1971 J0.1538
N2470 G1 X-4.0468 Y0.216
N2475 G2 X-4.0537 Y0.2263 I0.2042 J0.1443
N2480 G1 X-4.0816 Y0.2702
N2485 G2 X-4.0882 Y0.2813 I0.211 J0.134
N2490 G1 X-4.1138 Y0.3265
N2495 G2 X-4.1201 Y0.3386 I0.2177 J0.1229
N2500 G1 X-4.1431 Y0.3849
N2505 G2 X-4.149 Y0.3979 I0.2241 J0.1109
N2510 G1 X-4.1691 Y0.4451
N2515 G2 X-4.1733 Y0.4556 I0.23 J0.0979
N2520 X-4.2256 Y0.6382 I0.973 J0.3775
N2525 G1 X-4.2277 Y0.6499
N2530 X-4.2351 Y0.6984
N2535 G2 X-4.2369 Y0.7136 I0.2471 J0.0377
N2540 G1 X-4.2413 Y0.7621
N2545 G2 X-4.2421 Y0.7762 I0.249 J0.0224
N2550 G1 X-4.2438 Y0.8246
N2555 G2 X-4.2439 Y0.8368 I0.2499 J0.0083
N2560 G1 X-4.2431 Y0.8849
N2565 G2 X-4.2428 Y0.8946 I0.25 J-0.0039
N2570 X-4.2396 Y0.9508 I1.645 J-0.0647
N2575 G1 X-4.2312 Y1.0461
N2580 X-4.2233 Y1.1367
N2585 G3 X-4.2242 Y1.2781 I-0.777 J0.0655
N2590 X-4.2656 Y1.4362 I-0.6033 J-0.0734
N2595 X-4.3898 Y1.6666 I-1.2186 J-0.5081
N2600 G1 X-4.3969 Y1.6767
N2605 X-4.4036 Y1.6872
N2610 X-4.4097 Y1.698
N2615 X-4.4153 Y1.709
N2620 X-4.4203 Y1.7204
N2625 X-4.4248 Y1.732
N2630 X-4.4287 Y1.7437
N2635 X-4.4319 Y1.7557
N2640 X-4.4346 Y1.7678
N2645 X-4.4367 Y1.7801
N2650 X-4.4382 Y1.7924
N2655 X-4.439 Y1.8048
N2660 X-4.4393 Y1.8172
N2665 X-4.4389 Y1.8296
N2670 X-4.4379 Y1.8419
N2675 X-4.4363 Y1.8542
N2680 X-4.4341 Y1.8664
N2685 X-4.4313 Y1.8785
N2690 X-4.4279 Y1.8905
N2695 X-4.4239 Y1.9022
N2700 X-4.4193 Y1.9137
N2705 X-4.4142 Y1.925
N2710 X-4.4085 Y1.9361
N2715 X-4.4023 Y1.9468
N2720 X-4.3955 Y1.9572
N2725 X-4.3882 Y1.9673
N2730 X-4.3805 Y1.977
N2735 X-4.3722 Y1.9862
N2740 X-4.3636 Y1.9951
N2745 X-4.3538 Y2.0046
N2750 G2 X-4.3351 Y2.021 I0.1742 J-0.1793
N2755 G1 X-4.3242 Y2.0297
N2760 G2 X-4.3042 Y2.044 I0.1555 J-0.1958
N2765 G1 X-4.2922 Y2.0518
N2770 G2 X-4.2733 Y2.0628 I0.1355 J-0.2101
N2775 G1 X-4.2601 Y2.0697
N2780 G2 X-4.2412 Y2.0787 I0.1166 J-0.2212
N2785 G1 X-4.2269 Y2.0848
N2790 G2 X-4.2091 Y2.0915 I0.0976 J-0.2302
N2795 G1 X-4.1937 Y2.0967
N2800 G2 X-4.1773 Y2.1017 I0.0798 J-0.2369
N2805 G1 X-4.1608 Y2.106
N2810 G2 X-4.1456 Y2.1094 I0.0633 J-0.2418
N2815 G1 X-4.1281 Y2.1129
N2820 G2 X-4.1141 Y2.1152 I0.0482 J-0.2453
N2825 G1 X-4.0954 Y2.1178
N2830 G2 X-4.0827 Y2.1192 I0.0342 J-0.2477
N2835 G1 X-4.063 Y2.1209
N2840 G2 X-4.0513 Y2.1217 I0.0215 J-0.2491
N2845 G1 X-4.0305 Y2.1225
N2850 G2 X-4.0199 Y2.1227 I0.0098 J-0.2498
N2855 G1 X-3.9981 Y2.1226
N2860 G2 X-3.9884 Y2.1224 I-0.0008 J-0.25
N2865 G1 X-3.9656 Y2.1214
N2870 G2 X-3.9567 Y2.1209 I-0.0105 J-0.2498
N2875 X-3.6182 Y2.045 I-0.0929 J-1.2067
N2880 X-3.3076 Y1.8822 I-0.4459 J-1.2289
N2885 G1 X-3.3007 Y1.8772
N2890 X-3.2744 Y1.8575
N2895 G2 X-3.2675 Y1.8522 I-0.1494 J-0.2004
N2900 G1 X-3.2418 Y1.8317
N2905 G2 X-3.235 Y1.826 I-0.1563 J-0.1951
N2910 G1 X-3.2101 Y1.8045
N2915 G2 X-3.2034 Y1.7985 I-0.1632 J-0.1894
N2920 G1 X-3.1794 Y1.7763
N2925 G2 X-3.1728 Y1.7699 I-0.1699 J-0.1834
N2930 G1 X-3.1497 Y1.7469
N2935 G2 X-3.1433 Y1.7403 I-0.1765 J-0.177
N2940 G1 X-3.1211 Y1.7165
N2945 G2 X-3.115 Y1.7097 I-0.1829 J-0.1704
N2950 G1 X-3.0937 Y1.6851
N2955 G2 X-3.088 Y1.6782 I-0.189 J-0.1636
N2960 G1 X-3.0677 Y1.653
N2965 G2 X-3.0623 Y1.646 I-0.1948 J-0.1567
N2970 G1 X-3.0429 Y1.6201
N2975 G2 X-3.0379 Y1.6132 I-0.2002 J-0.1498
N2980 X-2.939 Y1.4508 I-1.0599 J-0.7563
N2985 G1 X-2.9349 Y1.4429
N2990 X-2.9071 Y1.3857
N2995 G2 X-2.903 Y1.3769 I-0.2247 J-0.1095
N3000 X-2.8062 Y1.1371 I-3.2429 J-1.4487
N3005 G1 X-2.7856 Y1.0854
N3010 X-2.766 Y1.0381
N3015 X-2.7468 Y0.9952
N3020 G3 X-2.6673 Y0.8613 I0.6754 J0.3099
N3025 X-2.5423 Y0.7366 I0.5499 J0.4265
N3030 X-2.2746 Y0.572 I0.9182 J1.1934
N3035 G1 X-2.2388 Y0.5545
N3040 X-2.2106 Y0.5416
N3045 G3 X-2.0894 Y0.522 I0.1449 J0.5095
N3050 X-1.8323 Y0.5218 I0.1299 J1.909
N3055 X-1.3495 Y0.5722 I-0.2753 J4.9702
N3060 X-0.5494 Y0.7313 I-1.1861 J8.0564
N3065 X0.145 Y0.9222 I-3.6856 J14.7658
N3070 G1 X0.2679 Y0.9581
N3075 X0.5169 Y1.0309
N3080 X0.5188 Y1.0314
N3085 G2 X1.0273 Y1.1662 I2.8188 J-9.6089
N3090 X1.4644 Y1.2448 I0.9787 J-4.187
N3095 X1.8197 Y1.2618 I0.2955 J-2.4594
N3100 X2.2842 Y1.1843 I-0.0502 J-1.731
N3105 X2.5403 Y1.0827 I-0.6542 J-2.0232
N3110 X2.7527 Y0.9787 I-3.5656 J-7.5502
N3115 G1 X2.8138 Y0.9496
N3120 X2.8727 Y0.9237
N3125 G3 X3.05 Y0.8684 I0.3472 J0.8016
N3130 X3.2931 Y0.8753 I0.1044 J0.6011
N3135 X3.4351 Y0.9165 I-0.2264 J1.0464
N3140 G1 X3.4987 Y0.9402
N3145 X3.563 Y0.9662
N3150 G2 X3.8439 Y1.0852 I6.336 J-14.5658
N3155 X4.1397 Y1.1851 I0.938 J-2.29
N3160 X4.4332 Y1.2333 I0.4108 J-1.5813
N3165 G1 X4.4457 Y1.234
N3170 X4.4582
N3175 X4.4706 Y1.2333
N3180 X4.483 Y1.2321
N3185 X4.4954 Y1.2302
N3190 X4.5076 Y1.2278
N3195 X4.5197 Y1.2247
N3200 X4.5316 Y1.221
N3205 X4.5433 Y1.2167
N3210 X4.5548 Y1.2119
N3215 X4.5661 Y1.2065
N3220 X4.577 Y1.2005
N3225 X4.5877 Y1.194
N3230 X4.598 Y1.187
N3235 X4.6079 Y1.1794
N3240 X4.6175 Y1.1714
N3245 X4.6266 Y1.1629
N3250 X4.6353 Y1.154
N3255 X4.6436 Y1.1446
N3260 X4.6514 Y1.1349
N3265 X4.6586 Y1.1247
N3270 X4.6654 Y1.1143
N3275 X4.6716 Y1.1035
N3280 X4.6773 Y1.0923
N3285 X4.6825 Y1.081
N3290 X4.687 Y1.0694
N3295 X4.691 Y1.0575
N3300 X4.6943 Y1.0455
N3305 X4.6971 Y1.0334
N3310 X4.6993 Y1.0211
N3315 X4.7008 Y1.0087
N3320 X4.7017 Y0.9963
N3325 X4.702 Y0.9838
N3330 Y-1.0366
N3335 G2 X4.4721 Y-1.2858 I-0.25 J0.
N3340 G1 X4.4374 Y-1.2886
N3345 G2 X4.4287 Y-1.2891 I-0.02 J0.2492
N3350 G1 X4.3941 Y-1.2907
N3355 G2 X4.3854 Y-1.291 I-0.0114 J0.2497
N3360 G1 X4.3507 Y-1.2913
N3365 G2 X4.3421 I-0.0028 J0.25
N3370 G1 X4.3075 Y-1.2905
N3375 G2 X4.2988 Y-1.2901 I0.0059 J0.2499
N3380 G1 X4.2643 Y-1.2881
N3385 G2 X4.2557 Y-1.2874 I0.0146 J0.2496
N3390 X3.8802 Y-1.2024 I0.1181 J1.3924
N3395 G1 X3.8119 Y-1.1764
N3400 G2 X3.8037 Y-1.1731 I0.0896 J0.2334
N3405 X3.6608 Y-1.1104 I1.2996 J3.1521
N3410 G1 X3.5284 Y-1.0492
N3415 X3.4669 Y-1.0224
N3420 G3 X3.313 Y-0.9719 I-0.3541 J-0.8185
N3425 X3.1052 Y-0.9817 I-0.0851 J-0.4015
N3430 X2.9522 Y-1.044 I0.2674 J-0.8762
N3435 X2.7628 Y-1.1439 I2.4627 J-4.8998
N3440 G2 X2.4993 Y-1.272 I-1.4383 J2.6238
N3445 X1.8733 Y-1.4093 I-0.697 J1.6812
N3450 X1.4742 Y-1.3982 I-0.1265 J2.6276
N3455 X0.9147 Y-1.3071 I0.4523 J4.5436
N3460 X0.4012 Y-1.177 I1.7328 J7.9153
N3465 X-0.2206 Y-0.9877 I5.4556 J19.0407
N3470 G3 X-0.8359 Y-0.7978 I-8.7086 J-27.1151
N3475 X-1.3109 Y-0.6778 I-1.9552 J-6.7421
N3480 X-2.1688 Y-0.5899 I-0.8462 J-4.0277
N3485 X-2.3288 Y-0.5995 I0.0219 J-1.7056
N3490 X-2.6243 Y-0.7112 I0.091 J-0.6873
N3495 X-2.8601 Y-0.9147 I0.7122 J-1.0638
N3500 X-3.0733 Y-1.2302 I0.8756 J-0.8213
N3505 X-3.1508 Y-1.4048 I4.5913 J-2.1431
N3510 G2 X-3.2202 Y-1.5509 I-2.2129 J0.9625
N3515 G1 X-3.2244 Y-1.5587
N3520 X-3.249 Y-1.6032
N3525 G2 X-3.2543 Y-1.6123 I-0.2189 J0.1208
N3530 G1 X-3.2809 Y-1.6561
N3535 G2 X-3.2873 Y-1.666 I-0.2136 J0.1299
N3540 G1 X-3.3162 Y-1.7089
N3545 G2 X-3.3237 Y-1.7193 I-0.2072 J0.1399
N3550 G1 X-3.355 Y-1.7609
N3555 G2 X-3.3636 Y-1.7718 I-0.1997 J0.1504
N3560 G1 X-3.3973 Y-1.8117
N3565 G2 X-3.4046 Y-1.82 I-0.1911 J0.1612
N3570 X-3.4959 Y-1.91 I-0.7963 J0.7157
N3575 X-3.5023 Y-1.9156 I-0.1668 J0.1862
N3580 G1 X-3.5223 Y-1.9323
N3585 G2 X-3.5291 Y-1.9378 I-0.1604 J0.1918
N3590 G1 X-3.5495 Y-1.9537
N3595 G2 X-3.5569 Y-1.9592 I-0.1535 J0.1973
N3600 G1 X-3.5778 Y-1.9743
N3605 G2 X-3.5856 Y-1.9796 I-0.1462 J0.2028
N3610 G1 X-3.6069 Y-1.9939
N3615 G2 X-3.6153 Y-1.9992 I-0.1384 J0.2082
N3620 G1 X-3.6371 Y-2.0124
N3625 G2 X-3.6458 Y-2.0176 I-0.1301 J0.2135
N3630 G1 X-3.6681 Y-2.0299
N3635 G2 X-3.6774 Y-2.0348 I-0.1213 J0.2186
N3640 G1 X-3.7 Y-2.0461
N3645 G2 X-3.7099 Y-2.0508 I-0.1119 J0.2235
N3650 G1 X-3.7329 Y-2.0611
N3655 G2 X-3.7434 Y-2.0655 I-0.102 J0.2282
N3660 G1 X-3.7666 Y-2.0747
N3665 G2 X-3.7776 Y-2.0787 I-0.0915 J0.2326
N3670 G1 X-3.8012 Y-2.0867
N3675 G2 X-3.8127 Y-2.0903 I-0.0806 J0.2367
N3680 G1 X-3.8366 Y-2.0972
N3685 G2 X-3.8485 Y-2.1003 I-0.069 J0.2403
N3690 G1 X-3.8726 Y-2.106
N3695 G2 X-3.8851 Y-2.1085 I-0.0571 J0.2434
N3700 G1 X-3.9095 Y-2.113
N3705 G2 X-3.922 Y-2.1149 I-0.0447 J0.246
N3710 G1 X-3.9466 Y-2.1181
N3715 G2 X-3.9595 Y-2.1195 I-0.0322 J0.2479
N3720 G1 X-3.9843 Y-2.1214
N3725 G2 X-3.9973 Y-2.122 I-0.0193 J0.2493
N3730 G1 X-4.0224 Y-2.1227
N3735 G2 X-4.0353 I-0.0063 J0.2499
N3740 G1 X-4.0606 Y-2.122
N3745 G2 X-4.0734 Y-2.1213 I0.0066 J0.2499
N3750 G1 X-4.0989 Y-2.1193
N3755 G2 X-4.1115 Y-2.118 I0.0195 J0.2492
N3760 G1 X-4.1371 Y-2.1147
N3765 G2 X-4.1494 Y-2.1128 I0.0321 J0.2479
N3770 G1 X-4.1752 Y-2.1081
N3775 G2 X-4.1872 Y-2.1057 I0.0444 J0.246
N3780 G1 X-4.2131 Y-2.0997
N3785 G2 X-4.2244 Y-2.0968 I0.0564 J0.2436
N3790 G1 X-4.2506 Y-2.0894
N3795 G2 X-4.2616 Y-2.086 I0.0677 J0.2407
N3800 G1 X-4.2879 Y-2.0773
N3805 G2 X-4.2982 Y-2.0737 I0.0787 J0.2373
N3810 G1 X-4.3246 Y-2.0636
N3815 G2 X-4.3344 Y-2.0596 I0.089 J0.2336
N3820 G1 X-4.361 Y-2.0482
N3825 G2 X-4.3702 Y-2.044 I0.0988 J0.2296
N3830 G1 X-4.3969 Y-2.0312
N3835 G2 X-4.4055 Y-2.0269 I0.1081 J0.2254
N3840 G1 X-4.4323 Y-2.0127
N3845 G2 X-4.4403 Y-2.0083 I0.1166 J0.2211
N3850 G1 X-4.4673 Y-1.9928
N3855 G2 X-4.4748 Y-1.9883 I0.1246 J0.2167
N3860 X-4.6036 Y-1.8991 I0.6711 J1.1065
N3865 G1 X-4.6131 Y-1.8915
N3870 X-4.6222 Y-1.8834
N3875 X-4.631 Y-1.8749
N3880 X-4.6393 Y-1.866
N3885 X-4.6471 Y-1.8566
N3890 X-4.6545 Y-1.8469
N3895 X-4.6615 Y-1.8369
N3900 X-4.6679 Y-1.8265
N3905 X-4.6738 Y-1.8158
N3910 X-4.6791 Y-1.8048
N3915 X-4.684 Y-1.7936
N3920 X-4.6883 Y-1.7822
N3925 X-4.692 Y-1.7706
N3930 X-4.6951 Y-1.7588
N3935 X-4.6977 Y-1.7468
N3940 X-4.6997 Y-1.7348
N3945 X-4.701 Y-1.7227
N3950 X-4.7018 Y-1.7105
N3955 X-4.702 Y-1.6983
N3960 X-4.7016 Y-1.6861
N3965 X-4.7006 Y-1.6739
N3970 X-4.6991 Y-1.6618
N3975 X-4.6969 Y-1.6498
N3980 X-4.6941 Y-1.6379
N3985 G3 X-4.73 Y-1.577 I-0.0484 J0.0125
N3990 G1 X-4.7785 Y-1.5645
N3995 X-4.7839 Y-1.5631 Z-0.4997
N4000 X-4.7892 Y-1.5617 Z-0.4987
N4005 X-4.7945 Y-1.5604 Z-0.4972
N4010 X-4.7995 Y-1.5591 Z-0.495
N4015 X-4.8042 Y-1.5579 Z-0.4923
N4020 X-4.8086 Y-1.5567 Z-0.4891
N4025 X-4.8127 Y-1.5557 Z-0.4854
N4030 X-4.8163 Y-1.5547 Z-0.4812
N4035 X-4.8195 Y-1.5539 Z-0.4766
N4040 X-4.8221 Y-1.5533 Z-0.4717
N4045 X-4.8242 Y-1.5527 Z-0.4665
N4050 X-4.8257 Y-1.5523 Z-0.4611
N4055 X-4.8266 Y-1.5521 Z-0.4556
N4060 X-4.8269 Y-1.552 Z-0.45
N4065 X-4.8519 Y-1.6489
N4070 Z-0.66 F202.
N4075 X-4.8034 Y-1.6613
N4080 X-4.755 Y-1.6738 F20.
N4085 G3 X-4.6941 Y-1.6379 I0.0125 J0.0484
N4090 G2 X-4.464 Y-1.4506 I0.2421 J-0.0624
N4095 G1 X-4.4538 Y-1.4501
N4100 X-4.4521 Y-1.45
N4105 G3 X-4.4368 Y-1.4327 I-0.0365 J0.0479
N4110 X-4.4226 Y-1.4086 I-0.1749 J0.1191
N4115 G1 Z-0.75 F202.
N4120 G3 X-4.3936 Y-1.3313 I-0.3675 J0.1817 F20.
N4125 X-4.3677 Y-1.1155 I-0.7582 J0.2005
N4130 X-4.3775 Y-0.9553 I-1.5834 J-0.016
N4135 G2 X-4.3921 Y-0.7736 I3.0317 J0.3353
N4140 G1 X-4.3923 Y-0.7643
N4145 X-4.3928 Y-0.7224
N4150 G2 X-4.3927 Y-0.7104 I0.25 J0.0035
N4155 G1 X-4.3913 Y-0.6687
N4160 G2 X-4.3905 Y-0.6551 I0.2499 J-0.0085
N4165 G1 X-4.3868 Y-0.6135
N4170 G2 X-4.3849 Y-0.5981 I0.249 J-0.0222
N4175 G1 X-4.3786 Y-0.5567
N4180 G2 X-4.3755 Y-0.5401 I0.2471 J-0.0376
N4185 G1 X-4.3664 Y-0.499
N4190 G2 X-4.362 Y-0.4821 I0.244 J-0.0542
N4195 G1 X-4.3499 Y-0.4414
N4200 G2 X-4.3457 Y-0.4285 I0.2397 J-0.0711
N4205 G1 X-4.3385 Y-0.4083
N4210 G2 X-4.335 Y-0.3993 I0.2354 J-0.0841
N4215 G1 X-4.327 Y-0.3792
N4220 G2 X-4.3236 Y-0.3712 I0.232 J-0.0931
N4225 G1 X-4.3148 Y-0.3513
N4230 G2 X-4.3106 Y-0.3422 I0.2286 J-0.1012
N4235 G1 X-4.3009 Y-0.3226
N4240 G2 X-4.2967 Y-0.3144 I0.2244 J-0.1103
N4245 G1 X-4.2863 Y-0.2951
N4250 G2 X-4.2816 Y-0.2867 I0.2202 J-0.1184
N4255 G1 X-4.2704 Y-0.2676
N4260 G2 X-4.2653 Y-0.2594 I0.2155 J-0.1268
N4265 G1 X-4.2532 Y-0.2405
N4270 G2 X-4.2477 Y-0.2323 I0.2105 J-0.1349
N4275 G1 X-4.2348 Y-0.2138
N4280 G2 X-4.2294 Y-0.2063 I0.2049 J-0.1432
N4285 G1 X-4.2156 Y-0.1881
N4290 G2 X-4.2098 Y-0.1806 I0.1995 J-0.1506
N4295 G1 X-4.1952 Y-0.1628
N4300 G2 X-4.1889 Y-0.1553 I0.1937 J-0.1581
N4305 G1 X-4.1734 Y-0.1379
N4310 G2 X-4.1671 Y-0.1309 I0.1873 J-0.1656
N4315 G1 X-4.1508 Y-0.1139
N4320 G2 X-4.1444 Y-0.1074 I0.181 J-0.1725
N4325 G1 X-4.1274 Y-0.0908
N4330 G2 X-4.1204 Y-0.0843 I0.1746 J-0.1789
N4335 G1 X-4.1025 Y-0.0681
N4340 G2 X-4.0957 Y-0.0622 I0.1676 J-0.1855
N4345 G1 X-4.077 Y-0.0464
N4350 G2 X-4.07 Y-0.0408 I0.1608 J-0.1914
N4355 G1 X-4.0505 Y-0.0255
N4360 G2 X-4.0435 Y-0.0202 I0.1539 J-0.197
N4365 G1 X-4.0231 Y-0.0054
N4370 G2 X-4.016 Y-0.0005 I0.1469 J-0.2023
N4375 X-3.921 Y0.0579 I0.58 J-0.8365
N4380 G1 X-3.9299 Y0.0674
N4385 G2 X-3.9376 Y0.0759 I0.182 J0.1714
N4390 G1 X-3.9707 Y0.1146
N4395 G2 X-3.9781 Y0.1235 I0.1897 J0.1628
N4400 G1 X-4.0098 Y0.1641
N4405 G2 X-4.0169 Y0.1737 I0.1971 J0.1538
N4410 G1 X-4.0468 Y0.216
N4415 G2 X-4.0537 Y0.2263 I0.2042 J0.1443
N4420 G1 X-4.0816 Y0.2702
N4425 G2 X-4.0882 Y0.2813 I0.211 J0.134
N4430 G1 X-4.1138 Y0.3265
N4435 G2 X-4.1201 Y0.3386 I0.2177 J0.1229
N4440 G1 X-4.1431 Y0.3849
N4445 G2 X-4.149 Y0.3979 I0.2241 J0.1109
N4450 G1 X-4.1691 Y0.4451
N4455 G2 X-4.1733 Y0.4556 I0.23 J0.0979
N4460 X-4.2256 Y0.6382 I0.973 J0.3775
N4465 G1 X-4.2277 Y0.6499
N4470 X-4.2351 Y0.6984
N4475 G2 X-4.2369 Y0.7136 I0.2471 J0.0377
N4480 G1 X-4.2413 Y0.7621
N4485 G2 X-4.2421 Y0.7762 I0.249 J0.0224
N4490 G1 X-4.2438 Y0.8246
N4495 G2 X-4.2439 Y0.8368 I0.2499 J0.0083
N4500 G1 X-4.2431 Y0.8849
N4505 G2 X-4.2428 Y0.8946 I0.25 J-0.0039
N4510 X-4.2396 Y0.9508 I1.645 J-0.0647
N4515 G1 X-4.2312 Y1.0461
N4520 X-4.2233 Y1.1367
N4525 X-4.2217 Y1.1656
N4530 Z-0.66
N4535 G3 X-4.2288 Y1.3099 I-0.6424 J0.0406
N4540 X-4.2789 Y1.4677 I-0.6556 J-0.1213
N4545 X-4.3897 Y1.6666 I-1.2631 J-0.5732
N4550 G1 X-4.3969 Y1.6767
N4555 X-4.4035 Y1.6872
N4560 X-4.4097 Y1.698
N4565 X-4.4153 Y1.7091
N4570 X-4.4203 Y1.7204
N4575 X-4.4247 Y1.732
N4580 X-4.4286 Y1.7438
N4585 X-4.4319 Y1.7557
N4590 X-4.4346 Y1.7678
N4595 X-4.4367 Y1.7801
N4600 X-4.4381 Y1.7924
N4605 X-4.439 Y1.8048
N4610 X-4.4393 Y1.8172
N4615 X-4.4389 Y1.8296
N4620 X-4.4379 Y1.8419
N4625 X-4.4363 Y1.8542
N4630 X-4.4341 Y1.8664
N4635 X-4.4313 Y1.8785
N4640 X-4.4279 Y1.8905
N4645 X-4.4239 Y1.9022
N4650 X-4.4193 Y1.9137
N4655 X-4.4142 Y1.925
N4660 X-4.4085 Y1.9361
N4665 X-4.4023 Y1.9468
N4670 X-4.3955 Y1.9572
N4675 X-4.3882 Y1.9673
N4680 X-4.3805 Y1.977
N4685 X-4.3722 Y1.9862
N4690 X-4.3636 Y1.9951
N4695 X-4.3538 Y2.0046
N4700 G2 X-4.3351 Y2.021 I0.1742 J-0.1793
N4705 G1 X-4.3242 Y2.0297
N4710 G2 X-4.3042 Y2.044 I0.1555 J-0.1958
N4715 G1 X-4.2922 Y2.0518
N4720 G2 X-4.2733 Y2.0628 I0.1355 J-0.2101
N4725 G1 X-4.2601 Y2.0697
N4730 G2 X-4.2412 Y2.0787 I0.1166 J-0.2212
N4735 G1 X-4.2269 Y2.0848
N4740 G2 X-4.2091 Y2.0915 I0.0976 J-0.2302
N4745 G1 X-4.1937 Y2.0967
N4750 G2 X-4.1773 Y2.1017 I0.0798 J-0.2369
N4755 G1 X-4.1608 Y2.106
N4760 G2 X-4.1456 Y2.1094 I0.0633 J-0.2418
N4765 G1 X-4.1281 Y2.1129
N4770 G2 X-4.1141 Y2.1152 I0.0482 J-0.2453
N4775 G1 X-4.103 Y2.1167
N4780 Z-0.75 F202.
N4785 X-4.0954 Y2.1178 F20.
N4790 G2 X-4.0827 Y2.1192 I0.0342 J-0.2477
N4795 G1 X-4.063 Y2.1209
N4800 G2 X-4.0513 Y2.1217 I0.0215 J-0.2491
N4805 G1 X-4.0305 Y2.1225
N4810 G2 X-4.0199 Y2.1227 I0.0098 J-0.2498
N4815 G1 X-3.9981 Y2.1226
N4820 G2 X-3.9884 Y2.1224 I-0.0008 J-0.25
N4825 G1 X-3.9656 Y2.1214
N4830 G2 X-3.9567 Y2.1209 I-0.0105 J-0.2498
N4835 X-3.6182 Y2.045 I-0.0929 J-1.2067
N4840 X-3.3076 Y1.8822 I-0.4459 J-1.2289
N4845 G1 X-3.3007 Y1.8772
N4850 X-3.2744 Y1.8575
N4855 G2 X-3.2675 Y1.8522 I-0.1494 J-0.2004
N4860 G1 X-3.2418 Y1.8317
N4865 G2 X-3.235 Y1.826 I-0.1563 J-0.1951
N4870 G1 X-3.2101 Y1.8045
N4875 G2 X-3.2034 Y1.7985 I-0.1632 J-0.1894
N4880 G1 X-3.1794 Y1.7763
N4885 G2 X-3.1728 Y1.7699 I-0.1699 J-0.1834
N4890 G1 X-3.1497 Y1.7469
N4895 G2 X-3.1433 Y1.7403 I-0.1765 J-0.177
N4900 G1 X-3.1211 Y1.7165
N4905 G2 X-3.115 Y1.7097 I-0.1829 J-0.1704
N4910 G1 X-3.0937 Y1.6851
N4915 G2 X-3.088 Y1.6782 I-0.189 J-0.1636
N4920 G1 X-3.0677 Y1.653
N4925 G2 X-3.0623 Y1.646 I-0.1948 J-0.1567
N4930 G1 X-3.0429 Y1.6201
N4935 G2 X-3.0379 Y1.6132 I-0.2002 J-0.1498
N4940 X-2.939 Y1.4508 I-1.0599 J-0.7563
N4945 G1 X-2.9349 Y1.4429
N4950 X-2.9071 Y1.3857
N4955 G2 X-2.903 Y1.3769 I-0.2247 J-0.1095
N4960 X-2.8062 Y1.1371 I-3.2429 J-1.4487
N4965 G1 X-2.7856 Y1.0854
N4970 X-2.766 Y1.0381
N4975 X-2.7468 Y0.9952
N4980 G3 X-2.6673 Y0.8613 I0.6754 J0.3099
N4985 X-2.5423 Y0.7366 I0.5499 J0.4265
N4990 X-2.2746 Y0.572 I0.9182 J1.1934
N4995 G1 X-2.2388 Y0.5545
N5000 X-2.2106 Y0.5416
N5005 G3 X-2.0894 Y0.522 I0.1449 J0.5095
N5010 X-1.8323 Y0.5218 I0.1299 J1.909
N5015 X-1.3495 Y0.5722 I-0.2753 J4.9702
N5020 X-0.5494 Y0.7313 I-1.1861 J8.0564
N5025 X0.145 Y0.9222 I-3.6856 J14.7658
N5030 G1 X0.2679 Y0.9581
N5035 X0.5169 Y1.0309
N5040 X0.5188 Y1.0314
N5045 G2 X1.0273 Y1.1662 I2.8188 J-9.6089
N5050 X1.4644 Y1.2448 I0.9787 J-4.187
N5055 X1.8197 Y1.2618 I0.2955 J-2.4594
N5060 X2.2842 Y1.1843 I-0.0502 J-1.731
N5065 X2.5403 Y1.0827 I-0.6542 J-2.0232
N5070 X2.7527 Y0.9787 I-3.5656 J-7.5502
N5075 G1 X2.8138 Y0.9496
N5080 X2.8727 Y0.9237
N5085 G3 X3.05 Y0.8684 I0.3472 J0.8016
N5090 X3.2931 Y0.8753 I0.1044 J0.6011
N5095 X3.4351 Y0.9165 I-0.2264 J1.0464
N5100 G1 X3.4987 Y0.9402
N5105 X3.563 Y0.9662
N5110 G2 X3.8439 Y1.0852 I6.336 J-14.5658
N5115 X3.9402 Y1.1219 I0.816 J-1.9954
N5120 G1 Z-0.66
N5125 G2 X4.2468 Y1.2092 I0.6909 J-1.844
N5130 X4.4332 Y1.2332 I0.2967 J-1.5693
N5135 G1 X4.4457 Y1.2338
N5140 X4.4581
N5145 X4.4706 Y1.2332
N5150 X4.483 Y1.232
N5155 X4.4954 Y1.2301
N5160 X4.5076 Y1.2277
N5165 X4.5197 Y1.2246
N5170 X4.5316 Y1.2209
N5175 X4.5433 Y1.2166
N5180 X4.5548 Y1.2118
N5185 X4.566 Y1.2064
N5190 X4.577 Y1.2004
N5195 X4.5876 Y1.1939
N5200 X4.598 Y1.1869
N5205 X4.6079 Y1.1794
N5210 X4.6174 Y1.1713
N5215 X4.6266 Y1.1629
N5220 X4.6353 Y1.1539
N5225 X4.6436 Y1.1446
N5230 X4.6513 Y1.1348
N5235 X4.6586 Y1.1247
N5240 X4.6654 Y1.1142
N5245 X4.6716 Y1.1034
N5250 X4.6773 Y1.0923
N5255 X4.6824 Y1.081
N5260 X4.687 Y1.0694
N5265 X4.691 Y1.0575
N5270 X4.6943 Y1.0455
N5275 X4.6971 Y1.0334
N5280 X4.6993 Y1.0211
N5285 X4.7008 Y1.0087
N5290 X4.7017 Y0.9963
N5295 X4.702 Y0.9838
N5300 Y0.752
N5305 Z-0.75 F202.
N5310 Y-0.5366 F20.
N5315 Z-0.66
N5320 Y-1.0366
N5325 G2 X4.4721 Y-1.2858 I-0.25 J0.
N5330 G1 X4.4374 Y-1.2886
N5335 G2 X4.4287 Y-1.2891 I-0.02 J0.2492
N5340 G1 X4.3941 Y-1.2907
N5345 G2 X4.3854 Y-1.291 I-0.0114 J0.2497
N5350 G1 X4.3507 Y-1.2913
N5355 G2 X4.3421 I-0.0028 J0.25
N5360 G1 X4.3075 Y-1.2905
N5365 G2 X4.2988 Y-1.2901 I0.0059 J0.2499
N5370 G1 X4.2643 Y-1.2881
N5375 G2 X4.2557 Y-1.2874 I0.0146 J0.2496
N5380 X4.202 Y-1.282 I0.0698 J0.946
N5385 G1 Y-1.2819 Z-0.75 F202.
N5390 G2 X3.8801 Y-1.2024 I0.1773 J1.4095 F20.
N5395 G1 X3.8119 Y-1.1764
N5400 G2 X3.8037 Y-1.1731 I0.0896 J0.2334
N5405 X3.6608 Y-1.1104 I1.2996 J3.1521
N5410 G1 X3.5284 Y-1.0492
N5415 X3.4669 Y-1.0224
N5420 G3 X3.313 Y-0.9719 I-0.3541 J-0.8185
N5425 X3.1052 Y-0.9817 I-0.0851 J-0.4015
N5430 X2.9522 Y-1.044 I0.2674 J-0.8762
N5435 X2.7628 Y-1.1439 I2.4627 J-4.8998
N5440 G2 X2.4993 Y-1.272 I-1.4383 J2.6238
N5445 X1.8733 Y-1.4093 I-0.697 J1.6812
N5450 X1.4742 Y-1.3982 I-0.1265 J2.6276
N5455 X0.9147 Y-1.3071 I0.4523 J4.5436
N5460 X0.4012 Y-1.177 I1.7328 J7.9153
N5465 X-0.2206 Y-0.9877 I5.4556 J19.0407
N5470 G3 X-0.8359 Y-0.7978 I-8.7086 J-27.1151
N5475 X-1.3109 Y-0.6778 I-1.9552 J-6.7421
N5480 X-2.1688 Y-0.5899 I-0.8462 J-4.0277
N5485 X-2.3288 Y-0.5995 I0.0219 J-1.7056
N5490 X-2.6243 Y-0.7112 I0.091 J-0.6873
N5495 X-2.8601 Y-0.9147 I0.7122 J-1.0638
N5500 X-3.0733 Y-1.2302 I0.8756 J-0.8213
N5505 X-3.1508 Y-1.4048 I4.5913 J-2.1431
N5510 G2 X-3.2202 Y-1.5509 I-2.2129 J0.9625
N5515 G1 X-3.2244 Y-1.5587
N5520 X-3.249 Y-1.6032
N5525 G2 X-3.2543 Y-1.6123 I-0.2189 J0.1208
N5530 G1 X-3.2809 Y-1.6561
N5535 G2 X-3.2873 Y-1.666 I-0.2136 J0.1299
N5540 G1 X-3.3162 Y-1.7089
N5545 G2 X-3.3237 Y-1.7193 I-0.2072 J0.1399
N5550 G1 X-3.355 Y-1.7609
N5555 G2 X-3.3636 Y-1.7718 I-0.1997 J0.1504
N5560 G1 X-3.3973 Y-1.8117
N5565 G2 X-3.4046 Y-1.82 I-0.1911 J0.1612
N5570 X-3.4959 Y-1.91 I-0.7963 J0.7157
N5575 X-3.5023 Y-1.9156 I-0.1668 J0.1862
N5580 G1 X-3.5223 Y-1.9323
N5585 G2 X-3.5291 Y-1.9378 I-0.1604 J0.1918
N5590 G1 X-3.5495 Y-1.9537
N5595 G2 X-3.5569 Y-1.9592 I-0.1535 J0.1973
N5600 G1 X-3.5778 Y-1.9743
N5605 G2 X-3.5856 Y-1.9796 I-0.1462 J0.2028
N5610 G1 X-3.6069 Y-1.9939
N5615 G2 X-3.6153 Y-1.9992 I-0.1384 J0.2082
N5620 G1 X-3.6371 Y-2.0124
N5625 G2 X-3.6458 Y-2.0176 I-0.1301 J0.2135
N5630 G1 X-3.6681 Y-2.0299
N5635 G2 X-3.6774 Y-2.0348 I-0.1213 J0.2186
N5640 G1 X-3.7 Y-2.0461
N5645 G2 X-3.7099 Y-2.0508 I-0.1119 J0.2235
N5650 G1 X-3.7329 Y-2.0611
N5655 G2 X-3.7434 Y-2.0655 I-0.102 J0.2282
N5660 G1 X-3.7666 Y-2.0747
N5665 G2 X-3.7776 Y-2.0787 I-0.0915 J0.2326
N5670 G1 X-3.8012 Y-2.0867
N5675 G2 X-3.8127 Y-2.0903 I-0.0806 J0.2367
N5680 G1 X-3.8366 Y-2.0972
N5685 G2 X-3.8485 Y-2.1003 I-0.069 J0.2403
N5690 G1 X-3.8726 Y-2.106
N5695 G2 X-3.8851 Y-2.1085 I-0.0571 J0.2434
N5700 G1 X-3.9095 Y-2.113
N5705 G2 X-3.922 Y-2.1149 I-0.0447 J0.246
N5710 G1 X-3.9466 Y-2.1181
N5715 G2 X-3.9595 Y-2.1195 I-0.0322 J0.2479
N5720 G1 X-3.9843 Y-2.1214
N5725 G2 X-3.9973 Y-2.122 I-0.0193 J0.2493
N5730 G1 X-4.0224 Y-2.1227
N5735 G2 X-4.0353 I-0.0063 J0.2499
N5740 G1 X-4.0606 Y-2.122
N5745 G2 X-4.0734 Y-2.1213 I0.0066 J0.2499
N5750 G1 X-4.0989 Y-2.1193
N5755 G2 X-4.1115 Y-2.118 I0.0195 J0.2492
N5760 G1 X-4.1371 Y-2.1147
N5765 X-4.1389 Y-2.1145
N5770 Z-0.66
N5775 G2 X-4.1494 Y-2.1128 I0.0339 J0.2477
N5780 G1 X-4.1752 Y-2.1081
N5785 G2 X-4.1872 Y-2.1057 I0.0444 J0.246
N5790 G1 X-4.2131 Y-2.0997
N5795 G2 X-4.2244 Y-2.0968 I0.0564 J0.2436
N5800 G1 X-4.2506 Y-2.0894
N5805 G2 X-4.2616 Y-2.086 I0.0677 J0.2407
N5810 G1 X-4.2879 Y-2.0773
N5815 G2 X-4.2982 Y-2.0737 I0.0787 J0.2373
N5820 G1 X-4.3246 Y-2.0636
N5825 G2 X-4.3344 Y-2.0596 I0.089 J0.2336
N5830 G1 X-4.361 Y-2.0482
N5835 G2 X-4.3702 Y-2.044 I0.0988 J0.2296
N5840 G1 X-4.3969 Y-2.0312
N5845 G2 X-4.4055 Y-2.0269 I0.1081 J0.2254
N5850 G1 X-4.4323 Y-2.0127
N5855 G2 X-4.4403 Y-2.0083 I0.1166 J0.2211
N5860 G1 X-4.4673 Y-1.9928
N5865 G2 X-4.4748 Y-1.9883 I0.1246 J0.2167
N5870 X-4.6036 Y-1.8991 I0.6711 J1.1065
N5875 G1 X-4.6131 Y-1.8915
N5880 X-4.6222 Y-1.8834
N5885 X-4.631 Y-1.8749
N5890 X-4.6393 Y-1.866
N5895 X-4.6471 Y-1.8566
N5900 X-4.6545 Y-1.8469
N5905 X-4.6615 Y-1.8369
N5910 X-4.6679 Y-1.8265
N5915 X-4.6738 Y-1.8158
N5920 X-4.6791 Y-1.8048
N5925 X-4.684 Y-1.7936
N5930 X-4.6883 Y-1.7822
N5935 X-4.692 Y-1.7706
N5940 X-4.6951 Y-1.7588
N5945 X-4.6977 Y-1.7468
N5950 X-4.6997 Y-1.7348
N5955 X-4.701 Y-1.7227
N5960 X-4.7018 Y-1.7105
N5965 X-4.702 Y-1.6983
N5970 X-4.7016 Y-1.6861
N5975 X-4.7006 Y-1.6739
N5980 X-4.6991 Y-1.6618
N5985 X-4.6969 Y-1.6498
N5990 X-4.6941 Y-1.6379
N5995 G3 X-4.73 Y-1.577 I-0.0484 J0.0125
N6000 G1 X-4.8269 Y-1.552
N6005 G0 Z0.5
N6015 M9
N6020 G53 Z0.
N6025 M30
%
