%
(MERMAID_BOOKEND_ENGRAVING)
(MERMAID_BOOKEND ENGRAVING 2MM ENDMILL)
(T3  D=0.0787 CR=0. - ZMIN=-0.09 - FLAT END MILL)
N10 G90 G94 G17 G91.1
N15 G20
N20 G53 G0 Z0.
(2D POCKET1)
N25 M9
N30 T3 M6
N35 S12000 M3
N40 G54
N45 M8
N55 G0 X4.4913 Y0.5415
N60 G43 Z0.5 H3
N65 G0 Z0.1079
N70 G1 Z0.0394 F20.
N75 Z-0.0821
N80 Y0.5413 Z-0.0842
N85 Y0.5405 Z-0.0861
N90 Y0.5392 Z-0.0877
N95 X4.4912 Y0.5376 Z-0.0889
N100 X4.4911 Y0.5357 Z-0.0897
N105 Y0.5337 Z-0.09
N110 X4.491 Y0.5329
N115 X4.4879 Y0.4487
N120 X4.4718 Y0.2577
N125 G2 X4.4626 Y0.1797 I-2.4758 J0.2554
N130 X4.4516 Y0.1019 I-6.671 J0.9016
N135 X4.4441 Y0.0607 I-0.6158 J0.0906
N140 G3 X4.436 Y0.0195 I1.0196 J-0.221
N145 X4.4362 Y-0.0595 I0.2223 J-0.0389
N150 G1 X4.4483 Y-0.1266
N155 G2 X4.4601 Y-0.204 I-1.3825 J-0.2495
N160 G1 X4.4782 Y-0.3759
N165 X4.491 Y-0.6193
N170 Y-0.6195
N175 Y-1.0284
N180 X4.4907 Y-1.0388
N185 Y-1.0392
N190 Y-1.0412 Z-0.0897
N195 X4.4906 Y-1.0431 Z-0.0889
N200 Y-1.0447 Z-0.0877
N205 X4.4905 Y-1.046 Z-0.0861
N210 Y-1.0468 Z-0.0842
N215 Y-1.047 Z-0.0821
N220 G0 Z0.1079
N225 X4.471 Y1.0591
N230 G1 Z-0.0821 F20.
N235 Y1.0588 Z-0.0842
N240 X4.4711 Y1.058 Z-0.0861
N245 X4.4712 Y1.0568 Z-0.0877
N250 X4.4714 Y1.0552 Z-0.0889
N255 X4.4716 Y1.0533 Z-0.0897
N260 X4.4718 Y1.0512 Z-0.09
N265 X4.4752 Y1.0147
N270 X4.491 Y0.8489
N275 G3 X4.521 Y0.8517 I0.015 J0.0014
N280 G1 X4.5136 Y0.932
N285 G3 X4.5131 Y0.9346 I-0.015 J-0.0014
N290 G1 X4.4902 Y1.0161
N295 G3 X4.4786 Y1.0268 I-0.0145 J-0.0041
N300 G1 X4.4317 Y1.0359
N305 G3 X4.4138 Y1.0197 I-0.0029 J-0.0148
N310 G1 X4.4322 Y0.8256
N315 X4.435 Y0.631
N320 X4.4263 Y0.4282
N325 X4.4079 Y0.2282
N330 X4.3839 Y0.0628
N335 G2 X4.3793 Y0.0405 I-0.3555 J0.0622
N340 G3 X4.3747 Y0.0182 I0.3963 J-0.0939
N345 X4.375 Y-0.0593 I0.2123 J-0.0379
N350 G2 X4.3888 Y-0.1352 I-9.3616 J-1.7498
N355 X4.4003 Y-0.2114 I-1.4087 J-0.2515
N360 G1 X4.4236 Y-0.4547
N365 X4.433 Y-0.6904
N370 X4.4325 Y-0.969
N375 X4.4296 Y-1.0776
N380 Y-1.0779
N385 X4.4295 Y-1.0799 Z-0.0897
N390 X4.4294 Y-1.0818 Z-0.0889
N395 Y-1.0834 Z-0.0877
N400 Y-1.0847 Z-0.0861
N405 X4.4293 Y-1.0855 Z-0.0842
N410 Y-1.0857 Z-0.0821
N415 G0 Z0.1079
N420 X4.3503 Y1.052
N425 G1 Z-0.0821 F20.
N430 Y1.0518 Z-0.0842
N435 X4.3504 Y1.051 Z-0.0861
N440 X4.3505 Y1.0497 Z-0.0877
N445 X4.3507 Y1.0481 Z-0.0889
N450 X4.3509 Y1.0462 Z-0.0897
N455 X4.3511 Y1.0442 Z-0.09
N460 X4.354 Y1.0128
N465 X4.3721 Y0.8223
N470 X4.3748 Y0.6323
N475 X4.3662 Y0.4325
N480 X4.3481 Y0.2356
N485 X4.325 Y0.0731
N490 G2 X4.3175 Y0.0358 I-0.7962 J0.1393
N495 G3 X4.3097 Y-0.0014 I1.4486 J-0.3243
N500 X4.3096 Y-0.038 I0.094 J-0.0185
N505 G1 X4.3249 Y-0.1181
N510 G2 X4.3334 Y-0.1671 I-1.3514 J-0.2587
N515 G1 X4.355 Y-0.3491
N520 X4.3691 Y-0.5657
N525 X4.3737 Y-0.8856
N530 X4.3686 Y-1.0802
N535 Y-1.0805
N540 X4.3685 Y-1.0825 Z-0.0897
N545 Y-1.0844 Z-0.0889
N550 X4.3684 Y-1.0861 Z-0.0877
N555 Y-1.0873 Z-0.0861
N560 Y-1.0881 Z-0.0842
N565 Y-1.0884 Z-0.0821
N570 G0 Z0.1079
N575 X4.2908 Y1.0425
N580 G1 Z-0.0821 F20.
N585 Y1.0422 Z-0.0842
N590 X4.2909 Y1.0414 Z-0.0861
N595 X4.291 Y1.0402 Z-0.0877
N600 X4.2912 Y1.0385 Z-0.0889
N605 X4.2913 Y1.0366 Z-0.0897
N610 X4.2915 Y1.0346 Z-0.09
N615 X4.2945 Y1.0032
N620 X4.312 Y0.819
N625 X4.3146 Y0.6336
N630 X4.3061 Y0.4368
N635 X4.2884 Y0.243
N640 X4.2657 Y0.0834
N645 G2 X4.2574 Y0.0414 I-0.9767 J0.1709
N650 G3 X4.2485 Y-0.0005 I2.7519 J-0.6051
N655 X4.2482 Y-0.0377 I0.0939 J-0.0191
N660 X4.2617 Y-0.1069 I11.7771 J2.2547
N665 G2 X4.2739 Y-0.1763 I-1.6452 J-0.325
N670 G1 X4.2951 Y-0.355
N675 X4.3089 Y-0.5684
N680 X4.3135 Y-0.8849
N685 X4.3084 Y-1.0793
N690 Y-1.0796
N695 X4.3083 Y-1.0816 Z-0.0897
N700 Y-1.0835 Z-0.0889
N705 X4.3082 Y-1.0852 Z-0.0877
N710 Y-1.0864 Z-0.0861
N715 Y-1.0872 Z-0.0842
N720 Y-1.0875 Z-0.0821
N725 G0 Z0.1079
N730 X4.2315 Y1.0302
N735 G1 Z-0.0821 F20.
N740 Y1.0299 Z-0.0842
N745 X4.2316 Y1.0291 Z-0.0861
N750 X4.2317 Y1.0279 Z-0.0877
N755 X4.2319 Y1.0262 Z-0.0889
N760 X4.2321 Y1.0243 Z-0.0897
N765 X4.2323 Y1.0223 Z-0.09
N770 X4.2352 Y0.9909
N775 X4.2519 Y0.8157
N780 X4.2544 Y0.6349
N785 X4.2461 Y0.441
N790 X4.2286 Y0.2504
N795 X4.2063 Y0.0938
N800 G2 X4.1971 Y0.047 I-1.1123 J0.1946
N805 G3 X4.1871 Y0.0003 I4.5483 J-0.9957
N810 X4.1869 Y-0.0376 I0.0938 J-0.0195
N815 G1 X4.2025 Y-0.1175
N820 G2 X4.2144 Y-0.1854 I-1.6951 J-0.3312
N825 G1 X4.2351 Y-0.3608
N830 X4.2488 Y-0.5711
N835 X4.2533 Y-0.8843
N840 X4.2483 Y-1.0749
N845 Y-1.0752
N850 X4.2482 Y-1.0772 Z-0.0897
N855 Y-1.0791 Z-0.0889
N860 X4.2481 Y-1.0808 Z-0.0877
N865 Y-1.082 Z-0.0861
N870 Y-1.0828 Z-0.0842
N875 Y-1.0831 Z-0.0821
N880 G0 Z0.1079
N885 X4.1724 Y1.0158
N890 G1 Z-0.0821 F20.
N895 X4.1725 Y1.0155 Z-0.0842
N900 Y1.0147 Z-0.0861
N905 X4.1726 Y1.0135 Z-0.0877
N910 X4.1728 Y1.0118 Z-0.0889
N915 X4.173 Y1.0099 Z-0.0897
N920 X4.1732 Y1.0079 Z-0.09
N925 X4.1762 Y0.976
N930 X4.1917 Y0.8124
N935 X4.1942 Y0.6362
N940 X4.186 Y0.4453
N945 X4.1689 Y0.2577
N950 G2 X4.1589 Y0.1808 I-6.566 J0.8107
N955 X4.147 Y0.1042 I-1.9889 J0.2693
N960 X4.1385 Y0.0611 I-1.0127 J0.1772
N965 G3 X4.1294 Y0.0181 I3.8485 J-0.8442
N970 X4.1288 Y-0.0543 I0.1811 J-0.0376
N975 X4.1425 Y-0.1243 I10.6785 J2.0486
N980 G2 X4.1549 Y-0.1946 I-1.6245 J-0.3227
N985 G1 X4.1752 Y-0.3667
N990 X4.1886 Y-0.5738
N995 X4.1931 Y-0.8836
N1000 X4.1883 Y-1.067
N1005 Y-1.0673
N1010 X4.1882 Y-1.0693 Z-0.0897
N1015 Y-1.0712 Z-0.0889
N1020 X4.1881 Y-1.0729 Z-0.0877
N1025 Y-1.0741 Z-0.0861
N1030 Y-1.0749 Z-0.0842
N1035 Y-1.0752 Z-0.0821
N1040 G0 Z0.1079
N1045 X4.1136 Y0.999
N1050 G1 Z-0.0821 F20.
N1055 Y0.9988 Z-0.0842
N1060 X4.1137 Y0.998 Z-0.0861
N1065 X4.1138 Y0.9968 Z-0.0877
N1070 X4.1139 Y0.9951 Z-0.0889
N1075 X4.1141 Y0.9932 Z-0.0897
N1080 X4.1143 Y0.9912 Z-0.09
N1085 X4.1174 Y0.9591
N1090 X4.1316 Y0.8091
N1095 X4.134 Y0.6374
N1100 X4.1259 Y0.4495
N1105 X4.1091 Y0.2651
N1110 G2 X4.0994 Y0.1897 I-6.5885 J0.8135
N1115 X4.0877 Y0.1146 I-1.9366 J0.2617
N1120 X4.0781 Y0.0657 I-1.1215 J0.1962
N1125 G3 X4.0676 Y0.017 I4.1463 J-0.9141
N1130 X4.0673 Y-0.0538 I0.173 J-0.036
N1135 G1 X4.0798 Y-0.1161
N1140 G2 X4.0954 Y-0.2038 I-1.9555 J-0.3917
N1145 G1 X4.1153 Y-0.3726
N1150 X4.1304 Y-0.633
N1155 X4.1325 Y-0.9139
N1160 X4.1288 Y-1.0557
N1165 Y-1.056
N1170 X4.1287 Y-1.0581 Z-0.0897
N1175 X4.1286 Y-1.06 Z-0.0889
N1180 Y-1.0616 Z-0.0877
N1185 Y-1.0629 Z-0.0861
N1190 X4.1285 Y-1.0636 Z-0.0842
N1195 Y-1.0639 Z-0.0821
N1200 G0 Z0.1079
N1205 X4.0549 Y0.9804
N1210 G1 Z-0.0821 F20.
N1215 Y0.9801 Z-0.0842
N1220 X4.055 Y0.9793 Z-0.0861
N1225 X4.0551 Y0.9781 Z-0.0877
N1230 X4.0553 Y0.9764 Z-0.0889
N1235 X4.0555 Y0.9745 Z-0.0897
N1240 X4.0557 Y0.9725 Z-0.09
N1245 X4.0587 Y0.9401
N1250 X4.0715 Y0.8058
N1255 X4.0738 Y0.6387
N1260 X4.0659 Y0.4538
N1265 X4.0493 Y0.2725
N1270 G2 X4.0398 Y0.1986 I-6.6186 J0.8172
N1275 X4.0284 Y0.125 I-1.8846 J0.2541
N1280 X4.0175 Y0.0698 I-1.2362 J0.2163
N1285 G3 X4.0057 Y0.0148 I4.2978 J-0.9522
N1290 Y-0.053 I0.1622 J-0.0338
N1295 X4.0183 Y-0.1113 I5.8862 J1.2346
N1300 G2 X4.0292 Y-0.17 I-0.9158 J-0.2016
N1305 G1 X4.0511 Y-0.3349
N1310 X4.0665 Y-0.5384
N1315 X4.0729 Y-0.8158
N1320 G2 X4.072 Y-0.9316 I-7.2803 J0.
N1325 G1 X4.0691 Y-1.0414
N1330 Y-1.0417
N1335 X4.069 Y-1.0437 Z-0.0897
N1340 Y-1.0456 Z-0.0889
N1345 X4.0689 Y-1.0472 Z-0.0877
N1350 Y-1.0485 Z-0.0861
N1355 Y-1.0493 Z-0.0842
N1360 Y-1.0495 Z-0.0821
N1365 G0 Z0.1079
N1370 X3.9964 Y0.9599
N1375 G1 Z-0.0821 F20.
N1380 Y0.9596 Z-0.0842
N1385 X3.9965 Y0.9589 Z-0.0861
N1390 X3.9966 Y0.9576 Z-0.0877
N1395 X3.9968 Y0.956 Z-0.0889
N1400 X3.997 Y0.9541 Z-0.0897
N1405 X3.9972 Y0.9521 Z-0.09
N1410 X4.0003 Y0.9193
N1415 X4.0114 Y0.8025
N1420 X4.0136 Y0.64
N1425 X4.0058 Y0.458
N1430 X3.9896 Y0.2799
N1435 G2 X3.9802 Y0.2075 I-6.6572 J0.822
N1440 X3.9691 Y0.1353 I-1.8327 J0.2466
N1445 X3.9569 Y0.0738 I-1.3959 J0.2442
N1450 G3 X3.9437 Y0.0124 I6.5421 J-1.4458
N1455 X3.9439 Y-0.0521 I0.1496 J-0.0316
N1460 G1 X3.9573 Y-0.1129
N1465 G2 X3.9697 Y-0.1792 I-1.0344 J-0.2277
N1470 G1 X3.9912 Y-0.3408
N1475 X4.0063 Y-0.5411
N1480 X4.0127 Y-0.8158
N1485 G2 X4.0118 Y-0.9306 I-7.2206 J0.
N1490 G1 X4.0093 Y-1.0237
N1495 Y-1.024
N1500 Y-1.026 Z-0.0897
N1505 X4.0092 Y-1.0279 Z-0.0889
N1510 Y-1.0295 Z-0.0877
N1515 X4.0091 Y-1.0308 Z-0.0861
N1520 Y-1.0316 Z-0.0842
N1525 Y-1.0319 Z-0.0821
N1530 G0 Z0.1079
N1535 X3.9381 Y0.9376
N1540 G1 Z-0.0821 F20.
N1545 Y0.9373 Z-0.0842
N1550 X3.9382 Y0.9365 Z-0.0861
N1555 X3.9383 Y0.9353 Z-0.0877
N1560 X3.9385 Y0.9337 Z-0.0889
N1565 X3.9386 Y0.9318 Z-0.0897
N1570 X3.9388 Y0.9298 Z-0.09
N1575 X3.942 Y0.8968
N1580 X3.9513 Y0.7992
N1585 X3.9534 Y0.6413
N1590 X3.9458 Y0.4623
N1595 X3.9298 Y0.2872
N1600 G2 X3.9207 Y0.2164 I-6.7058 J0.828
N1605 X3.9098 Y0.1457 I-1.781 J0.2391
N1610 X3.894 Y0.0664 I-1.7547 J0.307
N1615 G1 X3.8818 Y0.0115
N1620 G3 X3.8821 Y-0.0517 I0.1396 J-0.031
N1625 G2 X3.8974 Y-0.1198 I-5.7259 J-1.3236
N1630 X3.9102 Y-0.1884 I-1.0945 J-0.2394
N1635 G1 X3.9312 Y-0.3467
N1640 X3.9462 Y-0.5438
N1645 X3.9525 Y-0.8158
N1650 G2 X3.9516 Y-0.9295 I-7.1608 J0.
N1655 G1 X3.9496 Y-1.0034
N1660 Y-1.0037
N1665 Y-1.0057 Z-0.0897
N1670 X3.9495 Y-1.0076 Z-0.0889
N1675 Y-1.0092 Z-0.0877
N1680 X3.9494 Y-1.0105 Z-0.0861
N1685 Y-1.0113 Z-0.0842
N1690 Y-1.0116 Z-0.0821
N1695 G0 Z0.1079
N1700 X3.8799 Y0.9144
N1705 G1 Z-0.0821 F20.
N1710 Y0.9141 Z-0.0842
N1715 X3.88 Y0.9133 Z-0.0861
N1720 X3.8801 Y0.9121 Z-0.0877
N1725 X3.8802 Y0.9104 Z-0.0889
N1730 X3.8804 Y0.9086 Z-0.0897
N1735 X3.8806 Y0.9065 Z-0.09
N1740 X3.8838 Y0.8733
N1745 X3.8911 Y0.7959
N1750 G2 X3.8936 Y0.7193 I-1.7002 J-0.0934
N1755 X3.8932 Y0.6426 I-2.4581 J-0.0242
N1760 G1 X3.8857 Y0.4665
N1765 X3.8701 Y0.2946
N1770 G2 X3.8611 Y0.2252 I-6.7659 J0.8354
N1775 X3.8505 Y0.1561 I-1.7296 J0.2316
N1780 X3.8355 Y0.0792 I-1.9779 J0.3461
N1785 X3.818 Y0.0028 I-3.1429 J0.6773
N1790 G3 X3.8179 Y-0.0417 I0.0931 J-0.0225
N1795 G1 X3.8315 Y-0.0991
N1800 G2 X3.843 Y-0.1532 I-1.2524 J-0.2961
N1805 G1 X3.8679 Y-0.3212
N1810 X3.8851 Y-0.5288
N1815 X3.8923 Y-0.8103
N1820 G2 X3.8917 Y-0.9098 I-4.9671 J-0.0218
N1825 G1 X3.8898 Y-0.9803
N1830 Y-0.9806
N1835 Y-0.9826 Z-0.0897
N1840 X3.8897 Y-0.9845 Z-0.0889
N1845 Y-0.9861 Z-0.0877
N1850 Y-0.9874 Z-0.0861
N1855 X3.8896 Y-0.9882 Z-0.0842
N1860 Y-0.9884 Z-0.0821
N1865 G0 Z0.1079
N1870 X3.8217 Y0.89
N1875 G1 Z-0.0821 F20.
N1880 X3.8218 Y0.8897 Z-0.0842
N1885 Y0.8889 Z-0.0861
N1890 X3.822 Y0.8877 Z-0.0877
N1895 X3.8221 Y0.8861 Z-0.0889
N1900 X3.8223 Y0.8842 Z-0.0897
N1905 X3.8225 Y0.8821 Z-0.09
N1910 X3.8256 Y0.849
N1915 X3.831 Y0.7926
N1920 G2 X3.8334 Y0.7182 I-1.6415 J-0.0902
N1925 X3.833 Y0.6439 I-2.401 J-0.0231
N1930 G1 X3.8256 Y0.4708
N1935 X3.8103 Y0.302
N1940 G2 X3.8016 Y0.2341 I-6.8395 J0.8445
N1945 X3.7912 Y0.1665 I-1.6783 J0.2242
N1950 X3.7692 Y0.0528 I-3.199 J0.5597
N1955 X3.7629 Y0.0281 I-0.2899 J0.0604
N1960 G3 X3.7562 Y0.0036 I0.5054 J-0.1514
N1965 X3.756 Y-0.0415 I0.093 J-0.023
N1970 G1 X3.7729 Y-0.1129
N1975 G2 X3.7839 Y-0.1645 I-1.1938 J-0.2822
N1980 G1 X3.8081 Y-0.3286
N1985 X3.825 Y-0.5323
N1990 X3.8321 Y-0.8106
N1995 G2 X3.8315 Y-0.9087 I-4.9073 J-0.0215
N2000 G1 X3.8303 Y-0.955
N2005 G3 X3.8455 Y-0.9704 I0.015 J-0.0004
N2010 X3.8604 Y-0.9547 I-0.0002 J0.0151
N2015 G1 X3.8171 Y-0.0394
N2020 G2 Y-0.0383 I0.015 J0.0007
N2025 G1 X3.8406 Y0.8504
N2030 G3 X3.8179 Y0.8638 I-0.015 J0.0004
N2035 G1 X3.7749 Y0.8384
N2040 G3 X3.7676 Y0.824 I0.0076 J-0.013
N2045 G1 X3.7709 Y0.7893
N2050 G2 X3.7732 Y0.7172 I-1.5829 J-0.0869
N2055 X3.7728 Y0.6452 I-2.3441 J-0.0221
N2060 G1 X3.7656 Y0.4751
N2065 X3.7505 Y0.3094
N2070 G2 X3.742 Y0.243 I-6.929 J0.8555
N2075 X3.7318 Y0.1768 I-1.6273 J0.2168
N2080 X3.6996 Y0.024 I-2.2354 J0.3911
N2085 X3.6979 Y0.0179 I-0.0989 J0.0245
N2090 G3 X3.6962 Y0.0118 I0.0972 J-0.0306
N2095 X3.6959 Y-0.049 I0.1253 J-0.031
N2100 G1 X3.7143 Y-0.1268
N2105 G2 X3.7248 Y-0.1758 I-1.1352 J-0.2684
N2110 G1 X3.7483 Y-0.336
N2115 X3.7649 Y-0.5359
N2120 X3.7719 Y-0.8108
N2125 G2 X3.7713 Y-0.9077 I-4.8475 J-0.0213
N2130 G1 X3.7708 Y-0.9285
N2135 G3 X3.786 Y-0.944 I0.015 J-0.0004
N2140 X3.8008 Y-0.9281 I-0.0002 J0.0151
N2145 G1 X3.7551 Y-0.0391
N2150 G2 Y-0.0378 I0.015 J0.0008
N2155 G1 X3.7826 Y0.8254
N2160 G3 X3.7599 Y0.8389 I-0.015 J0.0005
N2165 G1 X3.7168 Y0.8134
N2170 G3 X3.7095 Y0.7991 I0.0077 J-0.013
N2175 G1 X3.7108 Y0.786
N2180 G2 X3.713 Y0.7162 I-1.5244 J-0.0837
N2185 X3.7126 Y0.6464 I-2.2875 J-0.021
N2190 G1 X3.7055 Y0.4793
N2195 X3.6908 Y0.3168
N2200 G2 X3.6825 Y0.2519 I-7.0373 J0.8689
N2205 X3.6725 Y0.1872 I-1.5766 J0.2094
N2210 X3.6584 Y0.1125 I-2.7872 J0.4877
N2215 X3.6417 Y0.0384 I-1.7389 J0.3526
N2220 X3.6377 Y0.0239 I-0.233 J0.0578
N2225 G3 X3.6336 Y0.0095 I0.229 J-0.0722
N2230 Y-0.0478 I0.1153 J-0.0286
N2235 G2 X3.6506 Y-0.1172 I-7.1246 J-1.7749
N2240 X3.6656 Y-0.1872 I-1.537 J-0.367
N2245 G1 X3.6886 Y-0.3434
N2250 X3.7048 Y-0.5395
N2255 X3.7116 Y-0.8111
N2260 G2 X3.7112 Y-0.9011 I-4.7877 J-0.021
N2265 G3 X3.7267 Y-0.9163 I0.0151 J-0.0002
N2270 X3.7413 Y-0.9002 I-0.0004 J0.015
N2275 G1 X3.6781 Y-0.0414
N2280 G2 Y-0.0395 I0.015 J0.0011
N2285 G1 X3.7245 Y0.8005
N2290 G3 X3.7017 Y0.8142 I-0.015 J0.0008
N2295 G1 X3.6583 Y0.788
N2300 G3 X3.6511 Y0.7744 I0.0078 J-0.0129
N2305 G2 X3.6528 Y0.7152 I-1.4664 J-0.0723
N2310 X3.6524 Y0.6477 I-2.2312 J-0.0199
N2315 G1 X3.6454 Y0.4836
N2320 G2 X3.619 Y0.2436 I-3.0839 J0.2185
N2325 X3.5709 Y0.007 I-2.311 J0.3465
N2330 G3 X3.5711 Y-0.0465 I0.102 J-0.0263
N2335 G2 X3.5901 Y-0.1221 I-2.6688 J-0.7114
N2340 X3.6065 Y-0.1985 I-1.763 J-0.417
N2345 X3.6189 Y-0.2744 I-1.4069 J-0.2693
N2350 X3.6288 Y-0.3507 I-6.033 J-0.822
N2355 G1 X3.6447 Y-0.543
N2360 X3.6514 Y-0.8114
N2365 G2 X3.6513 Y-0.8733 I-4.728 J-0.0208
N2370 G3 X3.6669 Y-0.8884 I0.0151 J-0.0001
N2375 X3.6814 Y-0.8722 I-0.0005 J0.015
N2380 G1 X3.6155 Y-0.0395
N2385 G2 X3.6154 Y-0.0374 I0.015 J0.0012
N2390 G1 X3.6661 Y0.7751
N2395 G3 X3.6436 Y0.7891 I-0.015 J0.0009
N2400 G1 X3.5994 Y0.7638
N2405 G3 X3.5918 Y0.7502 I0.0075 J-0.0131
N2410 G2 X3.5926 Y0.7142 I-1.409 J-0.0482
N2415 X3.5922 Y0.649 I-2.1752 J-0.0188
N2420 G1 X3.5854 Y0.4878
N2425 G2 X3.5588 Y0.245 I-3.1978 J0.2265
N2430 X3.5083 Y0.006 I-1.9683 J0.2913
N2435 G3 X3.5085 Y-0.046 I0.0926 J-0.0256
N2440 G2 X3.5253 Y-0.1065 I-3.5921 J-1.0255
N2445 X3.5393 Y-0.1678 I-0.8419 J-0.2251
N2450 X3.5527 Y-0.241 I-4.6154 J-0.8836
N2455 X3.5637 Y-0.3147 I-1.4517 J-0.2541
N2460 G1 X3.5821 Y-0.5045
N2465 X3.5911 Y-0.782
N2470 X3.5906 Y-0.8458
N2475 G3 X3.6062 Y-0.861 I0.0151 J-0.0001
N2480 X3.6206 Y-0.8447 I-0.0006 J0.015
N2485 G1 X3.5524 Y-0.0373
N2490 G2 X3.5523 Y-0.0349 I0.015 J0.0013
N2495 G1 X3.6069 Y0.7507
N2500 G3 X3.5847 Y0.765 I-0.015 J0.001
N2505 G1 X3.5401 Y0.7409
N2510 G3 X3.5322 Y0.7274 I0.0072 J-0.0132
N2515 G2 X3.5324 Y0.7132 I-1.3513 J-0.0254
N2520 X3.532 Y0.6503 I-2.1197 J-0.0177
N2525 G1 X3.5253 Y0.4921
N2530 G2 X3.4988 Y0.2473 I-3.2918 J0.2332
N2535 X3.4459 Y0.0069 I-1.7182 J0.2515
N2540 G3 X3.4458 Y-0.046 I0.0901 J-0.0266
N2545 G2 X3.5182 Y-0.4558 I-1.8487 J-0.5377
N2550 X3.5309 Y-0.8206 I-5.7694 J-0.3839
N2555 G3 X3.5467 Y-0.8356 I0.0151 J0.
N2560 X3.5609 Y-0.8192 I-0.0007 J0.015
N2565 G1 X3.4893 Y-0.0361
N2570 G2 X3.4892 Y-0.0336 I0.015 J0.0014
N2575 G1 X3.5472 Y0.7277
N2580 G3 X3.5255 Y0.7423 I-0.015 J0.0011
N2585 G1 X3.4806 Y0.7199
N2590 G3 X3.4722 Y0.7064 I0.0067 J-0.0135
N2595 G2 X3.4718 Y0.6516 I-2.0646 J-0.0107
N2600 X3.4695 Y0.5739 I-4.6692 J0.0997
N2605 X3.4652 Y0.4963 I-2.3717 J0.0901
N2610 X3.4374 Y0.2491 I-2.9924 J0.212
N2615 X3.383 Y0.0063 I-1.8424 J0.2854
N2620 G3 X3.3829 Y-0.0452 I0.0877 J-0.0259
N2625 G2 X3.4036 Y-0.1173 I-12.7305 J-3.7024
N2630 X3.421 Y-0.1904 I-0.8194 J-0.2333
N2635 X3.4337 Y-0.2597 I-4.6567 J-0.8915
N2640 X3.4442 Y-0.3294 I-1.3473 J-0.2372
N2645 G1 X3.4619 Y-0.5116
N2650 X3.4707 Y-0.7825
N2655 X3.4705 Y-0.7978
N2660 G3 X3.4863 Y-0.813 I0.0151 J-0.0001
N2665 X3.5006 Y-0.7965 I-0.0007 J0.015
N2670 G1 X3.4263 Y-0.0354
N2675 G2 Y-0.0327 I0.015 J0.0015
N2680 G1 X3.4873 Y0.7064
N2685 G3 X3.4661 Y0.7214 I-0.015 J0.0012
N2690 G1 X3.4209 Y0.7013
N2695 G3 X3.412 Y0.6876 I0.0061 J-0.0137
N2700 G2 X3.4116 Y0.6529 I-2.01 J0.0082
N2705 X3.4093 Y0.5767 I-4.6236 J0.0987
N2710 X3.4052 Y0.5006 I-2.3153 J0.0876
N2715 X3.3809 Y0.2688 I-3.4567 J0.2449
N2720 X3.3317 Y0.041 I-1.5481 J0.215
N2725 X3.3255 Y0.0222 I-0.3029 J0.0895
N2730 G3 X3.3193 Y0.0034 I0.3279 J-0.1185
N2735 X3.3195 Y-0.0431 I0.077 J-0.023
N2740 G2 X3.3812 Y-0.3139 I-1.8302 J-0.5597
N2745 G1 X3.4008 Y-0.5019
N2750 X3.4094 Y-0.701
N2755 Y-0.7785
N2760 G3 X3.4253 Y-0.7935 I0.0151 J0.
N2765 X3.4395 Y-0.777 I-0.0008 J0.015
N2770 G1 X3.3632 Y-0.0345
N2775 G2 Y-0.0316 I0.015 J0.0015
N2780 G1 X3.4271 Y0.6875
N2785 G3 X3.4069 Y0.703 I-0.015 J0.0013
N2790 G1 X3.3596 Y0.6856
N2795 G3 X3.3497 Y0.6716 I0.0052 J-0.0141
N2800 G1 X3.3494 Y0.585
N2805 G2 X3.3225 Y0.2901 I-3.2358 J0.1462
N2810 X3.2556 Y0.0015 I-1.6135 J0.2218
N2815 G3 X3.2558 Y-0.0416 I0.0647 J-0.0214
N2820 G2 X3.3364 Y-0.4402 I-1.5367 J-0.5184
N2825 X3.3501 Y-0.7643 I-5.102 J-0.3781
N2830 G3 X3.3661 Y-0.7792 I0.0151 J0.0002
N2835 X3.3801 Y-0.7625 I-0.0009 J0.015
N2840 G1 X3.3 Y-0.0345
N2845 G2 Y-0.0315 I0.015 J0.0016
N2850 G1 X3.3647 Y0.6715
N2855 G3 X3.3455 Y0.6873 I-0.015 J0.0014
N2860 G1 X3.3003 Y0.6741
N2865 G3 X3.2895 Y0.6598 I0.0042 J-0.0145
N2870 G1 X3.2892 Y0.5877
N2875 G2 X3.2622 Y0.2912 I-3.2606 J0.1473
N2880 X3.1921 Y0.0018 I-1.4555 J0.1998
N2885 G3 Y-0.0421 I0.0619 J-0.0219
N2890 G2 X3.2757 Y-0.4384 I-1.4122 J-0.5046
N2895 X3.2895 Y-0.7551 I-5.5347 J-0.4007
N2900 G3 X3.3055 Y-0.7699 I0.0151 J0.0002
N2905 X3.3195 Y-0.7531 I-0.001 J0.015
N2910 G1 X3.2365 Y-0.0351
N2915 G2 X3.2364 Y-0.0319 I0.015 J0.0017
N2920 G1 X3.3045 Y0.6597
N2925 G3 X3.2865 Y0.6759 I-0.015 J0.0015
N2930 G1 X3.2413 Y0.6665
N2935 G3 X3.2293 Y0.6519 I0.0031 J-0.0147
N2940 G1 X3.2291 Y0.5904
N2945 G2 X3.216 Y0.4011 I-3.9696 J0.1793
N2950 X3.1878 Y0.2134 I-1.683 J0.1568
N2955 X3.1747 Y0.1524 I-4.536 J0.9443
N2960 X3.159 Y0.092 I-0.8894 J0.1977
N2965 X3.144 Y0.0462 I-0.7865 J0.2323
N2970 G3 X3.1278 Y0.0008 I6.8965 J-2.4862
N2975 X3.1279 Y-0.0414 I0.0594 J-0.021
N2980 G2 X3.1506 Y-0.1054 I-9.6375 J-3.4434
N2985 X3.1696 Y-0.1706 I-0.6145 J-0.215
N2990 X3.1841 Y-0.2343 I-3.8462 J-0.9093
N2995 X3.1961 Y-0.2985 I-1.0195 J-0.2233
N3000 G1 X3.2174 Y-0.4727
N3005 X3.2279 Y-0.6683
N3010 X3.2283 Y-0.7518
N3015 G3 X3.2443 Y-0.7668 I0.0151 J0.0001
N3020 X3.2583 Y-0.7499 I-0.0009 J0.015
N3025 G1 X3.1732 Y-0.0371
N3030 G2 Y-0.0338 I0.0149 J0.0018
N3035 G1 X3.2444 Y0.6518
N3040 G3 X3.2278 Y0.6683 I-0.015 J0.0016
N3045 G1 X3.1826 Y0.6634
N3050 G3 X3.1692 Y0.6485 I0.0016 J-0.015
N3055 G1 X3.1689 Y0.5932
N3060 G2 X3.1402 Y0.2913 I-3.0408 J0.1374
N3065 X3.0628 Y-0.0018 I-1.3266 J0.1934
N3070 G3 Y-0.0388 I0.0474 J-0.0184
N3075 G2 X3.1528 Y-0.4225 I-1.2802 J-0.5027
N3080 X3.1694 Y-0.7547 I-4.4932 J-0.3904
N3085 G3 X3.1854 Y-0.7696 I0.0151 J0.0002
N3090 X3.1993 Y-0.7527 I-0.001 J0.015
N3095 G1 X3.11 Y-0.0392
N3100 G2 Y-0.0357 I0.0149 J0.0019
N3105 G1 X3.1842 Y0.6484
N3110 G3 X3.1689 Y0.6651 I-0.015 J0.0016
N3115 G1 X3.1253 Y0.6642
N3120 G3 X3.1106 Y0.6495 I0.0003 J-0.0151
N3125 G2 X3.1088 Y0.5959 I-2.582 J0.0629
N3130 X3.0794 Y0.2907 I-3.0096 J0.136
N3135 X2.9965 Y-0.0045 I-1.1998 J0.1776
N3140 G3 X2.9964 Y-0.0357 I0.0371 J-0.0157
N3145 G2 X3.0856 Y-0.3737 I-1.1841 J-0.4934
N3150 G1 X3.1012 Y-0.5329
N3155 X3.1087 Y-0.7638
N3160 G3 X3.125 Y-0.7783 I0.015 J0.0005
N3165 X3.1387 Y-0.7614 I-0.0012 J0.015
N3170 G1 X3.0463 Y-0.042
N3175 G2 X3.0462 Y-0.0384 I0.0149 J0.0019
N3180 G1 X3.1257 Y0.6491
N3185 G3 X3.112 Y0.6659 I-0.015 J0.0017
N3190 G1 X3.0668 Y0.6696
N3195 G3 X3.0505 Y0.6549 I-0.0012 J-0.015
N3200 G2 X3.0486 Y0.5986 I-2.5485 J0.0587
N3205 X3.0367 Y0.4237 I-3.8837 J0.1755
N3210 X3.0109 Y0.2503 I-1.5192 J0.1375
N3215 X2.9845 Y0.1389 I-1.9958 J0.4155
N3220 X2.9473 Y0.0307 I-0.7959 J0.2129
N3225 X2.9392 Y0.0132 I-0.2801 J0.1186
N3230 G3 X2.9311 Y-0.0043 I0.3853 J-0.1883
N3235 X2.9315 Y-0.038 I0.0377 J-0.0164
N3240 G2 X3.0183 Y-0.3282 I-0.9736 J-0.4494
N3245 X3.0459 Y-0.6298 I-2.587 J-0.3883
N3250 G1 X3.0476 Y-0.7787
N3255 G3 X3.0637 Y-0.7935 I0.0151 J0.0002
N3260 X3.0776 Y-0.7766 I-0.0011 J0.015
N3265 G1 X2.9825 Y-0.0449
N3270 G2 X2.9824 Y-0.0412 I0.0149 J0.0019
N3275 G1 X3.0656 Y0.6546
N3280 G3 X3.0535 Y0.6712 I-0.0149 J0.0018
N3285 G1 X3.0084 Y0.6798
N3290 G3 X2.9905 Y0.6653 I-0.0028 J-0.0148
N3295 G2 X2.9885 Y0.6013 I-2.519 J0.0498
N3300 X2.977 Y0.4312 I-3.8615 J0.1745
N3305 X2.952 Y0.2625 I-1.465 J0.1311
N3310 X2.9169 Y0.1258 I-1.5089 J0.3141
N3315 X2.864 Y-0.0051 I-0.7756 J0.2373
N3320 G3 Y-0.0365 I0.0308 J-0.0157
N3325 G2 X2.9534 Y-0.3053 I-0.8344 J-0.4268
N3330 X2.9837 Y-0.587 I-2.2453 J-0.3838
N3335 G1 X2.9876 Y-0.7985
N3340 G3 X3.0037 Y-0.8132 I0.0151 J0.0003
N3345 X3.0176 Y-0.7965 I-0.001 J0.015
N3350 G1 X2.9315 Y-0.0406
N3355 G2 Y-0.0373 I0.015 J0.0017
N3360 G1 X3.0056 Y0.665
N3365 G3 X2.9949 Y0.681 I-0.015 J0.0016
N3370 G1 X2.9499 Y0.6943
N3375 G3 X2.9306 Y0.68 I-0.0043 J-0.0144
N3380 G2 X2.9305 Y0.6735 I-0.9637 J0.0102
N3385 X2.9283 Y0.604 I-2.4942 J0.0431
N3390 X2.8962 Y0.291 I-2.7505 J0.1243
N3395 X2.7954 Y-0.0071 I-0.937 J0.1507
N3400 G3 X2.7957 Y-0.0362 I0.0266 J-0.0143
N3405 G2 X2.8874 Y-0.2827 I-0.7186 J-0.4075
N3410 X2.9209 Y-0.5436 I-1.8836 J-0.3743
N3415 G1 X2.9287 Y-0.7849
N3420 G2 X2.9288 Y-0.822 I-8.4499 J-0.0371
N3425 G3 X2.9448 Y-0.8371 I0.0151 J0.
N3430 X2.9588 Y-0.8202 I-0.0009 J0.015
N3435 G1 X2.8656 Y-0.0423
N3440 G2 Y-0.0389 I0.0149 J0.0018
N3445 G1 X2.9456 Y0.6798
N3450 G3 X2.936 Y0.6955 I-0.015 J0.0017
N3455 G1 X2.8908 Y0.7129
N3460 G3 X2.8704 Y0.6987 I-0.0054 J-0.0141
N3465 G2 X2.8703 Y0.6732 I-0.9094 J-0.0089
N3470 X2.8681 Y0.6067 I-2.4751 J0.0453
N3475 X2.8575 Y0.4462 I-3.8302 J0.173
N3480 X2.8341 Y0.2871 I-1.3573 J0.1185
N3485 X2.7973 Y0.1442 I-1.5459 J0.3218
N3490 X2.7364 Y0.0098 I-0.5587 J0.1721
N3495 X2.7303 Y0.0005 I-0.1508 J0.0928
N3500 G3 X2.7242 Y-0.0087 I0.1447 J-0.1021
N3505 X2.7244 Y-0.0342 I0.0206 J-0.0127
N3510 G2 X2.8192 Y-0.2592 I-0.6385 J-0.4016
N3515 X2.8572 Y-0.5003 I-1.4862 J-0.358
N3520 G1 X2.8667 Y-0.6769
N3525 X2.8676 Y-0.8504
N3530 G3 X2.8835 Y-0.8653 I0.0151 J0.0001
N3535 X2.8976 Y-0.8487 I-0.0008 J0.015
N3540 G1 X2.8109 Y-0.0358
N3545 G2 Y-0.0327 I0.015 J0.0016
N3550 G1 X2.8854 Y0.6989
N3555 G3 X2.8769 Y0.714 I-0.015 J0.0015
N3560 G1 X2.8311 Y0.7356
N3565 G3 X2.8096 Y0.7215 I-0.0064 J-0.0136
N3570 G2 X2.81 Y0.6729 I-0.8548 J-0.032
N3575 X2.808 Y0.6095 I-2.4637 J0.0477
N3580 X2.7978 Y0.4537 I-3.8226 J0.1727
N3585 X2.7751 Y0.2993 I-1.3038 J0.1123
N3590 X2.7298 Y0.1367 I-1.2451 J0.2592
N3595 X2.6494 Y-0.0118 I-0.5055 J0.1777
N3600 G3 X2.6495 Y-0.0324 I0.0134 J-0.0103
N3605 G2 X2.7437 Y-0.2122 I-0.4538 J-0.3524
N3610 X2.7868 Y-0.4105 I-1.0629 J-0.3348
N3615 G1 X2.8033 Y-0.5951
N3620 X2.8083 Y-0.8677
N3625 X2.808 Y-0.8804
N3630 X2.8079 Y-0.8807
N3635 Y-0.8827 Z-0.0897
N3640 X2.8078 Y-0.8846 Z-0.0889
N3645 Y-0.8862 Z-0.0877
N3650 Y-0.8875 Z-0.0861
N3655 Y-0.8883 Z-0.0842
N3660 X2.8077 Y-0.8885 Z-0.0821
N3665 G0 Z0.1079
N3670 X2.7418 Y0.7939
N3675 G1 Z-0.0821 F20.
N3680 Y0.7936 Z-0.0842
N3685 X2.7419 Y0.7929 Z-0.0861
N3690 X2.742 Y0.7916 Z-0.0877
N3695 X2.7421 Y0.79 Z-0.0889
N3700 X2.7423 Y0.7881 Z-0.0897
N3705 X2.7425 Y0.7861 Z-0.09
N3710 X2.7461 Y0.7486
N3715 X2.7494 Y0.7137
N3720 G2 X2.7493 Y0.6473 I-1.1484 J-0.0322
N3725 X2.7464 Y0.581 I-2.4088 J0.0718
N3730 X2.7341 Y0.4245 I-3.7324 J0.2142
N3735 X2.7074 Y0.2699 I-1.0882 J0.1084
N3740 X2.6568 Y0.119 I-0.9543 J0.2365
N3745 X2.5686 Y-0.0136 I-0.4048 J0.1736
N3750 G3 Y-0.0311 I0.0091 J-0.0088
N3755 G2 X2.623 Y-0.0975 I-0.3785 J-0.3652
N3760 X2.6641 Y-0.1729 I-0.3383 J-0.2335
N3765 X2.7288 Y-0.4225 I-0.8453 J-0.3522
N3770 X2.7463 Y-0.6798 I-2.8993 J-0.3268
N3775 G1 X2.7475 Y-0.9087
N3780 X2.7474 Y-0.9124
N3785 Y-0.9127
N3790 X2.7473 Y-0.9147 Z-0.0897
N3795 Y-0.9166 Z-0.0889
N3800 Y-0.9183 Z-0.0877
N3805 X2.7472 Y-0.9195 Z-0.0861
N3810 Y-0.9203 Z-0.0842
N3815 Y-0.9206 Z-0.0821
N3820 X2.6854 Y0.8206
N3825 Z-0.0829
N3830 Y0.8204 Z-0.0847
N3835 Y0.8197 Z-0.0865
N3840 X2.6853 Y0.8186 Z-0.0879
N3845 X2.6852 Y0.8171 Z-0.0891
N3850 X2.6851 Y0.8154 Z-0.0898
N3855 X2.685 Y0.8136 Z-0.09
N3860 X2.6829 Y0.7795
N3865 G3 Y0.7783 I0.0079 J-0.0005
N3870 G1 X2.6849 Y0.7565
N3875 X2.686 Y0.7453
N3880 G2 X2.6861 Y0.7437 I-0.0392 J-0.0037
N3885 G1 X2.6869 Y0.7297
N3890 G2 Y0.7287 I-0.0393 J-0.0022
N3895 G1 X2.6874 Y0.7119
N3900 G2 Y0.7112 I-0.0394 J-0.0011
N3905 G1 X2.6876 Y0.6917
N3910 G2 Y0.6911 I-0.0394 J-0.0003
N3915 G1 X2.6874 Y0.6689
N3920 G2 Y0.6683 I-0.0394 J0.0003
N3925 G1 X2.6869 Y0.6434
N3930 G2 Y0.643 I-0.0394 J0.0008
N3935 G1 X2.6859 Y0.6154
N3940 G2 Y0.615 I-0.0393 J0.0013
N3945 G1 X2.6846 Y0.585
N3950 G2 X2.6845 Y0.5845 I-0.0393 J0.0018
N3955 G1 X2.6827 Y0.5523
N3960 G2 Y0.5518 I-0.0393 J0.0023
N3965 G1 X2.6802 Y0.5175
N3970 G2 Y0.5169 I-0.0393 J0.0028
N3975 G1 X2.6771 Y0.481
N3980 G2 X2.677 Y0.4804 I-0.0392 J0.0034
N3985 G1 X2.6732 Y0.4432
N3990 G2 X2.6731 Y0.4424 I-0.0392 J0.004
N3995 G1 X2.6684 Y0.4044
N4000 G2 X2.6683 Y0.4035 I-0.0391 J0.0048
N4005 G1 X2.6626 Y0.365
N4010 G2 X2.6625 Y0.3639 I-0.039 J0.0057
N4015 G1 X2.6557 Y0.3255
N4020 G2 X2.6555 Y0.3243 I-0.0388 J0.0068
N4025 G1 X2.6476 Y0.2863
N4030 G2 X2.6473 Y0.2848 I-0.0385 J0.008
N4035 G1 X2.6381 Y0.2477
N4040 G2 X2.6376 Y0.246 I-0.0382 J0.0095
N4045 G1 X2.627 Y0.2103
N4050 G2 X2.6264 Y0.2083 I-0.0378 J0.0112
N4055 G1 X2.6144 Y0.1742
N4060 G2 X2.6135 Y0.172 I-0.0371 J0.0131
N4065 G1 X2.5999 Y0.1399
N4070 G2 X2.5987 Y0.1374 I-0.0363 J0.0153
N4075 G1 X2.5836 Y0.1076
N4080 G2 X2.582 Y0.1048 I-0.0351 J0.0179
N4085 G1 X2.5652 Y0.0775
N4090 G2 X2.5638 Y0.0753 I-0.0335 J0.0206
N4095 G1 X2.5547 Y0.0626
N4100 G2 X2.5536 Y0.0611 I-0.0321 J0.0228
N4105 G1 X2.5442 Y0.0492
N4110 G2 X2.5429 Y0.0476 I-0.0309 J0.0243
N4115 G1 X2.5331 Y0.0363
N4120 G2 X2.5317 Y0.0348 I-0.0297 J0.0259
N4125 G1 X2.5215 Y0.0242
N4130 G2 X2.5199 Y0.0228 I-0.0283 J0.0274
N4135 G1 X2.5093 Y0.0128
N4140 G2 X2.5076 Y0.0114 I-0.0268 J0.0288
N4145 G1 X2.4966 Y0.0022
N4150 G2 X2.4948 Y0.0008 I-0.0252 J0.0303
N4155 G1 X2.4833 Y-0.0077
N4160 G2 X2.4815 Y-0.0089 I-0.0234 J0.0316
N4165 G1 X2.4696 Y-0.0167
N4170 G2 X2.4677 Y-0.0179 I-0.0216 J0.0329
N4175 G1 X2.4599 Y-0.0224
N4180 X2.4643 Y-0.0249
N4185 G2 X2.4662 Y-0.026 I-0.0194 J-0.0343
N4190 G1 X2.4795 Y-0.0346
N4195 G2 X2.4814 Y-0.0359 I-0.0214 J-0.0331
N4200 G1 X2.4941 Y-0.0452
N4205 G2 X2.4959 Y-0.0466 I-0.0233 J-0.0318
N4210 G1 X2.5081 Y-0.0567
N4215 G2 X2.5098 Y-0.0582 I-0.0251 J-0.0304
N4220 G1 X2.5215 Y-0.069
N4225 G2 X2.5231 Y-0.0706 I-0.0268 J-0.0289
N4230 G1 X2.5343 Y-0.0822
N4235 G2 X2.5358 Y-0.0838 I-0.0283 J-0.0273
N4240 G1 X2.5465 Y-0.0962
N4245 G2 X2.5478 Y-0.0978 I-0.0298 J-0.0257
N4250 G1 X2.558 Y-0.111
N4255 G2 X2.5592 Y-0.1126 I-0.0311 J-0.0241
N4260 G1 X2.5689 Y-0.1265
N4265 G2 X2.57 Y-0.1281 I-0.0323 J-0.0225
N4270 G1 X2.5792 Y-0.1427
N4275 G2 X2.5801 Y-0.1443 I-0.0333 J-0.021
N4280 G1 X2.5888 Y-0.1596
N4285 G2 X2.5897 Y-0.1611 I-0.0342 J-0.0194
N4290 G1 X2.5979 Y-0.1772
N4295 G2 X2.5986 Y-0.1786 I-0.0351 J-0.0179
N4300 G1 X2.6063 Y-0.1954
N4305 G2 X2.6069 Y-0.1967 I-0.0357 J-0.0165
N4310 G1 X2.6141 Y-0.2141
N4315 G2 X2.6149 Y-0.216 I-0.0363 J-0.0151
N4320 G1 X2.628 Y-0.2527
N4325 G2 X2.6287 Y-0.2549 I-0.0371 J-0.0132
N4330 G1 X2.64 Y-0.2937
N4335 G2 X2.6405 Y-0.2957 I-0.0378 J-0.011
N4340 G1 X2.6501 Y-0.3363
N4345 G2 X2.6505 Y-0.3379 I-0.0383 J-0.0091
N4350 G1 X2.6585 Y-0.38
N4355 G2 X2.6587 Y-0.3814 I-0.0387 J-0.0074
N4360 G1 X2.6654 Y-0.4243
N4365 G2 X2.6655 Y-0.4255 I-0.0389 J-0.006
N4370 G1 X2.6709 Y-0.469
N4375 G2 X2.671 Y-0.4699 I-0.0391 J-0.0048
N4380 G1 X2.6752 Y-0.5134
N4385 G2 X2.6753 Y-0.5142 I-0.0392 J-0.0038
N4390 G1 X2.6786 Y-0.5572
N4395 G2 X2.6787 Y-0.5579 I-0.0393 J-0.003
N4400 G1 X2.6812 Y-0.6
N4405 G2 Y-0.6006 I-0.0393 J-0.0023
N4410 G1 X2.683 Y-0.6414
N4415 G2 Y-0.6418 I-0.0393 J-0.0018
N4420 G1 X2.6843 Y-0.6809
N4425 Y-0.6813
N4430 X2.6852 Y-0.7183
N4435 Y-0.7186
N4440 X2.6858 Y-0.7533
N4445 Y-0.7536
N4450 X2.6861 Y-0.7858
N4455 Y-0.786
N4460 X2.6862 Y-0.8156
N4465 Y-0.8158
N4470 Y-0.8427
N4475 Y-0.8429
N4480 X2.6861 Y-0.8671
N4485 Y-0.8673
N4490 X2.6859 Y-0.8887
N4495 X2.6858 Y-0.889
N4500 X2.6855 Y-0.9076
N4505 Y-0.908
N4510 X2.6851 Y-0.9239
N4515 X2.6845 Y-0.9463
N4520 G3 X2.6846 Y-0.9475 I0.0079 J-0.0002
N4525 G1 X2.6886 Y-0.9777
N4530 X2.6889 Y-0.9797 Z-0.0897
N4535 X2.6891 Y-0.9816 Z-0.0889
N4540 X2.6893 Y-0.9832 Z-0.0877
N4545 X2.6895 Y-0.9845 Z-0.0861
N4550 X2.6896 Y-0.9852 Z-0.0842
N4555 Y-0.9855 Z-0.0821
N4560 G0 Z0.5
N4565 X-4.1163 Y1.9019
N4570 Z0.1079
N4575 G1 Z0.0394 F20.
N4580 Z-0.0821
N4585 X-4.116 Y1.9018 Z-0.0842
N4590 X-4.1152 Z-0.0861
N4595 X-4.114 Z-0.0877
N4600 X-4.1124 Z-0.0889
N4605 X-4.1105 Z-0.0897
N4610 X-4.1084 Z-0.09
N4615 X-4.1076 Y1.9017
N4620 X-4.092 Y1.9016
N4625 G3 X-4.0812 Y1.9067 I0.0002 J0.0137
N4630 X-4.0859 Y1.9127 I-0.0031 J0.0025
N4635 G1 X-4.2191 Y1.85
N4640 G3 X-4.2175 Y1.8425 I0.0017 J-0.0036
N4645 G1 X-4.0354 Y1.8402
N4650 G3 X-4.0216 Y1.853 I0.0002 J0.0137
N4655 G1 X-4.0177 Y1.9114
N4660 G3 X-4.0452 Y1.9211 I-0.0151 J0.001
N4665 G1 X-4.0756 Y1.8776
N4670 G2 X-4.0864 Y1.8712 I-0.0124 J0.0087
N4675 G1 X-4.2173 Y1.8576
N4680 G3 X-4.2309 Y1.8416 I0.0016 J-0.0151
N4685 G1 X-4.2279 Y1.796
N4690 G3 X-4.2129 Y1.7818 I0.0151 J0.001
N4695 G1 X-3.9787 Y1.7789
N4700 G3 X-3.9649 Y1.7917 I0.0002 J0.0137
N4705 G1 X-3.9571 Y1.9093
N4710 G3 X-3.9868 Y1.9144 I-0.0151 J0.001
N4715 G1 X-4.0126 Y1.8209
N4720 G2 X-4.0261 Y1.8098 I-0.0146 J0.004
N4725 G1 X-4.2127 Y1.797
N4730 G3 X-4.2234 Y1.7722 I0.001 J-0.0151
N4735 G1 X-4.1858 Y1.7263
N4740 G3 X-4.1742 Y1.7207 I0.0117 J0.0096
N4745 G1 X-3.9221 Y1.7176
N4750 G3 X-3.9083 Y1.7304 I0.0002 J0.0137
N4755 G1 X-3.8968 Y1.9018
N4760 G3 X-3.9271 Y1.9039 I-0.0151 J0.001
N4765 G1 X-3.9373 Y1.7623
N4770 G2 X-3.9515 Y1.7483 I-0.0151 J0.0011
N4775 G1 X-4.174 Y1.7359
N4780 G3 X-4.1853 Y1.7117 I0.0008 J-0.0151
N4785 G1 X-4.151 Y1.6658
N4790 G3 X-4.1391 Y1.6597 I0.0121 J0.0091
N4795 G1 X-3.8654 Y1.6563
N4800 G3 X-3.8516 Y1.6691 I0.0002 J0.0137
N4805 G1 X-3.8369 Y1.8903
N4810 G3 X-3.8515 Y1.9065 I-0.0151 J0.001
N4815 X-3.8671 Y1.8913 I-0.0005 J-0.0151
N4820 G1 X-3.8662 Y1.702
N4825 G2 X-3.8806 Y1.6868 I-0.0152 J-0.0001
N4830 G1 X-4.1389 Y1.6748
N4835 G3 X-4.1507 Y1.6512 I0.0007 J-0.0151
N4840 G1 X-4.1195 Y1.6053
N4845 G3 X-4.1072 Y1.5987 I0.0125 J0.0085
N4850 G1 X-3.8087 Y1.595
N4855 G3 X-3.7949 Y1.6078 I0.0002 J0.0137
N4860 G1 X-3.7771 Y1.8751
N4865 G3 X-3.792 Y1.8913 I-0.0151 J0.001
N4870 X-3.8074 Y1.8756 I-0.0002 J-0.0152
N4875 G1 X-3.7987 Y1.6411
N4880 G2 X-3.8132 Y1.6254 I-0.0151 J-0.0006
N4885 G1 X-4.107 Y1.6138
N4890 G3 X-4.1194 Y1.5909 I0.0006 J-0.0151
N4895 G1 X-4.0919 Y1.5451
N4900 G3 X-4.0791 Y1.5377 I0.013 J0.0078
N4905 G1 X-3.7521 Y1.5337
N4910 G3 X-3.7383 Y1.5464 I0.0002 J0.0137
N4915 G1 X-3.7176 Y1.8566
N4920 G3 X-3.7324 Y1.8727 I-0.0151 J0.001
N4925 X-3.7479 Y1.8572 I-0.0003 J-0.0152
N4930 G1 X-3.7398 Y1.5794
N4935 G2 X-3.7544 Y1.5638 I-0.0151 J-0.0004
N4940 G1 X-4.0789 Y1.5529
N4945 G3 X-4.0919 Y1.5309 I0.0005 J-0.0151
N4950 G1 X-4.0688 Y1.4851
N4955 G3 X-4.0554 Y1.4768 I0.0135 J0.0068
N4960 G1 X-3.6954 Y1.4724
N4965 G3 X-3.6816 Y1.4851 I0.0002 J0.0137
N4970 G1 X-3.6583 Y1.8344
N4975 G3 X-3.673 Y1.8506 I-0.0151 J0.001
N4980 X-3.6886 Y1.8353 I-0.0005 J-0.0151
N4985 G1 X-3.6867 Y1.5167
N4990 G2 X-3.7014 Y1.5015 I-0.0152 J-0.0001
N4995 G1 X-4.0553 Y1.4919
N5000 G3 X-4.0689 Y1.4711 I0.0004 J-0.0151
N5005 G1 X-4.0504 Y1.4254
N5010 G3 X-4.0365 Y1.4159 I0.014 J0.0057
N5015 G1 X-3.6388 Y1.4111
N5020 G3 X-3.625 Y1.4238 I0.0002 J0.0137
N5025 G1 X-3.5993 Y1.8089
N5030 G3 X-3.6139 Y1.825 I-0.0151 J0.001
N5035 X-3.6296 Y1.8098 I-0.0005 J-0.0151
N5040 G1 X-3.6289 Y1.4557
N5045 G2 X-3.6437 Y1.4406 I-0.0152 J0.
N5050 G1 X-4.0363 Y1.4311
N5055 G3 X-4.0505 Y1.4116 I0.0004 J-0.0151
N5060 G1 X-4.0369 Y1.366
N5065 G3 X-4.0226 Y1.3552 I0.0145 J0.0043
N5070 G1 X-3.5821 Y1.3497
N5075 G3 X-3.5683 Y1.3625 I0.0002 J0.0137
N5080 G1 X-3.5405 Y1.7791
N5085 G3 X-3.5552 Y1.7953 I-0.0151 J0.001
N5090 X-3.5708 Y1.78 I-0.0004 J-0.0151
N5095 G1 X-3.568 Y1.3953
N5100 G2 X-3.5828 Y1.3801 I-0.0152 J-0.0001
N5105 G1 X-4.0224 Y1.3703
N5110 G3 X-4.0369 Y1.3524 I0.0003 J-0.0151
N5115 G1 X-4.0286 Y1.3069
N5120 G3 X-4.0139 Y1.2944 I0.0149 J0.0027
N5125 G1 X-3.5255 Y1.2884
N5130 G3 X-3.5116 Y1.3012 I0.0002 J0.0137
N5135 G1 X-3.4821 Y1.7451
N5140 G3 X-3.4965 Y1.7612 I-0.0151 J0.001
N5145 X-3.5123 Y1.7464 I-0.0007 J-0.0151
N5150 G1 X-3.5217 Y1.3337
N5155 G2 X-3.5365 Y1.3189 I-0.0151 J0.0003
N5160 G1 X-4.0137 Y1.3096
N5165 G3 X-4.0285 Y1.2932 I0.0003 J-0.0151
N5170 G1 X-4.0248 Y1.2477
N5175 G3 X-4.0099 Y1.2338 I0.0151 J0.0012
N5180 G1 X-3.4688 Y1.2271
N5185 G3 X-3.455 Y1.2399 I0.0002 J0.0137
N5190 G1 X-3.4239 Y1.7058
N5195 G3 X-3.4381 Y1.7219 I-0.0151 J0.001
N5200 X-3.4542 Y1.7077 I-0.001 J-0.0151
N5205 G1 X-3.4803 Y1.272
N5210 G2 X-3.4952 Y1.2577 I-0.0151 J0.0009
N5215 G1 X-4.0097 Y1.2489
N5220 G3 X-4.0246 Y1.2339 I0.0003 J-0.0152
N5225 G1 X-4.0251 Y1.1885
N5230 G3 X-4.0101 Y1.1732 I0.0152 J-0.0002
N5235 G1 X-3.4121 Y1.1658
N5240 G3 X-3.3983 Y1.1786 I0.0002 J0.0137
N5245 G1 X-3.3662 Y1.6605
N5250 G3 X-3.3964 Y1.6631 I-0.0151 J0.001
N5255 G1 X-3.4441 Y1.2103
N5260 G2 X-3.4589 Y1.1967 I-0.0151 J0.0016
N5265 G1 X-4.01 Y1.1883
N5270 G3 X-4.0248 Y1.1746 I0.0002 J-0.0152
N5275 G1 X-4.0292 Y1.1292
N5280 G3 X-4.0143 Y1.1126 I0.0151 J-0.0015
N5285 G1 X-3.3555 Y1.1045
N5290 G3 X-3.3417 Y1.1173 I0.0002 J0.0137
N5295 G1 X-3.309 Y1.6077
N5300 G3 X-3.3391 Y1.6111 I-0.0151 J0.001
N5305 G1 X-3.4136 Y1.1484
N5310 G2 X-3.4284 Y1.1357 I-0.015 J0.0024
N5315 G1 X-4.0141 Y1.1277
N5320 G3 X-4.029 Y1.1143 I0.0002 J-0.0152
N5325 G1 X-4.0341 Y1.0689
N5330 G3 X-4.0193 Y1.052 I0.0151 J-0.0017
N5335 G1 X-3.2988 Y1.0432
N5340 G3 X-3.285 Y1.0559 I0.0002 J0.0137
N5345 G1 X-3.2524 Y1.5459
N5350 G3 X-3.2822 Y1.5503 I-0.0151 J0.001
N5355 G1 X-3.3882 Y1.0865
N5360 G2 X-3.4028 Y1.0748 I-0.0148 J0.0034
N5365 G1 X-4.0191 Y1.0672
N5370 G3 X-4.0339 Y1.0538 I0.0002 J-0.0152
N5375 G1 X-4.0391 Y1.0082
N5380 G3 X-4.0242 Y0.9914 I0.0151 J-0.0017
N5385 G1 X-3.2452 Y0.9817
N5390 G2 X-3.2437 I-0.0001 J-0.0405
N5395 G3 X-3.2422 I0.0011 J0.0273
N5400 X-3.2283 Y0.9949 I-0.0002 J0.0141
N5405 G1 X-3.1965 Y1.4718
N5410 G3 X-3.2261 Y1.4774 I-0.0151 J0.001
N5415 G1 X-3.3691 Y1.0243
N5420 G2 X-3.3834 Y1.0138 I-0.0145 J0.0046
N5425 G1 X-4.0241 Y1.0065
N5430 G3 X-4.0389 Y0.9931 I0.0002 J-0.0152
N5435 G1 X-4.044 Y0.9491
N5440 G3 X-4.0291 Y0.9323 I0.0151 J-0.0017
N5445 G1 X-3.1855 Y0.9224
N5450 G3 X-3.1715 Y0.936 I-0.0005 J0.0145
N5455 G1 X-3.1418 Y1.3823
N5460 G3 X-3.1707 Y1.3895 I-0.0151 J0.001
N5465 G1 X-3.3589 Y0.9639
N5470 G2 X-3.3726 Y0.9549 I-0.0139 J0.0061
N5475 G1 X-4.0289 Y0.9474
N5480 G3 X-4.0439 Y0.9334 I0.0002 J-0.0152
N5485 G1 X-4.0472 Y0.8882
N5490 G3 X-4.0323 Y0.8719 I0.0151 J-0.0011
N5495 G1 X-3.2238 Y0.8625
N5500 G2 X-3.1763 Y0.863 I0.051 J-2.6477
N5505 G3 X-3.1287 Y0.8642 I-0.0013 J0.9875
N5510 X-3.1146 Y0.8781 I-0.0007 J0.0149
N5515 G1 X-3.0882 Y1.2743
N5520 G3 X-3.1161 Y1.2834 I-0.0151 J0.001
N5525 G1 X-3.3582 Y0.9016
N5530 G2 X-3.3708 Y0.8945 I-0.0128 J0.0081
N5535 G1 X-4.0321 Y0.887
N5540 G3 X-4.0471 Y0.872 I0.0002 J-0.0152
N5545 G1 X-4.0473 Y0.8265
N5550 G3 X-4.0323 Y0.8113 I0.0152 J-0.0001
N5555 G1 X-3.2227 Y0.8019
N5560 X-3.1597 Y0.8031
N5565 G3 X-3.0718 Y0.8069 I-0.0359 J1.8668
N5570 X-3.0577 Y0.821 I-0.001 J0.0151
N5575 G1 X-3.0359 Y1.1473
N5580 G3 X-3.062 Y1.1588 I-0.0151 J0.001
N5585 G1 X-3.3665 Y0.8387
N5590 G2 X-3.3773 Y0.834 I-0.011 J0.0104
N5595 G1 X-4.0322 Y0.8265
N5600 G3 X-4.0471 Y0.8101 I0.0002 J-0.0152
N5605 G1 X-4.0435 Y0.7646
N5610 G3 X-4.0286 Y0.7507 I0.0151 J0.0012
N5615 G1 X-3.2215 Y0.7413
N5620 G3 X-3.1181 Y0.7441 I-0.1228 J6.3781
N5625 X-3.0149 Y0.7504 I-0.0737 J2.0784
N5630 X-3.0007 Y0.7648 I-0.0013 J0.0155
N5635 G1 X-2.9841 Y1.0135
N5640 G3 X-3.0077 Y1.0271 I-0.0151 J0.001
N5645 G1 X-3.3773 Y0.7761
N5650 G2 X-3.3856 Y0.7735 I-0.0085 J0.0125
N5655 G1 X-4.0284 Y0.7658
N5660 G3 X-4.0432 Y0.7481 I0.0002 J-0.0152
N5665 G1 X-4.0353 Y0.7026
N5670 G3 X-4.0205 Y0.69 I0.0149 J0.0026
N5675 G1 X-3.2203 Y0.6807
N5680 X-2.9863 Y0.6929
N5685 G2 X-2.9722 Y0.6938 I0.0246 J-0.271
N5690 G3 X-2.9581 Y0.6947 I-0.0075 J0.2253
N5695 X-2.9436 Y0.7097 I-0.0015 J0.016
N5700 G1 X-2.9314 Y0.8927
N5705 G3 X-2.9528 Y0.9075 I-0.0151 J0.001
N5710 G1 X-3.3797 Y0.7143
N5715 G2 X-3.3857 Y0.7129 I-0.0062 J0.0138
N5720 G1 X-4.0203 Y0.7052
N5725 G3 X-4.0347 Y0.6859 I0.0002 J-0.0152
N5730 G1 X-4.022 Y0.6403
N5735 G3 X-4.0076 Y0.6293 I0.0146 J0.0041
N5740 G1 X-3.2192 Y0.6201
N5745 X-3.0465 Y0.6282
N5750 X-2.9808 Y0.6328
N5755 G3 X-2.9008 Y0.6403 I-0.1305 J1.8381
N5760 X-2.8865 Y0.6553 I-0.0018 J0.0161
N5765 G1 X-2.8772 Y0.7941
N5770 G3 X-2.8971 Y0.8095 I-0.0151 J0.001
N5775 G1 X-3.3681 Y0.653
N5780 G2 X-3.3726 Y0.6522 I-0.0048 J0.0144
N5785 G1 X-4.0074 Y0.6444
N5790 G3 X-4.0213 Y0.6238 I0.0002 J-0.0152
N5795 G1 X-4.0036 Y0.5782
N5800 G3 X-3.9897 Y0.5685 I0.0141 J0.0055
N5805 G1 X-3.218 Y0.5595
N5810 X-3.0422 Y0.5677
N5815 X-2.8765 Y0.5831
N5820 G2 X-2.8601 Y0.5849 I0.0533 J-0.4091
N5825 G3 X-2.8437 Y0.5868 I-0.0268 J0.2989
N5830 X-2.8293 Y0.6024 I-0.0024 J0.0167
N5835 G1 X-2.8217 Y0.7162
N5840 G3 X-2.8409 Y0.7318 I-0.0151 J0.001
N5845 G1 X-3.3434 Y0.5919
N5850 G2 X-3.3473 Y0.5913 I-0.0041 J0.0146
N5855 G1 X-3.9895 Y0.5836
N5860 G3 X-4.0029 Y0.5617 I0.0002 J-0.0152
N5865 G1 X-3.98 Y0.516
N5870 G3 X-3.9667 Y0.5076 I0.0136 J0.0068
N5875 G1 X-3.2168 Y0.4989
N5880 X-3.0379 Y0.5072
N5885 X-2.8688 Y0.5237
N5890 G2 X-2.8276 Y0.5286 I0.2256 J-1.7326
N5895 G3 X-2.7865 Y0.5343 I-0.066 J0.6221
N5900 X-2.772 Y0.5505 I-0.003 J0.0173
N5905 G1 X-2.7652 Y0.6529
N5910 G3 X-2.7841 Y0.6686 I-0.0151 J0.001
N5915 G1 X-3.3087 Y0.5308
N5920 G2 X-3.3124 Y0.5303 I-0.0038 J0.0147
N5925 G1 X-3.9665 Y0.5228
N5930 G3 X-3.9792 Y0.4997 I0.0002 J-0.0152
N5935 G1 X-3.9512 Y0.454
N5940 G3 X-3.9385 Y0.4467 I0.0129 J0.0079
N5945 G1 X-3.2157 Y0.4383
N5950 X-3.0336 Y0.4468
N5955 X-2.8609 Y0.4636
N5960 X-2.7954 Y0.4721
N5965 G3 X-2.7293 Y0.4838 I-0.0978 J0.7511
N5970 X-2.7145 Y0.5009 I-0.0041 J0.0184
N5975 G1 X-2.708 Y0.5996
N5980 G3 X-2.727 Y0.6152 I-0.0151 J0.001
N5985 G1 X-3.2669 Y0.4698
N5990 G2 X-3.2707 Y0.4693 I-0.0039 J0.0146
N5995 G1 X-3.9383 Y0.4619
N6000 G3 X-3.9503 Y0.4378 I0.0002 J-0.0152
N6005 G1 X-3.9169 Y0.392
N6010 G3 X-3.9048 Y0.3857 I0.0122 J0.0089
N6015 G1 X-3.2145 Y0.3777
N6020 X-3.0293 Y0.3863
N6025 G3 X-2.8628 Y0.4012 I-0.3233 J4.5523
N6030 X-2.6981 Y0.4295 I-0.144 J1.3343
N6035 G2 X-2.6849 Y0.4322 I0.0584 J-0.2469
N6040 G3 X-2.6719 Y0.4352 I-0.0243 J0.1342
N6045 X-2.6569 Y0.4537 I-0.0057 J0.0199
N6050 G1 X-2.6503 Y0.5533
N6055 G3 X-2.6697 Y0.5688 I-0.0151 J0.001
N6060 G1 X-3.2194 Y0.4087
N6065 G2 X-3.2235 Y0.4081 I-0.0042 J0.0145
N6070 G1 X-3.9047 Y0.4009
N6075 G3 X-3.916 Y0.3759 I0.0002 J-0.0152
N6080 G1 X-3.8767 Y0.33
N6085 G3 X-3.8654 Y0.3247 I0.0115 J0.0099
N6090 G1 X-3.2133 Y0.3171
N6095 X-3.025 Y0.3259
N6100 G3 X-2.8538 Y0.3418 I-0.2806 J3.952
N6105 X-2.6843 Y0.3714 I-0.1666 J1.4507
N6110 G2 X-2.6491 Y0.3794 I0.414 J-1.7513
N6115 G3 X-2.6144 Y0.3894 I-0.054 J0.2506
N6120 X-2.5991 Y0.4098 I-0.0081 J0.0219
N6125 G1 X-2.5923 Y0.5119
N6130 G3 X-2.612 Y0.5274 I-0.0151 J0.001
N6135 G1 X-3.1694 Y0.35
N6140 G2 X-3.1737 Y0.3493 I-0.0046 J0.0144
N6145 G1 X-3.8652 Y0.3398
N6150 G3 X-3.8758 Y0.3141 I0.0002 J-0.0152
N6155 G1 X-3.8305 Y0.2681
N6160 G3 X-3.8199 Y0.2636 I0.0108 J0.0106
N6165 G1 X-3.2122 Y0.2565
N6170 X-3.0207 Y0.2654
N6175 G3 X-2.8446 Y0.2818 I-0.2821 J3.9729
N6180 X-2.6704 Y0.3124 I-0.1742 J1.5045
N6185 X-2.623 Y0.3243 I-0.4365 J1.8464
N6190 X-2.5766 Y0.3395 I-0.1059 J0.4017
N6195 G2 X-2.5668 Y0.3431 I0.1069 J-0.2713
N6200 G3 X-2.5571 Y0.3472 I-0.0326 J0.0924
N6205 X-2.541 Y0.3709 I-0.0123 J0.0257
N6210 G1 X-2.5341 Y0.4743
N6215 G3 X-2.5542 Y0.4896 I-0.0151 J0.001
N6220 G1 X-3.1138 Y0.2921
N6225 G2 X-3.1186 Y0.2912 I-0.005 J0.0143
N6230 G1 X-3.8197 Y0.2787
N6235 G3 X-3.8295 Y0.2522 I0.0003 J-0.0152
N6240 G1 X-3.7772 Y0.2062
N6245 G3 X-3.7673 Y0.2024 I0.01 J0.0114
N6250 G1 X-3.211 Y0.1959
N6255 X-3.0164 Y0.2049
N6260 G3 X-2.8355 Y0.2219 I-0.2839 J3.9976
N6265 X-2.6564 Y0.2534 I-0.182 J1.5585
N6270 X-2.587 Y0.2718 I-0.3165 J1.3385
N6275 X-2.5203 Y0.2984 I-0.1066 J0.3647
N6280 G2 X-2.5105 Y0.3032 I0.3644 J-0.7108
N6285 G3 X-2.5011 Y0.3085 I-0.0488 J0.0985
N6290 X-2.4823 Y0.3399 I-0.0213 J0.0341
N6295 G1 X-2.4756 Y0.4399
N6300 G3 X-2.4963 Y0.455 I-0.0151 J0.001
N6305 G1 X-3.0545 Y0.2343
N6310 G2 X-3.0597 Y0.2333 I-0.0056 J0.0141
N6315 G1 X-3.7672 Y0.2175
N6320 G3 X-3.776 Y0.1903 I0.0003 J-0.0151
N6325 G1 X-3.7154 Y0.1442
N6330 G3 X-3.7064 Y0.1411 I0.0092 J0.0121
N6335 G1 X-3.2098 Y0.1353
N6340 X-3.0121 Y0.1445
N6345 G3 X-2.8263 Y0.162 I-0.2859 J4.0256
N6350 X-2.6425 Y0.1944 I-0.1898 J1.6126
N6355 X-2.5502 Y0.2204 I-0.2635 J1.1144
N6360 X-2.464 Y0.2623 I-0.1088 J0.3329
N6365 X-2.4437 Y0.2775 I-0.1417 J0.2114
N6370 X-2.4274 Y0.2969 I-0.0447 J0.0541
N6375 X-2.4259 Y0.302 I-0.0103 J0.0059
N6380 G1 X-2.4255 Y0.3073
N6385 X-2.4187 Y0.4084
N6390 G3 X-2.44 Y0.4233 I-0.0151 J0.001
N6395 G1 X-2.9918 Y0.1772
N6400 G2 X-2.9975 Y0.1759 I-0.0062 J0.0138
N6405 G1 X-3.7062 Y0.1562
N6410 G3 X-3.714 Y0.1283 I0.0004 J-0.0151
N6415 G1 X-3.6418 Y0.0821
N6420 G3 X-3.6338 Y0.0797 I0.0082 J0.0128
N6425 G1 X-3.2087 Y0.0747
N6430 X-3.0078 Y0.084
N6435 G3 X-2.8172 Y0.1021 I-0.2881 J4.0565
N6440 X-2.6286 Y0.1354 I-0.1976 J1.667
N6445 X-2.526 Y0.1648 I-0.2635 J1.1144
N6450 X-2.4303 Y0.212 I-0.129 J0.3825
N6455 X-2.3937 Y0.2411 I-0.1574 J0.2349
N6460 X-2.3685 Y0.2805 I-0.0662 J0.0702
N6465 X-2.366 Y0.2918 I-0.0493 J0.0166
N6470 X-2.365 Y0.3033 I-0.3185 J0.0328
N6475 G1 X-2.36 Y0.3785
N6480 G3 X-2.3819 Y0.3931 I-0.0151 J0.001
N6485 G1 X-2.923 Y0.1224
N6490 G2 X-2.9292 Y0.1208 I-0.0068 J0.0136
N6495 G1 X-3.6337 Y0.0948
N6500 G3 X-3.6401 Y0.0662 I0.0006 J-0.0151
N6505 G1 X-3.5452 Y0.0172
N6510 G3 X-3.5384 Y0.0155 I0.007 J0.0135
N6515 G1 X-3.3364 Y0.013
N6520 X-3.2934 Y0.0125
N6525 X-3.2931 Y0.0124
N6530 X-3.2514 Y0.0116
N6535 X-3.2363 Y0.0117
N6540 X-3.2075 Y0.0121
N6545 X-3.1771 Y0.0128
N6550 X-3.1451 Y0.0139
N6555 X-3.1117 Y0.0153
N6560 X-3.0769 Y0.017
N6565 X-3.0407 Y0.0191
N6570 X-3.0034 Y0.0216
N6575 X-2.965 Y0.0245
N6580 X-2.9259 Y0.0278
N6585 X-2.8862 Y0.0316
N6590 X-2.8059 Y0.0409
N6595 X-2.7263 Y0.0524
N6600 X-2.6879 Y0.0591
N6605 X-2.6503 Y0.0665
N6610 X-2.6141 Y0.0745
N6615 X-2.5796 Y0.0832
N6620 X-2.5468 Y0.0925
N6625 X-2.516 Y0.1025
N6630 X-2.4874 Y0.1131
N6635 X-2.461 Y0.1241
N6640 X-2.4369 Y0.1357
N6645 X-2.415 Y0.1477
N6650 X-2.3954 Y0.1599
N6655 X-2.3779 Y0.1725
N6660 X-2.3626 Y0.1851
N6665 X-2.3492 Y0.1979
N6670 X-2.3378 Y0.2106
N6675 X-2.3282 Y0.2233
N6680 X-2.3202 Y0.2358
N6685 X-2.3139 Y0.2482
N6690 X-2.3091 Y0.2605
N6695 X-2.3056 Y0.2727
N6700 X-2.3035 Y0.2848
N6705 X-2.3026 Y0.2991
N6710 X-2.2992 Y0.35
N6715 G3 Y0.3513 I-0.0079 J0.0005
N6720 G1 X-2.3019 Y0.3816
N6725 X-2.3021 Y0.3836 Z-0.0897
N6730 X-2.3023 Y0.3855 Z-0.0889
N6735 X-2.3024 Y0.3871 Z-0.0877
N6740 X-2.3026 Y0.3884 Z-0.0861
N6745 Y0.3892 Z-0.0842
N6750 X-2.3027 Y0.3894 Z-0.0821
N6755 G0 Z0.5
N6760 X-3.8753 Y-1.8917
N6765 Z0.1079
N6770 G1 Z0.0394 F20.
N6775 Z-0.0821
N6780 X-3.8756 Z-0.0842
N6785 X-3.8764 Y-1.8916 Z-0.0861
N6790 X-3.8777 Z-0.0877
N6795 X-3.8793 Y-1.8915 Z-0.0889
N6800 X-3.8812 Z-0.0897
N6805 X-3.8832 Y-1.8914 Z-0.09
N6810 X-3.884
N6815 X-4.2115 Y-1.8805
N6820 G3 X-4.2125 Y-1.9093 I-0.0005 J-0.0144
N6825 G1 X-4.05 Y-1.9147
N6830 G3 X-4.0487 I0.0005 J0.0144
N6835 G1 X-3.8845 Y-1.9058
N6840 G3 X-3.8806 Y-1.905 I-0.0008 J0.0144
N6845 G1 X-3.7666 Y-1.8664
N6850 G3 X-3.7629 Y-1.841 I-0.0046 J0.0136
N6855 X-3.7735 Y-1.8374 I-0.0112 J-0.0159
N6860 G1 X-4.3471 Y-1.8184
N6865 G3 X-4.3481 Y-1.8471 I-0.0005 J-0.0144
N6870 G1 X-4.0563 Y-1.8569
N6875 G3 X-4.0556 I0.0005 J0.0144
N6880 G1 X-3.7712 Y-1.8528
N6885 G3 X-3.7646 Y-1.851 I-0.0002 J0.0144
N6890 G1 X-3.715 Y-1.8241
N6895 G3 X-3.708 Y-1.8076 I-0.0069 J0.0127
N6900 G1 X-3.7113 Y-1.7955
N6905 G3 X-3.7294 Y-1.7813 I-0.0187 J-0.0052
N6910 G1 X-4.4408 Y-1.7576
N6915 X-4.4411
N6920 X-4.4431 Z-0.0897
N6925 X-4.445 Y-1.7575 Z-0.0889
N6930 X-4.4467 Y-1.7574 Z-0.0877
N6935 X-4.4479 Z-0.0861
N6940 X-4.4487 Z-0.0842
N6945 X-4.449 Z-0.0821
N6950 X-3.6469 Y-1.812
N6955 X-3.647 Y-1.8118 Z-0.0842
N6960 X-3.6472 Y-1.811 Z-0.0861
N6965 X-3.6475 Y-1.8098 Z-0.0877
N6970 X-3.648 Y-1.8082 Z-0.0889
N6975 X-3.6485 Y-1.8064 Z-0.0897
N6980 X-3.649 Y-1.8045 Z-0.09
N6985 X-3.6585 Y-1.7708
N6990 X-3.6673 Y-1.7394
N6995 G3 X-3.6854 Y-1.7252 I-0.0187 J-0.0052
N7000 G1 X-4.4906 Y-1.6984
N7005 X-4.4909
N7010 X-4.493 Y-1.6983 Z-0.0897
N7015 X-4.4949 Y-1.6982 Z-0.0889
N7020 X-4.4965 Z-0.0877
N7025 X-4.4977 Y-1.6981 Z-0.0861
N7030 X-4.4985 Z-0.0842
N7035 X-4.4988 Z-0.0821
N7040 X-3.5986 Y-1.7711
N7045 Y-1.7709 Z-0.0842
N7050 X-3.5989 Y-1.7701 Z-0.0861
N7055 X-3.5992 Y-1.7689 Z-0.0877
N7060 X-3.5996 Y-1.7673 Z-0.0889
N7065 X-3.6001 Y-1.7655 Z-0.0897
N7070 X-3.6007 Y-1.7635 Z-0.09
N7075 X-3.6104 Y-1.7289
N7080 X-3.6232 Y-1.6832
N7085 G3 X-3.6413 Y-1.669 I-0.0187 J-0.0052
N7090 G1 X-4.3704 Y-1.6448
N7095 X-4.3707 Y-1.6447
N7100 X-4.3727 Z-0.0897
N7105 X-4.3746 Y-1.6446 Z-0.0889
N7110 X-4.3762 Z-0.0877
N7115 X-4.3775 Y-1.6445 Z-0.0861
N7120 X-4.3783 Z-0.0842
N7125 X-4.3785 Z-0.0821
N7130 X-3.5515 Y-1.7256
N7135 X-3.5516 Y-1.7253 Z-0.0842
N7140 X-3.5518 Y-1.7246 Z-0.0861
N7145 X-3.5522 Y-1.7234 Z-0.0877
N7150 X-3.5526 Y-1.7218 Z-0.0889
N7155 X-3.5531 Y-1.72 Z-0.0897
N7160 X-3.5537 Y-1.718 Z-0.09
N7165 X-3.564 Y-1.6812
N7170 X-3.5791 Y-1.6271
N7175 G3 X-3.5972 Y-1.6129 I-0.0187 J-0.0052
N7180 G1 X-4.2929 Y-1.5897
N7185 X-4.2932
N7190 X-4.2953 Y-1.5896 Z-0.0897
N7195 X-4.2972 Z-0.0889
N7200 X-4.2988 Y-1.5895 Z-0.0877
N7205 X-4.3001 Z-0.0861
N7210 X-4.3008 Z-0.0842
N7215 X-4.3011 Y-1.5894 Z-0.0821
N7220 X-3.506 Y-1.6746
N7225 X-3.5061 Y-1.6743 Z-0.0842
N7230 X-3.5063 Y-1.6736 Z-0.0861
N7235 X-3.5066 Y-1.6724 Z-0.0877
N7240 X-3.5071 Y-1.6708 Z-0.0889
N7245 X-3.5076 Y-1.669 Z-0.0897
N7250 X-3.5081 Y-1.667 Z-0.09
N7255 X-3.519 Y-1.6281
N7260 X-3.5351 Y-1.5709
N7265 G3 X-3.5532 Y-1.5567 I-0.0187 J-0.0052
N7270 G1 X-4.2508 Y-1.5335
N7275 X-4.2511
N7280 X-4.2532 Y-1.5334 Z-0.0897
N7285 X-4.2551 Z-0.0889
N7290 X-4.2567 Y-1.5333 Z-0.0877
N7295 X-4.2579 Z-0.0861
N7300 X-4.2587 Y-1.5332 Z-0.0842
N7305 X-4.259 Z-0.0821
N7310 X-3.4622 Y-1.6177
N7315 Y-1.6174 Z-0.0842
N7320 X-3.4624 Y-1.6167 Z-0.0861
N7325 X-3.4628 Y-1.6155 Z-0.0877
N7330 X-3.4632 Y-1.6139 Z-0.0889
N7335 X-3.4637 Y-1.6121 Z-0.0897
N7340 X-3.4643 Y-1.6101 Z-0.09
N7345 X-3.4759 Y-1.5687
N7350 X-3.491 Y-1.5148
N7355 G3 X-3.5091 Y-1.5006 I-0.0187 J-0.0052
N7360 G1 X-4.2216 Y-1.4769
N7365 X-4.2219
N7370 X-4.224 Y-1.4768 Z-0.0897
N7375 X-4.2259 Y-1.4767 Z-0.0889
N7380 X-4.2275 Z-0.0877
N7385 X-4.2287 Y-1.4766 Z-0.0861
N7390 X-4.2295 Z-0.0842
N7395 X-4.2298 Z-0.0821
N7400 X-3.4201 Y-1.5543
N7405 X-3.4202 Y-1.5541 Z-0.0842
N7410 X-3.4204 Y-1.5533 Z-0.0861
N7415 X-3.4207 Y-1.5521 Z-0.0877
N7420 X-3.4212 Y-1.5506 Z-0.0889
N7425 X-3.4217 Y-1.5487 Z-0.0897
N7430 X-3.4222 Y-1.5468 Z-0.09
N7435 X-3.4346 Y-1.5025
N7440 X-3.4469 Y-1.4586
N7445 G3 X-3.465 Y-1.4444 I-0.0187 J-0.0052
N7450 G1 X-4.1999 Y-1.42
N7455 X-4.2002
N7460 X-4.2022 Y-1.4199 Z-0.0897
N7465 X-4.2041 Y-1.4198 Z-0.0889
N7470 X-4.2058 Z-0.0877
N7475 X-4.207 Y-1.4197 Z-0.0861
N7480 X-4.2078 Z-0.0842
N7485 X-4.2081 Z-0.0821
N7490 X-3.3798 Y-1.4849
N7495 Y-1.4847 Z-0.0842
N7500 X-3.38 Y-1.4839 Z-0.0861
N7505 X-3.3804 Y-1.4827 Z-0.0877
N7510 X-3.3808 Y-1.4812 Z-0.0889
N7515 X-3.3813 Y-1.4793 Z-0.0897
N7520 X-3.3819 Y-1.4774 Z-0.09
N7525 X-3.3953 Y-1.4296
N7530 X-3.4029 Y-1.4025
N7535 G3 X-3.4209 Y-1.3883 I-0.0187 J-0.0052
N7540 G1 X-4.1837 Y-1.3629
N7545 X-4.184
N7550 X-4.186 Y-1.3628 Z-0.0897
N7555 X-4.1879 Z-0.0889
N7560 X-4.1896 Y-1.3627 Z-0.0877
N7565 X-4.1908 Z-0.0861
N7570 X-4.1916 Y-1.3626 Z-0.0842
N7575 X-4.1919 Z-0.0821
N7580 X-3.3413 Y-1.4087
N7585 X-3.3414 Y-1.4084 Z-0.0842
N7590 X-3.3416 Y-1.4077 Z-0.0861
N7595 X-3.3419 Y-1.4065 Z-0.0877
N7600 X-3.3424 Y-1.4049 Z-0.0889
N7605 X-3.3429 Y-1.4031 Z-0.0897
N7610 X-3.3434 Y-1.4011 Z-0.09
N7615 X-3.3577 Y-1.3503
N7620 X-3.3588 Y-1.3463
N7625 G3 X-3.3769 Y-1.3321 I-0.0187 J-0.0052
N7630 G1 X-4.1718 Y-1.3057
N7635 X-4.1721
N7640 X-4.1741 Y-1.3056 Z-0.0897
N7645 X-4.176 Y-1.3055 Z-0.0889
N7650 X-4.1776 Z-0.0877
N7655 X-4.1789 Y-1.3054 Z-0.0861
N7660 X-4.1797 Z-0.0842
N7665 X-4.1799 Z-0.0821
N7670 X-3.2895 Y-1.2932
N7675 X-3.2897 Y-1.2931 Z-0.0842
N7680 X-3.2904 Y-1.2928 Z-0.0861
N7685 X-3.2916 Y-1.2923 Z-0.0877
N7690 X-3.2931 Y-1.2916 Z-0.0889
N7695 X-3.2948 Y-1.2909 Z-0.0897
N7700 X-3.2967 Y-1.29 Z-0.09
N7705 X-3.3256 Y-1.2774
N7710 G3 X-3.3328 Y-1.2758 I-0.0076 J-0.0174
N7715 G1 X-4.1635 Y-1.2482
N7720 G3 X-4.1645 Y-1.277 I-0.0005 J-0.0144
N7725 G1 X-3.7459 Y-1.2909
N7730 G3 X-3.7454 I0.0005 J0.0144
N7735 G1 X-3.3313 Y-1.2906
N7740 G3 X-3.3197 Y-1.2847 I0. J0.0144
N7745 G1 X-3.2882 Y-1.2418
N7750 G3 X-3.3 Y-1.2188 I-0.0116 J0.0085
N7755 X-3.3213 Y-1.2194 I0.0054 J-0.6672
N7760 G2 X-3.3537 Y-1.2195 I-0.0177 J0.4409
N7765 G1 X-4.1586 Y-1.1922
N7770 G3 X-4.1596 Y-1.221 I-0.0005 J-0.0144
N7775 G1 X-3.7308 Y-1.2355
N7780 G3 X-3.7303 I0.0005 J0.0144
N7785 G1 X-3.2998 Y-1.2332
N7790 G3 X-3.2876 Y-1.2263 I-0.0001 J0.0144
N7795 G1 X-3.2618 Y-1.1834
N7800 G3 X-3.2742 Y-1.1616 I-0.0123 J0.0074
N7805 X-3.2984 Y-1.162 I0.0012 J-0.7244
N7810 G2 X-3.3518 Y-1.1619 I-0.0253 J0.8412
N7815 G1 X-4.1566 Y-1.1347
N7820 G3 X-4.1714 Y-1.1486 I-0.0005 J-0.0144
N7825 X-4.1575 Y-1.1634 I0.0144 J-0.0005
N7830 G1 X-3.7169 Y-1.1784
N7835 G3 X-3.7163 I0.0005 J0.0144
N7840 G1 X-3.2741 Y-1.176
N7845 G3 X-3.2621 Y-1.1693 I-0.0001 J0.0144
N7850 G1 X-3.2349 Y-1.127
N7855 G3 X-3.2469 Y-1.1049 I-0.0121 J0.0078
N7860 X-3.2678 I-0.0067 J-1.0185
N7865 G2 X-3.3347 Y-1.1048 I-0.0281 J2.0183
N7870 G1 X-4.1573 Y-1.077
N7875 G3 X-4.1582 Y-1.1057 I-0.0005 J-0.0144
N7880 G1 X-3.7036 Y-1.1211
N7885 G3 X-3.7031 I0.0005 J0.0144
N7890 G1 X-3.247 Y-1.1193
N7895 G3 X-3.2353 Y-1.1132 I-0.0001 J0.0144
N7900 G1 X-3.2056 Y-1.0712
N7905 G3 X-3.2172 Y-1.0485 I-0.0118 J0.0083
N7910 X-3.2329 Y-1.0484 I-0.015 J-1.1456
N7915 G2 X-3.3091 Y-1.0477 I-0.0023 J3.8552
N7920 G1 X-4.1602 Y-1.019
N7925 G3 X-4.1611 Y-1.0478 I-0.0005 J-0.0144
N7930 G1 X-3.6902 Y-1.0636
N7935 G3 X-3.6897 Y-1.0637 I0.0005 J0.0144
N7940 G1 X-3.2174 Y-1.0629
N7945 G3 X-3.2061 Y-1.0574 I0. J0.0144
N7950 G1 X-3.1743 Y-1.017
N7955 G3 X-3.1851 Y-0.9937 I-0.0113 J0.0089
N7960 G1 X-4.1649 Y-0.9608
N7965 G3 X-4.1659 Y-0.9896 I-0.0005 J-0.0144
N7970 G1 X-3.6764 Y-1.006
N7975 G3 X-3.676 I0.0005 J0.0144
N7980 G1 X-3.1856 Y-1.0081
N7985 G3 X-3.1747 Y-1.0031 I0.0001 J0.0144
N7990 G1 X-3.139 Y-0.9623
N7995 G3 X-3.1492 Y-0.9385 I-0.0108 J0.0095
N8000 G1 X-3.2786 Y-0.9328
N8005 X-3.3004 Y-0.9326
N8010 G2 X-3.3441 Y-0.9317 I0.0148 J1.7585
N8015 G1 X-4.1704 Y-0.9038
N8020 G3 X-4.1852 Y-0.9177 I-0.0005 J-0.0144
N8025 X-4.1713 Y-0.9326 I0.0144 J-0.0005
N8030 G1 X-3.6612 Y-0.9498
N8035 G3 X-3.6608 I0.0005 J0.0144
N8040 G1 X-3.1499 Y-0.9528
N8045 G3 X-3.1395 Y-0.9485 I0.0001 J0.0144
N8050 G1 X-3.1 Y-0.9084
N8055 G3 X-3.1095 Y-0.884 I-0.0103 J0.0101
N8060 G1 X-3.2711 Y-0.8753
N8065 X-4.1759 Y-0.845
N8070 G3 X-4.1768 Y-0.8738 I-0.0005 J-0.0144
N8075 G1 X-3.6439 Y-0.8916
N8080 X-3.6436
N8085 X-3.1103 Y-0.8983
N8090 G3 X-3.1003 Y-0.8945 I0.0002 J0.0144
N8095 G1 X-3.0574 Y-0.8543
N8100 G3 X-3.0662 Y-0.8295 I-0.0098 J0.0105
N8105 G1 X-3.1916 Y-0.8202
N8110 G3 X-3.2659 Y-0.8182 I-0.0929 J-2.0609
N8115 G2 X-3.3403 Y-0.8166 I0.0276 J3.0644
N8120 G1 X-4.18 Y-0.7882
N8125 G3 X-4.181 Y-0.817 I-0.0005 J-0.0144
N8130 G1 X-3.6242 Y-0.8358
N8135 X-3.624
N8140 X-3.0672 Y-0.8438
N8145 G3 X-3.0577 Y-0.8404 I0.0002 J0.0144
N8150 G1 X-3.0118 Y-0.8016
N8155 G3 X-3.0198 Y-0.7763 I-0.0093 J0.011
N8160 G1 X-3.1418 Y-0.7651
N8165 X-3.328 Y-0.7594
N8170 X-4.1818 Y-0.7305
N8175 G3 X-4.1966 Y-0.7444 I-0.0005 J-0.0144
N8180 X-4.1827 Y-0.7593 I0.0144 J-0.0005
N8185 G1 X-3.6016 Y-0.7789
N8190 X-3.0211 Y-0.7906
N8195 G3 X-3.0121 Y-0.7877 I0.0003 J0.0144
N8200 G1 X-2.9627 Y-0.7501
N8205 G3 X-2.9698 Y-0.7243 I-0.0087 J0.0115
N8210 G1 X-3.0927 Y-0.7107
N8215 X-3.3025 Y-0.7023
N8220 X-4.1802 Y-0.6727
N8225 G3 X-4.1812 Y-0.7015 I-0.0005 J-0.0144
N8230 G1 X-3.5756 Y-0.7219
N8235 X-2.9714 Y-0.7386
N8240 G3 X-2.9626 Y-0.7359 I0.0004 J0.0144
N8245 G1 X-2.9077 Y-0.6967
N8250 G3 X-2.9139 Y-0.6707 I-0.0084 J0.0117
N8255 X-2.9878 Y-0.6616 I-0.2049 J-1.3517
N8260 X-3.1351 Y-0.6502 I-0.3809 J-3.9561
N8265 G1 X-3.3258 Y-0.6442
N8270 X-4.1744 Y-0.6156
N8275 G3 X-4.1892 Y-0.6295 I-0.0005 J-0.0144
N8280 X-4.1753 Y-0.6443 I0.0144 J-0.0005
N8285 G1 X-3.5446 Y-0.6656
N8290 X-2.916 Y-0.685
N8295 G3 X-2.908 Y-0.6828 I0.0004 J0.0144
N8300 G1 X-2.8529 Y-0.6484
N8305 G3 X-2.8579 Y-0.6221 I-0.0076 J0.0122
N8310 X-2.9394 Y-0.6097 I-0.2326 J-1.2626
N8315 X-3.0842 Y-0.5958 I-0.3856 J-3.2527
N8320 G1 X-3.3003 Y-0.5871
N8325 X-4.1636 Y-0.5581
N8330 G3 X-4.1646 Y-0.5868 I-0.0005 J-0.0144
N8335 G1 X-3.5109 Y-0.6088
N8340 X-2.8605 Y-0.6362
N8345 G3 X-2.8529 Y-0.6344 I0.0006 J0.0144
N8350 G1 X-2.7945 Y-0.602
N8355 G3 X-2.7984 Y-0.5754 I-0.007 J0.0126
N8360 X-2.8285 Y-0.5695 I-0.1434 J-0.6519
N8365 X-2.9094 Y-0.5566 I-0.5556 J-3.2257
N8370 G1 X-3.08 Y-0.5384
N8375 X-3.2992 Y-0.5295
N8380 X-4.1474 Y-0.501
N8385 G3 X-4.1622 Y-0.5149 I-0.0005 J-0.0144
N8390 X-4.1483 Y-0.5298 I0.0144 J-0.0005
N8395 G1 X-3.4729 Y-0.5525
N8400 X-3.4726
N8405 X-2.8015 Y-0.5894
N8410 G3 X-2.7944 Y-0.588 I0.0008 J0.0144
N8415 G1 X-2.7339 Y-0.5589
N8420 G3 X-2.7361 Y-0.5321 I-0.0062 J0.013
N8425 X-2.8206 Y-0.5123 I-0.2223 J-0.7618
N8430 X-2.9412 Y-0.4941 I-0.4301 J-2.4399
N8435 G1 X-3.1249 Y-0.4777
N8440 X-3.3225 Y-0.4715
N8445 X-4.1252 Y-0.4444
N8450 G3 X-4.1261 Y-0.4732 I-0.0005 J-0.0144
N8455 G1 X-3.43 Y-0.4967
N8460 G2 X-3.4295 I-0.0005 J-0.0144
N8465 G1 X-2.7401 Y-0.5459
N8470 G3 X-2.7338 Y-0.5449 I0.001 J0.0144
N8475 G1 X-2.6702 Y-0.5198
N8480 G3 X-2.6703 Y-0.493 I-0.0053 J0.0134
N8485 X-2.7184 Y-0.4777 I-0.151 J-0.3939
N8490 X-2.784 Y-0.4622 I-0.5737 J-2.2808
N8495 X-3.0515 Y-0.4247 I-0.3723 J-1.6824
N8500 X-3.3214 Y-0.4139 I-0.3942 J-6.4723
N8505 G1 X-4.0961 Y-0.3878
N8510 G3 X-4.0971 Y-0.4166 I-0.0005 J-0.0144
N8515 G1 X-3.3816 Y-0.4407
N8520 G2 X-3.3807 I-0.0005 J-0.0144
N8525 G1 X-2.6755 Y-0.5064
N8530 G3 X-2.6698 Y-0.5058 I0.0013 J0.0143
N8535 G1 X-2.6066 Y-0.4858
N8540 G3 X-2.6033 Y-0.4598 I-0.0044 J0.0137
N8545 X-2.6078 Y-0.4573 I-0.025 J-0.04
N8550 X-2.7053 Y-0.4216 I-0.229 J-0.4742
N8555 X-2.8066 Y-0.3988 I-0.4261 J-1.6518
N8560 X-3.0392 Y-0.3672 I-0.3943 J-2.033
N8565 X-3.2738 Y-0.357 I-0.2628 J-3.3555
N8570 G1 X-3.2956 Y-0.3569
N8575 G2 X-3.325 Y-0.3562 I0.0099 J1.1827
N8580 G1 X-4.0593 Y-0.3315
N8585 G3 X-4.0603 Y-0.3602 I-0.0005 J-0.0144
N8590 G1 X-3.3276 Y-0.3849
N8595 G2 X-3.3264 Y-0.385 I-0.0005 J-0.0144
N8600 G1 X-2.611 Y-0.472
N8605 G3 X-2.6056 Y-0.4717 I0.0017 J0.0143
N8610 G1 X-2.5495 Y-0.4571
N8615 G3 X-2.5414 Y-0.4349 I-0.0036 J0.0139
N8620 X-2.5593 Y-0.4181 I-0.0494 J-0.0348
N8625 X-2.5871 Y-0.4042 I-0.0963 J-0.1576
N8630 G2 X-2.6159 Y-0.3926 I1.8589 J4.6557
N8635 G3 X-2.744 Y-0.3528 I-0.2977 J-0.7324
N8640 X-2.876 Y-0.3287 I-0.4074 J-1.8552
N8645 G1 X-3.0631 Y-0.3087
N8650 X-3.2947 Y-0.2993
N8655 X-4.013 Y-0.2751
N8660 G3 X-4.0278 Y-0.289 I-0.0005 J-0.0144
N8665 X-4.0139 Y-0.3039 I0.0144 J-0.0005
N8670 G1 X-3.2693 Y-0.329
N8675 G2 X-3.2675 Y-0.3292 I-0.0005 J-0.0144
N8680 G1 X-2.5531 Y-0.4432
N8685 G3 X-2.549 I0.0023 J0.0142
N8690 G1 X-2.4951 Y-0.4363
N8695 G3 X-2.4836 Y-0.4167 I-0.0018 J0.0143
N8700 X-2.5141 Y-0.3786 I-0.0787 J-0.0318
N8705 X-2.5652 Y-0.3507 I-0.1591 J-0.2304
N8710 X-2.6195 Y-0.3295 I-0.4616 J-1.1048
N8715 X-2.7642 Y-0.2894 I-0.333 J-0.9208
N8720 X-2.9124 Y-0.2656 I-0.4228 J-2.1567
N8725 G1 X-3.1114 Y-0.2478
N8730 X-3.3181 Y-0.2412
N8735 X-3.9551 Y-0.2197
N8740 G3 X-3.9561 Y-0.2485 I-0.0005 J-0.0144
N8745 G1 X-3.2037 Y-0.2734
N8750 G2 X-3.2012 Y-0.2737 I-0.0005 J-0.0144
N8755 G1 X-2.497 Y-0.4221
N8760 G3 X-2.4938 Y-0.4224 I0.003 J0.0141
N8765 G1 X-2.4425 Y-0.4215
N8770 G3 X-2.4289 Y-0.4033 I-0.0002 J0.0144
N8775 G1 X-2.436 Y-0.3778
N8780 G3 X-2.447 Y-0.3611 I-0.038 J-0.013
N8785 X-2.4619 Y-0.348 I-0.331 J-0.3625
N8790 X-2.5419 Y-0.2984 I-0.2106 J-0.2503
N8795 X-2.6299 Y-0.2652 I-0.3756 J-0.862
N8800 X-2.7899 Y-0.2258 I-0.363 J-1.1299
N8805 X-2.9531 Y-0.2029 I-0.4324 J-2.4914
N8810 G1 X-3.1631 Y-0.1875
N8815 G3 X-3.2412 Y-0.1853 I-0.1011 J-2.2427
N8820 G2 X-3.3192 Y-0.1836 I0.0348 J3.3945
N8825 G1 X-3.882 Y-0.1646
N8830 G3 X-3.883 Y-0.1934 I-0.0005 J-0.0144
N8835 G1 X-3.1306 Y-0.2184
N8840 G2 X-3.1273 Y-0.219 I-0.0005 J-0.0144
N8845 G1 X-2.4427 Y-0.4071
N8850 G3 X-2.4398 Y-0.4076 I0.0038 J0.0139
N8855 G1 X-2.3868 Y-0.411
N8860 G3 X-2.372 Y-0.3928 I0.0009 J0.0144
N8865 G1 X-2.3815 Y-0.3591
N8870 G3 X-2.4126 Y-0.3134 I-0.0988 J-0.0338
N8875 X-2.457 Y-0.2803 I-0.2796 J-0.3288
N8880 X-2.5663 Y-0.2259 I-0.2904 J-0.4468
N8885 X-2.683 Y-0.1903 I-0.4128 J-1.1423
N8890 X-2.7442 Y-0.1763 I-0.339 J-1.3486
N8895 X-2.8058 Y-0.1648 I-0.373 J-1.8293
N8900 G1 X-2.9978 Y-0.1407
N8905 X-3.2181 Y-0.1277
N8910 G3 X-3.2792 Y-0.1265 I-0.0759 J-2.2766
N8915 G2 X-3.3402 Y-0.1253 I0.015 J2.2875
N8920 G1 X-3.787 Y-0.1102
N8925 G3 X-3.788 Y-0.139 I-0.0005 J-0.0144
N8930 G1 X-3.0437 Y-0.1663
N8935 G2 X-3.0395 Y-0.1671 I-0.0005 J-0.0144
N8940 G1 X-2.3859 Y-0.3967
N8945 G3 X-2.3828 Y-0.3974 I0.0048 J0.0136
N8950 G1 X-2.3277 Y-0.4039
N8955 G3 X-2.3121 Y-0.3857 I0.0017 J0.0143
N8960 G1 X-2.3208 Y-0.3549
N8965 X-2.325 Y-0.3398
N8970 X-2.3303 Y-0.3268
N8975 X-2.3374 Y-0.3135
N8980 X-2.3465 Y-0.3
N8985 X-2.3576 Y-0.2862
N8990 X-2.3709 Y-0.2723
N8995 X-2.3865 Y-0.2583
N9000 X-2.4043 Y-0.2442
N9005 X-2.4245 Y-0.2303
N9010 X-2.447 Y-0.2166
N9015 X-2.4718 Y-0.2031
N9020 X-2.499 Y-0.19
N9025 X-2.5284 Y-0.1773
N9030 X-2.5601 Y-0.1652
N9035 X-2.594 Y-0.1536
N9040 X-2.6302 Y-0.1427
N9045 X-2.6685 Y-0.1325
N9050 X-2.7089 Y-0.1229
N9055 X-2.7514 Y-0.1141
N9060 X-2.7959 Y-0.1061
N9065 X-2.8423 Y-0.0988
N9070 X-2.8906 Y-0.0922
N9075 X-2.9407 Y-0.0864
N9080 X-2.9925 Y-0.0813
N9085 X-3.046 Y-0.077
N9090 X-3.1011 Y-0.0733
N9095 X-3.1578 Y-0.0704
N9100 X-3.2161 Y-0.0682
N9105 X-3.2522 Y-0.0671
N9110 X-3.271
N9115 X-3.2713
N9120 X-3.2899 Y-0.067
N9125 G2 X-3.2903 I0.0003 J0.0394
N9130 G1 X-3.3148 Y-0.0665
N9135 G2 X-3.3153 I0.0008 J0.0394
N9140 G1 X-3.3382 Y-0.0657
N9145 X-3.6525 Y-0.0553
N9150 G3 X-3.6537 I-0.0003 J-0.0079
N9155 G1 X-3.6839 Y-0.0591
N9160 X-3.6859 Y-0.0594 Z-0.0897
N9165 X-3.6878 Y-0.0596 Z-0.0889
N9170 X-3.6895 Y-0.0598 Z-0.0877
N9175 X-3.6907 Y-0.0599 Z-0.0861
N9180 X-3.6915 Y-0.06 Z-0.0842
N9185 X-3.6917 Y-0.0601 Z-0.0821
N9190 G0 Z0.5
N9195 X2.5715 Y0.0808
N9200 Z0.1079
N9205 G1 Z0.0394 F20.
N9210 Z-0.0321
N9215 X2.5712 Y0.0807 Z-0.0342
N9220 X2.5705 Y0.0804 Z-0.0361
N9225 X2.5694 Y0.0798 Z-0.0377
N9230 X2.568 Y0.0791 Z-0.0389
N9235 X2.5663 Y0.0782 Z-0.0397
N9240 X2.5645 Y0.0773 Z-0.04
N9245 X2.5642 Y0.0771
N9250 X2.5598 Y0.074
N9255 X2.4712 Y0.0102
N9260 G2 X2.4256 Y0.0099 I-0.023 J0.032
N9265 G1 X2.405 Y0.0244
N9270 G3 X2.3494 Y0.0361 I-0.0415 J-0.0592
N9275 X2.2973 Y0.0134 I0.0261 J-0.1313
N9280 G1 X2.2554 Y-0.0168
N9285 G3 X2.2555 Y-0.0309 I0.0051 J-0.007
N9290 G1 X2.3036 Y-0.0646
N9295 G3 X2.3267 Y-0.0645 I0.0115 J0.0163
N9300 G1 X2.3694 Y-0.0337
N9305 G3 X2.3693 Y-0.0196 I-0.0051 J0.007
N9310 G1 X2.3212 Y0.0141
N9315 G3 X2.2981 Y0.014 I-0.0115 J-0.0163
N9320 G1 X2.2973 Y0.0134
N9325 G3 X2.2962 Y0.0124 Z-0.0398 I0.0046 J-0.0064
N9330 X2.2953 Y0.0112 Z-0.0394 I0.0058 J-0.0054
N9335 X2.2947 Y0.01 Z-0.0387 I0.0067 J-0.0042
N9340 X2.2943 Y0.0089 Z-0.0377 I0.0073 J-0.003
N9345 X2.2941 Y0.0079 Z-0.0365 I0.0076 J-0.0019
N9350 Y0.0072 Z-0.0351 I0.0078 J-0.0009
N9355 Y0.0068 Z-0.0337 I0.0079 J-0.0002
N9360 G1 Y0.0066 Z-0.0321
N9365 G0 Z0.1079
N9370 X2.5715 Y0.0808
N9375 G1 Z0.0394 F20.
N9380 Z-0.0321
N9385 X2.5712 Y0.0807 Z-0.0342
N9390 X2.5705 Y0.0804 Z-0.0361
N9395 X2.5694 Y0.0798 Z-0.0377
N9400 X2.568 Y0.0791 Z-0.0389
N9405 X2.5663 Y0.0782 Z-0.0397
N9410 X2.5645 Y0.0773 Z-0.04
N9415 X2.5642 Y0.0771
N9420 X2.5598 Y0.074
N9425 X2.4712 Y0.0102
N9430 G2 X2.4256 Y0.0099 I-0.023 J0.032
N9435 G1 X2.3328 Y0.075
N9440 G3 X2.2858 Y0.0747 I-0.0233 J-0.0333
N9445 G1 X2.1962 Y0.0102
N9450 G2 X2.1506 Y0.0099 I-0.023 J0.032
N9455 G1 X2.1316 Y0.0233
N9460 G3 X2.0757 Y0.0359 I-0.0433 J-0.0617
N9465 X2.0229 Y0.0138 I0.0212 J-0.1249
N9470 G1 X1.9804 Y-0.0168
N9475 G3 X1.9805 Y-0.0309 I0.0051 J-0.007
N9480 G1 X2.0286 Y-0.0646
N9485 G3 X2.0517 Y-0.0645 I0.0115 J0.0163
N9490 G1 X2.0944 Y-0.0337
N9495 G3 X2.0943 Y-0.0196 I-0.0051 J0.007
N9500 G1 X2.0443 Y0.0155
N9505 G3 X2.0251 Y0.0154 I-0.0095 J-0.0136
N9510 G1 X2.0229 Y0.0138
N9515 G3 X2.0217 Y0.0128 Z-0.0398 I0.0046 J-0.0064
N9520 X2.0208 Y0.0116 Z-0.0394 I0.0058 J-0.0054
N9525 X2.0202 Y0.0104 Z-0.0387 I0.0067 J-0.0042
N9530 X2.0198 Y0.0093 Z-0.0377 I0.0073 J-0.003
N9535 X2.0197 Y0.0083 Z-0.0365 I0.0076 J-0.0019
N9540 X2.0196 Y0.0076 Z-0.0351 I0.0078 J-0.0009
N9545 Y0.0071 Z-0.0337 I0.0079 J-0.0002
N9550 G1 Y0.007 Z-0.0321
N9555 G0 Z0.1079
N9560 X2.5715 Y0.0808
N9565 G1 Z0.0394 F20.
N9570 Z-0.0321
N9575 X2.5712 Y0.0807 Z-0.0342
N9580 X2.5705 Y0.0804 Z-0.0361
N9585 X2.5694 Y0.0798 Z-0.0377
N9590 X2.568 Y0.0791 Z-0.0389
N9595 X2.5663 Y0.0782 Z-0.0397
N9600 X2.5645 Y0.0773 Z-0.04
N9605 X2.5642 Y0.0771
N9610 X2.5598 Y0.074
N9615 X2.4712 Y0.0102
N9620 G2 X2.4256 Y0.0099 I-0.023 J0.032
N9625 G1 X2.3328 Y0.075
N9630 G3 X2.2858 Y0.0747 I-0.0233 J-0.0333
N9635 G1 X2.1962 Y0.0102
N9640 G2 X2.1506 Y0.0099 I-0.023 J0.032
N9645 G1 X2.0578 Y0.075
N9650 G3 X2.0108 Y0.0747 I-0.0233 J-0.0333
N9655 G1 X1.9212 Y0.0102
N9660 G2 X1.8756 Y0.0099 I-0.023 J0.032
N9665 G1 X1.857 Y0.023
N9670 G3 X1.8006 Y0.0357 I-0.0436 J-0.0622
N9675 X1.7474 Y0.0134 I0.0214 J-0.126
N9680 G1 X1.7383 Y0.0069
N9685 X1.7054 Y-0.0168
N9690 G3 X1.7055 Y-0.0309 I0.0051 J-0.007
N9695 G1 X1.7536 Y-0.0646
N9700 G3 X1.7767 Y-0.0645 I0.0115 J0.0163
N9705 G1 X1.8194 Y-0.0337
N9710 G3 X1.8193 Y-0.0196 I-0.0051 J0.007
N9715 G1 X1.7712 Y0.0141
N9720 G3 X1.7481 Y0.014 I-0.0115 J-0.0163
N9725 G1 X1.7474 Y0.0134
N9730 G3 X1.7462 Y0.0124 Z-0.0398 I0.0046 J-0.0064
N9735 X1.7453 Y0.0113 Z-0.0394 I0.0058 J-0.0054
N9740 X1.7447 Y0.01 Z-0.0387 I0.0067 J-0.0042
N9745 X1.7443 Y0.0089 Z-0.0377 I0.0073 J-0.003
N9750 X1.7441 Y0.008 Z-0.0365 I0.0076 J-0.0019
N9755 Y0.0072 Z-0.0351 I0.0078 J-0.0009
N9760 Y0.0068 Z-0.0337 I0.0079 J-0.0002
N9765 G1 Y0.0066 Z-0.0321
N9770 G0 Z0.1079
N9775 X2.5715 Y0.0808
N9780 G1 Z0.0394 F20.
N9785 Z-0.0321
N9790 X2.5712 Y0.0807 Z-0.0342
N9795 X2.5705 Y0.0804 Z-0.0361
N9800 X2.5694 Y0.0798 Z-0.0377
N9805 X2.568 Y0.0791 Z-0.0389
N9810 X2.5663 Y0.0782 Z-0.0397
N9815 X2.5645 Y0.0773 Z-0.04
N9820 X2.5642 Y0.0771
N9825 X2.5598 Y0.074
N9830 X2.4712 Y0.0102
N9835 G2 X2.4256 Y0.0099 I-0.023 J0.032
N9840 G1 X2.3328 Y0.075
N9845 G3 X2.2858 Y0.0747 I-0.0233 J-0.0333
N9850 G1 X2.1962 Y0.0102
N9855 G2 X2.1506 Y0.0099 I-0.023 J0.032
N9860 G1 X2.0578 Y0.075
N9865 G3 X2.0108 Y0.0747 I-0.0233 J-0.0333
N9870 G1 X1.9212 Y0.0102
N9875 G2 X1.8756 Y0.0099 I-0.023 J0.032
N9880 G1 X1.7828 Y0.075
N9885 G3 X1.7358 Y0.0747 I-0.0233 J-0.0333
N9890 G1 X1.6462 Y0.0102
N9895 G2 X1.6006 Y0.0099 I-0.023 J0.032
N9900 G1 X1.5821 Y0.0229
N9905 G3 X1.5257 Y0.0357 I-0.0438 J-0.0625
N9910 X1.4724 Y0.0134 I0.021 J-0.1256
N9915 G1 X1.4633 Y0.0069
N9920 X1.4304 Y-0.0168
N9925 G3 X1.4305 Y-0.0309 I0.0051 J-0.007
N9930 G1 X1.4786 Y-0.0646
N9935 G3 X1.5017 Y-0.0645 I0.0115 J0.0163
N9940 G1 X1.5444 Y-0.0337
N9945 G3 X1.5443 Y-0.0196 I-0.0051 J0.007
N9950 G1 X1.4962 Y0.0141
N9955 G3 X1.4731 Y0.014 I-0.0115 J-0.0163
N9960 G1 X1.4724 Y0.0134
N9965 G3 X1.4712 Y0.0124 Z-0.0398 I0.0046 J-0.0064
N9970 X1.4703 Y0.0113 Z-0.0394 I0.0058 J-0.0054
N9975 X1.4697 Y0.01 Z-0.0387 I0.0067 J-0.0042
N9980 X1.4693 Y0.0089 Z-0.0377 I0.0073 J-0.003
N9985 X1.4691 Y0.0079 Z-0.0365 I0.0076 J-0.0019
N9990 Y0.0072 Z-0.0351 I0.0078 J-0.0009
N9995 Y0.0068 Z-0.0337 I0.0079 J-0.0002
N10000 G1 Y0.0066 Z-0.0321
N10005 G0 Z0.1079
N10010 X2.5715 Y0.0808
N10015 G1 Z0.0394 F20.
N10020 Z-0.0321
N10025 X2.5712 Y0.0807 Z-0.0342
N10030 X2.5705 Y0.0804 Z-0.0361
N10035 X2.5694 Y0.0798 Z-0.0377
N10040 X2.568 Y0.0791 Z-0.0389
N10045 X2.5663 Y0.0782 Z-0.0397
N10050 X2.5645 Y0.0773 Z-0.04
N10055 X2.5642 Y0.0771
N10060 X2.5598 Y0.074
N10065 X2.4712 Y0.0102
N10070 G2 X2.4256 Y0.0099 I-0.023 J0.032
N10075 G1 X2.3328 Y0.075
N10080 G3 X2.2858 Y0.0747 I-0.0233 J-0.0333
N10085 G1 X2.1962 Y0.0102
N10090 G2 X2.1506 Y0.0099 I-0.023 J0.032
N10095 G1 X2.0578 Y0.075
N10100 G3 X2.0108 Y0.0747 I-0.0233 J-0.0333
N10105 G1 X1.9212 Y0.0102
N10110 G2 X1.8756 Y0.0099 I-0.023 J0.032
N10115 G1 X1.7828 Y0.075
N10120 G3 X1.7358 Y0.0747 I-0.0233 J-0.0333
N10125 G1 X1.6462 Y0.0102
N10130 G2 X1.6006 Y0.0099 I-0.023 J0.032
N10135 G1 X1.5078 Y0.075
N10140 G3 X1.4608 Y0.0747 I-0.0233 J-0.0333
N10145 G1 X1.3712 Y0.0102
N10150 G2 X1.3256 Y0.0099 I-0.023 J0.032
N10155 G1 X1.3072 Y0.0228
N10160 G3 X1.2511 Y0.0358 I-0.044 J-0.0628
N10165 X1.1979 Y0.0138 I0.0197 J-0.1233
N10170 G1 X1.1883 Y0.0069
N10175 X1.1554 Y-0.0168
N10180 G3 X1.1555 Y-0.0309 I0.0051 J-0.007
N10185 G1 X1.2036 Y-0.0646
N10190 G3 X1.2267 Y-0.0645 I0.0115 J0.0163
N10195 G1 X1.2694 Y-0.0337
N10200 G3 X1.2693 Y-0.0196 I-0.0051 J0.007
N10205 G1 X1.2193 Y0.0155
N10210 G3 X1.2001 Y0.0154 I-0.0095 J-0.0136
N10215 G1 X1.1979 Y0.0138
N10220 G3 X1.1967 Y0.0128 Z-0.0398 I0.0046 J-0.0064
N10225 X1.1958 Y0.0116 Z-0.0394 I0.0058 J-0.0054
N10230 X1.1952 Y0.0104 Z-0.0387 I0.0067 J-0.0042
N10235 X1.1948 Y0.0093 Z-0.0377 I0.0073 J-0.003
N10240 X1.1946 Y0.0083 Z-0.0365 I0.0076 J-0.0019
N10245 Y0.0076 Z-0.0351 I0.0078 J-0.0009
N10250 Y0.0071 Z-0.0337 I0.0079 J-0.0002
N10255 G1 Y0.007 Z-0.0321
N10260 G0 Z0.1079
N10265 X2.5715 Y0.0808
N10270 G1 Z0.0394 F20.
N10275 Z-0.0321
N10280 X2.5712 Y0.0807 Z-0.0342
N10285 X2.5705 Y0.0804 Z-0.0361
N10290 X2.5694 Y0.0798 Z-0.0377
N10295 X2.568 Y0.0791 Z-0.0389
N10300 X2.5663 Y0.0782 Z-0.0397
N10305 X2.5645 Y0.0773 Z-0.04
N10310 X2.5642 Y0.0771
N10315 X2.5598 Y0.074
N10320 X2.4712 Y0.0102
N10325 G2 X2.4256 Y0.0099 I-0.023 J0.032
N10330 G1 X2.3328 Y0.075
N10335 G3 X2.2858 Y0.0747 I-0.0233 J-0.0333
N10340 G1 X2.1962 Y0.0102
N10345 G2 X2.1506 Y0.0099 I-0.023 J0.032
N10350 G1 X2.0578 Y0.075
N10355 G3 X2.0108 Y0.0747 I-0.0233 J-0.0333
N10360 G1 X1.9212 Y0.0102
N10365 G2 X1.8756 Y0.0099 I-0.023 J0.032
N10370 G1 X1.7828 Y0.075
N10375 G3 X1.7358 Y0.0747 I-0.0233 J-0.0333
N10380 G1 X1.6462 Y0.0102
N10385 G2 X1.6006 Y0.0099 I-0.023 J0.032
N10390 G1 X1.5078 Y0.075
N10395 G3 X1.4608 Y0.0747 I-0.0233 J-0.0333
N10400 G1 X1.3712 Y0.0102
N10405 G2 X1.3256 Y0.0099 I-0.023 J0.032
N10410 G1 X1.2328 Y0.075
N10415 G3 X1.1858 Y0.0747 I-0.0233 J-0.0333
N10420 G1 X1.0962 Y0.0102
N10425 G2 X1.0506 Y0.0099 I-0.023 J0.032
N10430 G1 X1.0323 Y0.0228
N10435 G3 X0.9761 Y0.0357 I-0.0441 J-0.0629
N10440 X0.9229 Y0.0138 I0.0196 J-0.1232
N10445 G1 X0.9133 Y0.0069
N10450 X0.8804 Y-0.0168
N10455 G3 X0.8805 Y-0.0309 I0.0051 J-0.007
N10460 G1 X0.9286 Y-0.0646
N10465 G3 X0.9517 Y-0.0645 I0.0115 J0.0163
N10470 G1 X0.9944 Y-0.0337
N10475 G3 X0.9943 Y-0.0196 I-0.0051 J0.007
N10480 G1 X0.9443 Y0.0155
N10485 G3 X0.9251 Y0.0154 I-0.0095 J-0.0136
N10490 G1 X0.9229 Y0.0138
N10495 G3 X0.9217 Y0.0128 Z-0.0398 I0.0046 J-0.0064
N10500 X0.9208 Y0.0116 Z-0.0394 I0.0058 J-0.0054
N10505 X0.9202 Y0.0104 Z-0.0387 I0.0067 J-0.0042
N10510 X0.9198 Y0.0093 Z-0.0377 I0.0073 J-0.003
N10515 X0.9196 Y0.0083 Z-0.0365 I0.0076 J-0.0019
N10520 Y0.0076 Z-0.0351 I0.0078 J-0.0009
N10525 Y0.0071 Z-0.0337 I0.0079 J-0.0002
N10530 G1 Y0.007 Z-0.0321
N10535 G0 Z0.1079
N10540 X2.5715 Y0.0808
N10545 G1 Z0.0394 F20.
N10550 Z-0.0321
N10555 X2.5712 Y0.0807 Z-0.0342
N10560 X2.5705 Y0.0804 Z-0.0361
N10565 X2.5694 Y0.0798 Z-0.0377
N10570 X2.568 Y0.0791 Z-0.0389
N10575 X2.5663 Y0.0782 Z-0.0397
N10580 X2.5645 Y0.0773 Z-0.04
N10585 X2.5642 Y0.0771
N10590 X2.5598 Y0.074
N10595 X2.4712 Y0.0102
N10600 G2 X2.4256 Y0.0099 I-0.023 J0.032
N10605 G1 X2.3328 Y0.075
N10610 G3 X2.2858 Y0.0747 I-0.0233 J-0.0333
N10615 G1 X2.1962 Y0.0102
N10620 G2 X2.1506 Y0.0099 I-0.023 J0.032
N10625 G1 X2.0578 Y0.075
N10630 G3 X2.0108 Y0.0747 I-0.0233 J-0.0333
N10635 G1 X1.9212 Y0.0102
N10640 G2 X1.8756 Y0.0099 I-0.023 J0.032
N10645 G1 X1.7828 Y0.075
N10650 G3 X1.7358 Y0.0747 I-0.0233 J-0.0333
N10655 G1 X1.6462 Y0.0102
N10660 G2 X1.6006 Y0.0099 I-0.023 J0.032
N10665 G1 X1.5078 Y0.075
N10670 G3 X1.4608 Y0.0747 I-0.0233 J-0.0333
N10675 G1 X1.3712 Y0.0102
N10680 G2 X1.3256 Y0.0099 I-0.023 J0.032
N10685 G1 X1.2328 Y0.075
N10690 G3 X1.1858 Y0.0747 I-0.0233 J-0.0333
N10695 G1 X1.0962 Y0.0102
N10700 G2 X1.0506 Y0.0099 I-0.023 J0.032
N10705 G1 X0.9578 Y0.075
N10710 G3 X0.9108 Y0.0747 I-0.0233 J-0.0333
N10715 G1 X0.8212 Y0.0102
N10720 G2 X0.7756 Y0.0099 I-0.023 J0.032
N10725 G1 X0.7573 Y0.0228
N10730 G3 X0.7009 Y0.0356 I-0.044 J-0.0628
N10735 X0.6474 Y0.0134 I0.0206 J-0.1251
N10740 G1 X0.6383 Y0.0069
N10745 X0.6054 Y-0.0168
N10750 G3 X0.6055 Y-0.0309 I0.0051 J-0.007
N10755 G1 X0.6536 Y-0.0646
N10760 G3 X0.6767 Y-0.0645 I0.0115 J0.0163
N10765 G1 X0.7194 Y-0.0337
N10770 G3 X0.7193 Y-0.0196 I-0.0051 J0.007
N10775 G1 X0.6712 Y0.0141
N10780 G3 X0.6481 Y0.014 I-0.0115 J-0.0163
N10785 G1 X0.6474 Y0.0134
N10790 G3 X0.6462 Y0.0124 Z-0.0398 I0.0046 J-0.0064
N10795 X0.6453 Y0.0112 Z-0.0394 I0.0058 J-0.0054
N10800 X0.6447 Y0.01 Z-0.0387 I0.0067 J-0.0042
N10805 X0.6443 Y0.0089 Z-0.0377 I0.0073 J-0.003
N10810 X0.6441 Y0.0079 Z-0.0365 I0.0076 J-0.0019
N10815 Y0.0072 Z-0.0351 I0.0078 J-0.0009
N10820 Y0.0068 Z-0.0337 I0.0079 J-0.0002
N10825 G1 Y0.0066 Z-0.0321
N10830 G0 Z0.1079
N10835 X2.5715 Y0.0808
N10840 G1 Z0.0394 F20.
N10845 Z-0.0321
N10850 X2.5712 Y0.0807 Z-0.0342
N10855 X2.5705 Y0.0804 Z-0.0361
N10860 X2.5694 Y0.0798 Z-0.0377
N10865 X2.568 Y0.0791 Z-0.0389
N10870 X2.5663 Y0.0782 Z-0.0397
N10875 X2.5645 Y0.0773 Z-0.04
N10880 X2.5642 Y0.0771
N10885 X2.5598 Y0.074
N10890 X2.4712 Y0.0102
N10895 G2 X2.4256 Y0.0099 I-0.023 J0.032
N10900 G1 X2.3328 Y0.075
N10905 G3 X2.2858 Y0.0747 I-0.0233 J-0.0333
N10910 G1 X2.1962 Y0.0102
N10915 G2 X2.1506 Y0.0099 I-0.023 J0.032
N10920 G1 X2.0578 Y0.075
N10925 G3 X2.0108 Y0.0747 I-0.0233 J-0.0333
N10930 G1 X1.9212 Y0.0102
N10935 G2 X1.8756 Y0.0099 I-0.023 J0.032
N10940 G1 X1.7828 Y0.075
N10945 G3 X1.7358 Y0.0747 I-0.0233 J-0.0333
N10950 G1 X1.6462 Y0.0102
N10955 G2 X1.6006 Y0.0099 I-0.023 J0.032
N10960 G1 X1.5078 Y0.075
N10965 G3 X1.4608 Y0.0747 I-0.0233 J-0.0333
N10970 G1 X1.3712 Y0.0102
N10975 G2 X1.3256 Y0.0099 I-0.023 J0.032
N10980 G1 X1.2328 Y0.075
N10985 G3 X1.1858 Y0.0747 I-0.0233 J-0.0333
N10990 G1 X1.0962 Y0.0102
N10995 G2 X1.0506 Y0.0099 I-0.023 J0.032
N11000 G1 X0.9578 Y0.075
N11005 G3 X0.9108 Y0.0747 I-0.0233 J-0.0333
N11010 G1 X0.8212 Y0.0102
N11015 G2 X0.7756 Y0.0099 I-0.023 J0.032
N11020 G1 X0.6828 Y0.075
N11025 G3 X0.6358 Y0.0747 I-0.0233 J-0.0333
N11030 G1 X0.5462 Y0.0102
N11035 G2 X0.5006 Y0.0099 I-0.023 J0.032
N11040 G1 X0.4824 Y0.0227
N11045 G3 X0.4262 Y0.0357 I-0.0442 J-0.063
N11050 X0.3729 Y0.0138 I0.0194 J-0.123
N11055 G1 X0.3633 Y0.0069
N11060 X0.3304 Y-0.0168
N11065 G3 X0.3305 Y-0.0309 I0.0051 J-0.007
N11070 G1 X0.3786 Y-0.0646
N11075 G3 X0.4017 Y-0.0645 I0.0115 J0.0163
N11080 G1 X0.4444 Y-0.0337
N11085 G3 X0.4443 Y-0.0196 I-0.0051 J0.007
N11090 G1 X0.3943 Y0.0155
N11095 G3 X0.3751 Y0.0154 I-0.0095 J-0.0136
N11100 G1 X0.3729 Y0.0138
N11105 G3 X0.3717 Y0.0128 Z-0.0398 I0.0046 J-0.0064
N11110 X0.3708 Y0.0116 Z-0.0394 I0.0058 J-0.0054
N11115 X0.3702 Y0.0104 Z-0.0387 I0.0067 J-0.0042
N11120 X0.3698 Y0.0093 Z-0.0377 I0.0073 J-0.003
N11125 X0.3696 Y0.0083 Z-0.0365 I0.0076 J-0.0019
N11130 Y0.0076 Z-0.0351 I0.0078 J-0.0009
N11135 Y0.0071 Z-0.0337 I0.0079 J-0.0002
N11140 G1 Y0.007 Z-0.0321
N11145 G0 Z0.1079
N11150 X2.5715 Y0.0808
N11155 G1 Z0.0394 F20.
N11160 Z-0.0321
N11165 X2.5712 Y0.0807 Z-0.0342
N11170 X2.5705 Y0.0804 Z-0.0361
N11175 X2.5694 Y0.0798 Z-0.0377
N11180 X2.568 Y0.0791 Z-0.0389
N11185 X2.5663 Y0.0782 Z-0.0397
N11190 X2.5645 Y0.0773 Z-0.04
N11195 X2.5642 Y0.0771
N11200 X2.5598 Y0.074
N11205 X2.4712 Y0.0102
N11210 G2 X2.4256 Y0.0099 I-0.023 J0.032
N11215 G1 X2.3328 Y0.075
N11220 G3 X2.2858 Y0.0747 I-0.0233 J-0.0333
N11225 G1 X2.1962 Y0.0102
N11230 G2 X2.1506 Y0.0099 I-0.023 J0.032
N11235 G1 X2.0578 Y0.075
N11240 G3 X2.0108 Y0.0747 I-0.0233 J-0.0333
N11245 G1 X1.9212 Y0.0102
N11250 G2 X1.8756 Y0.0099 I-0.023 J0.032
N11255 G1 X1.7828 Y0.075
N11260 G3 X1.7358 Y0.0747 I-0.0233 J-0.0333
N11265 G1 X1.6462 Y0.0102
N11270 G2 X1.6006 Y0.0099 I-0.023 J0.032
N11275 G1 X1.5078 Y0.075
N11280 G3 X1.4608 Y0.0747 I-0.0233 J-0.0333
N11285 G1 X1.3712 Y0.0102
N11290 G2 X1.3256 Y0.0099 I-0.023 J0.032
N11295 G1 X1.2328 Y0.075
N11300 G3 X1.1858 Y0.0747 I-0.0233 J-0.0333
N11305 G1 X1.0962 Y0.0102
N11310 G2 X1.0506 Y0.0099 I-0.023 J0.032
N11315 G1 X0.9578 Y0.075
N11320 G3 X0.9108 Y0.0747 I-0.0233 J-0.0333
N11325 G1 X0.8212 Y0.0102
N11330 G2 X0.7756 Y0.0099 I-0.023 J0.032
N11335 G1 X0.6828 Y0.075
N11340 G3 X0.6358 Y0.0747 I-0.0233 J-0.0333
N11345 G1 X0.5462 Y0.0102
N11350 G2 X0.5006 Y0.0099 I-0.023 J0.032
N11355 G1 X0.4078 Y0.075
N11360 G3 X0.3608 Y0.0747 I-0.0233 J-0.0333
N11365 G1 X0.2712 Y0.0102
N11370 G2 X0.2256 Y0.0099 I-0.023 J0.032
N11375 G1 X0.2074 Y0.0227
N11380 G3 X0.1509 Y0.0356 I-0.0441 J-0.0629
N11385 X0.0974 Y0.0134 I0.0205 J-0.125
N11390 G1 X0.0883 Y0.0069
N11395 X0.0554 Y-0.0168
N11400 G3 X0.0555 Y-0.0309 I0.0051 J-0.007
N11405 G1 X0.1036 Y-0.0646
N11410 G3 X0.1267 Y-0.0645 I0.0115 J0.0163
N11415 G1 X0.1694 Y-0.0337
N11420 G3 X0.1693 Y-0.0196 I-0.0051 J0.007
N11425 G1 X0.1212 Y0.0141
N11430 G3 X0.0981 Y0.014 I-0.0115 J-0.0163
N11435 G1 X0.0974 Y0.0134
N11440 G3 X0.0962 Y0.0124 Z-0.0398 I0.0046 J-0.0064
N11445 X0.0953 Y0.0112 Z-0.0394 I0.0058 J-0.0054
N11450 X0.0947 Y0.01 Z-0.0387 I0.0067 J-0.0042
N11455 X0.0943 Y0.0089 Z-0.0377 I0.0073 J-0.003
N11460 X0.0941 Y0.0079 Z-0.0365 I0.0076 J-0.0019
N11465 Y0.0072 Z-0.0351 I0.0078 J-0.0009
N11470 Y0.0068 Z-0.0337 I0.0079 J-0.0002
N11475 G1 Y0.0066 Z-0.0321
N11480 G0 Z0.1079
N11485 X2.5715 Y0.0808
N11490 G1 Z0.0394 F20.
N11495 Z-0.0321
N11500 X2.5712 Y0.0807 Z-0.0342
N11505 X2.5705 Y0.0804 Z-0.0361
N11510 X2.5694 Y0.0798 Z-0.0377
N11515 X2.568 Y0.0791 Z-0.0389
N11520 X2.5663 Y0.0782 Z-0.0397
N11525 X2.5645 Y0.0773 Z-0.04
N11530 X2.5642 Y0.0771
N11535 X2.5598 Y0.074
N11540 X2.4712 Y0.0102
N11545 G2 X2.4256 Y0.0099 I-0.023 J0.032
N11550 G1 X2.3328 Y0.075
N11555 G3 X2.2858 Y0.0747 I-0.0233 J-0.0333
N11560 G1 X2.1962 Y0.0102
N11565 G2 X2.1506 Y0.0099 I-0.023 J0.032
N11570 G1 X2.0578 Y0.075
N11575 G3 X2.0108 Y0.0747 I-0.0233 J-0.0333
N11580 G1 X1.9212 Y0.0102
N11585 G2 X1.8756 Y0.0099 I-0.023 J0.032
N11590 G1 X1.7828 Y0.075
N11595 G3 X1.7358 Y0.0747 I-0.0233 J-0.0333
N11600 G1 X1.6462 Y0.0102
N11605 G2 X1.6006 Y0.0099 I-0.023 J0.032
N11610 G1 X1.5078 Y0.075
N11615 G3 X1.4608 Y0.0747 I-0.0233 J-0.0333
N11620 G1 X1.3712 Y0.0102
N11625 G2 X1.3256 Y0.0099 I-0.023 J0.032
N11630 G1 X1.2328 Y0.075
N11635 G3 X1.1858 Y0.0747 I-0.0233 J-0.0333
N11640 G1 X1.0962 Y0.0102
N11645 G2 X1.0506 Y0.0099 I-0.023 J0.032
N11650 G1 X0.9578 Y0.075
N11655 G3 X0.9108 Y0.0747 I-0.0233 J-0.0333
N11660 G1 X0.8212 Y0.0102
N11665 G2 X0.7756 Y0.0099 I-0.023 J0.032
N11670 G1 X0.6828 Y0.075
N11675 G3 X0.6358 Y0.0747 I-0.0233 J-0.0333
N11680 G1 X0.5462 Y0.0102
N11685 G2 X0.5006 Y0.0099 I-0.023 J0.032
N11690 G1 X0.4078 Y0.075
N11695 G3 X0.3608 Y0.0747 I-0.0233 J-0.0333
N11700 G1 X0.2712 Y0.0102
N11705 G2 X0.2256 Y0.0099 I-0.023 J0.032
N11710 G1 X0.1328 Y0.075
N11715 G3 X0.0858 Y0.0747 I-0.0233 J-0.0333
N11720 G1 X-0.0038 Y0.0102
N11725 G2 X-0.0494 Y0.0099 I-0.023 J0.032
N11730 G1 X-0.0676 Y0.0227
N11735 G3 X-0.1238 Y0.0357 I-0.0442 J-0.0631
N11740 X-0.1771 Y0.0138 I0.0193 J-0.1229
N11745 G1 X-0.1867 Y0.0069
N11750 X-0.2196 Y-0.0168
N11755 G3 X-0.2195 Y-0.0309 I0.0051 J-0.007
N11760 G1 X-0.1714 Y-0.0646
N11765 G3 X-0.1483 Y-0.0645 I0.0115 J0.0163
N11770 G1 X-0.1056 Y-0.0337
N11775 G3 X-0.1057 Y-0.0196 I-0.0051 J0.007
N11780 G1 X-0.1557 Y0.0155
N11785 G3 X-0.1749 Y0.0154 I-0.0095 J-0.0136
N11790 G1 X-0.1771 Y0.0138
N11795 G3 X-0.1783 Y0.0128 Z-0.0398 I0.0046 J-0.0064
N11800 X-0.1792 Y0.0116 Z-0.0394 I0.0058 J-0.0054
N11805 X-0.1798 Y0.0104 Z-0.0387 I0.0067 J-0.0042
N11810 X-0.1802 Y0.0093 Z-0.0377 I0.0073 J-0.003
N11815 X-0.1804 Y0.0083 Z-0.0365 I0.0076 J-0.0019
N11820 Y0.0076 Z-0.0351 I0.0078 J-0.0009
N11825 Y0.0071 Z-0.0337 I0.0079 J-0.0002
N11830 G1 Y0.007 Z-0.0321
N11835 G0 Z0.1079
N11840 X2.5715 Y0.0808
N11845 G1 Z0.0394 F20.
N11850 Z-0.0321
N11855 X2.5712 Y0.0807 Z-0.0342
N11860 X2.5705 Y0.0804 Z-0.0361
N11865 X2.5694 Y0.0798 Z-0.0377
N11870 X2.568 Y0.0791 Z-0.0389
N11875 X2.5663 Y0.0782 Z-0.0397
N11880 X2.5645 Y0.0773 Z-0.04
N11885 X2.5642 Y0.0771
N11890 X2.5598 Y0.074
N11895 X2.4712 Y0.0102
N11900 G2 X2.4256 Y0.0099 I-0.023 J0.032
N11905 G1 X2.3328 Y0.075
N11910 G3 X2.2858 Y0.0747 I-0.0233 J-0.0333
N11915 G1 X2.1962 Y0.0102
N11920 G2 X2.1506 Y0.0099 I-0.023 J0.032
N11925 G1 X2.0578 Y0.075
N11930 G3 X2.0108 Y0.0747 I-0.0233 J-0.0333
N11935 G1 X1.9212 Y0.0102
N11940 G2 X1.8756 Y0.0099 I-0.023 J0.032
N11945 G1 X1.7828 Y0.075
N11950 G3 X1.7358 Y0.0747 I-0.0233 J-0.0333
N11955 G1 X1.6462 Y0.0102
N11960 G2 X1.6006 Y0.0099 I-0.023 J0.032
N11965 G1 X1.5078 Y0.075
N11970 G3 X1.4608 Y0.0747 I-0.0233 J-0.0333
N11975 G1 X1.3712 Y0.0102
N11980 G2 X1.3256 Y0.0099 I-0.023 J0.032
N11985 G1 X1.2328 Y0.075
N11990 G3 X1.1858 Y0.0747 I-0.0233 J-0.0333
N11995 G1 X1.0962 Y0.0102
N12000 G2 X1.0506 Y0.0099 I-0.023 J0.032
N12005 G1 X0.9578 Y0.075
N12010 G3 X0.9108 Y0.0747 I-0.0233 J-0.0333
N12015 G1 X0.8212 Y0.0102
N12020 G2 X0.7756 Y0.0099 I-0.023 J0.032
N12025 G1 X0.6828 Y0.075
N12030 G3 X0.6358 Y0.0747 I-0.0233 J-0.0333
N12035 G1 X0.5462 Y0.0102
N12040 G2 X0.5006 Y0.0099 I-0.023 J0.032
N12045 G1 X0.4078 Y0.075
N12050 G3 X0.3608 Y0.0747 I-0.0233 J-0.0333
N12055 G1 X0.2712 Y0.0102
N12060 G2 X0.2256 Y0.0099 I-0.023 J0.032
N12065 G1 X0.1328 Y0.075
N12070 G3 X0.0858 Y0.0747 I-0.0233 J-0.0333
N12075 G1 X-0.0038 Y0.0102
N12080 G2 X-0.0494 Y0.0099 I-0.023 J0.032
N12085 G1 X-0.1422 Y0.075
N12090 G3 X-0.1892 Y0.0747 I-0.0233 J-0.0333
N12095 G1 X-0.2788 Y0.0102
N12100 G2 X-0.3244 Y0.0099 I-0.023 J0.032
N12105 G1 X-0.3426 Y0.0227
N12110 G3 X-0.3991 Y0.0356 I-0.0441 J-0.063
N12115 X-0.4526 Y0.0134 I0.0204 J-0.1249
N12120 G1 X-0.4946 Y-0.0168
N12125 G3 X-0.4945 Y-0.0309 I0.0051 J-0.007
N12130 G1 X-0.4464 Y-0.0646
N12135 G3 X-0.4233 Y-0.0645 I0.0115 J0.0163
N12140 G1 X-0.3806 Y-0.0337
N12145 G3 X-0.3807 Y-0.0196 I-0.0051 J0.007
N12150 G1 X-0.4139 Y0.0037
N12155 X-0.4288 Y0.0141
N12160 G3 X-0.4519 Y0.014 I-0.0115 J-0.0163
N12165 G1 X-0.4526 Y0.0134
N12170 G3 X-0.4538 Y0.0124 Z-0.0398 I0.0046 J-0.0064
N12175 X-0.4547 Y0.0112 Z-0.0394 I0.0058 J-0.0054
N12180 X-0.4553 Y0.01 Z-0.0387 I0.0067 J-0.0042
N12185 X-0.4557 Y0.0089 Z-0.0377 I0.0073 J-0.003
N12190 X-0.4559 Y0.0079 Z-0.0365 I0.0076 J-0.0019
N12195 Y0.0072 Z-0.0351 I0.0078 J-0.0009
N12200 Y0.0068 Z-0.0337 I0.0079 J-0.0002
N12205 G1 Y0.0066 Z-0.0321
N12210 G0 Z0.1079
N12215 X2.5715 Y0.0808
N12220 G1 Z0.0394 F20.
N12225 Z-0.0321
N12230 X2.5712 Y0.0807 Z-0.0342
N12235 X2.5705 Y0.0804 Z-0.0361
N12240 X2.5694 Y0.0798 Z-0.0377
N12245 X2.568 Y0.0791 Z-0.0389
N12250 X2.5663 Y0.0782 Z-0.0397
N12255 X2.5645 Y0.0773 Z-0.04
N12260 X2.5642 Y0.0771
N12265 X2.5598 Y0.074
N12270 X2.4712 Y0.0102
N12275 G2 X2.4256 Y0.0099 I-0.023 J0.032
N12280 G1 X2.3328 Y0.075
N12285 G3 X2.2858 Y0.0747 I-0.0233 J-0.0333
N12290 G1 X2.1962 Y0.0102
N12295 G2 X2.1506 Y0.0099 I-0.023 J0.032
N12300 G1 X2.0578 Y0.075
N12305 G3 X2.0108 Y0.0747 I-0.0233 J-0.0333
N12310 G1 X1.9212 Y0.0102
N12315 G2 X1.8756 Y0.0099 I-0.023 J0.032
N12320 G1 X1.7828 Y0.075
N12325 G3 X1.7358 Y0.0747 I-0.0233 J-0.0333
N12330 G1 X1.6462 Y0.0102
N12335 G2 X1.6006 Y0.0099 I-0.023 J0.032
N12340 G1 X1.5078 Y0.075
N12345 G3 X1.4608 Y0.0747 I-0.0233 J-0.0333
N12350 G1 X1.3712 Y0.0102
N12355 G2 X1.3256 Y0.0099 I-0.023 J0.032
N12360 G1 X1.2328 Y0.075
N12365 G3 X1.1858 Y0.0747 I-0.0233 J-0.0333
N12370 G1 X1.0962 Y0.0102
N12375 G2 X1.0506 Y0.0099 I-0.023 J0.032
N12380 G1 X0.9578 Y0.075
N12385 G3 X0.9108 Y0.0747 I-0.0233 J-0.0333
N12390 G1 X0.8212 Y0.0102
N12395 G2 X0.7756 Y0.0099 I-0.023 J0.032
N12400 G1 X0.6828 Y0.075
N12405 G3 X0.6358 Y0.0747 I-0.0233 J-0.0333
N12410 G1 X0.5462 Y0.0102
N12415 G2 X0.5006 Y0.0099 I-0.023 J0.032
N12420 G1 X0.4078 Y0.075
N12425 G3 X0.3608 Y0.0747 I-0.0233 J-0.0333
N12430 G1 X0.2712 Y0.0102
N12435 G2 X0.2256 Y0.0099 I-0.023 J0.032
N12440 G1 X0.1328 Y0.075
N12445 G3 X0.0858 Y0.0747 I-0.0233 J-0.0333
N12450 G1 X-0.0038 Y0.0102
N12455 G2 X-0.0494 Y0.0099 I-0.023 J0.032
N12460 G1 X-0.1422 Y0.075
N12465 G3 X-0.1892 Y0.0747 I-0.0233 J-0.0333
N12470 G1 X-0.2788 Y0.0102
N12475 G2 X-0.3244 Y0.0099 I-0.023 J0.032
N12480 G1 X-0.4172 Y0.075
N12485 G3 X-0.4642 Y0.0747 I-0.0233 J-0.0333
N12490 G1 X-0.5538 Y0.0102
N12495 G2 X-0.5994 Y0.0099 I-0.023 J0.032
N12500 G1 X-0.6176 Y0.0227
N12505 G3 X-0.6741 Y0.0356 I-0.0441 J-0.063
N12510 X-0.7276 Y0.0134 I0.0204 J-0.1249
N12515 G1 X-0.7367 Y0.0069
N12520 X-0.7696 Y-0.0168
N12525 G3 X-0.7695 Y-0.0309 I0.0051 J-0.007
N12530 G1 X-0.7214 Y-0.0646
N12535 G3 X-0.6983 Y-0.0645 I0.0115 J0.0163
N12540 G1 X-0.6556 Y-0.0337
N12545 G3 X-0.6557 Y-0.0196 I-0.0051 J0.007
N12550 G1 X-0.7038 Y0.0141
N12555 G3 X-0.7269 Y0.014 I-0.0115 J-0.0163
N12560 G1 X-0.7276 Y0.0134
N12565 G3 X-0.7288 Y0.0124 Z-0.0398 I0.0046 J-0.0064
N12570 X-0.7297 Y0.0112 Z-0.0394 I0.0058 J-0.0054
N12575 X-0.7303 Y0.01 Z-0.0387 I0.0067 J-0.0042
N12580 X-0.7307 Y0.0089 Z-0.0377 I0.0073 J-0.003
N12585 X-0.7309 Y0.0079 Z-0.0365 I0.0076 J-0.0019
N12590 Y0.0072 Z-0.0351 I0.0078 J-0.0009
N12595 Y0.0068 Z-0.0337 I0.0079 J-0.0002
N12600 G1 Y0.0066 Z-0.0321
N12605 G0 Z0.1079
N12610 X2.5715 Y0.0808
N12615 G1 Z0.0394 F20.
N12620 Z-0.0321
N12625 X2.5712 Y0.0807 Z-0.0342
N12630 X2.5705 Y0.0804 Z-0.0361
N12635 X2.5694 Y0.0798 Z-0.0377
N12640 X2.568 Y0.0791 Z-0.0389
N12645 X2.5663 Y0.0782 Z-0.0397
N12650 X2.5645 Y0.0773 Z-0.04
N12655 X2.5642 Y0.0771
N12660 X2.5598 Y0.074
N12665 X2.4712 Y0.0102
N12670 G2 X2.4256 Y0.0099 I-0.023 J0.032
N12675 G1 X2.3328 Y0.075
N12680 G3 X2.2858 Y0.0747 I-0.0233 J-0.0333
N12685 G1 X2.1962 Y0.0102
N12690 G2 X2.1506 Y0.0099 I-0.023 J0.032
N12695 G1 X2.0578 Y0.075
N12700 G3 X2.0108 Y0.0747 I-0.0233 J-0.0333
N12705 G1 X1.9212 Y0.0102
N12710 G2 X1.8756 Y0.0099 I-0.023 J0.032
N12715 G1 X1.7828 Y0.075
N12720 G3 X1.7358 Y0.0747 I-0.0233 J-0.0333
N12725 G1 X1.6462 Y0.0102
N12730 G2 X1.6006 Y0.0099 I-0.023 J0.032
N12735 G1 X1.5078 Y0.075
N12740 G3 X1.4608 Y0.0747 I-0.0233 J-0.0333
N12745 G1 X1.3712 Y0.0102
N12750 G2 X1.3256 Y0.0099 I-0.023 J0.032
N12755 G1 X1.2328 Y0.075
N12760 G3 X1.1858 Y0.0747 I-0.0233 J-0.0333
N12765 G1 X1.0962 Y0.0102
N12770 G2 X1.0506 Y0.0099 I-0.023 J0.032
N12775 G1 X0.9578 Y0.075
N12780 G3 X0.9108 Y0.0747 I-0.0233 J-0.0333
N12785 G1 X0.8212 Y0.0102
N12790 G2 X0.7756 Y0.0099 I-0.023 J0.032
N12795 G1 X0.6828 Y0.075
N12800 G3 X0.6358 Y0.0747 I-0.0233 J-0.0333
N12805 G1 X0.5462 Y0.0102
N12810 G2 X0.5006 Y0.0099 I-0.023 J0.032
N12815 G1 X0.4078 Y0.075
N12820 G3 X0.3608 Y0.0747 I-0.0233 J-0.0333
N12825 G1 X0.2712 Y0.0102
N12830 G2 X0.2256 Y0.0099 I-0.023 J0.032
N12835 G1 X0.1328 Y0.075
N12840 G3 X0.0858 Y0.0747 I-0.0233 J-0.0333
N12845 G1 X-0.0038 Y0.0102
N12850 G2 X-0.0494 Y0.0099 I-0.023 J0.032
N12855 G1 X-0.1422 Y0.075
N12860 G3 X-0.1892 Y0.0747 I-0.0233 J-0.0333
N12865 G1 X-0.2788 Y0.0102
N12870 G2 X-0.3244 Y0.0099 I-0.023 J0.032
N12875 G1 X-0.4172 Y0.075
N12880 G3 X-0.4642 Y0.0747 I-0.0233 J-0.0333
N12885 G1 X-0.5538 Y0.0102
N12890 G2 X-0.5994 Y0.0099 I-0.023 J0.032
N12895 G1 X-0.6922 Y0.075
N12900 G3 X-0.7392 Y0.0747 I-0.0233 J-0.0333
N12905 G1 X-0.8288 Y0.0102
N12910 G2 X-0.8744 Y0.0099 I-0.023 J0.032
N12915 G1 X-0.8926 Y0.0227
N12920 G3 X-0.9491 Y0.0356 I-0.0442 J-0.063
N12925 X-1.0026 Y0.0134 I0.0203 J-0.1248
N12930 G1 X-1.0117 Y0.0069
N12935 X-1.0446 Y-0.0168
N12940 G3 X-1.0445 Y-0.0309 I0.0051 J-0.007
N12945 G1 X-0.9964 Y-0.0646
N12950 G3 X-0.9733 Y-0.0645 I0.0115 J0.0163
N12955 G1 X-0.9306 Y-0.0337
N12960 G3 X-0.9307 Y-0.0196 I-0.0051 J0.007
N12965 G1 X-0.9788 Y0.0141
N12970 G3 X-1.0019 Y0.014 I-0.0115 J-0.0163
N12975 G1 X-1.0026 Y0.0134
N12980 G3 X-1.0038 Y0.0124 Z-0.0398 I0.0046 J-0.0064
N12985 X-1.0047 Y0.0112 Z-0.0394 I0.0058 J-0.0054
N12990 X-1.0053 Y0.01 Z-0.0387 I0.0067 J-0.0042
N12995 X-1.0057 Y0.0089 Z-0.0377 I0.0073 J-0.003
N13000 X-1.0059 Y0.0079 Z-0.0365 I0.0076 J-0.0019
N13005 Y0.0072 Z-0.0351 I0.0078 J-0.0009
N13010 Y0.0068 Z-0.0337 I0.0079 J-0.0002
N13015 G1 Y0.0066 Z-0.0321
N13020 G0 Z0.1079
N13025 X2.5715 Y0.0808
N13030 G1 Z0.0394 F20.
N13035 Z-0.0321
N13040 X2.5712 Y0.0807 Z-0.0342
N13045 X2.5705 Y0.0804 Z-0.0361
N13050 X2.5694 Y0.0798 Z-0.0377
N13055 X2.568 Y0.0791 Z-0.0389
N13060 X2.5663 Y0.0782 Z-0.0397
N13065 X2.5645 Y0.0773 Z-0.04
N13070 X2.5642 Y0.0771
N13075 X2.5598 Y0.074
N13080 X2.4712 Y0.0102
N13085 G2 X2.4256 Y0.0099 I-0.023 J0.032
N13090 G1 X2.3328 Y0.075
N13095 G3 X2.2858 Y0.0747 I-0.0233 J-0.0333
N13100 G1 X2.1962 Y0.0102
N13105 G2 X2.1506 Y0.0099 I-0.023 J0.032
N13110 G1 X2.0578 Y0.075
N13115 G3 X2.0108 Y0.0747 I-0.0233 J-0.0333
N13120 G1 X1.9212 Y0.0102
N13125 G2 X1.8756 Y0.0099 I-0.023 J0.032
N13130 G1 X1.7828 Y0.075
N13135 G3 X1.7358 Y0.0747 I-0.0233 J-0.0333
N13140 G1 X1.6462 Y0.0102
N13145 G2 X1.6006 Y0.0099 I-0.023 J0.032
N13150 G1 X1.5078 Y0.075
N13155 G3 X1.4608 Y0.0747 I-0.0233 J-0.0333
N13160 G1 X1.3712 Y0.0102
N13165 G2 X1.3256 Y0.0099 I-0.023 J0.032
N13170 G1 X1.2328 Y0.075
N13175 G3 X1.1858 Y0.0747 I-0.0233 J-0.0333
N13180 G1 X1.0962 Y0.0102
N13185 G2 X1.0506 Y0.0099 I-0.023 J0.032
N13190 G1 X0.9578 Y0.075
N13195 G3 X0.9108 Y0.0747 I-0.0233 J-0.0333
N13200 G1 X0.8212 Y0.0102
N13205 G2 X0.7756 Y0.0099 I-0.023 J0.032
N13210 G1 X0.6828 Y0.075
N13215 G3 X0.6358 Y0.0747 I-0.0233 J-0.0333
N13220 G1 X0.5462 Y0.0102
N13225 G2 X0.5006 Y0.0099 I-0.023 J0.032
N13230 G1 X0.4078 Y0.075
N13235 G3 X0.3608 Y0.0747 I-0.0233 J-0.0333
N13240 G1 X0.2712 Y0.0102
N13245 G2 X0.2256 Y0.0099 I-0.023 J0.032
N13250 G1 X0.1328 Y0.075
N13255 G3 X0.0858 Y0.0747 I-0.0233 J-0.0333
N13260 G1 X-0.0038 Y0.0102
N13265 G2 X-0.0494 Y0.0099 I-0.023 J0.032
N13270 G1 X-0.1422 Y0.075
N13275 G3 X-0.1892 Y0.0747 I-0.0233 J-0.0333
N13280 G1 X-0.2788 Y0.0102
N13285 G2 X-0.3244 Y0.0099 I-0.023 J0.032
N13290 G1 X-0.4172 Y0.075
N13295 G3 X-0.4642 Y0.0747 I-0.0233 J-0.0333
N13300 G1 X-0.5538 Y0.0102
N13305 G2 X-0.5994 Y0.0099 I-0.023 J0.032
N13310 G1 X-0.6922 Y0.075
N13315 G3 X-0.7392 Y0.0747 I-0.0233 J-0.0333
N13320 G1 X-0.8288 Y0.0102
N13325 G2 X-0.8744 Y0.0099 I-0.023 J0.032
N13330 G1 X-0.9672 Y0.075
N13335 G3 X-1.0142 Y0.0747 I-0.0233 J-0.0333
N13340 G1 X-1.1038 Y0.0102
N13345 G2 X-1.1494 Y0.0099 I-0.023 J0.032
N13350 G1 X-1.1675 Y0.0227
N13355 G3 X-1.2238 Y0.0357 I-0.0443 J-0.0632
N13360 X-1.2771 Y0.0138 I0.0192 J-0.1228
N13365 G1 X-1.2867 Y0.0069
N13370 X-1.3196 Y-0.0168
N13375 G3 X-1.3195 Y-0.0309 I0.0051 J-0.007
N13380 G1 X-1.2714 Y-0.0646
N13385 G3 X-1.2483 Y-0.0645 I0.0115 J0.0163
N13390 G1 X-1.2056 Y-0.0337
N13395 G3 X-1.2057 Y-0.0196 I-0.0051 J0.007
N13400 G1 X-1.2557 Y0.0155
N13405 G3 X-1.2749 Y0.0154 I-0.0095 J-0.0136
N13410 G1 X-1.2771 Y0.0138
N13415 G3 X-1.2783 Y0.0128 Z-0.0398 I0.0046 J-0.0064
N13420 X-1.2792 Y0.0116 Z-0.0394 I0.0058 J-0.0054
N13425 X-1.2798 Y0.0104 Z-0.0387 I0.0067 J-0.0042
N13430 X-1.2802 Y0.0093 Z-0.0377 I0.0073 J-0.003
N13435 X-1.2804 Y0.0083 Z-0.0365 I0.0076 J-0.0019
N13440 Y0.0076 Z-0.0351 I0.0078 J-0.0009
N13445 Y0.0071 Z-0.0337 I0.0079 J-0.0002
N13450 G1 Y0.007 Z-0.0321
N13455 G0 Z0.1079
N13460 X2.5715 Y0.0808
N13465 G1 Z0.0394 F20.
N13470 Z-0.0321
N13475 X2.5712 Y0.0807 Z-0.0342
N13480 X2.5705 Y0.0804 Z-0.0361
N13485 X2.5694 Y0.0798 Z-0.0377
N13490 X2.568 Y0.0791 Z-0.0389
N13495 X2.5663 Y0.0782 Z-0.0397
N13500 X2.5645 Y0.0773 Z-0.04
N13505 X2.5642 Y0.0771
N13510 X2.5598 Y0.074
N13515 X2.4712 Y0.0102
N13520 G2 X2.4256 Y0.0099 I-0.023 J0.032
N13525 G1 X2.3328 Y0.075
N13530 G3 X2.2858 Y0.0747 I-0.0233 J-0.0333
N13535 G1 X2.1962 Y0.0102
N13540 G2 X2.1506 Y0.0099 I-0.023 J0.032
N13545 G1 X2.0578 Y0.075
N13550 G3 X2.0108 Y0.0747 I-0.0233 J-0.0333
N13555 G1 X1.9212 Y0.0102
N13560 G2 X1.8756 Y0.0099 I-0.023 J0.032
N13565 G1 X1.7828 Y0.075
N13570 G3 X1.7358 Y0.0747 I-0.0233 J-0.0333
N13575 G1 X1.6462 Y0.0102
N13580 G2 X1.6006 Y0.0099 I-0.023 J0.032
N13585 G1 X1.5078 Y0.075
N13590 G3 X1.4608 Y0.0747 I-0.0233 J-0.0333
N13595 G1 X1.3712 Y0.0102
N13600 G2 X1.3256 Y0.0099 I-0.023 J0.032
N13605 G1 X1.2328 Y0.075
N13610 G3 X1.1858 Y0.0747 I-0.0233 J-0.0333
N13615 G1 X1.0962 Y0.0102
N13620 G2 X1.0506 Y0.0099 I-0.023 J0.032
N13625 G1 X0.9578 Y0.075
N13630 G3 X0.9108 Y0.0747 I-0.0233 J-0.0333
N13635 G1 X0.8212 Y0.0102
N13640 G2 X0.7756 Y0.0099 I-0.023 J0.032
N13645 G1 X0.6828 Y0.075
N13650 G3 X0.6358 Y0.0747 I-0.0233 J-0.0333
N13655 G1 X0.5462 Y0.0102
N13660 G2 X0.5006 Y0.0099 I-0.023 J0.032
N13665 G1 X0.4078 Y0.075
N13670 G3 X0.3608 Y0.0747 I-0.0233 J-0.0333
N13675 G1 X0.2712 Y0.0102
N13680 G2 X0.2256 Y0.0099 I-0.023 J0.032
N13685 G1 X0.1328 Y0.075
N13690 G3 X0.0858 Y0.0747 I-0.0233 J-0.0333
N13695 G1 X-0.0038 Y0.0102
N13700 G2 X-0.0494 Y0.0099 I-0.023 J0.032
N13705 G1 X-0.1422 Y0.075
N13710 G3 X-0.1892 Y0.0747 I-0.0233 J-0.0333
N13715 G1 X-0.2788 Y0.0102
N13720 G2 X-0.3244 Y0.0099 I-0.023 J0.032
N13725 G1 X-0.4172 Y0.075
N13730 G3 X-0.4642 Y0.0747 I-0.0233 J-0.0333
N13735 G1 X-0.5538 Y0.0102
N13740 G2 X-0.5994 Y0.0099 I-0.023 J0.032
N13745 G1 X-0.6922 Y0.075
N13750 G3 X-0.7392 Y0.0747 I-0.0233 J-0.0333
N13755 G1 X-0.8288 Y0.0102
N13760 G2 X-0.8744 Y0.0099 I-0.023 J0.032
N13765 G1 X-0.9672 Y0.075
N13770 G3 X-1.0142 Y0.0747 I-0.0233 J-0.0333
N13775 G1 X-1.1038 Y0.0102
N13780 G2 X-1.1494 Y0.0099 I-0.023 J0.032
N13785 G1 X-1.2422 Y0.075
N13790 G3 X-1.2892 Y0.0747 I-0.0233 J-0.0333
N13795 G1 X-1.3788 Y0.0102
N13800 G2 X-1.4244 Y0.0099 I-0.023 J0.032
N13805 G1 X-1.4425 Y0.0227
N13810 G3 X-1.4991 Y0.0356 I-0.0442 J-0.063
N13815 X-1.5526 Y0.0134 I0.0203 J-0.1248
N13820 G1 X-1.5617 Y0.0069
N13825 X-1.5946 Y-0.0168
N13830 G3 X-1.5945 Y-0.0309 I0.0051 J-0.007
N13835 G1 X-1.5464 Y-0.0646
N13840 G3 X-1.5233 Y-0.0645 I0.0115 J0.0163
N13845 G1 X-1.4806 Y-0.0337
N13850 G3 X-1.4807 Y-0.0196 I-0.0051 J0.007
N13855 G1 X-1.5288 Y0.0141
N13860 G3 X-1.5519 Y0.014 I-0.0115 J-0.0163
N13865 G1 X-1.5526 Y0.0134
N13870 G3 X-1.5538 Y0.0124 Z-0.0398 I0.0046 J-0.0064
N13875 X-1.5547 Y0.0112 Z-0.0394 I0.0058 J-0.0054
N13880 X-1.5553 Y0.01 Z-0.0387 I0.0067 J-0.0042
N13885 X-1.5557 Y0.0089 Z-0.0377 I0.0073 J-0.003
N13890 X-1.5559 Y0.0079 Z-0.0365 I0.0076 J-0.0019
N13895 Y0.0072 Z-0.0351 I0.0078 J-0.0009
N13900 Y0.0068 Z-0.0337 I0.0079 J-0.0002
N13905 G1 Y0.0066 Z-0.0321
N13910 G0 Z0.1079
N13915 X2.5715 Y0.0808
N13920 G1 Z0.0394 F20.
N13925 Z-0.0321
N13930 X2.5712 Y0.0807 Z-0.0342
N13935 X2.5705 Y0.0804 Z-0.0361
N13940 X2.5694 Y0.0798 Z-0.0377
N13945 X2.568 Y0.0791 Z-0.0389
N13950 X2.5663 Y0.0782 Z-0.0397
N13955 X2.5645 Y0.0773 Z-0.04
N13960 X2.5642 Y0.0771
N13965 X2.5598 Y0.074
N13970 X2.4712 Y0.0102
N13975 G2 X2.4256 Y0.0099 I-0.023 J0.032
N13980 G1 X2.3328 Y0.075
N13985 G3 X2.2858 Y0.0747 I-0.0233 J-0.0333
N13990 G1 X2.1962 Y0.0102
N13995 G2 X2.1506 Y0.0099 I-0.023 J0.032
N14000 G1 X2.0578 Y0.075
N14005 G3 X2.0108 Y0.0747 I-0.0233 J-0.0333
N14010 G1 X1.9212 Y0.0102
N14015 G2 X1.8756 Y0.0099 I-0.023 J0.032
N14020 G1 X1.7828 Y0.075
N14025 G3 X1.7358 Y0.0747 I-0.0233 J-0.0333
N14030 G1 X1.6462 Y0.0102
N14035 G2 X1.6006 Y0.0099 I-0.023 J0.032
N14040 G1 X1.5078 Y0.075
N14045 G3 X1.4608 Y0.0747 I-0.0233 J-0.0333
N14050 G1 X1.3712 Y0.0102
N14055 G2 X1.3256 Y0.0099 I-0.023 J0.032
N14060 G1 X1.2328 Y0.075
N14065 G3 X1.1858 Y0.0747 I-0.0233 J-0.0333
N14070 G1 X1.0962 Y0.0102
N14075 G2 X1.0506 Y0.0099 I-0.023 J0.032
N14080 G1 X0.9578 Y0.075
N14085 G3 X0.9108 Y0.0747 I-0.0233 J-0.0333
N14090 G1 X0.8212 Y0.0102
N14095 G2 X0.7756 Y0.0099 I-0.023 J0.032
N14100 G1 X0.6828 Y0.075
N14105 G3 X0.6358 Y0.0747 I-0.0233 J-0.0333
N14110 G1 X0.5462 Y0.0102
N14115 G2 X0.5006 Y0.0099 I-0.023 J0.032
N14120 G1 X0.4078 Y0.075
N14125 G3 X0.3608 Y0.0747 I-0.0233 J-0.0333
N14130 G1 X0.2712 Y0.0102
N14135 G2 X0.2256 Y0.0099 I-0.023 J0.032
N14140 G1 X0.1328 Y0.075
N14145 G3 X0.0858 Y0.0747 I-0.0233 J-0.0333
N14150 G1 X-0.0038 Y0.0102
N14155 G2 X-0.0494 Y0.0099 I-0.023 J0.032
N14160 G1 X-0.1422 Y0.075
N14165 G3 X-0.1892 Y0.0747 I-0.0233 J-0.0333
N14170 G1 X-0.2788 Y0.0102
N14175 G2 X-0.3244 Y0.0099 I-0.023 J0.032
N14180 G1 X-0.4172 Y0.075
N14185 G3 X-0.4642 Y0.0747 I-0.0233 J-0.0333
N14190 G1 X-0.5538 Y0.0102
N14195 G2 X-0.5994 Y0.0099 I-0.023 J0.032
N14200 G1 X-0.6922 Y0.075
N14205 G3 X-0.7392 Y0.0747 I-0.0233 J-0.0333
N14210 G1 X-0.8288 Y0.0102
N14215 G2 X-0.8744 Y0.0099 I-0.023 J0.032
N14220 G1 X-0.9672 Y0.075
N14225 G3 X-1.0142 Y0.0747 I-0.0233 J-0.0333
N14230 G1 X-1.1038 Y0.0102
N14235 G2 X-1.1494 Y0.0099 I-0.023 J0.032
N14240 G1 X-1.2422 Y0.075
N14245 G3 X-1.2892 Y0.0747 I-0.0233 J-0.0333
N14250 G1 X-1.3788 Y0.0102
N14255 G2 X-1.4244 Y0.0099 I-0.023 J0.032
N14260 G1 X-1.5172 Y0.075
N14265 G3 X-1.5642 Y0.0747 I-0.0233 J-0.0333
N14270 G1 X-1.6538 Y0.0102
N14275 G2 X-1.6994 Y0.0099 I-0.023 J0.032
N14280 G1 X-1.7175 Y0.0227
N14285 G3 X-1.7741 Y0.0356 I-0.0442 J-0.063
N14290 X-1.8276 Y0.0134 I0.0203 J-0.1248
N14295 G1 X-1.8367 Y0.0069
N14300 X-1.8696 Y-0.0168
N14305 G3 X-1.8695 Y-0.0309 I0.0051 J-0.007
N14310 G1 X-1.8214 Y-0.0646
N14315 G3 X-1.7983 Y-0.0645 I0.0115 J0.0163
N14320 G1 X-1.7556 Y-0.0337
N14325 G3 X-1.7557 Y-0.0196 I-0.0051 J0.007
N14330 G1 X-1.8038 Y0.0141
N14335 G3 X-1.8269 Y0.014 I-0.0115 J-0.0163
N14340 G1 X-1.8276 Y0.0134
N14345 G3 X-1.8288 Y0.0124 Z-0.0398 I0.0046 J-0.0064
N14350 X-1.8297 Y0.0112 Z-0.0394 I0.0058 J-0.0054
N14355 X-1.8303 Y0.01 Z-0.0387 I0.0067 J-0.0042
N14360 X-1.8307 Y0.0089 Z-0.0377 I0.0073 J-0.003
N14365 X-1.8309 Y0.0079 Z-0.0365 I0.0076 J-0.0019
N14370 Y0.0072 Z-0.0351 I0.0078 J-0.0009
N14375 Y0.0068 Z-0.0337 I0.0079 J-0.0002
N14380 G1 Y0.0066 Z-0.0321
N14385 G0 Z0.1079
N14390 X2.5715 Y0.0808
N14395 G1 Z0.0394 F20.
N14400 Z-0.0321
N14405 X2.5712 Y0.0807 Z-0.0342
N14410 X2.5705 Y0.0804 Z-0.0361
N14415 X2.5694 Y0.0798 Z-0.0377
N14420 X2.568 Y0.0791 Z-0.0389
N14425 X2.5663 Y0.0782 Z-0.0397
N14430 X2.5645 Y0.0773 Z-0.04
N14435 X2.5642 Y0.0771
N14440 X2.5598 Y0.074
N14445 X2.4712 Y0.0102
N14450 G2 X2.4256 Y0.0099 I-0.023 J0.032
N14455 G1 X2.3328 Y0.075
N14460 G3 X2.2858 Y0.0747 I-0.0233 J-0.0333
N14465 G1 X2.1962 Y0.0102
N14470 G2 X2.1506 Y0.0099 I-0.023 J0.032
N14475 G1 X2.0578 Y0.075
N14480 G3 X2.0108 Y0.0747 I-0.0233 J-0.0333
N14485 G1 X1.9212 Y0.0102
N14490 G2 X1.8756 Y0.0099 I-0.023 J0.032
N14495 G1 X1.7828 Y0.075
N14500 G3 X1.7358 Y0.0747 I-0.0233 J-0.0333
N14505 G1 X1.6462 Y0.0102
N14510 G2 X1.6006 Y0.0099 I-0.023 J0.032
N14515 G1 X1.5078 Y0.075
N14520 G3 X1.4608 Y0.0747 I-0.0233 J-0.0333
N14525 G1 X1.3712 Y0.0102
N14530 G2 X1.3256 Y0.0099 I-0.023 J0.032
N14535 G1 X1.2328 Y0.075
N14540 G3 X1.1858 Y0.0747 I-0.0233 J-0.0333
N14545 G1 X1.0962 Y0.0102
N14550 G2 X1.0506 Y0.0099 I-0.023 J0.032
N14555 G1 X0.9578 Y0.075
N14560 G3 X0.9108 Y0.0747 I-0.0233 J-0.0333
N14565 G1 X0.8212 Y0.0102
N14570 G2 X0.7756 Y0.0099 I-0.023 J0.032
N14575 G1 X0.6828 Y0.075
N14580 G3 X0.6358 Y0.0747 I-0.0233 J-0.0333
N14585 G1 X0.5462 Y0.0102
N14590 G2 X0.5006 Y0.0099 I-0.023 J0.032
N14595 G1 X0.4078 Y0.075
N14600 G3 X0.3608 Y0.0747 I-0.0233 J-0.0333
N14605 G1 X0.2712 Y0.0102
N14610 G2 X0.2256 Y0.0099 I-0.023 J0.032
N14615 G1 X0.1328 Y0.075
N14620 G3 X0.0858 Y0.0747 I-0.0233 J-0.0333
N14625 G1 X-0.0038 Y0.0102
N14630 G2 X-0.0494 Y0.0099 I-0.023 J0.032
N14635 G1 X-0.1422 Y0.075
N14640 G3 X-0.1892 Y0.0747 I-0.0233 J-0.0333
N14645 G1 X-0.2788 Y0.0102
N14650 G2 X-0.3244 Y0.0099 I-0.023 J0.032
N14655 G1 X-0.4172 Y0.075
N14660 G3 X-0.4642 Y0.0747 I-0.0233 J-0.0333
N14665 G1 X-0.5538 Y0.0102
N14670 G2 X-0.5994 Y0.0099 I-0.023 J0.032
N14675 G1 X-0.6922 Y0.075
N14680 G3 X-0.7392 Y0.0747 I-0.0233 J-0.0333
N14685 G1 X-0.8288 Y0.0102
N14690 G2 X-0.8744 Y0.0099 I-0.023 J0.032
N14695 G1 X-0.9672 Y0.075
N14700 G3 X-1.0142 Y0.0747 I-0.0233 J-0.0333
N14705 G1 X-1.1038 Y0.0102
N14710 G2 X-1.1494 Y0.0099 I-0.023 J0.032
N14715 G1 X-1.2422 Y0.075
N14720 G3 X-1.2892 Y0.0747 I-0.0233 J-0.0333
N14725 G1 X-1.3788 Y0.0102
N14730 G2 X-1.4244 Y0.0099 I-0.023 J0.032
N14735 G1 X-1.5172 Y0.075
N14740 G3 X-1.5642 Y0.0747 I-0.0233 J-0.0333
N14745 G1 X-1.6538 Y0.0102
N14750 G2 X-1.6994 Y0.0099 I-0.023 J0.032
N14755 G1 X-1.7922 Y0.075
N14760 G3 X-1.8392 Y0.0747 I-0.0233 J-0.0333
N14765 G1 X-1.9288 Y0.0102
N14770 G2 X-1.9744 Y0.0099 I-0.023 J0.032
N14775 G1 X-1.9925 Y0.0227
N14780 G3 X-2.0487 Y0.0357 I-0.0443 J-0.0632
N14785 X-2.1021 Y0.0138 I0.0192 J-0.1227
N14790 G1 X-2.1117 Y0.0069
N14795 X-2.1446 Y-0.0168
N14800 G3 X-2.1445 Y-0.0309 I0.0051 J-0.007
N14805 G1 X-2.0964 Y-0.0646
N14810 G3 X-2.0733 Y-0.0645 I0.0115 J0.0163
N14815 G1 X-2.0306 Y-0.0337
N14820 G3 X-2.0307 Y-0.0196 I-0.0051 J0.007
N14825 G1 X-2.0807 Y0.0155
N14830 G3 X-2.0999 Y0.0154 I-0.0095 J-0.0136
N14835 G1 X-2.1021 Y0.0138
N14840 G3 X-2.1033 Y0.0128 Z-0.0398 I0.0046 J-0.0064
N14845 X-2.1042 Y0.0116 Z-0.0394 I0.0058 J-0.0054
N14850 X-2.1048 Y0.0104 Z-0.0387 I0.0067 J-0.0042
N14855 X-2.1052 Y0.0093 Z-0.0377 I0.0073 J-0.003
N14860 X-2.1054 Y0.0083 Z-0.0365 I0.0076 J-0.0019
N14865 Y0.0076 Z-0.0351 I0.0078 J-0.0009
N14870 Y0.0071 Z-0.0337 I0.0079 J-0.0002
N14875 G1 Y0.007 Z-0.0321
N14880 G0 Z0.1079
N14885 X2.5715 Y0.0808
N14890 G1 Z0.0394 F20.
N14895 Z-0.0321
N14900 X2.5712 Y0.0807 Z-0.0342
N14905 X2.5705 Y0.0804 Z-0.0361
N14910 X2.5694 Y0.0798 Z-0.0377
N14915 X2.568 Y0.0791 Z-0.0389
N14920 X2.5663 Y0.0782 Z-0.0397
N14925 X2.5645 Y0.0773 Z-0.04
N14930 X2.5642 Y0.0771
N14935 X2.5598 Y0.074
N14940 X2.4712 Y0.0102
N14945 G2 X2.4256 Y0.0099 I-0.023 J0.032
N14950 G1 X2.3328 Y0.075
N14955 G3 X2.2858 Y0.0747 I-0.0233 J-0.0333
N14960 G1 X2.1962 Y0.0102
N14965 G2 X2.1506 Y0.0099 I-0.023 J0.032
N14970 G1 X2.0578 Y0.075
N14975 G3 X2.0108 Y0.0747 I-0.0233 J-0.0333
N14980 G1 X1.9212 Y0.0102
N14985 G2 X1.8756 Y0.0099 I-0.023 J0.032
N14990 G1 X1.7828 Y0.075
N14995 G3 X1.7358 Y0.0747 I-0.0233 J-0.0333
N15000 G1 X1.6462 Y0.0102
N15005 G2 X1.6006 Y0.0099 I-0.023 J0.032
N15010 G1 X1.5078 Y0.075
N15015 G3 X1.4608 Y0.0747 I-0.0233 J-0.0333
N15020 G1 X1.3712 Y0.0102
N15025 G2 X1.3256 Y0.0099 I-0.023 J0.032
N15030 G1 X1.2328 Y0.075
N15035 G3 X1.1858 Y0.0747 I-0.0233 J-0.0333
N15040 G1 X1.0962 Y0.0102
N15045 G2 X1.0506 Y0.0099 I-0.023 J0.032
N15050 G1 X0.9578 Y0.075
N15055 G3 X0.9108 Y0.0747 I-0.0233 J-0.0333
N15060 G1 X0.8212 Y0.0102
N15065 G2 X0.7756 Y0.0099 I-0.023 J0.032
N15070 G1 X0.6828 Y0.075
N15075 G3 X0.6358 Y0.0747 I-0.0233 J-0.0333
N15080 G1 X0.5462 Y0.0102
N15085 G2 X0.5006 Y0.0099 I-0.023 J0.032
N15090 G1 X0.4078 Y0.075
N15095 G3 X0.3608 Y0.0747 I-0.0233 J-0.0333
N15100 G1 X0.2712 Y0.0102
N15105 G2 X0.2256 Y0.0099 I-0.023 J0.032
N15110 G1 X0.1328 Y0.075
N15115 G3 X0.0858 Y0.0747 I-0.0233 J-0.0333
N15120 G1 X-0.0038 Y0.0102
N15125 G2 X-0.0494 Y0.0099 I-0.023 J0.032
N15130 G1 X-0.1422 Y0.075
N15135 G3 X-0.1892 Y0.0747 I-0.0233 J-0.0333
N15140 G1 X-0.2788 Y0.0102
N15145 G2 X-0.3244 Y0.0099 I-0.023 J0.032
N15150 G1 X-0.4172 Y0.075
N15155 G3 X-0.4642 Y0.0747 I-0.0233 J-0.0333
N15160 G1 X-0.5538 Y0.0102
N15165 G2 X-0.5994 Y0.0099 I-0.023 J0.032
N15170 G1 X-0.6922 Y0.075
N15175 G3 X-0.7392 Y0.0747 I-0.0233 J-0.0333
N15180 G1 X-0.8288 Y0.0102
N15185 G2 X-0.8744 Y0.0099 I-0.023 J0.032
N15190 G1 X-0.9672 Y0.075
N15195 G3 X-1.0142 Y0.0747 I-0.0233 J-0.0333
N15200 G1 X-1.1038 Y0.0102
N15205 G2 X-1.1494 Y0.0099 I-0.023 J0.032
N15210 G1 X-1.2422 Y0.075
N15215 G3 X-1.2892 Y0.0747 I-0.0233 J-0.0333
N15220 G1 X-1.3788 Y0.0102
N15225 G2 X-1.4244 Y0.0099 I-0.023 J0.032
N15230 G1 X-1.5172 Y0.075
N15235 G3 X-1.5642 Y0.0747 I-0.0233 J-0.0333
N15240 G1 X-1.6538 Y0.0102
N15245 G2 X-1.6994 Y0.0099 I-0.023 J0.032
N15250 G1 X-1.7922 Y0.075
N15255 G3 X-1.8392 Y0.0747 I-0.0233 J-0.0333
N15260 G1 X-1.9288 Y0.0102
N15265 G2 X-1.9744 Y0.0099 I-0.023 J0.032
N15270 G1 X-2.0672 Y0.075
N15275 G3 X-2.1142 Y0.0747 I-0.0233 J-0.0333
N15280 G1 X-2.2038 Y0.0102
N15285 G2 X-2.2494 Y0.0099 I-0.023 J0.032
N15290 G1 X-2.295 Y0.0419
N15295 G3 X-2.3266 Y0.0152 I-0.0123 J-0.0175
N15300 G2 X-2.358 Y-0.0119 I-0.0194 J-0.0092
N15305 G3 X-2.3725 Y-0.0121 I-0.0071 J-0.0105
N15310 G1 X-2.3728 Y-0.0124
N15315 X-2.3729
N15320 X-2.3784 Y-0.0164
N15325 G3 X-2.3783 Y-0.0308 I0.0052 J-0.0072
N15330 G1 X-2.3673 Y-0.0385
N15335 G3 X-2.3527 Y-0.0384 I0.0072 J0.0103
N15340 G1 X-2.3468 Y-0.0341
N15345 G3 X-2.3469 Y-0.0197 I-0.0052 J0.0072
N15350 G1 X-2.3578 Y-0.012
N15355 X-2.358 Y-0.0119
N15360 G2 X-2.364 Y0.0062 I0.0087 J0.0128
N15365 G3 X-2.3791 Y0.0176 I-0.0094 J0.0033
N15370 G1 X-2.4269 Y-0.0168
N15375 G3 X-2.4268 Y-0.0309 I0.0051 J-0.007
N15380 G1 X-2.3714 Y-0.0698
N15385 G3 X-2.3483 Y-0.0697 I0.0115 J0.0163
N15390 G1 X-2.2983 Y-0.0336
N15395 G3 X-2.2984 Y-0.0195 I-0.0051 J0.007
