%
(MERMAID_BOOKEND_PROFILE)
(MERMAID_BOOKEND PROFILE 14 ENDMILL 5 IPM)
(T1  D=0.25 CR=0. - ZMIN=-0.75 - FLAT END MILL)
N10 G90 G94 G17 G91.1
N15 G20
N20 G53 G0 Z0.
(2D CONTOUR2)
N25 M9
N30 T1 M6
N35 S12000 M3
N40 G54
N45 M8
N55 G0 X-4.652 Y-1.6746
N60 G43 Z0.5 H1
N65 G0 Z0.1644
N70 G1 Z-0.1 F1.
N75 X-4.6517 Y-1.6747 Z-0.1039
N80 X-4.6508 Y-1.6749 Z-0.1077
N85 X-4.6493 Y-1.6753 Z-0.1113
N90 X-4.6473 Y-1.6758 Z-0.1147
N95 X-4.6449 Y-1.6764 Z-0.1177
N100 X-4.642 Y-1.6772 Z-0.1202
N105 X-4.6387 Y-1.678 Z-0.1223
N110 X-4.6352 Y-1.6789 Z-0.1238
N115 X-4.6315 Y-1.6799 Z-0.1247
N120 X-4.6277 Y-1.6808 Z-0.125
N125 X-4.6035 Y-1.6871 F5.
N130 G3 X-4.5731 Y-1.6691 I0.0062 J0.0242
N135 G2 X-4.458 Y-1.5755 I0.121 J-0.0312
N140 G3 X-4.3496 Y-1.5237 I0.0031 J0.1331
N145 X-4.2911 Y-1.419 I-0.2586 J0.213
N150 X-4.2556 Y-1.2852 I-0.6259 J0.2376
N155 X-4.2436 Y-1.0723 I-1.0085 J0.164
N160 G1 X-4.2457 Y-1.0296
N165 G3 X-4.2614 Y-0.8561 I-6.2817 J-0.4797
N170 G2 X-4.2679 Y-0.7207 I1.4884 J0.1402
N175 G1 X-4.2678 Y-0.7147
N180 X-4.2664 Y-0.673
N185 G2 X-4.266 Y-0.6662 I0.1249 J-0.0043
N190 G1 X-4.2623 Y-0.6246
N195 G2 X-4.2613 Y-0.6169 I0.1245 J-0.0111
N200 G1 X-4.255 Y-0.5755
N205 G2 X-4.2535 Y-0.5673 I0.1236 J-0.0188
N210 G1 X-4.2443 Y-0.5261
N215 G2 X-4.2422 Y-0.5177 I0.122 J-0.0271
N220 G1 X-4.2301 Y-0.477
N225 G2 X-4.228 Y-0.4705 I0.1198 J-0.0356
N230 X-3.9929 Y-0.1395 I0.6793 J-0.2335
N235 X-3.7569 Y-0.0026 I0.5703 J-0.7111
N240 X-3.6973 Y0.0204 I0.3443 J-0.8046
N245 G1 X-3.7201 Y0.0386
N250 G2 X-3.7248 Y0.0425 I0.078 J0.0977
N255 X-3.9447 Y0.2882 I0.7788 J0.9183
N260 G1 X-3.9482 Y0.2933
N265 X-3.976 Y0.3372
N270 G2 X-3.9794 Y0.3428 I0.1055 J0.067
N275 G1 X-4.0049 Y0.388
N280 G2 X-4.0081 Y0.394 I0.1088 J0.0615
N285 G1 X-4.031 Y0.4403
N290 G2 X-4.034 Y0.4468 I0.112 J0.0554
N295 X-4.1042 Y0.6687 I0.8453 J0.3892
N300 G1 X-4.1115 Y0.7172
N305 G2 X-4.1124 Y0.7249 I0.1236 J0.0188
N310 G1 X-4.1168 Y0.7734
N315 G2 X-4.1172 Y0.7804 I0.1245 J0.0112
N320 G1 X-4.1188 Y0.8287
N325 G2 X-4.1189 Y0.8349 I0.1249 J0.0042
N330 X-4.1151 Y0.9399 I1.3648 J0.0031
N335 G1 X-4.1067 Y1.0352
N340 X-4.0986 Y1.1278
N345 G3 X-4.1 Y1.2922 I-0.8978 J0.0746
N350 X-4.1494 Y1.4823 I-0.7258 J-0.0872
N355 X-4.2895 Y1.7413 I-1.3281 J-0.5509
N360 G1 X-4.2943 Y1.7483
N365 X-4.2987 Y1.7556
N370 X-4.3026 Y1.7633
N375 X-4.3059 Y1.7711
N380 X-4.3087 Y1.7792
N385 X-4.311 Y1.7875
N390 X-4.3126 Y1.7959
N395 X-4.3137 Y1.8044
N400 X-4.3142 Y1.8129
N405 X-4.3141 Y1.8215
N410 X-4.3135 Y1.83
N415 X-4.3122 Y1.8385
N420 X-4.3104 Y1.8469
N425 X-4.308 Y1.8551
N430 X-4.305 Y1.8631
N435 X-4.3015 Y1.8709
N440 X-4.2975 Y1.8785
N445 X-4.2929 Y1.8858
N450 X-4.2879 Y1.8927
N455 X-4.2824 Y1.8993
N460 X-4.2765 Y1.9054
N465 X-4.2667 Y1.9149
N470 G2 X-4.2573 Y1.9232 I0.0871 J-0.0897
N475 G1 X-4.2465 Y1.9318
N480 G2 X-4.2365 Y1.939 I0.0777 J-0.0979
N485 G1 X-4.2244 Y1.9467
N490 G2 X-4.215 Y1.9523 I0.0677 J-0.1051
N495 G1 X-4.2019 Y1.9592
N500 G2 X-4.1924 Y1.9637 I0.0583 J-0.1106
N505 G1 X-4.1781 Y1.9697
N510 G2 X-4.1692 Y1.9731 I0.0488 J-0.1151
N515 G1 X-4.1538 Y1.9783
N520 G2 X-4.1456 Y1.9807 I0.0399 J-0.1185
N525 G1 X-4.1291 Y1.9851
N530 G2 X-4.1215 Y1.9868 I0.0317 J-0.1209
N535 G1 X-4.104 Y1.9902
N540 G2 X-4.097 Y1.9914 I0.0241 J-0.1227
N545 G1 X-4.0783 Y1.994
N550 G2 X-4.072 Y1.9947 I0.0171 J-0.1238
N555 X-3.8512 Y1.9809 I0.0644 J-0.7436
N560 X-3.3455 Y1.7549 I-0.2283 J-1.1896
N565 X-3.0646 Y1.4202 I-0.6474 J-0.8286
N570 X-2.9907 Y1.2655 I-1.3234 J-0.7275
N575 X-2.9018 Y1.0387 I-8.0026 J-3.2662
N580 G1 X-2.8808 Y0.9886
N585 X-2.8598 Y0.9417
N590 X-2.8381 Y0.8982
N595 G3 X-2.7405 Y0.7529 I0.6933 J0.3603
N600 X-2.5864 Y0.6131 I0.6758 J0.5898
N605 X-2.2484 Y0.4221 I1.0326 J1.4332
N610 X-2.0737 Y0.3957 I0.1959 J0.7047
N615 X-1.8259 Y0.3969 I0.1141 J2.1014
N620 X-1.3312 Y0.4485 I-0.287 J5.1402
N625 X-0.5195 Y0.61 I-1.2062 J8.1882
N630 X0.1801 Y0.8022 I-3.7154 J14.8862
N635 G1 X0.3033 Y0.8382
N640 X0.5521 Y0.9109
N645 G2 X1.0547 Y1.0442 I2.8 J-9.5446
N650 X1.4766 Y1.1204 I0.9493 J-4.0503
N655 X1.7602 Y1.1378 I0.2929 J-2.4627
N660 X2.1585 Y1.0901 I0.0026 J-1.6658
N665 X2.4891 Y0.9684 I-0.4608 J-1.7615
N670 X2.698 Y0.8663 I-3.1079 J-6.6235
N675 G1 X2.7617 Y0.836
N680 X2.8239 Y0.8086
N685 G3 X3.0279 Y0.7453 I0.3954 J0.9152
N690 X3.3193 Y0.7531 I0.1265 J0.7233
N695 X3.4773 Y0.7988 I-0.253 J1.1696
N700 G1 X3.544 Y0.8237
N705 X3.611 Y0.8508
N710 G2 X3.8893 Y0.9687 I6.7519 J-15.5459
N715 X4.1687 Y1.0634 I0.8953 J-2.1808
N720 X4.4426 Y1.1087 I0.382 J-1.461
N725 G1 X4.4512 Y1.109
N730 X4.4598 Y1.1088
N735 X4.4683 Y1.108
N740 X4.4768 Y1.1065
N745 X4.4851 Y1.1045
N750 X4.4933 Y1.102
N755 X4.5013 Y1.0989
N760 X4.5091 Y1.0952
N765 X4.5166 Y1.091
N770 X4.5238 Y1.0863
N775 X4.5306 Y1.0812
N780 X4.5371 Y1.0756
N785 X4.5432 Y1.0695
N790 X4.5489 Y1.063
N795 X4.554 Y1.0562
N800 X4.5588 Y1.0491
N805 X4.563 Y1.0416
N810 X4.5667 Y1.0338
N815 X4.5698 Y1.0259
N820 X4.5724 Y1.0177
N825 X4.5744 Y1.0094
N830 X4.5759 Y1.0009
N835 X4.5768 Y0.9924
N840 X4.577 Y0.9838
N845 Y-1.0366
N850 G2 X4.4621 Y-1.1612 I-0.125 J0.
N855 X4.0002 Y-1.1107 I-0.1075 J1.1551
N860 X3.9249 Y-1.086 I0.3041 J1.051
N865 X3.7133 Y-0.9968 I0.8939 J2.4179
N870 G1 X3.5796 Y-0.9351
N875 X3.5152 Y-0.9071
N880 G3 X3.3382 Y-0.8494 I-0.4009 J-0.9291
N885 X3.0702 Y-0.8617 I-0.1103 J-0.5232
N890 X2.8968 Y-0.932 I0.3012 J-0.9929
N895 X2.7044 Y-1.0333 I2.487 J-4.9518
N900 G2 X2.4525 Y-1.156 I-1.389 J2.5323
N905 X1.8685 Y-1.2844 I-0.65 J1.5641
N910 X1.487 Y-1.2739 I-0.1215 J2.5113
N915 X0.9425 Y-1.1853 I0.4387 J4.4129
N920 X0.5628 Y-1.0922 I1.5233 J7.0348
N925 X-0.0624 Y-0.9066 I4.1102 J14.9946
N930 G1 X-0.2204 Y-0.8566
N935 X-0.3785 Y-0.8069
N940 X-0.5367 Y-0.7577
N945 X-0.6951 Y-0.7089
N950 G3 X-1.195 Y-0.5751 I-2.4237 J-8.059
N955 X-1.8629 Y-0.4748 I-0.9901 J-4.3184
N960 X-2.2358 Y-0.4667 I-0.2688 J-3.7852
N965 X-2.4126 Y-0.4873 I0.0381 J-1.0944
N970 X-2.6926 Y-0.6066 I0.1745 J-0.7984
N975 X-2.9197 Y-0.796 I0.7566 J-1.1378
N980 X-3.1861 Y-1.1763 I0.9535 J-0.9515
N985 X-3.2649 Y-1.3537 I5.0217 J-2.3345
N990 G2 X-3.361 Y-1.5474 I-1.7843 J0.7647
N995 X-3.4198 Y-1.6389 I-1.0878 J0.6344
N1000 X-3.4235 Y-1.6442 I-0.1036 J0.0699
N1005 G1 X-3.4548 Y-1.6857
N1010 G2 X-3.4592 Y-1.6912 I-0.0999 J0.0752
N1015 X-3.6035 Y-1.8374 I-0.7523 J0.5986
N1020 X-3.8178 Y-1.9605 I-0.4802 J0.5874
N1025 G1 X-3.8415 Y-1.9684
N1030 G2 X-3.8472 Y-1.9702 I-0.0403 J0.1183
N1035 G1 X-3.8711 Y-1.977
N1040 G2 X-3.8771 Y-1.9786 I-0.0345 J0.1201
N1045 G1 X-3.9012 Y-1.9843
N1050 G2 X-3.9074 Y-1.9856 I-0.0286 J0.1217
N1055 G1 X-3.9318 Y-1.99
N1060 G2 X-3.9381 Y-1.991 I-0.0224 J0.123
N1065 G1 X-3.9627 Y-1.9942
N1070 G2 X-3.9691 Y-1.9948 I-0.0161 J0.124
N1075 G1 X-3.994 Y-1.9967
N1080 G2 X-4.0005 Y-1.9971 I-0.0096 J0.1246
N1085 G1 X-4.0256 Y-1.9977
N1090 G2 X-4.032 I-0.0031 J0.125
N1095 G1 X-4.0573 Y-1.997
N1100 G2 X-4.0637 Y-1.9967 I0.0033 J0.125
N1105 G1 X-4.0891 Y-1.9947
N1110 G2 X-4.0955 Y-1.9941 I0.0097 J0.1246
N1115 G1 X-4.1211 Y-1.9907
N1120 G2 X-4.1272 Y-1.9898 I0.0161 J0.124
N1125 G1 X-4.153 Y-1.9851
N1130 G2 X-4.159 Y-1.9839 I0.0222 J0.123
N1135 X-4.4086 Y-1.882 I0.1722 J0.7783
N1140 X-4.5278 Y-1.7997 I0.5435 J0.9142
N1145 G1 X-4.5344 Y-1.7942
N1150 X-4.5407 Y-1.7883
N1155 X-4.5465 Y-1.782
N1160 X-4.552 Y-1.7753
N1165 X-4.5569 Y-1.7683
N1170 X-4.5613 Y-1.7609
N1175 X-4.5652 Y-1.7532
N1180 X-4.5686 Y-1.7453
N1185 X-4.5714 Y-1.7372
N1190 X-4.5737 Y-1.7289
N1195 X-4.5754 Y-1.7204
N1200 X-4.5765 Y-1.7119
N1205 X-4.577 Y-1.7033
N1210 X-4.5769 Y-1.6946
N1215 X-4.5762 Y-1.6861
N1220 X-4.5749 Y-1.6775
N1225 X-4.5731 Y-1.6691
N1230 G3 X-4.591 Y-1.6387 I-0.0242 J0.0062
N1235 G1 X-4.6153 Y-1.6324
N1240 X-4.619 Y-1.6315 Z-0.1247
N1245 X-4.6227 Y-1.6305 Z-0.1238
N1250 X-4.6262 Y-1.6296 Z-0.1223
N1255 X-4.6295 Y-1.6288 Z-0.1202
N1260 X-4.6324 Y-1.628 Z-0.1177
N1265 X-4.6348 Y-1.6274 Z-0.1147
N1270 X-4.6368 Y-1.6269 Z-0.1113
N1275 X-4.6383 Y-1.6265 Z-0.1077
N1280 X-4.6392 Y-1.6263 Z-0.1039
N1285 X-4.6395 Y-1.6262 Z-0.1
N1290 X-4.652 Y-1.6746
N1295 Z-0.225 F1.
N1300 X-4.6517 Y-1.6747 Z-0.2289
N1305 X-4.6508 Y-1.6749 Z-0.2327
N1310 X-4.6493 Y-1.6753 Z-0.2363
N1315 X-4.6473 Y-1.6758 Z-0.2397
N1320 X-4.6449 Y-1.6764 Z-0.2427
N1325 X-4.642 Y-1.6772 Z-0.2452
N1330 X-4.6387 Y-1.678 Z-0.2473
N1335 X-4.6352 Y-1.6789 Z-0.2488
N1340 X-4.6315 Y-1.6799 Z-0.2497
N1345 X-4.6277 Y-1.6808 Z-0.25
N1350 X-4.6035 Y-1.6871 F5.
N1355 G3 X-4.5731 Y-1.6691 I0.0062 J0.0242
N1360 G2 X-4.458 Y-1.5755 I0.121 J-0.0312
N1365 G3 X-4.3496 Y-1.5237 I0.0031 J0.1331
N1370 X-4.2911 Y-1.419 I-0.2586 J0.213
N1375 X-4.2556 Y-1.2852 I-0.6259 J0.2376
N1380 X-4.2436 Y-1.0723 I-1.0085 J0.164
N1385 G1 X-4.2457 Y-1.0296
N1390 G3 X-4.2614 Y-0.8561 I-6.2817 J-0.4797
N1395 G2 X-4.2679 Y-0.7207 I1.4884 J0.1402
N1400 G1 X-4.2678 Y-0.7147
N1405 X-4.2664 Y-0.673
N1410 G2 X-4.266 Y-0.6662 I0.1249 J-0.0043
N1415 G1 X-4.2623 Y-0.6246
N1420 G2 X-4.2613 Y-0.6169 I0.1245 J-0.0111
N1425 G1 X-4.255 Y-0.5755
N1430 G2 X-4.2535 Y-0.5673 I0.1236 J-0.0188
N1435 G1 X-4.2443 Y-0.5261
N1440 G2 X-4.2422 Y-0.5177 I0.122 J-0.0271
N1445 G1 X-4.2301 Y-0.477
N1450 G2 X-4.228 Y-0.4705 I0.1198 J-0.0356
N1455 X-3.9929 Y-0.1395 I0.6793 J-0.2335
N1460 X-3.7569 Y-0.0026 I0.5703 J-0.7111
N1465 X-3.6973 Y0.0204 I0.3443 J-0.8046
N1470 G1 X-3.7201 Y0.0386
N1475 G2 X-3.7248 Y0.0425 I0.078 J0.0977
N1480 X-3.9447 Y0.2882 I0.7788 J0.9183
N1485 G1 X-3.9482 Y0.2933
N1490 X-3.976 Y0.3372
N1495 G2 X-3.9794 Y0.3428 I0.1055 J0.067
N1500 G1 X-4.0049 Y0.388
N1505 G2 X-4.0081 Y0.394 I0.1088 J0.0615
N1510 G1 X-4.031 Y0.4403
N1515 G2 X-4.034 Y0.4468 I0.112 J0.0554
N1520 X-4.1042 Y0.6687 I0.8453 J0.3892
N1525 G1 X-4.1115 Y0.7172
N1530 G2 X-4.1124 Y0.7249 I0.1236 J0.0188
N1535 G1 X-4.1168 Y0.7734
N1540 G2 X-4.1172 Y0.7804 I0.1245 J0.0112
N1545 G1 X-4.1188 Y0.8287
N1550 G2 X-4.1189 Y0.8349 I0.1249 J0.0042
N1555 X-4.1151 Y0.9399 I1.3648 J0.0031
N1560 G1 X-4.1067 Y1.0352
N1565 X-4.0986 Y1.1278
N1570 G3 X-4.1 Y1.2922 I-0.8978 J0.0746
N1575 X-4.1494 Y1.4823 I-0.7258 J-0.0872
N1580 X-4.2895 Y1.7413 I-1.3281 J-0.5509
N1585 G1 X-4.2943 Y1.7483
N1590 X-4.2987 Y1.7556
N1595 X-4.3026 Y1.7633
N1600 X-4.3059 Y1.7711
N1605 X-4.3087 Y1.7792
N1610 X-4.311 Y1.7875
N1615 X-4.3126 Y1.7959
N1620 X-4.3137 Y1.8044
N1625 X-4.3142 Y1.8129
N1630 X-4.3141 Y1.8215
N1635 X-4.3135 Y1.83
N1640 X-4.3122 Y1.8385
N1645 X-4.3104 Y1.8469
N1650 X-4.308 Y1.8551
N1655 X-4.305 Y1.8631
N1660 X-4.3015 Y1.8709
N1665 X-4.2975 Y1.8785
N1670 X-4.2929 Y1.8858
N1675 X-4.2879 Y1.8927
N1680 X-4.2824 Y1.8993
N1685 X-4.2765 Y1.9054
N1690 X-4.2667 Y1.9149
N1695 G2 X-4.2573 Y1.9232 I0.0871 J-0.0897
N1700 G1 X-4.2465 Y1.9318
N1705 G2 X-4.2365 Y1.939 I0.0777 J-0.0979
N1710 G1 X-4.2244 Y1.9467
N1715 G2 X-4.215 Y1.9523 I0.0677 J-0.1051
N1720 G1 X-4.2019 Y1.9592
N1725 G2 X-4.1924 Y1.9637 I0.0583 J-0.1106
N1730 G1 X-4.1781 Y1.9697
N1735 G2 X-4.1692 Y1.9731 I0.0488 J-0.1151
N1740 G1 X-4.1538 Y1.9783
N1745 G2 X-4.1456 Y1.9807 I0.0399 J-0.1185
N1750 G1 X-4.1291 Y1.9851
N1755 G2 X-4.1215 Y1.9868 I0.0317 J-0.1209
N1760 G1 X-4.104 Y1.9902
N1765 G2 X-4.097 Y1.9914 I0.0241 J-0.1227
N1770 G1 X-4.0783 Y1.994
N1775 G2 X-4.072 Y1.9947 I0.0171 J-0.1238
N1780 X-3.8512 Y1.9809 I0.0644 J-0.7436
N1785 X-3.3455 Y1.7549 I-0.2283 J-1.1896
N1790 X-3.0646 Y1.4202 I-0.6474 J-0.8286
N1795 X-2.9907 Y1.2655 I-1.3234 J-0.7275
N1800 X-2.9018 Y1.0387 I-8.0026 J-3.2662
N1805 G1 X-2.8808 Y0.9886
N1810 X-2.8598 Y0.9417
N1815 X-2.8381 Y0.8982
N1820 G3 X-2.7405 Y0.7529 I0.6933 J0.3603
N1825 X-2.5864 Y0.6131 I0.6758 J0.5898
N1830 X-2.2484 Y0.4221 I1.0326 J1.4332
N1835 X-2.0737 Y0.3957 I0.1959 J0.7047
N1840 X-1.8259 Y0.3969 I0.1141 J2.1014
N1845 X-1.3312 Y0.4485 I-0.287 J5.1402
N1850 X-0.5195 Y0.61 I-1.2062 J8.1882
N1855 X0.1801 Y0.8022 I-3.7154 J14.8862
N1860 G1 X0.3033 Y0.8382
N1865 X0.5521 Y0.9109
N1870 G2 X1.0547 Y1.0442 I2.8 J-9.5446
N1875 X1.4766 Y1.1204 I0.9493 J-4.0503
N1880 X1.7602 Y1.1378 I0.2929 J-2.4627
N1885 X2.1585 Y1.0901 I0.0026 J-1.6658
N1890 X2.4891 Y0.9684 I-0.4608 J-1.7615
N1895 X2.698 Y0.8663 I-3.1079 J-6.6235
N1900 G1 X2.7617 Y0.836
N1905 X2.8239 Y0.8086
N1910 G3 X3.0279 Y0.7453 I0.3954 J0.9152
N1915 X3.3193 Y0.7531 I0.1265 J0.7233
N1920 X3.4773 Y0.7988 I-0.253 J1.1696
N1925 G1 X3.544 Y0.8237
N1930 X3.611 Y0.8508
N1935 G2 X3.8893 Y0.9687 I6.7519 J-15.5459
N1940 X4.1687 Y1.0634 I0.8953 J-2.1808
N1945 X4.4426 Y1.1087 I0.382 J-1.461
N1950 G1 X4.4512 Y1.109
N1955 X4.4598 Y1.1088
N1960 X4.4683 Y1.108
N1965 X4.4768 Y1.1065
N1970 X4.4851 Y1.1045
N1975 X4.4933 Y1.102
N1980 X4.5013 Y1.0989
N1985 X4.5091 Y1.0952
N1990 X4.5166 Y1.091
N1995 X4.5238 Y1.0863
N2000 X4.5306 Y1.0812
N2005 X4.5371 Y1.0756
N2010 X4.5432 Y1.0695
N2015 X4.5489 Y1.063
N2020 X4.554 Y1.0562
N2025 X4.5588 Y1.0491
N2030 X4.563 Y1.0416
N2035 X4.5667 Y1.0338
N2040 X4.5698 Y1.0259
N2045 X4.5724 Y1.0177
N2050 X4.5744 Y1.0094
N2055 X4.5759 Y1.0009
N2060 X4.5768 Y0.9924
N2065 X4.577 Y0.9838
N2070 Y-1.0366
N2075 G2 X4.4621 Y-1.1612 I-0.125 J0.
N2080 X4.0002 Y-1.1107 I-0.1075 J1.1551
N2085 X3.9249 Y-1.086 I0.3041 J1.051
N2090 X3.7133 Y-0.9968 I0.8939 J2.4179
N2095 G1 X3.5796 Y-0.9351
N2100 X3.5152 Y-0.9071
N2105 G3 X3.3382 Y-0.8494 I-0.4009 J-0.9291
N2110 X3.0702 Y-0.8617 I-0.1103 J-0.5232
N2115 X2.8968 Y-0.932 I0.3012 J-0.9929
N2120 X2.7044 Y-1.0333 I2.487 J-4.9518
N2125 G2 X2.4525 Y-1.156 I-1.389 J2.5323
N2130 X1.8685 Y-1.2844 I-0.65 J1.5641
N2135 X1.487 Y-1.2739 I-0.1215 J2.5113
N2140 X0.9425 Y-1.1853 I0.4387 J4.4129
N2145 X0.5628 Y-1.0922 I1.5233 J7.0348
N2150 X-0.0624 Y-0.9066 I4.1102 J14.9946
N2155 G1 X-0.2204 Y-0.8566
N2160 X-0.3785 Y-0.8069
N2165 X-0.5367 Y-0.7577
N2170 X-0.6951 Y-0.7089
N2175 G3 X-1.195 Y-0.5751 I-2.4237 J-8.059
N2180 X-1.8629 Y-0.4748 I-0.9901 J-4.3184
N2185 X-2.2358 Y-0.4667 I-0.2688 J-3.7852
N2190 X-2.4126 Y-0.4873 I0.0381 J-1.0944
N2195 X-2.6926 Y-0.6066 I0.1745 J-0.7984
N2200 X-2.9197 Y-0.796 I0.7566 J-1.1378
N2205 X-3.1861 Y-1.1763 I0.9535 J-0.9515
N2210 X-3.2649 Y-1.3537 I5.0217 J-2.3345
N2215 G2 X-3.361 Y-1.5474 I-1.7843 J0.7647
N2220 X-3.4198 Y-1.6389 I-1.0878 J0.6344
N2225 X-3.4235 Y-1.6442 I-0.1036 J0.0699
N2230 G1 X-3.4548 Y-1.6857
N2235 G2 X-3.4592 Y-1.6912 I-0.0999 J0.0752
N2240 X-3.6035 Y-1.8374 I-0.7523 J0.5986
N2245 X-3.8178 Y-1.9605 I-0.4802 J0.5874
N2250 G1 X-3.8415 Y-1.9684
N2255 G2 X-3.8472 Y-1.9702 I-0.0403 J0.1183
N2260 G1 X-3.8711 Y-1.977
N2265 G2 X-3.8771 Y-1.9786 I-0.0345 J0.1201
N2270 G1 X-3.9012 Y-1.9843
N2275 G2 X-3.9074 Y-1.9856 I-0.0286 J0.1217
N2280 G1 X-3.9318 Y-1.99
N2285 G2 X-3.9381 Y-1.991 I-0.0224 J0.123
N2290 G1 X-3.9627 Y-1.9942
N2295 G2 X-3.9691 Y-1.9948 I-0.0161 J0.124
N2300 G1 X-3.994 Y-1.9967
N2305 G2 X-4.0005 Y-1.9971 I-0.0096 J0.1246
N2310 G1 X-4.0256 Y-1.9977
N2315 G2 X-4.032 I-0.0031 J0.125
N2320 G1 X-4.0573 Y-1.997
N2325 G2 X-4.0637 Y-1.9967 I0.0033 J0.125
N2330 G1 X-4.0891 Y-1.9947
N2335 G2 X-4.0955 Y-1.9941 I0.0097 J0.1246
N2340 G1 X-4.1211 Y-1.9907
N2345 G2 X-4.1272 Y-1.9898 I0.0161 J0.124
N2350 G1 X-4.153 Y-1.9851
N2355 G2 X-4.159 Y-1.9839 I0.0222 J0.123
N2360 X-4.4086 Y-1.882 I0.1722 J0.7783
N2365 X-4.5278 Y-1.7997 I0.5435 J0.9142
N2370 G1 X-4.5344 Y-1.7942
N2375 X-4.5407 Y-1.7883
N2380 X-4.5465 Y-1.782
N2385 X-4.552 Y-1.7753
N2390 X-4.5569 Y-1.7683
N2395 X-4.5613 Y-1.7609
N2400 X-4.5652 Y-1.7532
N2405 X-4.5686 Y-1.7453
N2410 X-4.5714 Y-1.7372
N2415 X-4.5737 Y-1.7289
N2420 X-4.5754 Y-1.7204
N2425 X-4.5765 Y-1.7119
N2430 X-4.577 Y-1.7033
N2435 X-4.5769 Y-1.6946
N2440 X-4.5762 Y-1.6861
N2445 X-4.5749 Y-1.6775
N2450 X-4.5731 Y-1.6691
N2455 G3 X-4.591 Y-1.6387 I-0.0242 J0.0062
N2460 G1 X-4.6153 Y-1.6324
N2465 X-4.619 Y-1.6315 Z-0.2497
N2470 X-4.6227 Y-1.6305 Z-0.2488
N2475 X-4.6262 Y-1.6296 Z-0.2473
N2480 X-4.6295 Y-1.6288 Z-0.2452
N2485 X-4.6324 Y-1.628 Z-0.2427
N2490 X-4.6348 Y-1.6274 Z-0.2397
N2495 X-4.6368 Y-1.6269 Z-0.2363
N2500 X-4.6383 Y-1.6265 Z-0.2327
N2505 X-4.6392 Y-1.6263 Z-0.2289
N2510 X-4.6395 Y-1.6262 Z-0.225
N2515 X-4.652 Y-1.6746
N2520 Z-0.35 F1.
N2525 X-4.6517 Y-1.6747 Z-0.3539
N2530 X-4.6508 Y-1.6749 Z-0.3577
N2535 X-4.6493 Y-1.6753 Z-0.3613
N2540 X-4.6473 Y-1.6758 Z-0.3647
N2545 X-4.6449 Y-1.6764 Z-0.3677
N2550 X-4.642 Y-1.6772 Z-0.3702
N2555 X-4.6387 Y-1.678 Z-0.3723
N2560 X-4.6352 Y-1.6789 Z-0.3738
N2565 X-4.6315 Y-1.6799 Z-0.3747
N2570 X-4.6277 Y-1.6808 Z-0.375
N2575 X-4.6035 Y-1.6871 F5.
N2580 G3 X-4.5731 Y-1.6691 I0.0062 J0.0242
N2585 G2 X-4.458 Y-1.5755 I0.121 J-0.0312
N2590 G3 X-4.3496 Y-1.5237 I0.0031 J0.1331
N2595 X-4.2911 Y-1.419 I-0.2586 J0.213
N2600 X-4.2556 Y-1.2852 I-0.6259 J0.2376
N2605 X-4.2436 Y-1.0723 I-1.0085 J0.164
N2610 G1 X-4.2457 Y-1.0296
N2615 G3 X-4.2614 Y-0.8561 I-6.2817 J-0.4797
N2620 G2 X-4.2679 Y-0.7207 I1.4884 J0.1402
N2625 G1 X-4.2678 Y-0.7147
N2630 X-4.2664 Y-0.673
N2635 G2 X-4.266 Y-0.6662 I0.1249 J-0.0043
N2640 G1 X-4.2623 Y-0.6246
N2645 G2 X-4.2613 Y-0.6169 I0.1245 J-0.0111
N2650 G1 X-4.255 Y-0.5755
N2655 G2 X-4.2535 Y-0.5673 I0.1236 J-0.0188
N2660 G1 X-4.2443 Y-0.5261
N2665 G2 X-4.2422 Y-0.5177 I0.122 J-0.0271
N2670 G1 X-4.2301 Y-0.477
N2675 G2 X-4.228 Y-0.4705 I0.1198 J-0.0356
N2680 X-3.9929 Y-0.1395 I0.6793 J-0.2335
N2685 X-3.7569 Y-0.0026 I0.5703 J-0.7111
N2690 X-3.6973 Y0.0204 I0.3443 J-0.8046
N2695 G1 X-3.7201 Y0.0386
N2700 G2 X-3.7248 Y0.0425 I0.078 J0.0977
N2705 X-3.9447 Y0.2882 I0.7788 J0.9183
N2710 G1 X-3.9482 Y0.2933
N2715 X-3.976 Y0.3372
N2720 G2 X-3.9794 Y0.3428 I0.1055 J0.067
N2725 G1 X-4.0049 Y0.388
N2730 G2 X-4.0081 Y0.394 I0.1088 J0.0615
N2735 G1 X-4.031 Y0.4403
N2740 G2 X-4.034 Y0.4468 I0.112 J0.0554
N2745 X-4.1042 Y0.6687 I0.8453 J0.3892
N2750 G1 X-4.1115 Y0.7172
N2755 G2 X-4.1124 Y0.7249 I0.1236 J0.0188
N2760 G1 X-4.1168 Y0.7734
N2765 G2 X-4.1172 Y0.7804 I0.1245 J0.0112
N2770 G1 X-4.1188 Y0.8287
N2775 G2 X-4.1189 Y0.8349 I0.1249 J0.0042
N2780 X-4.1151 Y0.9399 I1.3648 J0.0031
N2785 G1 X-4.1067 Y1.0352
N2790 X-4.0986 Y1.1278
N2795 G3 X-4.1 Y1.2922 I-0.8978 J0.0746
N2800 X-4.1494 Y1.4823 I-0.7258 J-0.0872
N2805 X-4.2895 Y1.7413 I-1.3281 J-0.5509
N2810 G1 X-4.2943 Y1.7483
N2815 X-4.2987 Y1.7556
N2820 X-4.3026 Y1.7633
N2825 X-4.3059 Y1.7711
N2830 X-4.3087 Y1.7792
N2835 X-4.311 Y1.7875
N2840 X-4.3126 Y1.7959
N2845 X-4.3137 Y1.8044
N2850 X-4.3142 Y1.8129
N2855 X-4.3141 Y1.8215
N2860 X-4.3135 Y1.83
N2865 X-4.3122 Y1.8385
N2870 X-4.3104 Y1.8469
N2875 X-4.308 Y1.8551
N2880 X-4.305 Y1.8631
N2885 X-4.3015 Y1.8709
N2890 X-4.2975 Y1.8785
N2895 X-4.2929 Y1.8858
N2900 X-4.2879 Y1.8927
N2905 X-4.2824 Y1.8993
N2910 X-4.2765 Y1.9054
N2915 X-4.2667 Y1.9149
N2920 G2 X-4.2573 Y1.9232 I0.0871 J-0.0897
N2925 G1 X-4.2465 Y1.9318
N2930 G2 X-4.2365 Y1.939 I0.0777 J-0.0979
N2935 G1 X-4.2244 Y1.9467
N2940 G2 X-4.215 Y1.9523 I0.0677 J-0.1051
N2945 G1 X-4.2019 Y1.9592
N2950 G2 X-4.1924 Y1.9637 I0.0583 J-0.1106
N2955 G1 X-4.1781 Y1.9697
N2960 G2 X-4.1692 Y1.9731 I0.0488 J-0.1151
N2965 G1 X-4.1538 Y1.9783
N2970 G2 X-4.1456 Y1.9807 I0.0399 J-0.1185
N2975 G1 X-4.1291 Y1.9851
N2980 G2 X-4.1215 Y1.9868 I0.0317 J-0.1209
N2985 G1 X-4.104 Y1.9902
N2990 G2 X-4.097 Y1.9914 I0.0241 J-0.1227
N2995 G1 X-4.0783 Y1.994
N3000 G2 X-4.072 Y1.9947 I0.0171 J-0.1238
N3005 X-3.8512 Y1.9809 I0.0644 J-0.7436
N3010 X-3.3455 Y1.7549 I-0.2283 J-1.1896
N3015 X-3.0646 Y1.4202 I-0.6474 J-0.8286
N3020 X-2.9907 Y1.2655 I-1.3234 J-0.7275
N3025 X-2.9018 Y1.0387 I-8.0026 J-3.2662
N3030 G1 X-2.8808 Y0.9886
N3035 X-2.8598 Y0.9417
N3040 X-2.8381 Y0.8982
N3045 G3 X-2.7405 Y0.7529 I0.6933 J0.3603
N3050 X-2.5864 Y0.6131 I0.6758 J0.5898
N3055 X-2.2484 Y0.4221 I1.0326 J1.4332
N3060 X-2.0737 Y0.3957 I0.1959 J0.7047
N3065 X-1.8259 Y0.3969 I0.1141 J2.1014
N3070 X-1.3312 Y0.4485 I-0.287 J5.1402
N3075 X-0.5195 Y0.61 I-1.2062 J8.1882
N3080 X0.1801 Y0.8022 I-3.7154 J14.8862
N3085 G1 X0.3033 Y0.8382
N3090 X0.5521 Y0.9109
N3095 G2 X1.0547 Y1.0442 I2.8 J-9.5446
N3100 X1.4766 Y1.1204 I0.9493 J-4.0503
N3105 X1.7602 Y1.1378 I0.2929 J-2.4627
N3110 X2.1585 Y1.0901 I0.0026 J-1.6658
N3115 X2.4891 Y0.9684 I-0.4608 J-1.7615
N3120 X2.698 Y0.8663 I-3.1079 J-6.6235
N3125 G1 X2.7617 Y0.836
N3130 X2.8239 Y0.8086
N3135 G3 X3.0279 Y0.7453 I0.3954 J0.9152
N3140 X3.3193 Y0.7531 I0.1265 J0.7233
N3145 X3.4773 Y0.7988 I-0.253 J1.1696
N3150 G1 X3.544 Y0.8237
N3155 X3.611 Y0.8508
N3160 G2 X3.8893 Y0.9687 I6.7519 J-15.5459
N3165 X4.1687 Y1.0634 I0.8953 J-2.1808
N3170 X4.4426 Y1.1087 I0.382 J-1.461
N3175 G1 X4.4512 Y1.109
N3180 X4.4598 Y1.1088
N3185 X4.4683 Y1.108
N3190 X4.4768 Y1.1065
N3195 X4.4851 Y1.1045
N3200 X4.4933 Y1.102
N3205 X4.5013 Y1.0989
N3210 X4.5091 Y1.0952
N3215 X4.5166 Y1.091
N3220 X4.5238 Y1.0863
N3225 X4.5306 Y1.0812
N3230 X4.5371 Y1.0756
N3235 X4.5432 Y1.0695
N3240 X4.5489 Y1.063
N3245 X4.554 Y1.0562
N3250 X4.5588 Y1.0491
N3255 X4.563 Y1.0416
N3260 X4.5667 Y1.0338
N3265 X4.5698 Y1.0259
N3270 X4.5724 Y1.0177
N3275 X4.5744 Y1.0094
N3280 X4.5759 Y1.0009
N3285 X4.5768 Y0.9924
N3290 X4.577 Y0.9838
N3295 Y-1.0366
N3300 G2 X4.4621 Y-1.1612 I-0.125 J0.
N3305 X4.0002 Y-1.1107 I-0.1075 J1.1551
N3310 X3.9249 Y-1.086 I0.3041 J1.051
N3315 X3.7133 Y-0.9968 I0.8939 J2.4179
N3320 G1 X3.5796 Y-0.9351
N3325 X3.5152 Y-0.9071
N3330 G3 X3.3382 Y-0.8494 I-0.4009 J-0.9291
N3335 X3.0702 Y-0.8617 I-0.1103 J-0.5232
N3340 X2.8968 Y-0.932 I0.3012 J-0.9929
N3345 X2.7044 Y-1.0333 I2.487 J-4.9518
N3350 G2 X2.4525 Y-1.156 I-1.389 J2.5323
N3355 X1.8685 Y-1.2844 I-0.65 J1.5641
N3360 X1.487 Y-1.2739 I-0.1215 J2.5113
N3365 X0.9425 Y-1.1853 I0.4387 J4.4129
N3370 X0.5628 Y-1.0922 I1.5233 J7.0348
N3375 X-0.0624 Y-0.9066 I4.1102 J14.9946
N3380 G1 X-0.2204 Y-0.8566
N3385 X-0.3785 Y-0.8069
N3390 X-0.5367 Y-0.7577
N3395 X-0.6951 Y-0.7089
N3400 G3 X-1.195 Y-0.5751 I-2.4237 J-8.059
N3405 X-1.8629 Y-0.4748 I-0.9901 J-4.3184
N3410 X-2.2358 Y-0.4667 I-0.2688 J-3.7852
N3415 X-2.4126 Y-0.4873 I0.0381 J-1.0944
N3420 X-2.6926 Y-0.6066 I0.1745 J-0.7984
N3425 X-2.9197 Y-0.796 I0.7566 J-1.1378
N3430 X-3.1861 Y-1.1763 I0.9535 J-0.9515
N3435 X-3.2649 Y-1.3537 I5.0217 J-2.3345
N3440 G2 X-3.361 Y-1.5474 I-1.7843 J0.7647
N3445 X-3.4198 Y-1.6389 I-1.0878 J0.6344
N3450 X-3.4235 Y-1.6442 I-0.1036 J0.0699
N3455 G1 X-3.4548 Y-1.6857
N3460 G2 X-3.4592 Y-1.6912 I-0.0999 J0.0752
N3465 X-3.6035 Y-1.8374 I-0.7523 J0.5986
N3470 X-3.8178 Y-1.9605 I-0.4802 J0.5874
N3475 G1 X-3.8415 Y-1.9684
N3480 G2 X-3.8472 Y-1.9702 I-0.0403 J0.1183
N3485 G1 X-3.8711 Y-1.977
N3490 G2 X-3.8771 Y-1.9786 I-0.0345 J0.1201
N3495 G1 X-3.9012 Y-1.9843
N3500 G2 X-3.9074 Y-1.9856 I-0.0286 J0.1217
N3505 G1 X-3.9318 Y-1.99
N3510 G2 X-3.9381 Y-1.991 I-0.0224 J0.123
N3515 G1 X-3.9627 Y-1.9942
N3520 G2 X-3.9691 Y-1.9948 I-0.0161 J0.124
N3525 G1 X-3.994 Y-1.9967
N3530 G2 X-4.0005 Y-1.9971 I-0.0096 J0.1246
N3535 G1 X-4.0256 Y-1.9977
N3540 G2 X-4.032 I-0.0031 J0.125
N3545 G1 X-4.0573 Y-1.997
N3550 G2 X-4.0637 Y-1.9967 I0.0033 J0.125
N3555 G1 X-4.0891 Y-1.9947
N3560 G2 X-4.0955 Y-1.9941 I0.0097 J0.1246
N3565 G1 X-4.1211 Y-1.9907
N3570 G2 X-4.1272 Y-1.9898 I0.0161 J0.124
N3575 G1 X-4.153 Y-1.9851
N3580 G2 X-4.159 Y-1.9839 I0.0222 J0.123
N3585 X-4.4086 Y-1.882 I0.1722 J0.7783
N3590 X-4.5278 Y-1.7997 I0.5435 J0.9142
N3595 G1 X-4.5344 Y-1.7942
N3600 X-4.5407 Y-1.7883
N3605 X-4.5465 Y-1.782
N3610 X-4.552 Y-1.7753
N3615 X-4.5569 Y-1.7683
N3620 X-4.5613 Y-1.7609
N3625 X-4.5652 Y-1.7532
N3630 X-4.5686 Y-1.7453
N3635 X-4.5714 Y-1.7372
N3640 X-4.5737 Y-1.7289
N3645 X-4.5754 Y-1.7204
N3650 X-4.5765 Y-1.7119
N3655 X-4.577 Y-1.7033
N3660 X-4.5769 Y-1.6946
N3665 X-4.5762 Y-1.6861
N3670 X-4.5749 Y-1.6775
N3675 X-4.5731 Y-1.6691
N3680 G3 X-4.591 Y-1.6387 I-0.0242 J0.0062
N3685 G1 X-4.6153 Y-1.6324
N3690 X-4.619 Y-1.6315 Z-0.3747
N3695 X-4.6227 Y-1.6305 Z-0.3738
N3700 X-4.6262 Y-1.6296 Z-0.3723
N3705 X-4.6295 Y-1.6288 Z-0.3702
N3710 X-4.6324 Y-1.628 Z-0.3677
N3715 X-4.6348 Y-1.6274 Z-0.3647
N3720 X-4.6368 Y-1.6269 Z-0.3613
N3725 X-4.6383 Y-1.6265 Z-0.3577
N3730 X-4.6392 Y-1.6263 Z-0.3539
N3735 X-4.6395 Y-1.6262 Z-0.35
N3740 X-4.652 Y-1.6746
N3745 Z-0.475 F1.
N3750 X-4.6517 Y-1.6747 Z-0.4789
N3755 X-4.6508 Y-1.6749 Z-0.4827
N3760 X-4.6493 Y-1.6753 Z-0.4863
N3765 X-4.6473 Y-1.6758 Z-0.4897
N3770 X-4.6449 Y-1.6764 Z-0.4927
N3775 X-4.642 Y-1.6772 Z-0.4952
N3780 X-4.6387 Y-1.678 Z-0.4973
N3785 X-4.6352 Y-1.6789 Z-0.4988
N3790 X-4.6315 Y-1.6799 Z-0.4997
N3795 X-4.6277 Y-1.6808 Z-0.5
N3800 X-4.6035 Y-1.6871 F5.
N3805 G3 X-4.5731 Y-1.6691 I0.0062 J0.0242
N3810 G2 X-4.458 Y-1.5755 I0.121 J-0.0312
N3815 G3 X-4.3496 Y-1.5237 I0.0031 J0.1331
N3820 X-4.2911 Y-1.419 I-0.2586 J0.213
N3825 X-4.2556 Y-1.2852 I-0.6259 J0.2376
N3830 X-4.2436 Y-1.0723 I-1.0085 J0.164
N3835 G1 X-4.2457 Y-1.0296
N3840 G3 X-4.2614 Y-0.8561 I-6.2817 J-0.4797
N3845 G2 X-4.2679 Y-0.7207 I1.4884 J0.1402
N3850 G1 X-4.2678 Y-0.7147
N3855 X-4.2664 Y-0.673
N3860 G2 X-4.266 Y-0.6662 I0.1249 J-0.0043
N3865 G1 X-4.2623 Y-0.6246
N3870 G2 X-4.2613 Y-0.6169 I0.1245 J-0.0111
N3875 G1 X-4.255 Y-0.5755
N3880 G2 X-4.2535 Y-0.5673 I0.1236 J-0.0188
N3885 G1 X-4.2443 Y-0.5261
N3890 G2 X-4.2422 Y-0.5177 I0.122 J-0.0271
N3895 G1 X-4.2301 Y-0.477
N3900 G2 X-4.228 Y-0.4705 I0.1198 J-0.0356
N3905 X-3.9929 Y-0.1395 I0.6793 J-0.2335
N3910 X-3.7569 Y-0.0026 I0.5703 J-0.7111
N3915 X-3.6973 Y0.0204 I0.3443 J-0.8046
N3920 G1 X-3.7201 Y0.0386
N3925 G2 X-3.7248 Y0.0425 I0.078 J0.0977
N3930 X-3.9447 Y0.2882 I0.7788 J0.9183
N3935 G1 X-3.9482 Y0.2933
N3940 X-3.976 Y0.3372
N3945 G2 X-3.9794 Y0.3428 I0.1055 J0.067
N3950 G1 X-4.0049 Y0.388
N3955 G2 X-4.0081 Y0.394 I0.1088 J0.0615
N3960 G1 X-4.031 Y0.4403
N3965 G2 X-4.034 Y0.4468 I0.112 J0.0554
N3970 X-4.1042 Y0.6687 I0.8453 J0.3892
N3975 G1 X-4.1115 Y0.7172
N3980 G2 X-4.1124 Y0.7249 I0.1236 J0.0188
N3985 G1 X-4.1168 Y0.7734
N3990 G2 X-4.1172 Y0.7804 I0.1245 J0.0112
N3995 G1 X-4.1188 Y0.8287
N4000 G2 X-4.1189 Y0.8349 I0.1249 J0.0042
N4005 X-4.1151 Y0.9399 I1.3648 J0.0031
N4010 G1 X-4.1067 Y1.0352
N4015 X-4.0986 Y1.1278
N4020 G3 X-4.1 Y1.2922 I-0.8978 J0.0746
N4025 X-4.1494 Y1.4823 I-0.7258 J-0.0872
N4030 X-4.2895 Y1.7413 I-1.3281 J-0.5509
N4035 G1 X-4.2943 Y1.7483
N4040 X-4.2987 Y1.7556
N4045 X-4.3026 Y1.7633
N4050 X-4.3059 Y1.7711
N4055 X-4.3087 Y1.7792
N4060 X-4.311 Y1.7875
N4065 X-4.3126 Y1.7959
N4070 X-4.3137 Y1.8044
N4075 X-4.3142 Y1.8129
N4080 X-4.3141 Y1.8215
N4085 X-4.3135 Y1.83
N4090 X-4.3122 Y1.8385
N4095 X-4.3104 Y1.8469
N4100 X-4.308 Y1.8551
N4105 X-4.305 Y1.8631
N4110 X-4.3015 Y1.8709
N4115 X-4.2975 Y1.8785
N4120 X-4.2929 Y1.8858
N4125 X-4.2879 Y1.8927
N4130 X-4.2824 Y1.8993
N4135 X-4.2765 Y1.9054
N4140 X-4.2667 Y1.9149
N4145 G2 X-4.2573 Y1.9232 I0.0871 J-0.0897
N4150 G1 X-4.2465 Y1.9318
N4155 G2 X-4.2365 Y1.939 I0.0777 J-0.0979
N4160 G1 X-4.2244 Y1.9467
N4165 G2 X-4.215 Y1.9523 I0.0677 J-0.1051
N4170 G1 X-4.2019 Y1.9592
N4175 G2 X-4.1924 Y1.9637 I0.0583 J-0.1106
N4180 G1 X-4.1781 Y1.9697
N4185 G2 X-4.1692 Y1.9731 I0.0488 J-0.1151
N4190 G1 X-4.1538 Y1.9783
N4195 G2 X-4.1456 Y1.9807 I0.0399 J-0.1185
N4200 G1 X-4.1291 Y1.9851
N4205 G2 X-4.1215 Y1.9868 I0.0317 J-0.1209
N4210 G1 X-4.104 Y1.9902
N4215 G2 X-4.097 Y1.9914 I0.0241 J-0.1227
N4220 G1 X-4.0783 Y1.994
N4225 G2 X-4.072 Y1.9947 I0.0171 J-0.1238
N4230 X-3.8512 Y1.9809 I0.0644 J-0.7436
N4235 X-3.3455 Y1.7549 I-0.2283 J-1.1896
N4240 X-3.0646 Y1.4202 I-0.6474 J-0.8286
N4245 X-2.9907 Y1.2655 I-1.3234 J-0.7275
N4250 X-2.9018 Y1.0387 I-8.0026 J-3.2662
N4255 G1 X-2.8808 Y0.9886
N4260 X-2.8598 Y0.9417
N4265 X-2.8381 Y0.8982
N4270 G3 X-2.7405 Y0.7529 I0.6933 J0.3603
N4275 X-2.5864 Y0.6131 I0.6758 J0.5898
N4280 X-2.2484 Y0.4221 I1.0326 J1.4332
N4285 X-2.0737 Y0.3957 I0.1959 J0.7047
N4290 X-1.8259 Y0.3969 I0.1141 J2.1014
N4295 X-1.3312 Y0.4485 I-0.287 J5.1402
N4300 X-0.5195 Y0.61 I-1.2062 J8.1882
N4305 X0.1801 Y0.8022 I-3.7154 J14.8862
N4310 G1 X0.3033 Y0.8382
N4315 X0.5521 Y0.9109
N4320 G2 X1.0547 Y1.0442 I2.8 J-9.5446
N4325 X1.4766 Y1.1204 I0.9493 J-4.0503
N4330 X1.7602 Y1.1378 I0.2929 J-2.4627
N4335 X2.1585 Y1.0901 I0.0026 J-1.6658
N4340 X2.4891 Y0.9684 I-0.4608 J-1.7615
N4345 X2.698 Y0.8663 I-3.1079 J-6.6235
N4350 G1 X2.7617 Y0.836
N4355 X2.8239 Y0.8086
N4360 G3 X3.0279 Y0.7453 I0.3954 J0.9152
N4365 X3.3193 Y0.7531 I0.1265 J0.7233
N4370 X3.4773 Y0.7988 I-0.253 J1.1696
N4375 G1 X3.544 Y0.8237
N4380 X3.611 Y0.8508
N4385 G2 X3.8893 Y0.9687 I6.7519 J-15.5459
N4390 X4.1687 Y1.0634 I0.8953 J-2.1808
N4395 X4.4426 Y1.1087 I0.382 J-1.461
N4400 G1 X4.4512 Y1.109
N4405 X4.4598 Y1.1088
N4410 X4.4683 Y1.108
N4415 X4.4768 Y1.1065
N4420 X4.4851 Y1.1045
N4425 X4.4933 Y1.102
N4430 X4.5013 Y1.0989
N4435 X4.5091 Y1.0952
N4440 X4.5166 Y1.091
N4445 X4.5238 Y1.0863
N4450 X4.5306 Y1.0812
N4455 X4.5371 Y1.0756
N4460 X4.5432 Y1.0695
N4465 X4.5489 Y1.063
N4470 X4.554 Y1.0562
N4475 X4.5588 Y1.0491
N4480 X4.563 Y1.0416
N4485 X4.5667 Y1.0338
N4490 X4.5698 Y1.0259
N4495 X4.5724 Y1.0177
N4500 X4.5744 Y1.0094
N4505 X4.5759 Y1.0009
N4510 X4.5768 Y0.9924
N4515 X4.577 Y0.9838
N4520 Y-1.0366
N4525 G2 X4.4621 Y-1.1612 I-0.125 J0.
N4530 X4.0002 Y-1.1107 I-0.1075 J1.1551
N4535 X3.9249 Y-1.086 I0.3041 J1.051
N4540 X3.7133 Y-0.9968 I0.8939 J2.4179
N4545 G1 X3.5796 Y-0.9351
N4550 X3.5152 Y-0.9071
N4555 G3 X3.3382 Y-0.8494 I-0.4009 J-0.9291
N4560 X3.0702 Y-0.8617 I-0.1103 J-0.5232
N4565 X2.8968 Y-0.932 I0.3012 J-0.9929
N4570 X2.7044 Y-1.0333 I2.487 J-4.9518
N4575 G2 X2.4525 Y-1.156 I-1.389 J2.5323
N4580 X1.8685 Y-1.2844 I-0.65 J1.5641
N4585 X1.487 Y-1.2739 I-0.1215 J2.5113
N4590 X0.9425 Y-1.1853 I0.4387 J4.4129
N4595 X0.5628 Y-1.0922 I1.5233 J7.0348
N4600 X-0.0624 Y-0.9066 I4.1102 J14.9946
N4605 G1 X-0.2204 Y-0.8566
N4610 X-0.3785 Y-0.8069
N4615 X-0.5367 Y-0.7577
N4620 X-0.6951 Y-0.7089
N4625 G3 X-1.195 Y-0.5751 I-2.4237 J-8.059
N4630 X-1.8629 Y-0.4748 I-0.9901 J-4.3184
N4635 X-2.2358 Y-0.4667 I-0.2688 J-3.7852
N4640 X-2.4126 Y-0.4873 I0.0381 J-1.0944
N4645 X-2.6926 Y-0.6066 I0.1745 J-0.7984
N4650 X-2.9197 Y-0.796 I0.7566 J-1.1378
N4655 X-3.1861 Y-1.1763 I0.9535 J-0.9515
N4660 X-3.2649 Y-1.3537 I5.0217 J-2.3345
N4665 G2 X-3.361 Y-1.5474 I-1.7843 J0.7647
N4670 X-3.4198 Y-1.6389 I-1.0878 J0.6344
N4675 X-3.4235 Y-1.6442 I-0.1036 J0.0699
N4680 G1 X-3.4548 Y-1.6857
N4685 G2 X-3.4592 Y-1.6912 I-0.0999 J0.0752
N4690 X-3.6035 Y-1.8374 I-0.7523 J0.5986
N4695 X-3.8178 Y-1.9605 I-0.4802 J0.5874
N4700 G1 X-3.8415 Y-1.9684
N4705 G2 X-3.8472 Y-1.9702 I-0.0403 J0.1183
N4710 G1 X-3.8711 Y-1.977
N4715 G2 X-3.8771 Y-1.9786 I-0.0345 J0.1201
N4720 G1 X-3.9012 Y-1.9843
N4725 G2 X-3.9074 Y-1.9856 I-0.0286 J0.1217
N4730 G1 X-3.9318 Y-1.99
N4735 G2 X-3.9381 Y-1.991 I-0.0224 J0.123
N4740 G1 X-3.9627 Y-1.9942
N4745 G2 X-3.9691 Y-1.9948 I-0.0161 J0.124
N4750 G1 X-3.994 Y-1.9967
N4755 G2 X-4.0005 Y-1.9971 I-0.0096 J0.1246
N4760 G1 X-4.0256 Y-1.9977
N4765 G2 X-4.032 I-0.0031 J0.125
N4770 G1 X-4.0573 Y-1.997
N4775 G2 X-4.0637 Y-1.9967 I0.0033 J0.125
N4780 G1 X-4.0891 Y-1.9947
N4785 G2 X-4.0955 Y-1.9941 I0.0097 J0.1246
N4790 G1 X-4.1211 Y-1.9907
N4795 G2 X-4.1272 Y-1.9898 I0.0161 J0.124
N4800 G1 X-4.153 Y-1.9851
N4805 G2 X-4.159 Y-1.9839 I0.0222 J0.123
N4810 X-4.4086 Y-1.882 I0.1722 J0.7783
N4815 X-4.5278 Y-1.7997 I0.5435 J0.9142
N4820 G1 X-4.5344 Y-1.7942
N4825 X-4.5407 Y-1.7883
N4830 X-4.5465 Y-1.782
N4835 X-4.552 Y-1.7753
N4840 X-4.5569 Y-1.7683
N4845 X-4.5613 Y-1.7609
N4850 X-4.5652 Y-1.7532
N4855 X-4.5686 Y-1.7453
N4860 X-4.5714 Y-1.7372
N4865 X-4.5737 Y-1.7289
N4870 X-4.5754 Y-1.7204
N4875 X-4.5765 Y-1.7119
N4880 X-4.577 Y-1.7033
N4885 X-4.5769 Y-1.6946
N4890 X-4.5762 Y-1.6861
N4895 X-4.5749 Y-1.6775
N4900 X-4.5731 Y-1.6691
N4905 G3 X-4.591 Y-1.6387 I-0.0242 J0.0062
N4910 G1 X-4.6153 Y-1.6324
N4915 X-4.619 Y-1.6315 Z-0.4997
N4920 X-4.6227 Y-1.6305 Z-0.4988
N4925 X-4.6262 Y-1.6296 Z-0.4973
N4930 X-4.6295 Y-1.6288 Z-0.4952
N4935 X-4.6324 Y-1.628 Z-0.4927
N4940 X-4.6348 Y-1.6274 Z-0.4897
N4945 X-4.6368 Y-1.6269 Z-0.4863
N4950 X-4.6383 Y-1.6265 Z-0.4827
N4955 X-4.6392 Y-1.6263 Z-0.4789
N4960 X-4.6395 Y-1.6262 Z-0.475
N4965 X-4.652 Y-1.6746
N4970 Z-0.6 F1.
N4975 X-4.6517 Y-1.6747 Z-0.6039
N4980 X-4.6508 Y-1.6749 Z-0.6077
N4985 X-4.6493 Y-1.6753 Z-0.6113
N4990 X-4.6473 Y-1.6758 Z-0.6147
N4995 X-4.6449 Y-1.6764 Z-0.6177
N5000 X-4.642 Y-1.6772 Z-0.6202
N5005 X-4.6387 Y-1.678 Z-0.6223
N5010 X-4.6352 Y-1.6789 Z-0.6238
N5015 X-4.6315 Y-1.6799 Z-0.6247
N5020 X-4.6277 Y-1.6808 Z-0.625
N5025 X-4.6035 Y-1.6871 F5.
N5030 G3 X-4.5731 Y-1.6691 I0.0062 J0.0242
N5035 G2 X-4.458 Y-1.5755 I0.121 J-0.0312
N5040 G3 X-4.3496 Y-1.5237 I0.0031 J0.1331
N5045 X-4.2911 Y-1.419 I-0.2586 J0.213
N5050 X-4.2556 Y-1.2852 I-0.6259 J0.2376
N5055 X-4.2436 Y-1.0723 I-1.0085 J0.164
N5060 G1 X-4.2457 Y-1.0296
N5065 G3 X-4.2614 Y-0.8561 I-6.2817 J-0.4797
N5070 G2 X-4.2679 Y-0.7207 I1.4884 J0.1402
N5075 G1 X-4.2678 Y-0.7147
N5080 X-4.2664 Y-0.673
N5085 G2 X-4.266 Y-0.6662 I0.1249 J-0.0043
N5090 G1 X-4.2623 Y-0.6246
N5095 G2 X-4.2613 Y-0.6169 I0.1245 J-0.0111
N5100 G1 X-4.255 Y-0.5755
N5105 G2 X-4.2535 Y-0.5673 I0.1236 J-0.0188
N5110 G1 X-4.2443 Y-0.5261
N5115 G2 X-4.2422 Y-0.5177 I0.122 J-0.0271
N5120 G1 X-4.2301 Y-0.477
N5125 G2 X-4.228 Y-0.4705 I0.1198 J-0.0356
N5130 X-3.9929 Y-0.1395 I0.6793 J-0.2335
N5135 X-3.7569 Y-0.0026 I0.5703 J-0.7111
N5140 X-3.6973 Y0.0204 I0.3443 J-0.8046
N5145 G1 X-3.7201 Y0.0386
N5150 G2 X-3.7248 Y0.0425 I0.078 J0.0977
N5155 X-3.9447 Y0.2882 I0.7788 J0.9183
N5160 G1 X-3.9482 Y0.2933
N5165 X-3.976 Y0.3372
N5170 G2 X-3.9794 Y0.3428 I0.1055 J0.067
N5175 G1 X-4.0049 Y0.388
N5180 G2 X-4.0081 Y0.394 I0.1088 J0.0615
N5185 G1 X-4.031 Y0.4403
N5190 G2 X-4.034 Y0.4468 I0.112 J0.0554
N5195 X-4.1042 Y0.6687 I0.8453 J0.3892
N5200 G1 X-4.1115 Y0.7172
N5205 G2 X-4.1124 Y0.7249 I0.1236 J0.0188
N5210 G1 X-4.1168 Y0.7734
N5215 G2 X-4.1172 Y0.7804 I0.1245 J0.0112
N5220 G1 X-4.1188 Y0.8287
N5225 G2 X-4.1189 Y0.8349 I0.1249 J0.0042
N5230 X-4.1151 Y0.9399 I1.3648 J0.0031
N5235 G1 X-4.1067 Y1.0352
N5240 X-4.0986 Y1.1278
N5245 G3 X-4.1 Y1.2922 I-0.8978 J0.0746
N5250 X-4.1494 Y1.4823 I-0.7258 J-0.0872
N5255 X-4.2895 Y1.7413 I-1.3281 J-0.5509
N5260 G1 X-4.2943 Y1.7483
N5265 X-4.2987 Y1.7556
N5270 X-4.3026 Y1.7633
N5275 X-4.3059 Y1.7711
N5280 X-4.3087 Y1.7792
N5285 X-4.311 Y1.7875
N5290 X-4.3126 Y1.7959
N5295 X-4.3137 Y1.8044
N5300 X-4.3142 Y1.8129
N5305 X-4.3141 Y1.8215
N5310 X-4.3135 Y1.83
N5315 X-4.3122 Y1.8385
N5320 X-4.3104 Y1.8469
N5325 X-4.308 Y1.8551
N5330 X-4.305 Y1.8631
N5335 X-4.3015 Y1.8709
N5340 X-4.2975 Y1.8785
N5345 X-4.2929 Y1.8858
N5350 X-4.2879 Y1.8927
N5355 X-4.2824 Y1.8993
N5360 X-4.2765 Y1.9054
N5365 X-4.2667 Y1.9149
N5370 G2 X-4.2573 Y1.9232 I0.0871 J-0.0897
N5375 G1 X-4.2465 Y1.9318
N5380 G2 X-4.2365 Y1.939 I0.0777 J-0.0979
N5385 G1 X-4.2244 Y1.9467
N5390 G2 X-4.215 Y1.9523 I0.0677 J-0.1051
N5395 G1 X-4.2019 Y1.9592
N5400 G2 X-4.1924 Y1.9637 I0.0583 J-0.1106
N5405 G1 X-4.1781 Y1.9697
N5410 G2 X-4.1692 Y1.9731 I0.0488 J-0.1151
N5415 G1 X-4.1538 Y1.9783
N5420 G2 X-4.1456 Y1.9807 I0.0399 J-0.1185
N5425 G1 X-4.1291 Y1.9851
N5430 G2 X-4.1215 Y1.9868 I0.0317 J-0.1209
N5435 G1 X-4.104 Y1.9902
N5440 G2 X-4.097 Y1.9914 I0.0241 J-0.1227
N5445 G1 X-4.0783 Y1.994
N5450 G2 X-4.072 Y1.9947 I0.0171 J-0.1238
N5455 X-3.8512 Y1.9809 I0.0644 J-0.7436
N5460 X-3.3455 Y1.7549 I-0.2283 J-1.1896
N5465 X-3.0646 Y1.4202 I-0.6474 J-0.8286
N5470 X-2.9907 Y1.2655 I-1.3234 J-0.7275
N5475 X-2.9018 Y1.0387 I-8.0026 J-3.2662
N5480 G1 X-2.8808 Y0.9886
N5485 X-2.8598 Y0.9417
N5490 X-2.8381 Y0.8982
N5495 G3 X-2.7405 Y0.7529 I0.6933 J0.3603
N5500 X-2.5864 Y0.6131 I0.6758 J0.5898
N5505 X-2.2484 Y0.4221 I1.0326 J1.4332
N5510 X-2.0737 Y0.3957 I0.1959 J0.7047
N5515 X-1.8259 Y0.3969 I0.1141 J2.1014
N5520 X-1.3312 Y0.4485 I-0.287 J5.1402
N5525 X-0.5195 Y0.61 I-1.2062 J8.1882
N5530 X0.1801 Y0.8022 I-3.7154 J14.8862
N5535 G1 X0.3033 Y0.8382
N5540 X0.5521 Y0.9109
N5545 G2 X1.0547 Y1.0442 I2.8 J-9.5446
N5550 X1.4766 Y1.1204 I0.9493 J-4.0503
N5555 X1.7602 Y1.1378 I0.2929 J-2.4627
N5560 X2.1585 Y1.0901 I0.0026 J-1.6658
N5565 X2.4891 Y0.9684 I-0.4608 J-1.7615
N5570 X2.698 Y0.8663 I-3.1079 J-6.6235
N5575 G1 X2.7617 Y0.836
N5580 X2.8239 Y0.8086
N5585 G3 X3.0279 Y0.7453 I0.3954 J0.9152
N5590 X3.3193 Y0.7531 I0.1265 J0.7233
N5595 X3.4773 Y0.7988 I-0.253 J1.1696
N5600 G1 X3.544 Y0.8237
N5605 X3.611 Y0.8508
N5610 G2 X3.8893 Y0.9687 I6.7519 J-15.5459
N5615 X4.1687 Y1.0634 I0.8953 J-2.1808
N5620 X4.4426 Y1.1087 I0.382 J-1.461
N5625 G1 X4.4512 Y1.109
N5630 X4.4598 Y1.1088
N5635 X4.4683 Y1.108
N5640 X4.4768 Y1.1065
N5645 X4.4851 Y1.1045
N5650 X4.4933 Y1.102
N5655 X4.5013 Y1.0989
N5660 X4.5091 Y1.0952
N5665 X4.5166 Y1.091
N5670 X4.5238 Y1.0863
N5675 X4.5306 Y1.0812
N5680 X4.5371 Y1.0756
N5685 X4.5432 Y1.0695
N5690 X4.5489 Y1.063
N5695 X4.554 Y1.0562
N5700 X4.5588 Y1.0491
N5705 X4.563 Y1.0416
N5710 X4.5667 Y1.0338
N5715 X4.5698 Y1.0259
N5720 X4.5724 Y1.0177
N5725 X4.5744 Y1.0094
N5730 X4.5759 Y1.0009
N5735 X4.5768 Y0.9924
N5740 X4.577 Y0.9838
N5745 Y-1.0366
N5750 G2 X4.4621 Y-1.1612 I-0.125 J0.
N5755 X4.0002 Y-1.1107 I-0.1075 J1.1551
N5760 X3.9249 Y-1.086 I0.3041 J1.051
N5765 X3.7133 Y-0.9968 I0.8939 J2.4179
N5770 G1 X3.5796 Y-0.9351
N5775 X3.5152 Y-0.9071
N5780 G3 X3.3382 Y-0.8494 I-0.4009 J-0.9291
N5785 X3.0702 Y-0.8617 I-0.1103 J-0.5232
N5790 X2.8968 Y-0.932 I0.3012 J-0.9929
N5795 X2.7044 Y-1.0333 I2.487 J-4.9518
N5800 G2 X2.4525 Y-1.156 I-1.389 J2.5323
N5805 X1.8685 Y-1.2844 I-0.65 J1.5641
N5810 X1.487 Y-1.2739 I-0.1215 J2.5113
N5815 X0.9425 Y-1.1853 I0.4387 J4.4129
N5820 X0.5628 Y-1.0922 I1.5233 J7.0348
N5825 X-0.0624 Y-0.9066 I4.1102 J14.9946
N5830 G1 X-0.2204 Y-0.8566
N5835 X-0.3785 Y-0.8069
N5840 X-0.5367 Y-0.7577
N5845 X-0.6951 Y-0.7089
N5850 G3 X-1.195 Y-0.5751 I-2.4237 J-8.059
N5855 X-1.8629 Y-0.4748 I-0.9901 J-4.3184
N5860 X-2.2358 Y-0.4667 I-0.2688 J-3.7852
N5865 X-2.4126 Y-0.4873 I0.0381 J-1.0944
N5870 X-2.6926 Y-0.6066 I0.1745 J-0.7984
N5875 X-2.9197 Y-0.796 I0.7566 J-1.1378
N5880 X-3.1861 Y-1.1763 I0.9535 J-0.9515
N5885 X-3.2649 Y-1.3537 I5.0217 J-2.3345
N5890 G2 X-3.361 Y-1.5474 I-1.7843 J0.7647
N5895 X-3.4198 Y-1.6389 I-1.0878 J0.6344
N5900 X-3.4235 Y-1.6442 I-0.1036 J0.0699
N5905 G1 X-3.4548 Y-1.6857
N5910 G2 X-3.4592 Y-1.6912 I-0.0999 J0.0752
N5915 X-3.6035 Y-1.8374 I-0.7523 J0.5986
N5920 X-3.8178 Y-1.9605 I-0.4802 J0.5874
N5925 G1 X-3.8415 Y-1.9684
N5930 G2 X-3.8472 Y-1.9702 I-0.0403 J0.1183
N5935 G1 X-3.8711 Y-1.977
N5940 G2 X-3.8771 Y-1.9786 I-0.0345 J0.1201
N5945 G1 X-3.9012 Y-1.9843
N5950 G2 X-3.9074 Y-1.9856 I-0.0286 J0.1217
N5955 G1 X-3.9318 Y-1.99
N5960 G2 X-3.9381 Y-1.991 I-0.0224 J0.123
N5965 G1 X-3.9627 Y-1.9942
N5970 G2 X-3.9691 Y-1.9948 I-0.0161 J0.124
N5975 G1 X-3.994 Y-1.9967
N5980 G2 X-4.0005 Y-1.9971 I-0.0096 J0.1246
N5985 G1 X-4.0256 Y-1.9977
N5990 G2 X-4.032 I-0.0031 J0.125
N5995 G1 X-4.0573 Y-1.997
N6000 G2 X-4.0637 Y-1.9967 I0.0033 J0.125
N6005 G1 X-4.0891 Y-1.9947
N6010 G2 X-4.0955 Y-1.9941 I0.0097 J0.1246
N6015 G1 X-4.1211 Y-1.9907
N6020 G2 X-4.1272 Y-1.9898 I0.0161 J0.124
N6025 G1 X-4.153 Y-1.9851
N6030 G2 X-4.159 Y-1.9839 I0.0222 J0.123
N6035 X-4.4086 Y-1.882 I0.1722 J0.7783
N6040 X-4.5278 Y-1.7997 I0.5435 J0.9142
N6045 G1 X-4.5344 Y-1.7942
N6050 X-4.5407 Y-1.7883
N6055 X-4.5465 Y-1.782
N6060 X-4.552 Y-1.7753
N6065 X-4.5569 Y-1.7683
N6070 X-4.5613 Y-1.7609
N6075 X-4.5652 Y-1.7532
N6080 X-4.5686 Y-1.7453
N6085 X-4.5714 Y-1.7372
N6090 X-4.5737 Y-1.7289
N6095 X-4.5754 Y-1.7204
N6100 X-4.5765 Y-1.7119
N6105 X-4.577 Y-1.7033
N6110 X-4.5769 Y-1.6946
N6115 X-4.5762 Y-1.6861
N6120 X-4.5749 Y-1.6775
N6125 X-4.5731 Y-1.6691
N6130 G3 X-4.591 Y-1.6387 I-0.0242 J0.0062
N6135 G1 X-4.6153 Y-1.6324
N6140 X-4.619 Y-1.6315 Z-0.6247
N6145 X-4.6227 Y-1.6305 Z-0.6238
N6150 X-4.6262 Y-1.6296 Z-0.6223
N6155 X-4.6295 Y-1.6288 Z-0.6202
N6160 X-4.6324 Y-1.628 Z-0.6177
N6165 X-4.6348 Y-1.6274 Z-0.6147
N6170 X-4.6368 Y-1.6269 Z-0.6113
N6175 X-4.6383 Y-1.6265 Z-0.6077
N6180 X-4.6392 Y-1.6263 Z-0.6039
N6185 X-4.6395 Y-1.6262 Z-0.6
N6190 X-4.652 Y-1.6746
N6195 Z-0.66 F1.
N6200 X-4.6277 Y-1.6808
N6205 X-4.6035 Y-1.6871 F5.
N6210 G3 X-4.5731 Y-1.6691 I0.0062 J0.0242
N6215 G2 X-4.458 Y-1.5755 I0.121 J-0.0312
N6220 G3 X-4.4168 Y-1.5701 I0.0001 J0.1581
N6225 G1 Z-0.75 F1.
N6230 G3 X-4.3495 Y-1.5238 I-0.0396 J0.1297 F5.
N6235 X-4.2911 Y-1.419 I-0.2608 J0.2141
N6240 X-4.2556 Y-1.2852 I-0.6273 J0.2379
N6245 X-4.2436 Y-1.0723 I-1.0086 J0.164
N6250 G1 X-4.2457 Y-1.0296
N6255 G3 X-4.2614 Y-0.8561 I-6.2817 J-0.4797
N6260 G2 X-4.2679 Y-0.7207 I1.4884 J0.1402
N6265 G1 X-4.2678 Y-0.7147
N6270 X-4.2664 Y-0.673
N6275 G2 X-4.266 Y-0.6662 I0.1249 J-0.0043
N6280 G1 X-4.2623 Y-0.6246
N6285 G2 X-4.2613 Y-0.6169 I0.1245 J-0.0111
N6290 G1 X-4.255 Y-0.5755
N6295 G2 X-4.2535 Y-0.5673 I0.1236 J-0.0188
N6300 G1 X-4.2443 Y-0.5261
N6305 G2 X-4.2422 Y-0.5177 I0.122 J-0.0271
N6310 G1 X-4.2301 Y-0.477
N6315 G2 X-4.228 Y-0.4705 I0.1198 J-0.0356
N6320 X-3.9929 Y-0.1395 I0.6793 J-0.2335
N6325 X-3.7569 Y-0.0026 I0.5703 J-0.7111
N6330 X-3.6973 Y0.0204 I0.3443 J-0.8046
N6335 G1 X-3.7201 Y0.0386
N6340 G2 X-3.7248 Y0.0425 I0.078 J0.0977
N6345 X-3.9447 Y0.2882 I0.7788 J0.9183
N6350 G1 X-3.9482 Y0.2933
N6355 X-3.976 Y0.3372
N6360 G2 X-3.9794 Y0.3428 I0.1055 J0.067
N6365 G1 X-4.0049 Y0.388
N6370 G2 X-4.0081 Y0.394 I0.1088 J0.0615
N6375 G1 X-4.031 Y0.4403
N6380 G2 X-4.034 Y0.4468 I0.112 J0.0554
N6385 X-4.1042 Y0.6687 I0.8453 J0.3892
N6390 G1 X-4.1115 Y0.7172
N6395 G2 X-4.1124 Y0.7249 I0.1236 J0.0188
N6400 G1 X-4.1168 Y0.7734
N6405 G2 X-4.1172 Y0.7804 I0.1245 J0.0112
N6410 G1 X-4.1188 Y0.8287
N6415 G2 X-4.1189 Y0.8349 I0.1249 J0.0042
N6420 X-4.1151 Y0.9399 I1.3648 J0.0031
N6425 G1 X-4.1067 Y1.0352
N6430 X-4.0986 Y1.1278
N6435 G3 X-4.1 Y1.2922 I-0.8978 J0.0746
N6440 G1 X-4.1057 Y1.3312
N6445 X-4.1135 Y1.3697
N6450 X-4.1209 Y1.3979
N6455 Z-0.66
N6460 G3 X-4.1971 Y1.5854 I-0.9007 J-0.2566
N6465 X-4.2894 Y1.7413 I-1.3349 J-0.6853
N6470 G1 X-4.2943 Y1.7483
N6475 X-4.2987 Y1.7557
N6480 X-4.3025 Y1.7633
N6485 X-4.3059 Y1.7712
N6490 X-4.3087 Y1.7792
N6495 X-4.3109 Y1.7875
N6500 X-4.3126 Y1.7959
N6505 X-4.3137 Y1.8044
N6510 X-4.3142 Y1.8129
N6515 X-4.3141 Y1.8215
N6520 X-4.3134 Y1.83
N6525 X-4.3122 Y1.8385
N6530 X-4.3103 Y1.8468
N6535 X-4.3079 Y1.8551
N6540 X-4.305 Y1.8631
N6545 X-4.3015 Y1.8709
N6550 X-4.2974 Y1.8785
N6555 X-4.2929 Y1.8857
N6560 X-4.2879 Y1.8927
N6565 X-4.2824 Y1.8993
N6570 X-4.2765 Y1.9054
N6575 X-4.2667 Y1.9149
N6580 G2 X-4.2573 Y1.9232 I0.0871 J-0.0897
N6585 G1 X-4.2465 Y1.9318
N6590 G2 X-4.2365 Y1.939 I0.0777 J-0.0979
N6595 G1 X-4.2244 Y1.9467
N6600 G2 X-4.215 Y1.9523 I0.0677 J-0.1051
N6605 G1 X-4.2019 Y1.9592
N6610 G2 X-4.1924 Y1.9637 I0.0583 J-0.1106
N6615 G1 X-4.1781 Y1.9697
N6620 G2 X-4.1692 Y1.9731 I0.0488 J-0.1151
N6625 G1 X-4.155 Y1.9779
N6630 Z-0.75 F1.
N6635 X-4.1538 Y1.9783 F5.
N6640 G2 X-4.1456 Y1.9807 I0.0399 J-0.1185
N6645 G1 X-4.1291 Y1.9851
N6650 G2 X-4.1215 Y1.9868 I0.0317 J-0.1209
N6655 G1 X-4.104 Y1.9902
N6660 G2 X-4.097 Y1.9914 I0.0241 J-0.1227
N6665 G1 X-4.0783 Y1.994
N6670 G2 X-4.072 Y1.9947 I0.0171 J-0.1238
N6675 X-3.8512 Y1.9809 I0.0644 J-0.7436
N6680 X-3.3455 Y1.7549 I-0.2283 J-1.1896
N6685 X-3.0646 Y1.4202 I-0.6474 J-0.8286
N6690 X-2.9907 Y1.2655 I-1.3234 J-0.7275
N6695 X-2.9018 Y1.0387 I-8.0026 J-3.2662
N6700 G1 X-2.8808 Y0.9886
N6705 X-2.8598 Y0.9417
N6710 X-2.8381 Y0.8982
N6715 G3 X-2.7405 Y0.7529 I0.6933 J0.3603
N6720 X-2.5864 Y0.6131 I0.6758 J0.5898
N6725 X-2.2484 Y0.4221 I1.0326 J1.4332
N6730 X-2.0737 Y0.3957 I0.1959 J0.7047
N6735 X-1.8259 Y0.3969 I0.1141 J2.1014
N6740 X-1.3312 Y0.4485 I-0.287 J5.1402
N6745 X-0.5195 Y0.61 I-1.2062 J8.1882
N6750 X0.1801 Y0.8022 I-3.7154 J14.8862
N6755 G1 X0.3033 Y0.8382
N6760 X0.5521 Y0.9109
N6765 G2 X1.0547 Y1.0442 I2.8 J-9.5446
N6770 X1.4766 Y1.1204 I0.9493 J-4.0503
N6775 X1.7602 Y1.1378 I0.2929 J-2.4627
N6780 X2.1585 Y1.0901 I0.0026 J-1.6658
N6785 X2.3599 Y1.0246 I-0.4317 J-1.669
N6790 G1 X2.3598 Y1.0245 Z-0.66
N6795 G2 X2.5637 Y0.9329 I-0.9405 J-2.3659
N6800 G1 X2.632 Y0.8991
N6805 G3 X2.8535 Y0.7964 I1.3209 J2.5587
N6810 X3.0556 Y0.7409 I0.345 J0.8608
N6815 G1 Y0.7411 Z-0.75 F1.
N6820 G3 X3.3193 Y0.7531 I0.0991 J0.7254 F5.
N6825 X3.4773 Y0.7988 I-0.2527 J1.1686
N6830 G1 X3.544 Y0.8237
N6835 X3.611 Y0.8508
N6840 G2 X3.8893 Y0.9687 I6.7519 J-15.5459
N6845 X4.1687 Y1.0634 I0.8953 J-2.1808
N6850 X4.4426 Y1.1087 I0.382 J-1.461
N6855 G1 X4.4512 Y1.109
N6860 X4.4598 Y1.1088
N6865 X4.4683 Y1.108
N6870 X4.4768 Y1.1065
N6875 X4.4851 Y1.1045
N6880 X4.4933 Y1.102
N6885 X4.5013 Y1.0989
N6890 X4.5091 Y1.0952
N6895 X4.5166 Y1.091
N6900 X4.5238 Y1.0863
N6905 X4.5306 Y1.0812
N6910 X4.5371 Y1.0756
N6915 X4.5432 Y1.0695
N6920 X4.5489 Y1.063
N6925 X4.554 Y1.0562
N6930 X4.5588 Y1.0491
N6935 X4.563 Y1.0416
N6940 X4.5667 Y1.0338
N6945 X4.5698 Y1.0259
N6950 X4.5724 Y1.0177
N6955 X4.5744 Y1.0094
N6960 X4.5759 Y1.0009
N6965 X4.5768 Y0.9924
N6970 X4.577 Y0.9838
N6975 Y-1.0366
N6980 G2 X4.4621 Y-1.1612 I-0.125 J0.
N6985 X4.0002 Y-1.1107 I-0.1075 J1.1551
N6990 X3.9249 Y-1.086 I0.3041 J1.051
N6995 X3.7133 Y-0.9968 I0.8939 J2.4179
N7000 G1 X3.5796 Y-0.9351
N7005 X3.5152 Y-0.9071
N7010 G3 X3.3382 Y-0.8494 I-0.4009 J-0.9291
N7015 X3.0702 Y-0.8617 I-0.1103 J-0.5232
N7020 G1 X3.0424 Y-0.8703
N7025 X3.0421 Y-0.8704
N7030 Z-0.66
N7035 G3 X2.8967 Y-0.9319 I0.3794 J-1.0995
N7040 X2.7044 Y-1.0333 I2.6551 J-5.2646
N7045 G2 X2.4525 Y-1.156 I-1.3882 J2.5306
N7050 X2.3629 Y-1.1903 I-0.7391 J1.7977
N7055 G1 Y-1.1902 Z-0.75 F1.
N7060 G2 X1.9193 Y-1.2814 I-0.5548 J1.5746 F5.
N7065 X1.487 Y-1.2738 I-0.1728 J2.4699
N7070 X1.0056 Y-1.1988 I0.4112 J4.2201
N7075 X0.5628 Y-1.0921 I1.4572 J7.0248
N7080 X-0.0624 Y-0.9066 I4.0837 J14.9075
N7085 G1 X-0.2204 Y-0.8566
N7090 X-0.3785 Y-0.8069
N7095 X-0.5367 Y-0.7577
N7100 X-0.6951 Y-0.7089
N7105 G3 X-1.195 Y-0.5751 I-2.424 J-8.06
N7110 X-1.8629 Y-0.4748 I-0.9901 J-4.3185
N7115 X-2.2358 Y-0.4667 I-0.2688 J-3.7852
N7120 X-2.4126 Y-0.4873 I0.0381 J-1.0944
N7125 X-2.6926 Y-0.6066 I0.1745 J-0.7984
N7130 X-2.9197 Y-0.796 I0.7566 J-1.1378
N7135 X-3.1861 Y-1.1763 I0.9535 J-0.9515
N7140 X-3.2649 Y-1.3537 I5.0217 J-2.3345
N7145 G2 X-3.361 Y-1.5474 I-1.7843 J0.7647
N7150 X-3.4198 Y-1.6389 I-1.0878 J0.6344
N7155 X-3.4235 Y-1.6442 I-0.1036 J0.0699
N7160 G1 X-3.4548 Y-1.6857
N7165 G2 X-3.4592 Y-1.6912 I-0.0999 J0.0752
N7170 X-3.6035 Y-1.8374 I-0.7523 J0.5986
N7175 X-3.8178 Y-1.9605 I-0.4802 J0.5874
N7180 G1 X-3.8415 Y-1.9684
N7185 G2 X-3.8472 Y-1.9702 I-0.0403 J0.1183
N7190 G1 X-3.8711 Y-1.977
N7195 G2 X-3.8771 Y-1.9786 I-0.0345 J0.1201
N7200 G1 X-3.9012 Y-1.9843
N7205 G2 X-3.9074 Y-1.9856 I-0.0286 J0.1217
N7210 G1 X-3.9318 Y-1.99
N7215 G2 X-3.9381 Y-1.991 I-0.0224 J0.123
N7220 G1 X-3.9627 Y-1.9942
N7225 G2 X-3.9691 Y-1.9948 I-0.0161 J0.124
N7230 G1 X-3.994 Y-1.9967
N7235 G2 X-4.0005 Y-1.9971 I-0.0096 J0.1246
N7240 G1 X-4.0256 Y-1.9977
N7245 G2 X-4.032 I-0.0031 J0.125
N7250 G1 X-4.0573 Y-1.997
N7255 G2 X-4.0637 Y-1.9967 I0.0033 J0.125
N7260 G1 X-4.0891 Y-1.9947
N7265 G2 X-4.0955 Y-1.9941 I0.0097 J0.1246
N7270 G1 X-4.1211 Y-1.9907
N7275 G2 X-4.1272 Y-1.9898 I0.0161 J0.124
N7280 G1 X-4.153 Y-1.9851
N7285 G2 X-4.159 Y-1.9839 I0.0222 J0.123
N7290 X-4.1909 Y-1.9764 I0.1212 J0.5848
N7295 G1 Z-0.66
N7300 G2 X-4.4393 Y-1.8628 I0.2216 J0.813
N7305 X-4.5278 Y-1.7997 I0.5672 J0.89
N7310 G1 X-4.5345 Y-1.7943
N7315 X-4.5407 Y-1.7884
N7320 X-4.5466 Y-1.7821
N7325 X-4.552 Y-1.7754
N7330 X-4.5569 Y-1.7683
N7335 X-4.5614 Y-1.7609
N7340 X-4.5653 Y-1.7532
N7345 X-4.5687 Y-1.7453
N7350 X-4.5715 Y-1.7372
N7355 X-4.5737 Y-1.7289
N7360 X-4.5754 Y-1.7204
N7365 X-4.5765 Y-1.7119
N7370 X-4.577 Y-1.7033
N7375 X-4.5769 Y-1.6946
N7380 X-4.5762 Y-1.6861
N7385 X-4.5749 Y-1.6775
N7390 X-4.5731 Y-1.6691
N7395 G3 X-4.591 Y-1.6387 I-0.0242 J0.0062
N7400 G1 X-4.6395 Y-1.6262
N7405 G0 Z0.5
N7415 M9
N7420 G53 Z0.
N7425 M30
%
