%
(1001)
(ENGRAVING BIT 12K RPM 8 MINUTES)
(T4  D=0.125 CR=0. TAPER=20DEG - ZMIN=-0.012 - CHAMFER MILL)
N10 G90 G94 G17 G91.1
N15 G20
N20 G53 G0 Z0.
(ENGRAVE2)
N25 M9
N30 T4 M6
N35 S12000 M3
N40 G54
N45 M8
N55 G0 X-0.3886 Y-0.3911
N60 G43 Z0.3 H4
N65 G0 Z0.05
N70 G1 Z0. F5.
N75 X-0.385 Y-0.3875 Z-0.01 F7.5
N80 X-0.3641
N85 X-0.3632
N90 X-0.3628
N95 X-0.3624 Y-0.3874
N100 X-0.362
N105 X-0.3615
N110 X-0.3611
N115 X-0.3607
N120 X-0.3603
N125 X-0.3599 Y-0.3873
N130 X-0.3596
N135 X-0.3592
N140 X-0.3588 Y-0.3872
N145 X-0.3584
N150 X-0.358 Y-0.3871
N155 X-0.3576
N160 X-0.3572 Y-0.387
N165 X-0.3568
N170 X-0.3564 Y-0.3869
N175 X-0.356 Y-0.3868
N180 X-0.3556 Y-0.3867
N185 X-0.3552
N190 X-0.3548 Y-0.3866
N195 X-0.3545 Y-0.3865
N200 X-0.3544
N205 X-0.3541 Y-0.3864
N210 X-0.3538 Y-0.3863
N215 X-0.3535 Y-0.3862
N220 X-0.3532 Y-0.3861
N225 X-0.3529 Y-0.386
N230 X-0.3527 Y-0.3859
N235 X-0.3524
N240 X-0.3521 Y-0.3858
N245 X-0.3519 Y-0.3857
N250 X-0.3517 Y-0.3856
N255 X-0.3515 Y-0.3855
N260 X-0.3512 Y-0.3854
N265 X-0.351 Y-0.3853
N270 X-0.3508 Y-0.3852
N275 X-0.3506 Y-0.385
N280 X-0.3503 Y-0.3849
N285 X-0.3501 Y-0.3848
N290 X-0.3499 Y-0.3846
N295 X-0.3496 Y-0.3845
N300 X-0.3494 Y-0.3843
N305 X-0.3491 Y-0.3841
N310 X-0.3488 Y-0.384
N315 Y-0.3839
N320 X-0.3485 Y-0.3837
N325 X-0.3483 Y-0.3835
N330 X-0.3481 Y-0.3833
N335 X-0.3479 Y-0.3831
N340 X-0.3477 Y-0.3829
N345 X-0.3475 Y-0.3828
N350 X-0.3473 Y-0.3826
N355 X-0.3472 Y-0.3824
N360 X-0.347 Y-0.3822
N365 X-0.3469 Y-0.3821
N370 X-0.3468 Y-0.3819
N375 X-0.3466 Y-0.3817
N380 X-0.3465 Y-0.3816
N385 X-0.3464 Y-0.3814
N390 X-0.3462 Y-0.3812
N395 X-0.3461 Y-0.3809
N400 X-0.346 Y-0.3807
N405 X-0.3458 Y-0.3805
N410 X-0.3457 Y-0.3802
N415 X-0.3455 Y-0.38
N420 X-0.3454 Y-0.3797
N425 X-0.3452 Y-0.3794
N430 Y-0.3793
N435 X-0.3451 Y-0.3791
N440 X-0.345 Y-0.3788
N445 X-0.3448 Y-0.3785
N450 X-0.3447 Y-0.3782
N455 X-0.3446 Y-0.3779
N460 X-0.3445 Y-0.3776
N465 X-0.3444 Y-0.3773
N470 X-0.3443 Y-0.377
N475 X-0.3442 Y-0.3767
N480 X-0.3441 Y-0.3765
N485 X-0.344 Y-0.3762
N490 Y-0.376
N495 X-0.3439 Y-0.3757
N500 Y-0.3754
N505 X-0.3438 Y-0.3752
N510 Y-0.3749
N515 Y-0.3746
N520 X-0.3437 Y-0.3743
N525 Y-0.374
N530 Y-0.3736
N535 X-0.3436 Y-0.3733
N540 Y-0.373
N545 Y-0.3726
N550 Y-0.3725
N555 Y-0.3723
N560 Y-0.3718
N565 X-0.3437 Y-0.3714
N570 Y-0.371
N575 Y-0.3706
N580 X-0.3438 Y-0.3703
N585 Y-0.3699
N590 X-0.3439 Y-0.3696
N595 X-0.344 Y-0.3693
N600 Y-0.369
N605 X-0.3441 Y-0.3687
N610 X-0.3442 Y-0.3684
N615 X-0.3443 Y-0.3681
N620 X-0.3444 Y-0.3679
N625 X-0.3445 Y-0.3676
N630 X-0.3446 Y-0.3673
N635 X-0.3448 Y-0.367
N640 X-0.3449 Y-0.3667
N645 X-0.3451 Y-0.3664
N650 X-0.3453 Y-0.366
N655 X-0.3455 Y-0.3657
N660 X-0.3457 Y-0.3654
N665 X-0.346 Y-0.365
N670 Y-0.3649
N675 X-0.3461 Y-0.3648
N680 X-0.3464 Y-0.3645
N685 X-0.3467 Y-0.3642
N690 X-0.347 Y-0.3639
N695 X-0.3473 Y-0.3636
N700 X-0.3475 Y-0.3634
N705 X-0.3478 Y-0.3631
N710 X-0.3481 Y-0.3629
N715 X-0.3483 Y-0.3626
N720 X-0.3486 Y-0.3624
N725 X-0.3488 Y-0.3623
N730 X-0.3491 Y-0.3621
N735 X-0.3493 Y-0.3619
N740 X-0.3496 Y-0.3618
N745 X-0.3499 Y-0.3616
N750 X-0.3512 Y-0.3608 Z-0.0095
N755 X-0.3526 Y-0.3602 Z-0.0092
N760 X-0.3535 Y-0.3598 Z-0.0091
N765 X-0.354 Y-0.3596 Z-0.0092
N770 X-0.3545 Y-0.3593 Z-0.0094
N775 X-0.3551 Y-0.3589 Z-0.01
N780 X-0.3553 Y-0.3588
N785 X-0.3557 Y-0.3587
N790 X-0.3561 Y-0.3586
N795 X-0.3565
N800 Y-0.3585
N805 X-0.3569
N810 X-0.357
N815 X-0.3573 Y-0.3584
N820 X-0.3574
N825 X-0.3578 Y-0.3583
N830 X-0.3582 Y-0.3582
N835 X-0.3583
N840 X-0.3586 Y-0.3581
N845 X-0.3587
N850 X-0.3591
N855 X-0.3592 Y-0.358
N860 X-0.3596
N865 X-0.36 Y-0.3579
N870 X-0.3601
N875 X-0.3605
N880 X-0.3609
N885 X-0.361
N890 X-0.3614 Y-0.3578
N895 X-0.3618
N900 X-0.3622
N905 X-0.3623
N910 X-0.3627
N915 X-0.3631
N920 X-0.3635 Y-0.3577
N925 X-0.3639
N930 X-0.3643
N935 X-0.3644
N940 X-0.3647
N945 X-0.3648
N950 X-0.3652
N955 X-0.3801
N960 G3 X-0.3837 Y-0.3614 I0. J-0.0036
N965 G1 Y-0.3835
N970 G3 X-0.3801 Y-0.3872 I0.0036 J0.
N975 G1 X-0.364
N980 X-0.3636
N985 X-0.3635
N990 X-0.3631
N995 X-0.363
N1000 X-0.3628
N1005 X-0.3626
N1010 X-0.3625
N1015 X-0.3623 Y-0.3871
N1020 X-0.362
N1025 X-0.3618
N1030 X-0.3617
N1035 X-0.3615
N1040 X-0.3612
N1045 X-0.361
N1050 X-0.3609
N1055 X-0.3607
N1060 X-0.3604
N1065 X-0.3601
N1070 X-0.3599 Y-0.387
N1075 X-0.3598
N1080 X-0.3596
N1085 X-0.3593
N1090 X-0.3591
N1095 X-0.3588 Y-0.3869
N1100 X-0.3586
N1105 X-0.3585
N1110 X-0.3581
N1115 X-0.358
N1120 X-0.3578 Y-0.3868
N1125 X-0.3575
N1130 X-0.3573 Y-0.3867
N1135 X-0.3571
N1140 X-0.357
N1145 X-0.3568 Y-0.3866
N1150 X-0.3566
N1155 X-0.3564 Y-0.3865
N1160 X-0.3563
N1165 X-0.3561
N1170 X-0.3559 Y-0.3864
N1175 X-0.3558
N1180 X-0.3556 Y-0.3863
N1185 X-0.3555
N1190 X-0.3553
N1195 Y-0.3862
N1200 X-0.3551
N1205 X-0.355
N1210 X-0.3548 Y-0.3861
N1215 X-0.3547
N1220 X-0.3545 Y-0.386
N1225 X-0.3544
N1230 X-0.3542 Y-0.3859
N1235 X-0.354 Y-0.3858
N1240 X-0.3539
N1245 X-0.3537 Y-0.3857
N1250 X-0.3536
N1255 X-0.3534 Y-0.3856
N1260 Y-0.3855
N1265 X-0.3532
N1270 X-0.3531 Y-0.3854
N1275 X-0.3529 Y-0.3853
N1280 X-0.3527 Y-0.3852
N1285 X-0.3525 Y-0.3851
N1290 X-0.3524
N1295 X-0.3522 Y-0.385
N1300 X-0.352 Y-0.3849
N1305 X-0.3518 Y-0.3848
N1310 X-0.3516 Y-0.3847
N1315 G3 X-0.3511 Y-0.3844 I-0.0017 J0.0032
N1320 G1 X-0.3508 Y-0.3841
N1325 X-0.3506 Y-0.384
N1330 X-0.3505 Y-0.3839
N1335 X-0.3504 Y-0.3838
N1340 X-0.3503 Y-0.3837
N1345 X-0.3502
N1350 X-0.3501 Y-0.3835
N1355 X-0.35
N1360 X-0.3499 Y-0.3834
N1365 X-0.3498 Y-0.3833
N1370 X-0.3497 Y-0.3832
N1375 X-0.3496 Y-0.3831
N1380 X-0.3494 Y-0.383
N1385 X-0.3492 Y-0.3828
N1390 Y-0.3827
N1395 X-0.349 Y-0.3826
N1400 X-0.3489 Y-0.3825
N1405 X-0.3488 Y-0.3824
N1410 X-0.3487 Y-0.3823
N1415 X-0.3486 Y-0.3821
N1420 X-0.3485
N1425 X-0.3484 Y-0.3819
N1430 X-0.3483 Y-0.3818
N1435 X-0.3482 Y-0.3817
N1440 Y-0.3816
N1445 X-0.348 Y-0.3814
N1450 X-0.3479 Y-0.3812
N1455 X-0.3478
N1460 X-0.3477 Y-0.381
N1465 Y-0.3809
N1470 X-0.3476 Y-0.3808
N1475 Y-0.3807
N1480 X-0.3474 Y-0.3806
N1485 Y-0.3805
N1490 X-0.3473 Y-0.3804
N1495 Y-0.3803
N1500 X-0.3472 Y-0.3802
N1505 Y-0.3801
N1510 X-0.3471 Y-0.38
N1515 X-0.347 Y-0.3798
N1520 G3 X-0.3467 Y-0.3794 I-0.0031 J0.0019
N1525 G1 X-0.3466 Y-0.3791
N1530 X-0.3465 Y-0.3789
N1535 X-0.3464 Y-0.3787
N1540 X-0.3463 Y-0.3784
N1545 X-0.3462 Y-0.3782
N1550 Y-0.3781
N1555 X-0.3461 Y-0.3779
N1560 X-0.346 Y-0.3777
N1565 Y-0.3776
N1570 X-0.3459 Y-0.3774
N1575 Y-0.3773
N1580 X-0.3458 Y-0.3771
N1585 Y-0.377
N1590 X-0.3457 Y-0.3768
N1595 Y-0.3767
N1600 X-0.3456 Y-0.3764
N1605 Y-0.3763
N1610 X-0.3455 Y-0.3761
N1615 Y-0.376
N1620 Y-0.3758
N1625 Y-0.3757
N1630 X-0.3454 Y-0.3755
N1635 Y-0.3754
N1640 Y-0.3751
N1645 X-0.3453 Y-0.375
N1650 Y-0.3748
N1655 Y-0.3747
N1660 Y-0.3745
N1665 Y-0.3744
N1670 X-0.3452 Y-0.3742
N1675 Y-0.3739
N1680 Y-0.3736
N1685 Y-0.3734
N1690 Y-0.3733
N1695 Y-0.3731
N1700 Y-0.3729
N1705 Y-0.3728
N1710 Y-0.3726
N1715 Y-0.3722
N1720 Y-0.3719
N1725 Y-0.3717
N1730 Y-0.3716
N1735 Y-0.3714
N1740 Y-0.3713
N1745 Y-0.3711
N1750 Y-0.371
N1755 X-0.3453 Y-0.3707
N1760 Y-0.3704
N1765 Y-0.3703
N1770 Y-0.3701
N1775 Y-0.37
N1780 X-0.3454 Y-0.3697
N1785 Y-0.3696
N1790 Y-0.3693
N1795 X-0.3455
N1800 Y-0.369
N1805 Y-0.3689
N1810 X-0.3456 Y-0.3686
N1815 Y-0.3685
N1820 X-0.3457 Y-0.3682
N1825 Y-0.3681
N1830 X-0.3458 Y-0.3678
N1835 X-0.3459 Y-0.3677
N1840 X-0.346 Y-0.3674
N1845 Y-0.3673
N1850 X-0.3461 Y-0.3671
N1855 Y-0.367
N1860 X-0.3462 Y-0.3667
N1865 X-0.3463 Y-0.3666
N1870 X-0.3464 Y-0.3664
N1875 Y-0.3663
N1880 X-0.3466 Y-0.3661
N1885 Y-0.366
N1890 X-0.3467 Y-0.3658
N1895 Y-0.3657
N1900 X-0.3469 Y-0.3655
N1905 Y-0.3654
N1910 X-0.347 Y-0.3652
N1915 Y-0.3651
N1920 X-0.3472 Y-0.3649
N1925 X-0.3473 Y-0.3646
N1930 X-0.3475 Y-0.3644
N1935 G3 X-0.3478 Y-0.3639 I-0.0032 J-0.0018
N1940 G1 X-0.348 Y-0.3637
N1945 X-0.3482 Y-0.3635
N1950 Y-0.3634
N1955 X-0.3484 Y-0.3632
N1960 X-0.3486 Y-0.363
N1965 X-0.3488 Y-0.3628
N1970 Y-0.3627
N1975 X-0.349 Y-0.3625
N1980 X-0.3491 Y-0.3624
N1985 X-0.3493 Y-0.3623
N1990 Y-0.3622
N1995 X-0.3495 Y-0.362
N2000 X-0.3496 Y-0.3619
N2005 X-0.3498 Y-0.3617
N2010 X-0.3499
N2015 Y-0.3616
N2020 Y-0.3617
N2025 X-0.3498
N2030 X-0.3496 Y-0.3619
N2035 X-0.3495 Y-0.362
N2040 X-0.3493 Y-0.3622
N2045 Y-0.3623
N2050 X-0.3491 Y-0.3624
N2055 X-0.349 Y-0.3625
N2060 X-0.3488 Y-0.3627
N2065 Y-0.3628
N2070 X-0.3486 Y-0.363
N2075 X-0.3484 Y-0.3632
N2080 X-0.3482 Y-0.3634
N2085 Y-0.3635
N2090 X-0.348 Y-0.3637
N2095 X-0.3478 Y-0.3639
N2100 G2 X-0.3475 Y-0.3644 I-0.0028 J-0.0023
N2105 G1 X-0.3473 Y-0.3646
N2110 X-0.3472 Y-0.3649
N2115 X-0.347 Y-0.3651
N2120 Y-0.3652
N2125 X-0.3469 Y-0.3654
N2130 Y-0.3655
N2135 X-0.3467 Y-0.3657
N2140 Y-0.3658
N2145 X-0.3466 Y-0.366
N2150 Y-0.3661
N2155 X-0.3464 Y-0.3663
N2160 Y-0.3664
N2165 X-0.3463 Y-0.3666
N2170 X-0.3462 Y-0.3667
N2175 X-0.3461 Y-0.367
N2180 Y-0.3671
N2185 X-0.346 Y-0.3673
N2190 Y-0.3674
N2195 X-0.3459 Y-0.3677
N2200 X-0.3458 Y-0.3678
N2205 X-0.3457 Y-0.3681
N2210 Y-0.3682
N2215 X-0.3456 Y-0.3685
N2220 Y-0.3686
N2225 X-0.3455 Y-0.3689
N2230 Y-0.369
N2235 Y-0.3693
N2240 X-0.3454
N2245 Y-0.3696
N2250 Y-0.3697
N2255 X-0.3453 Y-0.37
N2260 Y-0.3701
N2265 Y-0.3703
N2270 Y-0.3704
N2275 Y-0.3707
N2280 X-0.3452 Y-0.371
N2285 Y-0.3711
N2290 Y-0.3713
N2295 Y-0.3714
N2300 Y-0.3716
N2305 Y-0.3717
N2310 Y-0.3719
N2315 Y-0.3722
N2320 Y-0.3726
N2325 Y-0.3728
N2330 Y-0.3729
N2335 Y-0.3731
N2340 Y-0.3733
N2345 Y-0.3734
N2350 Y-0.3736
N2355 Y-0.3739
N2360 Y-0.3742
N2365 X-0.3453 Y-0.3744
N2370 Y-0.3745
N2375 Y-0.3747
N2380 Y-0.3748
N2385 Y-0.375
N2390 X-0.3454 Y-0.3751
N2395 Y-0.3754
N2400 Y-0.3755
N2405 X-0.3455 Y-0.3757
N2410 Y-0.3758
N2415 Y-0.376
N2420 Y-0.3761
N2425 X-0.3456 Y-0.3763
N2430 Y-0.3764
N2435 X-0.3457 Y-0.3767
N2440 Y-0.3768
N2445 X-0.3458 Y-0.377
N2450 Y-0.3771
N2455 X-0.3459 Y-0.3773
N2460 Y-0.3774
N2465 X-0.346 Y-0.3776
N2470 Y-0.3777
N2475 X-0.3461 Y-0.3779
N2480 X-0.3462 Y-0.3781
N2485 Y-0.3782
N2490 X-0.3463 Y-0.3784
N2495 X-0.3464 Y-0.3787
N2500 X-0.3465 Y-0.3789
N2505 X-0.3466 Y-0.3791
N2510 X-0.3467 Y-0.3794
N2515 G2 X-0.347 Y-0.3798 I-0.0033 J0.0015
N2520 G1 X-0.3471 Y-0.38
N2525 X-0.3472 Y-0.3801
N2530 Y-0.3802
N2535 X-0.3473 Y-0.3803
N2540 Y-0.3804
N2545 X-0.3474 Y-0.3805
N2550 Y-0.3806
N2555 X-0.3476 Y-0.3807
N2560 Y-0.3808
N2565 X-0.3477 Y-0.3809
N2570 Y-0.381
N2575 X-0.3478 Y-0.3812
N2580 X-0.3479
N2585 X-0.348 Y-0.3814
N2590 X-0.3482 Y-0.3816
N2595 Y-0.3817
N2600 X-0.3483 Y-0.3818
N2605 X-0.3484 Y-0.3819
N2610 X-0.3485 Y-0.3821
N2615 X-0.3486
N2620 X-0.3487 Y-0.3823
N2625 X-0.3488 Y-0.3824
N2630 X-0.3489 Y-0.3825
N2635 X-0.349 Y-0.3826
N2640 X-0.3492 Y-0.3827
N2645 Y-0.3828
N2650 X-0.3494 Y-0.383
N2655 X-0.3496 Y-0.3831
N2660 X-0.3497 Y-0.3832
N2665 X-0.3498 Y-0.3833
N2670 X-0.3499 Y-0.3834
N2675 X-0.35 Y-0.3835
N2680 X-0.3501
N2685 X-0.3502 Y-0.3837
N2690 X-0.3503
N2695 X-0.3504 Y-0.3838
N2700 X-0.3505 Y-0.3839
N2705 X-0.3506 Y-0.384
N2710 X-0.3508 Y-0.3841
N2715 X-0.3511 Y-0.3844
N2720 G2 X-0.3516 Y-0.3847 I-0.0022 J0.0029
N2725 G1 X-0.3518 Y-0.3848
N2730 X-0.352 Y-0.3849
N2735 X-0.3522 Y-0.385
N2740 X-0.3524 Y-0.3851
N2745 X-0.3525
N2750 X-0.3527 Y-0.3852
N2755 X-0.3529 Y-0.3853
N2760 X-0.3531 Y-0.3854
N2765 X-0.3532 Y-0.3855
N2770 X-0.3534
N2775 Y-0.3856
N2780 X-0.3536 Y-0.3857
N2785 X-0.3537
N2790 X-0.3539 Y-0.3858
N2795 X-0.354
N2800 X-0.3542 Y-0.3859
N2805 X-0.3544 Y-0.386
N2810 X-0.3545
N2815 X-0.3547 Y-0.3861
N2820 X-0.3548
N2825 X-0.355 Y-0.3862
N2830 X-0.3551
N2835 X-0.3553
N2840 Y-0.3863
N2845 X-0.3555
N2850 X-0.3556
N2855 X-0.3558 Y-0.3864
N2860 X-0.3559
N2865 X-0.3561 Y-0.3865
N2870 X-0.3563
N2875 X-0.3564
N2880 X-0.3566 Y-0.3866
N2885 X-0.3568
N2890 X-0.357 Y-0.3867
N2895 X-0.3571
N2900 X-0.3573
N2905 X-0.3575 Y-0.3868
N2910 X-0.3578
N2915 X-0.358 Y-0.3869
N2920 X-0.3581
N2925 X-0.3585
N2930 X-0.3586
N2935 X-0.3588
N2940 X-0.3591 Y-0.387
N2945 X-0.3593
N2950 X-0.3596
N2955 X-0.3598
N2960 X-0.3599
N2965 X-0.3601 Y-0.3871
N2970 X-0.3604
N2975 X-0.3607
N2980 X-0.3609
N2985 X-0.361
N2990 X-0.3612
N2995 X-0.3615
N3000 X-0.3617
N3005 X-0.3618
N3010 X-0.362
N3015 X-0.3623
N3020 X-0.3625 Y-0.3872
N3025 X-0.3626
N3030 X-0.3628
N3035 X-0.363
N3040 X-0.3631
N3045 X-0.3635
N3050 X-0.3636
N3055 X-0.364
N3060 X-0.3801
N3065 G2 X-0.3837 Y-0.3835 I0. J0.0036
N3070 G1 Y-0.3614
N3075 G2 X-0.3801 Y-0.3577 I0.0036 J0.
N3080 G1 X-0.3652
N3085 X-0.3648
N3090 X-0.3647
N3095 X-0.3644
N3100 X-0.3643
N3105 X-0.3639
N3110 X-0.3635
N3115 X-0.3631 Y-0.3578
N3120 X-0.3627
N3125 X-0.3623
N3130 X-0.3622
N3135 X-0.3618
N3140 X-0.3614
N3145 X-0.361 Y-0.3579
N3150 X-0.3609
N3155 X-0.3605
N3160 X-0.3601
N3165 X-0.36
N3170 X-0.3596 Y-0.358
N3175 X-0.3592
N3180 X-0.3591 Y-0.3581
N3185 X-0.3587
N3190 X-0.3586
N3195 X-0.3583 Y-0.3582
N3200 X-0.3582
N3205 X-0.3578 Y-0.3583
N3210 X-0.3574 Y-0.3584
N3215 X-0.3573
N3220 X-0.357 Y-0.3585
N3225 X-0.3569
N3230 X-0.3565
N3235 Y-0.3586
N3240 X-0.3561
N3245 X-0.3557 Y-0.3587
N3250 X-0.3553 Y-0.3588
N3255 X-0.3551 Y-0.3589
N3260 G2 X-0.3556 Y-0.356 I0.003 J0.002
N3265 G1 X-0.355 Y-0.3554 Z-0.009
N3270 X-0.3545 Y-0.3549 Z-0.0085
N3275 X-0.3539 Y-0.3545 Z-0.0082
N3280 X-0.3533 Y-0.3541
N3285 X-0.3522 Y-0.3533 Z-0.0086
N3290 X-0.3507 Y-0.352 Z-0.0091
N3295 X-0.35 Y-0.3512 Z-0.0095
N3300 X-0.3489 Y-0.3497 Z-0.01
N3305 Y-0.3496
N3310 X-0.3488 Y-0.3495
N3315 X-0.3487 Y-0.3493
N3320 Y-0.3492
N3325 X-0.3486 Y-0.3489
N3330 Y-0.3488
N3335 X-0.3485 Y-0.3486
N3340 X-0.3484 Y-0.3484
N3345 Y-0.3482
N3350 X-0.3483 Y-0.3481
N3355 Y-0.3478
N3360 X-0.3482 Y-0.3477
N3365 Y-0.3475
N3370 Y-0.3474
N3375 X-0.3481 Y-0.3471
N3380 Y-0.347
N3385 X-0.348 Y-0.3468
N3390 Y-0.3467
N3395 Y-0.3464
N3400 Y-0.3461
N3405 X-0.3479 Y-0.346
N3410 Y-0.3458
N3415 Y-0.3457
N3420 Y-0.3455
N3425 Y-0.3454
N3430 Y-0.3452
N3435 Y-0.3449
N3440 X-0.3478 Y-0.3446
N3445 Y-0.3444
N3450 Y-0.344
N3455 Y-0.3437
N3460 X-0.3479 Y-0.3435
N3465 Y-0.3432
N3470 Y-0.3429
N3475 Y-0.3426
N3480 X-0.348 Y-0.3423
N3485 Y-0.342
N3490 Y-0.3417
N3495 Y-0.3416
N3500 X-0.3481 Y-0.3414
N3505 Y-0.3413
N3510 Y-0.3411
N3515 X-0.3482 Y-0.341
N3520 Y-0.3407
N3525 Y-0.3406
N3530 X-0.3483 Y-0.3404
N3535 Y-0.3402
N3540 X-0.3484 Y-0.34
N3545 Y-0.3399
N3550 X-0.3485 Y-0.3397
N3555 Y-0.3396
N3560 X-0.3486 Y-0.3393
N3565 X-0.3487 Y-0.3392
N3570 X-0.3488 Y-0.339
N3575 Y-0.3389
N3580 X-0.3489 Y-0.3387
N3585 Y-0.3386
N3590 X-0.349 Y-0.3384
N3595 Y-0.3383
N3600 X-0.3491 Y-0.3381
N3605 X-0.3492
N3610 X-0.3493 Y-0.3378
N3615 X-0.3494 Y-0.3376
N3620 X-0.3495 Y-0.3373
N3625 X-0.3497 Y-0.3371
N3630 X-0.3498 Y-0.3369
N3635 G3 X-0.3501 Y-0.3364 I-0.0032 J-0.0017
N3640 G1 X-0.3502 Y-0.3362
N3645 X-0.3503
N3650 X-0.3504 Y-0.336
N3655 Y-0.3359
N3660 X-0.3506 Y-0.3358
N3665 Y-0.3357
N3670 X-0.3507 Y-0.3355
N3675 X-0.3508
N3680 X-0.3509 Y-0.3353
N3685 X-0.351
N3690 X-0.3511 Y-0.3351
N3695 X-0.3512 Y-0.335
N3700 X-0.3513 Y-0.3349
N3705 X-0.3514 Y-0.3348
N3710 X-0.3515 Y-0.3346
N3715 X-0.3516 Y-0.3345
N3720 X-0.3518 Y-0.3344
N3725 X-0.3519 Y-0.3343
N3730 X-0.352 Y-0.3341
N3735 X-0.3521 Y-0.334
N3740 X-0.3523 Y-0.3339
N3745 X-0.3524 Y-0.3338
N3750 X-0.3526 Y-0.3336
N3755 X-0.3528 Y-0.3335
N3760 X-0.3529 Y-0.3334
N3765 X-0.3531 Y-0.3333
N3770 X-0.3533 Y-0.3332
N3775 X-0.3534 Y-0.3331
N3780 X-0.3536 Y-0.333
N3785 X-0.3537 Y-0.3329
N3790 X-0.3539 Y-0.3328
N3795 X-0.354
N3800 X-0.3542 Y-0.3327
N3805 X-0.3543 Y-0.3326
N3810 X-0.3545 Y-0.3325
N3815 X-0.3546
N3820 X-0.3548 Y-0.3324
N3825 Y-0.3323
N3830 X-0.3551 Y-0.3322
N3835 X-0.3553 Y-0.3321
N3840 X-0.3554
N3845 X-0.3556 Y-0.332
N3850 X-0.3558 Y-0.3319
N3855 X-0.3561 Y-0.3318
N3860 G3 X-0.3567 Y-0.3317 I-0.0013 J-0.0034
N3865 G1 X-0.3571 Y-0.3316
N3870 X-0.3575 Y-0.3315
N3875 X-0.3579 Y-0.3314
N3880 X-0.3583 Y-0.3313
N3885 X-0.3587 Y-0.3312
N3890 X-0.3588
N3895 X-0.3592
N3900 X-0.3596 Y-0.3311
N3905 X-0.3597
N3910 X-0.3601 Y-0.331
N3915 X-0.3605
N3920 X-0.3606 Y-0.3309
N3925 X-0.361
N3930 X-0.3611
N3935 X-0.3615 Y-0.3308
N3940 X-0.3619
N3945 X-0.362
N3950 X-0.3624
N3955 X-0.3629 Y-0.3307
N3960 X-0.3633
N3965 X-0.3638
N3970 X-0.3642
N3975 X-0.3646
N3980 X-0.3647
N3985 X-0.3651
N3990 X-0.3655
N3995 X-0.3659
N4000 X-0.366
N4005 X-0.3664
N4010 X-0.3668
N4015 X-0.3672
N4020 X-0.3801
N4025 G3 X-0.3837 Y-0.3343 I0. J-0.0036
N4030 G1 Y-0.3538
N4035 G3 X-0.3801 Y-0.3574 I0.0036 J0.
N4040 G1 X-0.3661
N4045 X-0.3658
N4050 X-0.3655
N4055 X-0.3654
N4060 X-0.3651
N4065 X-0.3648
N4070 X-0.3647
N4075 X-0.3644
N4080 X-0.364
N4085 X-0.3637
N4090 X-0.3636
N4095 X-0.3633
N4100 X-0.3629
N4105 X-0.3625 Y-0.3573
N4110 X-0.3622
N4115 X-0.3621
N4120 X-0.3618
N4125 X-0.3617
N4130 X-0.3614 Y-0.3572
N4135 X-0.3613
N4140 X-0.361
N4145 X-0.3609
N4150 X-0.3606
N4155 X-0.3605
N4160 X-0.3602 Y-0.3571
N4165 X-0.3598
N4170 Y-0.357
N4175 X-0.3594
N4180 X-0.3591 Y-0.3569
N4185 X-0.359
N4190 X-0.3587
N4195 X-0.3583 Y-0.3568
N4200 X-0.358 Y-0.3567
N4205 X-0.3576
N4210 X-0.3573 Y-0.3566
N4215 G3 X-0.3568 Y-0.3564 I-0.0007 J0.0036
N4220 G1 X-0.3566
N4225 X-0.3563 Y-0.3563
N4230 X-0.3561 Y-0.3562
N4235 X-0.356
N4240 X-0.3558 Y-0.3561
N4245 X-0.3556 Y-0.356
N4250 X-0.3558 Y-0.3561
N4255 X-0.356 Y-0.3562
N4260 X-0.3561
N4265 X-0.3563 Y-0.3563
N4270 X-0.3566 Y-0.3564
N4275 X-0.3568
N4280 G2 X-0.3573 Y-0.3566 I-0.0012 J0.0034
N4285 G1 X-0.3576 Y-0.3567
N4290 X-0.358
N4295 X-0.3583 Y-0.3568
N4300 X-0.3587 Y-0.3569
N4305 X-0.359
N4310 X-0.3591
N4315 X-0.3594 Y-0.357
N4320 X-0.3598
N4325 Y-0.3571
N4330 X-0.3602
N4335 X-0.3605 Y-0.3572
N4340 X-0.3606
N4345 X-0.3609
N4350 X-0.361
N4355 X-0.3613
N4360 X-0.3614
N4365 X-0.3617 Y-0.3573
N4370 X-0.3618
N4375 X-0.3621
N4380 X-0.3622
N4385 X-0.3625
N4390 X-0.3629 Y-0.3574
N4395 X-0.3633
N4400 X-0.3636
N4405 X-0.3637
N4410 X-0.364
N4415 X-0.3644
N4420 X-0.3647
N4425 X-0.3648
N4430 X-0.3651
N4435 X-0.3654
N4440 X-0.3655
N4445 X-0.3658
N4450 X-0.3661
N4455 X-0.3801
N4460 G2 X-0.3837 Y-0.3538 I0. J0.0036
N4465 G1 Y-0.3343
N4470 G2 X-0.3801 Y-0.3307 I0.0036 J0.
N4475 G1 X-0.3672
N4480 X-0.3668
N4485 X-0.3664
N4490 X-0.366
N4495 X-0.3659
N4500 X-0.3655
N4505 X-0.3651
N4510 X-0.3647
N4515 X-0.3646
N4520 X-0.3642
N4525 X-0.3638
N4530 X-0.3633
N4535 X-0.3629
N4540 X-0.3624 Y-0.3308
N4545 X-0.362
N4550 X-0.3619
N4555 X-0.3615
N4560 X-0.3611 Y-0.3309
N4565 X-0.361
N4570 X-0.3606
N4575 X-0.3605 Y-0.331
N4580 X-0.3601
N4585 X-0.3597 Y-0.3311
N4590 X-0.3596
N4595 X-0.3592 Y-0.3312
N4600 X-0.3588
N4605 X-0.3587
N4610 X-0.3583 Y-0.3313
N4615 X-0.3579 Y-0.3314
N4620 X-0.3575 Y-0.3315
N4625 X-0.3571 Y-0.3316
N4630 X-0.3567 Y-0.3317
N4635 G2 X-0.3561 Y-0.3318 I-0.0007 J-0.0036
N4640 G1 X-0.3558 Y-0.3319
N4645 X-0.3556 Y-0.332
N4650 X-0.3554 Y-0.3321
N4655 X-0.3553
N4660 X-0.3551 Y-0.3322
N4665 X-0.3548 Y-0.3323
N4670 Y-0.3324
N4675 X-0.3546 Y-0.3325
N4680 X-0.3545
N4685 X-0.3543 Y-0.3326
N4690 X-0.3542 Y-0.3327
N4695 X-0.354 Y-0.3328
N4700 X-0.3539
N4705 X-0.3537 Y-0.3329
N4710 X-0.3536 Y-0.333
N4715 X-0.3534 Y-0.3331
N4720 X-0.3533 Y-0.3332
N4725 X-0.3531 Y-0.3333
N4730 X-0.3529 Y-0.3334
N4735 X-0.3528 Y-0.3335
N4740 X-0.3526 Y-0.3336
N4745 X-0.3524 Y-0.3338
N4750 X-0.3523 Y-0.3339
N4755 X-0.3521 Y-0.334
N4760 X-0.352 Y-0.3341
N4765 X-0.3519 Y-0.3343
N4770 X-0.3518 Y-0.3344
N4775 X-0.3516 Y-0.3345
N4780 X-0.3515 Y-0.3346
N4785 X-0.3514 Y-0.3348
N4790 X-0.3513 Y-0.3349
N4795 X-0.3512 Y-0.335
N4800 X-0.3511 Y-0.3351
N4805 X-0.351 Y-0.3353
N4810 X-0.3509
N4815 X-0.3508 Y-0.3355
N4820 X-0.3507
N4825 X-0.3506 Y-0.3357
N4830 Y-0.3358
N4835 X-0.3504 Y-0.3359
N4840 Y-0.336
N4845 X-0.3503 Y-0.3362
N4850 X-0.3502
N4855 X-0.3501 Y-0.3364
N4860 G2 X-0.3498 Y-0.3369 I-0.0029 J-0.0022
N4865 G1 X-0.3497 Y-0.3371
N4870 X-0.3495 Y-0.3373
N4875 X-0.3494 Y-0.3376
N4880 X-0.3493 Y-0.3378
N4885 X-0.3492 Y-0.3381
N4890 X-0.3491
N4895 X-0.349 Y-0.3383
N4900 Y-0.3384
N4905 X-0.3489 Y-0.3386
N4910 Y-0.3387
N4915 X-0.3488 Y-0.3389
N4920 Y-0.339
N4925 X-0.3487 Y-0.3392
N4930 X-0.3486 Y-0.3393
N4935 X-0.3485 Y-0.3396
N4940 Y-0.3397
N4945 X-0.3484 Y-0.3399
N4950 Y-0.34
N4955 X-0.3483 Y-0.3402
N4960 Y-0.3404
N4965 X-0.3482 Y-0.3406
N4970 Y-0.3407
N4975 Y-0.341
N4980 X-0.3481 Y-0.3411
N4985 Y-0.3413
N4990 Y-0.3414
N4995 X-0.348 Y-0.3416
N5000 Y-0.3417
N5005 Y-0.342
N5010 Y-0.3423
N5015 X-0.3479 Y-0.3426
N5020 Y-0.3429
N5025 Y-0.3432
N5030 Y-0.3435
N5035 X-0.3478 Y-0.3437
N5040 Y-0.344
N5045 Y-0.3444
N5050 Y-0.3446
N5055 X-0.3479 Y-0.3449
N5060 Y-0.3452
N5065 Y-0.3454
N5070 Y-0.3455
N5075 Y-0.3457
N5080 Y-0.3458
N5085 Y-0.346
N5090 X-0.348 Y-0.3461
N5095 Y-0.3464
N5100 Y-0.3467
N5105 Y-0.3468
N5110 X-0.3481 Y-0.347
N5115 Y-0.3471
N5120 X-0.3482 Y-0.3474
N5125 Y-0.3475
N5130 Y-0.3477
N5135 X-0.3483 Y-0.3478
N5140 Y-0.3481
N5145 X-0.3484 Y-0.3482
N5150 Y-0.3484
N5155 X-0.3485 Y-0.3486
N5160 X-0.3486 Y-0.3488
N5165 Y-0.3489
N5170 X-0.3487 Y-0.3492
N5175 Y-0.3493
N5180 X-0.3488 Y-0.3495
N5185 X-0.3489 Y-0.3496
N5190 Y-0.3497
N5195 X-0.3487 Y-0.3494
N5200 X-0.3485 Y-0.3491
N5205 X-0.3484 Y-0.349
N5210 Y-0.3489
N5215 X-0.3482 Y-0.3487
N5220 X-0.3481 Y-0.3484
N5225 X-0.3479 Y-0.3481
N5230 X-0.3478 Y-0.3478
N5235 X-0.3477 Y-0.3476
N5240 X-0.3476 Y-0.3473
N5245 X-0.3475 Y-0.3471
N5250 X-0.3474 Y-0.3469
N5255 X-0.3473 Y-0.3466
N5260 X-0.3472 Y-0.3464
N5265 X-0.3471 Y-0.3462
N5270 Y-0.346
N5275 X-0.347 Y-0.3458
N5280 Y-0.3456
N5285 X-0.3469 Y-0.3453
N5290 Y-0.345
N5295 Y-0.3448
N5300 X-0.3468 Y-0.3445
N5305 Y-0.3442
N5310 Y-0.3439
N5315 Y-0.3436
N5320 X-0.3467 Y-0.3433
N5325 Y-0.3432
N5330 Y-0.3431
N5335 X-0.3468 Y-0.3427
N5340 Y-0.3424
N5345 Y-0.342
N5350 X-0.3469 Y-0.3417
N5355 Y-0.3414
N5360 Y-0.3411
N5365 X-0.347 Y-0.3408
N5370 Y-0.3405
N5375 X-0.3471 Y-0.3403
N5380 X-0.3472 Y-0.34
N5385 Y-0.3398
N5390 X-0.3473 Y-0.3396
N5395 X-0.3474 Y-0.3393
N5400 X-0.3475 Y-0.3391
N5405 X-0.3476 Y-0.3388
N5410 X-0.3477 Y-0.3386
N5415 X-0.3478 Y-0.3383
N5420 X-0.348 Y-0.338
N5425 X-0.3481 Y-0.3377
N5430 X-0.3483 Y-0.3374
N5435 X-0.3485 Y-0.3371
N5440 X-0.3486 Y-0.3368
N5445 X-0.3487 Y-0.3366
N5450 X-0.3488 Y-0.3365
N5455 X-0.349 Y-0.3362
N5460 X-0.3492 Y-0.3359
N5465 X-0.3495 Y-0.3356
N5470 X-0.3497 Y-0.3354
N5475 X-0.3499 Y-0.3351
N5480 X-0.3501 Y-0.3349
N5485 X-0.3503 Y-0.3346
N5490 X-0.3505 Y-0.3344
N5495 X-0.3506 Y-0.3342
N5500 X-0.3508 Y-0.3341
N5505 X-0.351 Y-0.3339
N5510 X-0.3512 Y-0.3337
N5515 X-0.3514 Y-0.3336
N5520 X-0.3516 Y-0.3334
N5525 X-0.3519 Y-0.3333
N5530 X-0.3521 Y-0.3331
N5535 X-0.3524 Y-0.3329
N5540 X-0.3527 Y-0.3328
N5545 X-0.353 Y-0.3326
N5550 X-0.3533 Y-0.3324
N5555 X-0.3536 Y-0.3323
N5560 X-0.3539 Y-0.3321
N5565 X-0.354 Y-0.332
N5570 X-0.3542
N5575 X-0.3547 Y-0.3318
N5580 X-0.3552 Y-0.3317
N5585 X-0.3556 Y-0.3315
N5590 X-0.3561 Y-0.3314
N5595 X-0.3565 Y-0.3312
N5600 X-0.3569 Y-0.3311
N5605 X-0.3573 Y-0.331
N5610 X-0.3578 Y-0.3309
N5615 X-0.3582 Y-0.3308
N5620 X-0.3586 Y-0.3307
N5625 X-0.359
N5630 X-0.3594 Y-0.3306
N5635 X-0.3598
N5640 X-0.3602 Y-0.3305
N5645 X-0.3607
N5650 X-0.3611 Y-0.3304
N5655 X-0.3616
N5660 X-0.3621
N5665 X-0.3625
N5670 X-0.363
N5675 X-0.3635
N5680 X-0.364 Y-0.3303
N5685 X-0.3645
N5690 X-0.385
N5695 X-0.3886 Y-0.3267 Z0.
N5700 X-0.385 Y-0.3303 Z-0.01
N5705 Y-0.3875
N5710 G0 Z0.1
N5715 X-0.3886 Y-0.0911
N5720 Z0.05
N5725 G1 Z0. F5.
N5730 X-0.385 Y-0.0875 Z-0.01 F7.5
N5735 X-0.384
N5740 X-0.3804 Y-0.0911 Z0.
N5745 X-0.384 Y-0.0875 Z-0.01
N5750 Y-0.0363
N5755 G2 X-0.3769 Y-0.0351 I0.0036 J0.
N5760 G1 X-0.3681 Y-0.0611
N5765 X-0.3784 Y-0.0303
N5770 X-0.385
N5775 Y-0.0875
N5780 Y-0.0303
N5785 X-0.3886 Y-0.0267 Z0.
N5790 X-0.385 Y-0.0303 Z-0.01
N5795 X-0.3784
N5800 X-0.3758 Y-0.0267 Z0.
N5805 X-0.3784 Y-0.0303 Z-0.01
N5810 X-0.3681 Y-0.0611
N5815 X-0.3615 Y-0.0809 Z-0.0098
N5820 X-0.3608 Y-0.083 Z-0.0097
N5825 X-0.3603 Y-0.0841 Z-0.01
N5830 G3 X-0.3558 Y-0.0851 I0.0028 J0.0023
N5835 G1 X-0.3566 Y-0.0875
N5840 X-0.3541 Y-0.0911 Z0.
N5845 X-0.3566 Y-0.0875 Z-0.01
N5850 X-0.3591
N5855 X-0.3617 Y-0.0911 Z0.
N5860 X-0.3591 Y-0.0875 Z-0.01
N5865 X-0.3603 Y-0.0841
N5870 X-0.3591 Y-0.0875
N5875 X-0.3566
N5880 X-0.3558 Y-0.0851
N5885 X-0.355 Y-0.084 Z-0.0089
N5890 X-0.3545 Y-0.0829 Z-0.0086
N5895 X-0.3538 Y-0.0807
N5900 X-0.3384 Y-0.0361 Z-0.0089
N5905 X-0.3379 Y-0.0351 Z-0.0092
N5910 X-0.3373 Y-0.0341 Z-0.01
N5915 X-0.336 Y-0.0303
N5920 X-0.3386 Y-0.0267 Z0.
N5925 X-0.336 Y-0.0303 Z-0.01
N5930 X-0.3308
N5935 X-0.3271 Y-0.0267 Z0.
N5940 X-0.3308 Y-0.0303 Z-0.01
N5945 Y-0.0875
N5950 X-0.3271 Y-0.0911 Z0.
N5955 X-0.3308 Y-0.0875 Z-0.01
N5960 X-0.3317
N5965 X-0.3353 Y-0.0911 Z0.
N5970 X-0.3317 Y-0.0875 Z-0.01
N5975 Y-0.0372
N5980 G3 X-0.3373 Y-0.0341 I-0.0036 J0.
N5985 G0 Z0.1
N5990 X-0.3886 Y-0.1704
N5995 Z0.05
N6000 G1 Z0. F5.
N6005 X-0.3846 Y-0.1737 Z-0.01 F7.5
N6010 X-0.3835 Y-0.1736
N6015 X-0.3812 Y-0.1705 Z-0.0021
N6020 X-0.3806 Y-0.1697 Z0.
N6025 X-0.3812 Y-0.1705 Z-0.0021
N6030 X-0.3835 Y-0.1736 Z-0.01
N6035 Y-0.1737
N6040 X-0.3834 Y-0.174
N6045 Y-0.1741
N6050 X-0.3833 Y-0.1745
N6055 X-0.3832 Y-0.1749
N6060 Y-0.175
N6065 X-0.383 Y-0.1753
N6070 Y-0.1754
N6075 X-0.3829 Y-0.1757
N6080 X-0.3828 Y-0.1758
N6085 X-0.3827 Y-0.1761
N6090 Y-0.1762
N6095 X-0.3825 Y-0.1765
N6100 Y-0.1766
N6105 X-0.3824 Y-0.1769
N6110 X-0.3823 Y-0.177
N6115 X-0.3822 Y-0.1773
N6120 Y-0.1774
N6125 X-0.382 Y-0.1777
N6130 X-0.3818 Y-0.178
N6135 Y-0.1781
N6140 X-0.3817 Y-0.1784
N6145 X-0.3816
N6150 X-0.3815 Y-0.1787
N6155 X-0.3813 Y-0.179
N6160 Y-0.1791
N6165 X-0.3811 Y-0.1794
N6170 G3 X-0.3807 Y-0.18 I0.0032 J0.0017
N6175 G1 X-0.3805 Y-0.1802
N6180 Y-0.1803
N6185 X-0.3802 Y-0.1805
N6190 X-0.38 Y-0.1808
N6195 X-0.3797 Y-0.1811
N6200 X-0.3795 Y-0.1814
N6205 X-0.3794
N6210 X-0.3792 Y-0.1817
N6215 X-0.3789 Y-0.182
N6220 X-0.3786 Y-0.1823
N6225 X-0.3783 Y-0.1826
N6230 X-0.3782
N6235 X-0.378 Y-0.1829
N6240 X-0.3779
N6245 X-0.3776 Y-0.1832
N6250 X-0.3775
N6255 X-0.3773 Y-0.1834
N6260 X-0.3772 Y-0.1835
N6265 X-0.3769 Y-0.1837
N6270 X-0.3768 Y-0.1838
N6275 X-0.3765 Y-0.184
N6280 X-0.3764
N6285 X-0.3762 Y-0.1842
N6290 X-0.3761 Y-0.1843
N6295 X-0.3758 Y-0.1844
N6300 X-0.3757 Y-0.1845
N6305 X-0.3754 Y-0.1847
N6310 X-0.3751 Y-0.1849
N6315 X-0.375
N6320 X-0.3747 Y-0.1851
N6325 X-0.3744 Y-0.1852
N6330 X-0.3743 Y-0.1853
N6335 X-0.374 Y-0.1854
N6340 X-0.3737 Y-0.1856
N6345 X-0.3733 Y-0.1857
N6350 Y-0.1858
N6355 X-0.373 Y-0.1859
N6360 G3 X-0.3726 Y-0.1861 I0.0016 J0.0033
N6365 G1 X-0.3722 Y-0.1862
N6370 X-0.3718 Y-0.1864
N6375 X-0.3714 Y-0.1865
N6380 X-0.371 Y-0.1866
N6385 Y-0.1867
N6390 X-0.3706 Y-0.1868
N6395 X-0.3705
N6400 X-0.3701 Y-0.1869
N6405 X-0.3697 Y-0.1871
N6410 X-0.3696
N6415 X-0.3692 Y-0.1872
N6420 X-0.3688 Y-0.1873
N6425 X-0.3687
N6430 X-0.3683 Y-0.1874
N6435 X-0.3682 Y-0.1875
N6440 X-0.3678 Y-0.1876
N6445 X-0.3677
N6450 X-0.3673 Y-0.1877
N6455 X-0.3672
N6460 X-0.3668
N6465 X-0.3667 Y-0.1878
N6470 X-0.3663
N6475 X-0.3662
N6480 X-0.3658 Y-0.1879
N6485 X-0.3657
N6490 X-0.3653
N6495 X-0.3648 Y-0.188
N6500 X-0.3644
N6505 X-0.3643
N6510 X-0.3639 Y-0.1881
N6515 X-0.3634
N6520 X-0.363
N6525 X-0.3625
N6530 X-0.3621
N6535 X-0.3617 Y-0.1882
N6540 X-0.3614
N6545 X-0.361
N6550 X-0.3607 Y-0.1881
N6555 X-0.3603
N6560 X-0.3599
N6565 X-0.3595
N6570 X-0.3591
N6575 X-0.3587 Y-0.188
N6580 X-0.3583
N6585 X-0.3579
N6590 X-0.3578
N6595 X-0.3575 Y-0.1879
N6600 X-0.3574
N6605 X-0.357
N6610 X-0.3566 Y-0.1878
N6615 X-0.3565
N6620 X-0.3562 Y-0.1877
N6625 X-0.3561
N6630 X-0.3557 Y-0.1876
N6635 X-0.3553 Y-0.1875
N6640 X-0.3552
N6645 X-0.3549 Y-0.1874
N6650 X-0.3548
N6655 X-0.3545 Y-0.1873
N6660 X-0.3544
N6665 X-0.3541 Y-0.1872
N6670 X-0.354
N6675 X-0.3537 Y-0.1871
N6680 X-0.3536
N6685 X-0.3533 Y-0.187
N6690 X-0.3529 Y-0.1869
N6695 X-0.3525 Y-0.1868
N6700 X-0.3522 Y-0.1867
N6705 X-0.3518 Y-0.1865
N6710 X-0.3515 Y-0.1864
N6715 X-0.3512 Y-0.1863
N6720 X-0.3509 Y-0.1862
N6725 X-0.3506 Y-0.1861
N6730 Y-0.186
N6735 X-0.3504 Y-0.1859
N6740 X-0.3503
N6745 X-0.3501 Y-0.1858
N6750 X-0.35
N6755 X-0.3497 Y-0.1856
N6760 X-0.3494 Y-0.1855
N6765 Y-0.1854
N6770 X-0.3491 Y-0.1853
N6775 X-0.3488 Y-0.1851
N6780 X-0.3487
N6785 X-0.3485 Y-0.1849
N6790 X-0.3484
N6795 X-0.3481 Y-0.1847
N6800 X-0.3478 Y-0.1845
N6805 X-0.3477 Y-0.1844
N6810 X-0.3475 Y-0.1843
N6815 X-0.3474 Y-0.1842
N6820 X-0.3472 Y-0.184
N6825 X-0.3471
N6830 X-0.3469 Y-0.1838
N6835 X-0.3468 Y-0.1837
N6840 X-0.3466 Y-0.1835
N6845 X-0.3465 Y-0.1834
N6850 X-0.3463 Y-0.1832
N6855 X-0.3462
N6860 X-0.346 Y-0.183
N6865 Y-0.1829
N6870 X-0.3458 Y-0.1827
N6875 X-0.3457
N6880 X-0.3455 Y-0.1825
N6885 X-0.3453 Y-0.1822
N6890 X-0.3451 Y-0.182
N6895 X-0.3449 Y-0.1818
N6900 X-0.3447 Y-0.1815
N6905 G3 X-0.3443 Y-0.181 I-0.0027 J0.0024
N6910 G1 X-0.3442 Y-0.1808
N6915 X-0.344 Y-0.1806
N6920 X-0.3439 Y-0.1804
N6925 X-0.3437 Y-0.1801
N6930 X-0.3436 Y-0.1799
N6935 Y-0.1798
N6940 X-0.3434 Y-0.1796
N6945 X-0.3433 Y-0.1793
N6950 X-0.3432
N6955 X-0.3431 Y-0.179
N6960 X-0.343 Y-0.1787
N6965 X-0.3429 Y-0.1786
N6970 X-0.3428 Y-0.1784
N6975 Y-0.1783
N6980 X-0.3427 Y-0.1781
N6985 Y-0.178
N6990 X-0.3426 Y-0.1777
N6995 X-0.3425 Y-0.1776
N7000 Y-0.1774
N7005 X-0.3424 Y-0.1772
N7010 Y-0.177
N7015 X-0.3423 Y-0.1769
N7020 Y-0.1766
N7025 X-0.3422 Y-0.1765
N7030 Y-0.1763
N7035 Y-0.1762
N7040 X-0.3421 Y-0.1759
N7045 Y-0.1756
N7050 X-0.342 Y-0.1753
N7055 Y-0.1752
N7060 Y-0.175
N7065 Y-0.1747
N7070 Y-0.1744
N7075 X-0.3419
N7080 Y-0.1741
N7085 Y-0.1739
N7090 G3 Y-0.1733 I-0.0036 J0.0003
N7095 G1 Y-0.1731
N7100 Y-0.1728
N7105 X-0.342 Y-0.1726
N7110 Y-0.1725
N7115 Y-0.1723
N7120 Y-0.172
N7125 Y-0.1717
N7130 X-0.3421 Y-0.1716
N7135 Y-0.1714
N7140 Y-0.1713
N7145 Y-0.1711
N7150 X-0.3422 Y-0.171
N7155 Y-0.1708
N7160 Y-0.1707
N7165 X-0.3423 Y-0.1704
N7170 Y-0.1703
N7175 X-0.3424 Y-0.1701
N7180 Y-0.1699
N7185 X-0.3425 Y-0.1697
N7190 Y-0.1696
N7195 X-0.3426 Y-0.1694
N7200 X-0.3427 Y-0.1692
N7205 Y-0.169
N7210 X-0.3428 Y-0.1689
N7215 X-0.3429 Y-0.1687
N7220 Y-0.1686
N7225 X-0.343 Y-0.1684
N7230 X-0.3431 Y-0.1683
N7235 X-0.3432 Y-0.1681
N7240 Y-0.168
N7245 X-0.3433 Y-0.1678
N7250 X-0.3434 Y-0.1677
N7255 X-0.3435 Y-0.1675
N7260 Y-0.1674
N7265 X-0.3437 Y-0.1672
N7270 X-0.3438 Y-0.167
N7275 X-0.344 Y-0.1668
N7280 Y-0.1667
N7285 X-0.3441 Y-0.1665
N7290 X-0.3442 Y-0.1663
N7295 G3 X-0.3447 Y-0.1658 I-0.0031 J-0.002
N7300 G1 X-0.3449 Y-0.1655
N7305 X-0.3451 Y-0.1653
N7310 X-0.3453 Y-0.1651
N7315 X-0.3454
N7320 X-0.3456 Y-0.1649
N7325 Y-0.1648
N7330 X-0.3458 Y-0.1646
N7335 X-0.3459
N7340 X-0.3461 Y-0.1644
N7345 X-0.3463 Y-0.1642
N7350 X-0.3464 Y-0.1641
N7355 X-0.3466 Y-0.1639
N7360 X-0.3467
N7365 X-0.3469 Y-0.1637
N7370 X-0.347 Y-0.1636
N7375 X-0.3472 Y-0.1634
N7380 X-0.3473
N7385 X-0.3476 Y-0.1632
N7390 X-0.3477 Y-0.1631
N7395 X-0.3479 Y-0.163
N7400 X-0.348 Y-0.1629
N7405 X-0.3483 Y-0.1628
N7410 Y-0.1627
N7415 X-0.3486 Y-0.1626
N7420 X-0.3487 Y-0.1625
N7425 X-0.3489 Y-0.1624
N7430 X-0.349 Y-0.1623
N7435 X-0.3493 Y-0.1622
N7440 X-0.3496 Y-0.162
N7445 X-0.3499 Y-0.1619
N7450 X-0.35
N7455 X-0.3502 Y-0.1617
N7460 X-0.3503
N7465 X-0.3505 Y-0.1616
N7470 X-0.3506
N7475 X-0.3508 Y-0.1615
N7480 X-0.3509
N7485 X-0.3511 Y-0.1614
N7490 X-0.3512 Y-0.1613
N7495 X-0.3514 Y-0.1612
N7500 X-0.3517 Y-0.1611
N7505 X-0.352 Y-0.161
N7510 X-0.3525 Y-0.1609
N7515 X-0.3529 Y-0.1607
N7520 X-0.3534 Y-0.1606
N7525 X-0.3539 Y-0.1604
N7530 X-0.3544 Y-0.1603
N7535 X-0.3549 Y-0.1601
N7540 X-0.3554 Y-0.16
N7545 X-0.3558 Y-0.1598
N7550 X-0.3559
N7555 X-0.3563 Y-0.1597
N7560 X-0.3564
N7565 X-0.3568 Y-0.1595
N7570 X-0.3569
N7575 X-0.3573 Y-0.1594
N7580 X-0.3574
N7585 X-0.3578 Y-0.1593
N7590 X-0.3579
N7595 X-0.3583 Y-0.1591
N7600 X-0.3584
N7605 X-0.3588 Y-0.159
N7610 X-0.3593 Y-0.1589
N7615 X-0.3598 Y-0.1588
N7620 X-0.3603 Y-0.1586
N7625 X-0.3608 Y-0.1585
N7630 X-0.3613 Y-0.1584
N7635 X-0.3618 Y-0.1583
N7640 X-0.3623 Y-0.1582
N7645 X-0.3628 Y-0.158
N7650 X-0.3637 Y-0.1578
N7655 X-0.3642 Y-0.1577
N7660 X-0.3648 Y-0.1576
N7665 X-0.3653 Y-0.1574
N7670 X-0.3658 Y-0.1573
N7675 X-0.3663 Y-0.1572
N7680 X-0.3668 Y-0.1571
N7685 X-0.3673 Y-0.1569
N7690 X-0.3678 Y-0.1568
N7695 X-0.3683 Y-0.1566
N7700 X-0.3688 Y-0.1565
N7705 X-0.3693 Y-0.1564
N7710 X-0.3698 Y-0.1562
N7715 X-0.3703 Y-0.1561
N7720 X-0.3707 Y-0.1559
N7725 X-0.3712 Y-0.1557
N7730 X-0.3717 Y-0.1556
N7735 X-0.3722 Y-0.1554
N7740 X-0.3726 Y-0.1552
N7745 X-0.3731 Y-0.155
N7750 X-0.3736 Y-0.1548
N7755 X-0.3741 Y-0.1546
N7760 X-0.3746 Y-0.1544
N7765 X-0.3751 Y-0.1542
N7770 X-0.3754 Y-0.1541
N7775 X-0.3755 Y-0.154
N7780 X-0.3758 Y-0.1538
N7785 X-0.3761 Y-0.1536
N7790 X-0.3765 Y-0.1534
N7795 X-0.3767 Y-0.1532
N7800 X-0.377 Y-0.1531
N7805 X-0.3773 Y-0.1529
N7810 X-0.3776 Y-0.1527
N7815 X-0.3778 Y-0.1525
N7820 X-0.378 Y-0.1524
N7825 X-0.3783 Y-0.1522
N7830 X-0.3785 Y-0.152
N7835 X-0.3787 Y-0.1518
N7840 X-0.3789 Y-0.1517
N7845 X-0.3791 Y-0.1515
N7850 X-0.3793 Y-0.1512
N7855 X-0.3795 Y-0.151
N7860 X-0.3797 Y-0.1508
N7865 X-0.3799 Y-0.1505
N7870 X-0.3801 Y-0.1503
N7875 X-0.3803 Y-0.15
N7880 X-0.3806 Y-0.1497
N7885 X-0.3808 Y-0.1494
N7890 Y-0.1493
N7895 X-0.381 Y-0.149
N7900 X-0.3811 Y-0.1488
N7905 X-0.3813 Y-0.1485
N7910 X-0.3814 Y-0.1482
N7915 X-0.3815 Y-0.1479
N7920 X-0.3817 Y-0.1477
N7925 X-0.3818 Y-0.1474
N7930 X-0.3819 Y-0.1472
N7935 Y-0.147
N7940 X-0.382 Y-0.1467
N7945 X-0.3821 Y-0.1465
N7950 Y-0.1463
N7955 X-0.3822 Y-0.1461
N7960 Y-0.1458
N7965 X-0.3823 Y-0.1456
N7970 Y-0.1453
N7975 X-0.3824 Y-0.145
N7980 Y-0.1447
N7985 Y-0.1444
N7990 Y-0.1441
N7995 X-0.3825 Y-0.1438
N8000 Y-0.1434
N8005 Y-0.1433
N8010 Y-0.1432
N8015 X-0.3824 Y-0.1428
N8020 Y-0.1424
N8025 Y-0.142
N8030 X-0.3823 Y-0.1417
N8035 Y-0.1414
N8040 Y-0.141
N8045 X-0.3822 Y-0.1407
N8050 Y-0.1404
N8055 X-0.3821 Y-0.1401
N8060 X-0.382 Y-0.1399
N8065 Y-0.1396
N8070 X-0.3819 Y-0.1394
N8075 X-0.3818 Y-0.1391
N8080 X-0.3817 Y-0.1388
N8085 X-0.3815 Y-0.1385
N8090 X-0.3814 Y-0.1383
N8095 X-0.3813 Y-0.138
N8100 X-0.3811 Y-0.1377
N8105 X-0.3809 Y-0.1373
N8110 X-0.3808 Y-0.137
N8115 X-0.3806 Y-0.1367
N8120 X-0.3804 Y-0.1363
N8125 X-0.3803 Y-0.1362
N8130 X-0.3802 Y-0.1361
N8135 X-0.38 Y-0.1358
N8140 X-0.3797 Y-0.1355
N8145 X-0.3795 Y-0.1351
N8150 X-0.3792 Y-0.1349
N8155 X-0.379 Y-0.1346
N8160 X-0.3787 Y-0.1343
N8165 X-0.3785 Y-0.1341
N8170 X-0.3783 Y-0.1338
N8175 X-0.378 Y-0.1336
N8180 X-0.3778 Y-0.1334
N8185 X-0.3776 Y-0.1332
N8190 X-0.3773 Y-0.133
N8195 X-0.3771 Y-0.1328
N8200 X-0.3768 Y-0.1327
N8205 X-0.3765 Y-0.1325
N8210 X-0.3762 Y-0.1323
N8215 X-0.3759 Y-0.1321
N8220 X-0.3756 Y-0.1319
N8225 X-0.3752 Y-0.1318
N8230 X-0.3749 Y-0.1316
N8235 X-0.3745 Y-0.1314
N8240 X-0.3741 Y-0.1312
N8245 X-0.3739 Y-0.1311
N8250 X-0.3736 Y-0.131
N8255 X-0.3732 Y-0.1309
N8260 X-0.3727 Y-0.1307
N8265 X-0.3722 Y-0.1306
N8270 X-0.3718 Y-0.1304
N8275 X-0.3713 Y-0.1303
N8280 X-0.3709 Y-0.1301
N8285 X-0.3705 Y-0.13
N8290 X-0.3701 Y-0.1299
N8295 X-0.3696 Y-0.1298
N8300 X-0.3692 Y-0.1297
N8305 X-0.3688 Y-0.1296
N8310 X-0.3684
N8315 X-0.368 Y-0.1295
N8320 X-0.3676
N8325 X-0.3671 Y-0.1294
N8330 X-0.3667
N8335 X-0.3662 Y-0.1293
N8340 X-0.3658
N8345 X-0.3653
N8350 X-0.3648 Y-0.1292
N8355 X-0.3643
N8360 X-0.3638
N8365 X-0.3635
N8370 X-0.3631
N8375 X-0.3625
N8380 X-0.362
N8385 X-0.3615 Y-0.1293
N8390 X-0.361
N8395 X-0.3605
N8400 X-0.36 Y-0.1294
N8405 X-0.3595
N8410 X-0.359 Y-0.1295
N8415 X-0.3586
N8420 X-0.3581 Y-0.1296
N8425 X-0.3577 Y-0.1297
N8430 X-0.3572
N8435 X-0.3568 Y-0.1298
N8440 X-0.3564 Y-0.1299
N8445 X-0.3559 Y-0.1301
N8450 X-0.3554 Y-0.1302
N8455 X-0.355 Y-0.1303
N8460 X-0.3545 Y-0.1305
N8465 X-0.354 Y-0.1306
N8470 X-0.3535 Y-0.1308
N8475 X-0.3531 Y-0.131
N8480 X-0.3526 Y-0.1311
N8485 X-0.3523 Y-0.1312
N8490 X-0.352 Y-0.1314
N8495 X-0.3516 Y-0.1316
N8500 X-0.3512 Y-0.1317
N8505 X-0.3509 Y-0.1319
N8510 X-0.3505 Y-0.1321
N8515 X-0.3502 Y-0.1323
N8520 X-0.3498 Y-0.1325
N8525 X-0.3495 Y-0.1327
N8530 X-0.3492 Y-0.1329
N8535 X-0.3489 Y-0.1331
N8540 X-0.3486 Y-0.1333
N8545 X-0.3484 Y-0.1335
N8550 X-0.3481 Y-0.1337
N8555 X-0.3479 Y-0.1339
N8560 X-0.3476 Y-0.1341
N8565 X-0.3474 Y-0.1344
N8570 X-0.3471 Y-0.1346
N8575 X-0.3469 Y-0.1349
N8580 X-0.3466 Y-0.1352
N8585 X-0.3464 Y-0.1355
N8590 X-0.3461 Y-0.1359
N8595 X-0.3458 Y-0.1362
N8600 X-0.3456 Y-0.1365
N8605 X-0.3455 Y-0.1367
N8610 X-0.3454 Y-0.1368
N8615 X-0.3452 Y-0.1372
N8620 X-0.345 Y-0.1376
N8625 X-0.3448 Y-0.1379
N8630 X-0.3446 Y-0.1383
N8635 X-0.3444 Y-0.1386
N8640 X-0.3442 Y-0.139
N8645 X-0.3441 Y-0.1393
N8650 X-0.3439 Y-0.1396
N8655 X-0.3438 Y-0.14
N8660 X-0.3437 Y-0.1403
N8665 X-0.3436 Y-0.1406
N8670 X-0.3435 Y-0.1409
N8675 X-0.3434 Y-0.1412
N8680 Y-0.1415
N8685 X-0.3416 Y-0.1428 Z-0.0059
N8690 X-0.3393 Y-0.1448 Z0.
N8695 X-0.3416 Y-0.1428 Z-0.0059
N8700 X-0.3434 Y-0.1415 Z-0.01
N8705 X-0.3445
N8710 X-0.3466 Y-0.1444 Z-0.0027
N8715 X-0.3474 Y-0.1454 Z0.
N8720 X-0.3466 Y-0.1444 Z-0.0027
N8725 X-0.3445 Y-0.1415 Z-0.01
N8730 Y-0.1414
N8735 X-0.3446 Y-0.141
N8740 X-0.3447 Y-0.1409
N8745 X-0.3448 Y-0.1405
N8750 Y-0.1403
N8755 X-0.345 Y-0.1399
N8760 Y-0.1398
N8765 X-0.3452 Y-0.1394
N8770 Y-0.1392
N8775 X-0.3454 Y-0.1389
N8780 X-0.3455 Y-0.1387
N8785 X-0.3457 Y-0.1383
N8790 X-0.3458 Y-0.1382
N8795 X-0.346 Y-0.1378
N8800 X-0.3461 Y-0.1377
N8805 X-0.3463 Y-0.1373
N8810 X-0.3464 Y-0.1372
N8815 X-0.3466 Y-0.1368
N8820 X-0.3467 Y-0.1367
N8825 X-0.3469 Y-0.1364
N8830 X-0.347 Y-0.1363
N8835 X-0.3473 Y-0.1359
N8840 Y-0.1358
N8845 X-0.3476 Y-0.1355
N8850 X-0.3477
N8855 X-0.3479 Y-0.1351
N8860 X-0.348
N8865 X-0.3483 Y-0.1347
N8870 X-0.3486 Y-0.1344
N8875 X-0.3489 Y-0.134
N8880 X-0.3493 Y-0.1337
N8885 G3 X-0.35 Y-0.1331 I-0.0027 J-0.0025
N8890 G1 X-0.3505 Y-0.1328
N8895 X-0.3509 Y-0.1325
N8900 X-0.3514 Y-0.1323
N8905 X-0.3518 Y-0.132
N8910 X-0.3519
N8915 X-0.3523 Y-0.1317
N8920 X-0.3524
N8925 X-0.3528 Y-0.1315
N8930 X-0.3529
N8935 X-0.3533 Y-0.1312
N8940 X-0.3534
N8945 X-0.3539 Y-0.131
N8950 X-0.354 Y-0.1309
N8955 X-0.3544 Y-0.1308
N8960 X-0.3546 Y-0.1307
N8965 X-0.355 Y-0.1305
N8970 X-0.3552
N8975 X-0.3556 Y-0.1303
N8980 X-0.3558
N8985 X-0.3562 Y-0.1302
N8990 X-0.3564 Y-0.1301
N8995 X-0.3568 Y-0.13
N9000 X-0.357
N9005 X-0.3574 Y-0.1299
N9010 X-0.3576
N9015 X-0.358 Y-0.1298
N9020 X-0.3581
N9025 X-0.3586 Y-0.1297
N9030 X-0.3587
N9035 X-0.3592 Y-0.1296
N9040 X-0.3593
N9045 X-0.3598
N9050 X-0.3603 Y-0.1295
N9055 X-0.3604
N9060 X-0.3609
N9065 X-0.3614
N9070 X-0.3615
N9075 X-0.362
N9080 X-0.3625 Y-0.1294
N9085 X-0.363
N9090 X-0.3632
N9095 X-0.3637
N9100 X-0.3642
N9105 X-0.3647 Y-0.1295
N9110 X-0.3652
N9115 X-0.3653
N9120 X-0.3658
N9125 X-0.3663
N9130 X-0.3664
N9135 X-0.3669 Y-0.1296
N9140 X-0.367
N9145 X-0.3674
N9150 X-0.3675
N9155 X-0.368 Y-0.1297
N9160 X-0.3681
N9165 X-0.3686 Y-0.1298
N9170 X-0.3687
N9175 X-0.3692 Y-0.1299
N9180 X-0.3693
N9185 X-0.3698 Y-0.13
N9190 X-0.3699
N9195 X-0.3704 Y-0.1302
N9200 X-0.3705
N9205 X-0.371 Y-0.1303
N9210 X-0.3711 Y-0.1304
N9215 X-0.3716 Y-0.1305
N9220 X-0.3717 Y-0.1306
N9225 X-0.3722 Y-0.1308
N9230 X-0.3723
N9235 X-0.3727 Y-0.131
N9240 X-0.3728
N9245 X-0.3733 Y-0.1312
N9250 Y-0.1313
N9255 X-0.3738 Y-0.1315
N9260 X-0.3743 Y-0.1317
N9265 Y-0.1318
N9270 X-0.3748 Y-0.132
N9275 X-0.3753 Y-0.1322
N9280 X-0.3757 Y-0.1325
N9285 X-0.3762 Y-0.1327
N9290 G3 X-0.3769 Y-0.1333 I0.0018 J-0.0032
N9295 G1 X-0.3771 Y-0.1335
N9300 X-0.3772
N9305 X-0.3774 Y-0.1337
N9310 Y-0.1338
N9315 X-0.3777 Y-0.134
N9320 X-0.3779 Y-0.1343
N9325 X-0.378
N9330 X-0.3782 Y-0.1346
N9335 X-0.3783
N9340 X-0.3785 Y-0.1349
N9345 X-0.3786
N9350 X-0.3788 Y-0.1352
N9355 X-0.3789 Y-0.1353
N9360 X-0.3791 Y-0.1355
N9365 X-0.3792 Y-0.1356
N9370 X-0.3794 Y-0.1359
N9375 Y-0.136
N9380 X-0.3796 Y-0.1363
N9385 X-0.3797 Y-0.1364
N9390 X-0.3799 Y-0.1367
N9395 X-0.38 Y-0.1369
N9400 X-0.3802 Y-0.1371
N9405 X-0.3803 Y-0.1373
N9410 X-0.3804 Y-0.1376
N9415 X-0.3805 Y-0.1378
N9420 X-0.3806 Y-0.1381
N9425 X-0.3807 Y-0.1383
N9430 X-0.3808 Y-0.1386
N9435 Y-0.1387
N9440 X-0.3809 Y-0.139
N9445 X-0.381 Y-0.1392
N9450 X-0.3811 Y-0.1395
N9455 Y-0.1396
N9460 X-0.3812 Y-0.1399
N9465 Y-0.14
N9470 Y-0.1404
N9475 X-0.3813
N9480 Y-0.1408
N9485 X-0.3814 Y-0.1412
N9490 Y-0.1415
N9495 Y-0.1416
N9500 X-0.3815 Y-0.1419
N9505 Y-0.1423
N9510 G3 Y-0.1431 I0.0036 J-0.0005
N9515 G1 Y-0.1433
N9520 Y-0.1434
N9525 Y-0.1436
N9530 Y-0.1437
N9535 Y-0.1439
N9540 Y-0.144
N9545 X-0.3814 Y-0.1442
N9550 Y-0.1443
N9555 Y-0.1446
N9560 Y-0.1447
N9565 X-0.3813 Y-0.1449
N9570 Y-0.145
N9575 Y-0.1453
N9580 X-0.3812 Y-0.1454
N9585 Y-0.1456
N9590 Y-0.1458
N9595 X-0.3811 Y-0.146
N9600 Y-0.1462
N9605 X-0.381 Y-0.1464
N9610 X-0.3809 Y-0.1466
N9615 X-0.3808 Y-0.1468
N9620 Y-0.147
N9625 X-0.3807 Y-0.1472
N9630 X-0.3806 Y-0.1474
N9635 X-0.3805 Y-0.1477
N9640 X-0.3804 Y-0.1478
N9645 X-0.3803 Y-0.148
N9650 X-0.3802 Y-0.1482
N9655 X-0.3801 Y-0.1484
N9660 X-0.38 Y-0.1486
N9665 X-0.3798 Y-0.1488
N9670 Y-0.1489
N9675 X-0.3796 Y-0.1491
N9680 Y-0.1492
N9685 X-0.3794 Y-0.1494
N9690 X-0.3793 Y-0.1495
N9695 X-0.3792 Y-0.1497
N9700 X-0.3791 Y-0.1498
N9705 X-0.3789 Y-0.15
N9710 X-0.3787 Y-0.1502
N9715 Y-0.1503
N9720 X-0.3785 Y-0.1505
N9725 X-0.3783 Y-0.1507
N9730 X-0.3781 Y-0.1509
N9735 G3 X-0.3772 Y-0.1516 I0.0027 J0.0024
N9740 G1 X-0.3767 Y-0.1519
N9745 X-0.3762 Y-0.1522
N9750 X-0.3757 Y-0.1525
N9755 X-0.3756
N9760 X-0.3751 Y-0.1528
N9765 X-0.3746 Y-0.153
N9770 X-0.3745 Y-0.1531
N9775 X-0.374 Y-0.1533
N9780 X-0.3735 Y-0.1536
N9785 X-0.3734
N9790 X-0.3729 Y-0.1539
N9795 X-0.3728
N9800 X-0.3723 Y-0.1541
N9805 X-0.3722 Y-0.1542
N9810 X-0.3717 Y-0.1544
N9815 X-0.3716
N9820 X-0.3711 Y-0.1546
N9825 X-0.371
N9830 X-0.3704 Y-0.1548
N9835 X-0.3698 Y-0.155
N9840 X-0.3692 Y-0.1552
N9845 X-0.3686 Y-0.1554
N9850 X-0.368 Y-0.1555
N9855 Y-0.1556
N9860 X-0.3674 Y-0.1557
N9865 X-0.3668 Y-0.1558
N9870 Y-0.1559
N9875 X-0.3662 Y-0.156
N9880 X-0.3656 Y-0.1561
N9885 X-0.3651 Y-0.1563
N9890 X-0.365
N9895 X-0.3645 Y-0.1564
N9900 X-0.3639 Y-0.1565
N9905 X-0.3634 Y-0.1566
N9910 X-0.3628 Y-0.1567
N9915 X-0.3622 Y-0.1569
N9920 X-0.3616 Y-0.157
N9925 X-0.361 Y-0.1572
N9930 X-0.3604 Y-0.1573
N9935 X-0.3598 Y-0.1574
N9940 X-0.3592 Y-0.1576
N9945 X-0.3586 Y-0.1577
N9950 X-0.358 Y-0.1578
N9955 X-0.3575 Y-0.158
N9960 X-0.3569 Y-0.1581
N9965 X-0.3563 Y-0.1583
N9970 X-0.3558 Y-0.1585
N9975 X-0.3552 Y-0.1586
N9980 X-0.3547 Y-0.1588
N9985 X-0.3541 Y-0.159
N9990 X-0.3535 Y-0.1592
N9995 X-0.353 Y-0.1593
N10000 X-0.3524 Y-0.1595
N10005 X-0.3518 Y-0.1597
N10010 X-0.3513 Y-0.1599
N10015 X-0.3507 Y-0.1601
N10020 X-0.3501 Y-0.1604
N10025 X-0.3498 Y-0.1605
N10030 X-0.3496 Y-0.1606
N10035 X-0.3492 Y-0.1608
N10040 X-0.3488 Y-0.161
N10045 X-0.3484 Y-0.1612
N10050 X-0.3481 Y-0.1614
N10055 X-0.3477 Y-0.1616
N10060 X-0.3474 Y-0.1618
N10065 X-0.3471 Y-0.162
N10070 X-0.3468 Y-0.1622
N10075 X-0.3465 Y-0.1623
N10080 X-0.3462 Y-0.1625
N10085 X-0.3459 Y-0.1627
N10090 X-0.3457 Y-0.1629
N10095 X-0.3454 Y-0.1632
N10100 X-0.3452 Y-0.1634
N10105 X-0.3449 Y-0.1636
N10110 X-0.3447 Y-0.1639
N10115 X-0.3444 Y-0.1642
N10120 X-0.3442 Y-0.1644
N10125 X-0.3439 Y-0.1647
N10130 X-0.3436 Y-0.1651
N10135 X-0.3434 Y-0.1654
N10140 X-0.3431 Y-0.1657
N10145 X-0.343 Y-0.1658
N10150 Y-0.1659
N10155 X-0.3428 Y-0.1662
N10160 X-0.3426 Y-0.1665
N10165 X-0.3424 Y-0.1669
N10170 X-0.3423 Y-0.1672
N10175 X-0.3421 Y-0.1675
N10180 X-0.342 Y-0.1678
N10185 X-0.3418 Y-0.1681
N10190 X-0.3417 Y-0.1683
N10195 X-0.3416 Y-0.1686
N10200 X-0.3415 Y-0.1689
N10205 Y-0.1691
N10210 X-0.3414 Y-0.1694
N10215 X-0.3413 Y-0.1696
N10220 Y-0.1699
N10225 X-0.3412 Y-0.1702
N10230 Y-0.1705
N10235 X-0.3411 Y-0.1709
N10240 Y-0.1712
N10245 Y-0.1716
N10250 X-0.341 Y-0.1719
N10255 Y-0.1723
N10260 Y-0.1727
N10265 Y-0.1729
N10270 Y-0.173
N10275 Y-0.1734
N10280 Y-0.1738
N10285 X-0.3411 Y-0.1742
N10290 Y-0.1746
N10295 X-0.3412 Y-0.175
N10300 Y-0.1753
N10305 X-0.3413 Y-0.1757
N10310 Y-0.176
N10315 X-0.3414 Y-0.1763
N10320 X-0.3415 Y-0.1766
N10325 X-0.3416 Y-0.1769
N10330 Y-0.1772
N10335 X-0.3418 Y-0.1775
N10340 X-0.3419 Y-0.1778
N10345 X-0.342 Y-0.1781
N10350 X-0.3421 Y-0.1784
N10355 X-0.3423 Y-0.1787
N10360 X-0.3425 Y-0.179
N10365 X-0.3426 Y-0.1794
N10370 X-0.3428 Y-0.1797
N10375 X-0.343 Y-0.1801
N10380 X-0.3432 Y-0.1804
N10385 X-0.3433 Y-0.1806
N10390 X-0.3434 Y-0.1807
N10395 X-0.3437 Y-0.1811
N10400 X-0.344 Y-0.1814
N10405 X-0.3442 Y-0.1818
N10410 X-0.3445 Y-0.1821
N10415 X-0.3448 Y-0.1824
N10420 X-0.345 Y-0.1827
N10425 X-0.3453 Y-0.183
N10430 X-0.3455 Y-0.1832
N10435 X-0.3458 Y-0.1835
N10440 X-0.3461 Y-0.1837
N10445 X-0.3463 Y-0.1839
N10450 X-0.3466 Y-0.1841
N10455 X-0.3469 Y-0.1844
N10460 X-0.3472 Y-0.1846
N10465 X-0.3475 Y-0.1848
N10470 X-0.3478 Y-0.185
N10475 X-0.3481 Y-0.1852
N10480 X-0.3485 Y-0.1854
N10485 X-0.3489 Y-0.1856
N10490 X-0.3492 Y-0.1858
N10495 X-0.3496 Y-0.186
N10500 X-0.35 Y-0.1862
N10505 X-0.3502 Y-0.1863
N10510 X-0.3505 Y-0.1865
N10515 X-0.351 Y-0.1866
N10520 X-0.3515 Y-0.1868
N10525 X-0.352 Y-0.187
N10530 X-0.3524 Y-0.1871
N10535 X-0.3529 Y-0.1873
N10540 X-0.3533 Y-0.1875
N10545 X-0.3538 Y-0.1876
N10550 X-0.3542 Y-0.1877
N10555 X-0.3547 Y-0.1878
N10560 X-0.3551 Y-0.1879
N10565 X-0.3555 Y-0.188
N10570 X-0.3559 Y-0.1881
N10575 X-0.3564 Y-0.1882
N10580 X-0.3568
N10585 X-0.3573 Y-0.1883
N10590 X-0.3578
N10595 X-0.3582 Y-0.1884
N10600 X-0.3587
N10605 X-0.3592
N10610 X-0.3597 Y-0.1885
N10615 X-0.3602
N10620 X-0.3608
N10625 X-0.3612
N10630 X-0.3617
N10635 X-0.3623
N10640 X-0.3629
N10645 X-0.3635
N10650 X-0.3641 Y-0.1884
N10655 X-0.3647
N10660 X-0.3653
N10665 X-0.3658 Y-0.1883
N10670 X-0.3664
N10675 X-0.3669 Y-0.1882
N10680 X-0.3675 Y-0.1881
N10685 X-0.368 Y-0.188
N10690 X-0.3685
N10695 X-0.3691 Y-0.1878
N10700 X-0.3696 Y-0.1877
N10705 X-0.3701 Y-0.1876
N10710 X-0.3707 Y-0.1874
N10715 X-0.3712 Y-0.1873
N10720 X-0.3718 Y-0.1871
N10725 X-0.3723 Y-0.1869
N10730 X-0.3729 Y-0.1868
N10735 X-0.3735 Y-0.1866
N10740 X-0.3741 Y-0.1864
N10745 X-0.3744 Y-0.1863
N10750 X-0.3746 Y-0.1862
N10755 X-0.375 Y-0.1859
N10760 X-0.3755 Y-0.1857
N10765 X-0.3759 Y-0.1855
N10770 X-0.3763 Y-0.1853
N10775 X-0.3767 Y-0.185
N10780 X-0.3771 Y-0.1848
N10785 X-0.3774 Y-0.1846
N10790 X-0.3778 Y-0.1844
N10795 X-0.3781 Y-0.1841
N10800 X-0.3784 Y-0.1839
N10805 X-0.3787 Y-0.1837
N10810 X-0.379 Y-0.1834
N10815 X-0.3793 Y-0.1832
N10820 X-0.3796 Y-0.1829
N10825 X-0.3798 Y-0.1826
N10830 X-0.3801 Y-0.1823
N10835 X-0.3804 Y-0.182
N10840 X-0.3807 Y-0.1816
N10845 X-0.381 Y-0.1813
N10850 X-0.3813 Y-0.1809
N10855 X-0.3816 Y-0.1805
N10860 X-0.3819 Y-0.1801
N10865 X-0.382 Y-0.18
N10870 X-0.3821 Y-0.1798
N10875 X-0.3824 Y-0.1793
N10880 X-0.3826 Y-0.1789
N10885 X-0.3828 Y-0.1785
N10890 X-0.383 Y-0.1781
N10895 X-0.3833 Y-0.1777
N10900 X-0.3834 Y-0.1773
N10905 X-0.3836 Y-0.1769
N10910 X-0.3838 Y-0.1765
N10915 X-0.3839 Y-0.1761
N10920 X-0.3841 Y-0.1757
N10925 X-0.3842 Y-0.1754
N10930 X-0.3843 Y-0.175
N10935 X-0.3844 Y-0.1746
N10940 X-0.3845 Y-0.1742
N10945 Y-0.1738
N10950 X-0.3846 Y-0.1737
N10955 G0 Z0.1
N10960 X-0.3886 Y-0.4738
N10965 Z0.05
N10970 G1 Z-0.0001 F5.
N10975 X-0.3869 Y-0.4752 Z-0.0042 F7.5
N10980 X-0.3846 Y-0.4771 Z-0.01
N10985 X-0.3835 Y-0.477
N10990 X-0.3812 Y-0.4739 Z-0.0021
N10995 X-0.3806 Y-0.4731 Z0.
N11000 X-0.3812 Y-0.4739 Z-0.0021
N11005 X-0.3835 Y-0.477 Z-0.01
N11010 Y-0.4771
N11015 X-0.3834 Y-0.4774
N11020 Y-0.4775
N11025 X-0.3833 Y-0.4779
N11030 Y-0.478
N11035 X-0.3832 Y-0.4783
N11040 Y-0.4784
N11045 X-0.383 Y-0.4787
N11050 Y-0.4788
N11055 X-0.3829 Y-0.4791
N11060 Y-0.4792
N11065 X-0.3827 Y-0.4795
N11070 Y-0.4796
N11075 X-0.3826 Y-0.4799
N11080 X-0.3825 Y-0.48
N11085 X-0.3824 Y-0.4803
N11090 X-0.3823 Y-0.4804
N11095 X-0.3822 Y-0.4807
N11100 X-0.382 Y-0.4811
N11105 X-0.3818 Y-0.4814
N11110 Y-0.4815
N11115 X-0.3817 Y-0.4818
N11120 X-0.3816
N11125 X-0.3815 Y-0.4821
N11130 X-0.3813 Y-0.4824
N11135 Y-0.4825
N11140 X-0.3811 Y-0.4828
N11145 G3 X-0.3807 Y-0.4834 I0.0032 J0.0017
N11150 G1 X-0.3805 Y-0.4836
N11155 X-0.3803 Y-0.4839
N11160 X-0.3802
N11165 X-0.38 Y-0.4842
N11170 X-0.3797 Y-0.4845
N11175 X-0.3795 Y-0.4848
N11180 X-0.3794
N11185 X-0.3792 Y-0.4851
N11190 X-0.3789 Y-0.4854
N11195 X-0.3786 Y-0.4857
N11200 X-0.3783 Y-0.486
N11205 X-0.3782
N11210 X-0.378 Y-0.4863
N11215 X-0.3779
N11220 X-0.3776 Y-0.4866
N11225 X-0.3773 Y-0.4868
N11230 X-0.3772 Y-0.4869
N11235 X-0.3769 Y-0.4871
N11240 X-0.3768 Y-0.4872
N11245 X-0.3765 Y-0.4874
N11250 X-0.3762 Y-0.4876
N11255 X-0.3761 Y-0.4877
N11260 X-0.3758 Y-0.4879
N11265 X-0.3757
N11270 X-0.3754 Y-0.4881
N11275 X-0.3751 Y-0.4883
N11280 X-0.375
N11285 X-0.3747 Y-0.4885
N11290 X-0.3744 Y-0.4886
N11295 X-0.3743 Y-0.4887
N11300 X-0.374 Y-0.4888
N11305 X-0.3737 Y-0.489
N11310 X-0.3736
N11315 X-0.3733 Y-0.4892
N11320 X-0.373 Y-0.4893
N11325 G3 X-0.3726 Y-0.4895 I0.0016 J0.0033
N11330 G1 X-0.3722 Y-0.4896
N11335 X-0.3718 Y-0.4897
N11340 X-0.3714 Y-0.4899
N11345 X-0.371 Y-0.49
N11350 X-0.3706 Y-0.4902
N11355 X-0.3705
N11360 X-0.3701 Y-0.4903
N11365 X-0.3697 Y-0.4905
N11370 X-0.3696
N11375 X-0.3692 Y-0.4906
N11380 X-0.3688 Y-0.4907
N11385 X-0.3687
N11390 X-0.3683 Y-0.4908
N11395 X-0.3682 Y-0.4909
N11400 X-0.3678 Y-0.491
N11405 X-0.3677
N11410 X-0.3673 Y-0.4911
N11415 X-0.3672
N11420 X-0.3668
N11425 X-0.3667 Y-0.4912
N11430 X-0.3663
N11435 X-0.3662
N11440 X-0.3658 Y-0.4913
N11445 X-0.3657
N11450 X-0.3653
N11455 X-0.3652
N11460 X-0.3648 Y-0.4914
N11465 X-0.3643
N11470 X-0.3639 Y-0.4915
N11475 X-0.3634
N11480 X-0.363
N11485 X-0.3629
N11490 X-0.3625
N11495 X-0.3621
N11500 X-0.3617 Y-0.4916
N11505 X-0.3614
N11510 X-0.3607 Y-0.4915
N11515 X-0.3606
N11520 X-0.3603
N11525 X-0.3599
N11530 X-0.3595
N11535 X-0.3591
N11540 X-0.3587 Y-0.4914
N11545 X-0.3583
N11550 X-0.3582
N11555 X-0.3579
N11560 X-0.3578
N11565 X-0.3574 Y-0.4913
N11570 X-0.357
N11575 X-0.3566 Y-0.4912
N11580 X-0.3565
N11585 X-0.3562 Y-0.4911
N11590 X-0.3561
N11595 X-0.3557 Y-0.491
N11600 X-0.3553 Y-0.4909
N11605 X-0.3549 Y-0.4908
N11610 X-0.3548
N11615 X-0.3545 Y-0.4907
N11620 X-0.3544
N11625 X-0.354 Y-0.4906
N11630 X-0.3537 Y-0.4905
N11635 X-0.3533 Y-0.4904
N11640 X-0.3532
N11645 X-0.3529 Y-0.4903
N11650 X-0.3526 Y-0.4902
N11655 X-0.3525
N11660 X-0.3522 Y-0.4901
N11665 X-0.3521 Y-0.49
N11670 X-0.3518 Y-0.4899
N11675 X-0.3515 Y-0.4898
N11680 X-0.3512 Y-0.4897
N11685 X-0.3509 Y-0.4896
N11690 X-0.3507 Y-0.4895
N11695 X-0.3506 Y-0.4894
N11700 X-0.3503 Y-0.4893
N11705 X-0.3501 Y-0.4892
N11710 X-0.35
N11715 X-0.3497 Y-0.489
N11720 X-0.3494 Y-0.4889
N11725 Y-0.4888
N11730 X-0.3491 Y-0.4887
N11735 X-0.3488 Y-0.4885
N11740 X-0.3487
N11745 X-0.3485 Y-0.4883
N11750 X-0.3484
N11755 X-0.3481 Y-0.4881
N11760 X-0.3478 Y-0.4879
N11765 X-0.3477
N11770 X-0.3475 Y-0.4877
N11775 X-0.3474 Y-0.4876
N11780 X-0.3471 Y-0.4874
N11785 X-0.3469 Y-0.4872
N11790 X-0.3468 Y-0.4871
N11795 X-0.3466 Y-0.4869
N11800 X-0.3465 Y-0.4868
N11805 X-0.3463 Y-0.4866
N11810 X-0.3462
N11815 X-0.346 Y-0.4864
N11820 Y-0.4863
N11825 X-0.3458 Y-0.4861
N11830 X-0.3457
N11835 X-0.3455 Y-0.4859
N11840 Y-0.4858
N11845 X-0.3453 Y-0.4856
N11850 X-0.3451 Y-0.4854
N11855 X-0.3449 Y-0.4852
N11860 X-0.3447 Y-0.4849
N11865 G3 X-0.3443 Y-0.4844 I-0.0027 J0.0024
N11870 G1 X-0.3442 Y-0.4842
N11875 X-0.344 Y-0.484
N11880 X-0.3439 Y-0.4838
N11885 X-0.3437 Y-0.4835
N11890 X-0.3436 Y-0.4833
N11895 Y-0.4832
N11900 X-0.3434 Y-0.483
N11905 X-0.3433 Y-0.4827
N11910 X-0.3432
N11915 X-0.3431 Y-0.4824
N11920 X-0.343 Y-0.4821
N11925 X-0.3429 Y-0.482
N11930 X-0.3428 Y-0.4818
N11935 Y-0.4817
N11940 X-0.3427 Y-0.4815
N11945 Y-0.4813
N11950 X-0.3426 Y-0.4811
N11955 X-0.3425 Y-0.481
N11960 Y-0.4808
N11965 X-0.3424 Y-0.4806
N11970 Y-0.4804
N11975 X-0.3423 Y-0.4803
N11980 Y-0.48
N11985 X-0.3422 Y-0.4799
N11990 Y-0.4797
N11995 Y-0.4796
N12000 X-0.3421 Y-0.4793
N12005 Y-0.479
N12010 X-0.342 Y-0.4787
N12015 Y-0.4786
N12020 Y-0.4784
N12025 Y-0.4783
N12030 Y-0.4781
N12035 Y-0.4778
N12040 X-0.3419
N12045 Y-0.4775
N12050 Y-0.4773
N12055 G3 Y-0.4767 I-0.0036 J0.0003
N12060 G1 Y-0.4765
N12065 Y-0.4762
N12070 X-0.342 Y-0.476
N12075 Y-0.4759
N12080 Y-0.4757
N12085 Y-0.4754
N12090 Y-0.4751
N12095 X-0.3421 Y-0.475
N12100 Y-0.4748
N12105 Y-0.4747
N12110 Y-0.4745
N12115 X-0.3422 Y-0.4744
N12120 Y-0.4742
N12125 Y-0.4741
N12130 X-0.3423 Y-0.4738
N12135 Y-0.4737
N12140 X-0.3424 Y-0.4735
N12145 Y-0.4733
N12150 X-0.3425 Y-0.4731
N12155 Y-0.473
N12160 X-0.3426 Y-0.4728
N12165 X-0.3427 Y-0.4726
N12170 Y-0.4724
N12175 X-0.3428 Y-0.4723
N12180 X-0.3429 Y-0.4721
N12185 Y-0.472
N12190 X-0.343 Y-0.4718
N12195 X-0.3431 Y-0.4717
N12200 X-0.3432 Y-0.4715
N12205 Y-0.4714
N12210 X-0.3434 Y-0.4712
N12215 Y-0.4711
N12220 X-0.3435 Y-0.4709
N12225 X-0.3437 Y-0.4706
N12230 X-0.3438 Y-0.4704
N12235 X-0.344 Y-0.4702
N12240 Y-0.4701
N12245 X-0.3441 Y-0.4699
N12250 X-0.3442 Y-0.4697
N12255 G3 X-0.3447 Y-0.4691 I-0.0031 J-0.002
N12260 G1 X-0.3449 Y-0.4689
N12265 X-0.3451 Y-0.4687
N12270 X-0.3452
N12275 X-0.3454 Y-0.4685
N12280 X-0.3456 Y-0.4683
N12285 Y-0.4682
N12290 X-0.3458 Y-0.468
N12295 X-0.3459
N12300 X-0.3461 Y-0.4678
N12305 X-0.3463 Y-0.4676
N12310 X-0.3464 Y-0.4675
N12315 X-0.3466 Y-0.4673
N12320 X-0.3467
N12325 X-0.3469 Y-0.4671
N12330 X-0.347 Y-0.467
N12335 X-0.3472 Y-0.4668
N12340 X-0.3474
N12345 X-0.3476 Y-0.4666
N12350 X-0.3477 Y-0.4665
N12355 X-0.3479 Y-0.4664
N12360 X-0.348 Y-0.4663
N12365 X-0.3482 Y-0.4662
N12370 X-0.3483 Y-0.4661
N12375 X-0.3486 Y-0.466
N12380 X-0.3487 Y-0.4659
N12385 X-0.3489 Y-0.4658
N12390 X-0.349 Y-0.4657
N12395 X-0.3493 Y-0.4656
N12400 X-0.3496 Y-0.4654
N12405 X-0.3499 Y-0.4653
N12410 X-0.35
N12415 X-0.3502 Y-0.4651
N12420 X-0.3503
N12425 X-0.3505 Y-0.465
N12430 X-0.3506
N12435 X-0.3509 Y-0.4649
N12440 X-0.3511 Y-0.4648
N12445 X-0.3514 Y-0.4646
N12450 X-0.3515
N12455 X-0.3517 Y-0.4645
N12460 X-0.352 Y-0.4644
N12465 X-0.3525 Y-0.4643
N12470 X-0.3529 Y-0.4641
N12475 X-0.3534 Y-0.464
N12480 X-0.3539 Y-0.4638
N12485 X-0.3544 Y-0.4637
N12490 X-0.3549 Y-0.4635
N12495 X-0.3554 Y-0.4634
N12500 X-0.3558 Y-0.4632
N12505 X-0.3559
N12510 X-0.3563 Y-0.4631
N12515 X-0.3564
N12520 X-0.3568 Y-0.4629
N12525 X-0.3569
N12530 X-0.3574 Y-0.4628
N12535 X-0.3578 Y-0.4627
N12540 X-0.3579
N12545 X-0.3583 Y-0.4625
N12550 X-0.3588 Y-0.4624
N12555 X-0.3593 Y-0.4623
N12560 X-0.3594
N12565 X-0.3598 Y-0.4622
N12570 X-0.3603 Y-0.462
N12575 X-0.3608 Y-0.4619
N12580 X-0.3613 Y-0.4618
N12585 X-0.3623 Y-0.4616
N12590 X-0.3628 Y-0.4614
N12595 X-0.3637 Y-0.4612
N12600 X-0.3642 Y-0.4611
N12605 X-0.3648 Y-0.461
N12610 X-0.3653 Y-0.4608
N12615 X-0.3658 Y-0.4607
N12620 X-0.3663 Y-0.4606
N12625 X-0.3668 Y-0.4605
N12630 X-0.3673 Y-0.4603
N12635 X-0.3678 Y-0.4602
N12640 X-0.3683 Y-0.4601
N12645 X-0.3688 Y-0.4599
N12650 X-0.3693 Y-0.4598
N12655 X-0.3698 Y-0.4596
N12660 X-0.3703 Y-0.4595
N12665 X-0.3707 Y-0.4593
N12670 X-0.3712 Y-0.4591
N12675 X-0.3717 Y-0.459
N12680 X-0.3722 Y-0.4588
N12685 X-0.3726 Y-0.4586
N12690 X-0.3731 Y-0.4584
N12695 X-0.3736 Y-0.4582
N12700 X-0.3741 Y-0.458
N12705 X-0.3746 Y-0.4578
N12710 X-0.3751 Y-0.4576
N12715 X-0.3754 Y-0.4575
N12720 X-0.3755 Y-0.4574
N12725 X-0.3758 Y-0.4572
N12730 X-0.3762 Y-0.457
N12735 X-0.3764 Y-0.4568
N12740 X-0.3767 Y-0.4566
N12745 X-0.377 Y-0.4565
N12750 X-0.3773 Y-0.4563
N12755 X-0.3776 Y-0.4561
N12760 X-0.3778 Y-0.4559
N12765 X-0.378 Y-0.4558
N12770 X-0.3783 Y-0.4556
N12775 X-0.3785 Y-0.4554
N12780 X-0.3787 Y-0.4553
N12785 X-0.3789 Y-0.4551
N12790 X-0.3791 Y-0.4549
N12795 X-0.3793 Y-0.4546
N12800 X-0.3795 Y-0.4544
N12805 X-0.3797 Y-0.4542
N12810 X-0.3799 Y-0.4539
N12815 X-0.3801 Y-0.4537
N12820 X-0.3803 Y-0.4534
N12825 X-0.3806 Y-0.4531
N12830 X-0.3808 Y-0.4528
N12835 Y-0.4527
N12840 X-0.381 Y-0.4524
N12845 X-0.3811 Y-0.4521
N12850 X-0.3813 Y-0.4519
N12855 X-0.3814 Y-0.4516
N12860 X-0.3815 Y-0.4513
N12865 X-0.3817 Y-0.4511
N12870 X-0.3818 Y-0.4508
N12875 X-0.3819 Y-0.4506
N12880 Y-0.4504
N12885 X-0.382 Y-0.4501
N12890 X-0.3821 Y-0.4499
N12895 Y-0.4497
N12900 X-0.3822 Y-0.4495
N12905 Y-0.4492
N12910 X-0.3823 Y-0.449
N12915 Y-0.4487
N12920 X-0.3824 Y-0.4484
N12925 Y-0.4481
N12930 Y-0.4478
N12935 Y-0.4475
N12940 X-0.3825 Y-0.4472
N12945 Y-0.4468
N12950 Y-0.4467
N12955 Y-0.4466
N12960 X-0.3824 Y-0.4462
N12965 Y-0.4458
N12970 Y-0.4454
N12975 X-0.3823 Y-0.4451
N12980 Y-0.4448
N12985 Y-0.4444
N12990 X-0.3822 Y-0.4441
N12995 Y-0.4438
N13000 X-0.3821 Y-0.4435
N13005 X-0.382 Y-0.4433
N13010 Y-0.443
N13015 X-0.3819 Y-0.4428
N13020 X-0.3818 Y-0.4425
N13025 X-0.3817 Y-0.4422
N13030 X-0.3815 Y-0.4419
N13035 X-0.3814 Y-0.4417
N13040 X-0.3813 Y-0.4414
N13045 X-0.3811 Y-0.4411
N13050 X-0.3809 Y-0.4407
N13055 X-0.3808 Y-0.4404
N13060 X-0.3806 Y-0.4401
N13065 X-0.3804 Y-0.4397
N13070 X-0.3803 Y-0.4396
N13075 X-0.3802 Y-0.4395
N13080 X-0.38 Y-0.4392
N13085 X-0.3797 Y-0.4389
N13090 X-0.3795 Y-0.4386
N13095 X-0.3792 Y-0.4382
N13100 X-0.379 Y-0.438
N13105 X-0.3787 Y-0.4377
N13110 X-0.3785 Y-0.4374
N13115 X-0.3783 Y-0.4372
N13120 X-0.378 Y-0.437
N13125 X-0.3778 Y-0.4368
N13130 X-0.3776 Y-0.4366
N13135 X-0.3773 Y-0.4364
N13140 X-0.3771 Y-0.4362
N13145 X-0.3768 Y-0.4361
N13150 X-0.3765 Y-0.4359
N13155 X-0.3762 Y-0.4357
N13160 X-0.3759 Y-0.4355
N13165 X-0.3756 Y-0.4353
N13170 X-0.3752 Y-0.4352
N13175 X-0.3749 Y-0.435
N13180 X-0.3745 Y-0.4348
N13185 X-0.3741 Y-0.4346
N13190 X-0.3739 Y-0.4345
N13195 X-0.3736 Y-0.4344
N13200 X-0.3732 Y-0.4343
N13205 X-0.3727 Y-0.4341
N13210 X-0.3722 Y-0.434
N13215 X-0.3718 Y-0.4338
N13220 X-0.3714 Y-0.4337
N13225 X-0.3709 Y-0.4335
N13230 X-0.3705 Y-0.4334
N13235 X-0.3701 Y-0.4333
N13240 X-0.3696 Y-0.4332
N13245 X-0.3692 Y-0.4331
N13250 X-0.3688 Y-0.433
N13255 X-0.3684
N13260 X-0.368 Y-0.4329
N13265 X-0.3676
N13270 X-0.3671 Y-0.4328
N13275 X-0.3667
N13280 X-0.3662 Y-0.4327
N13285 X-0.3657
N13290 X-0.3653
N13295 X-0.3648 Y-0.4326
N13300 X-0.3643
N13305 X-0.3638
N13310 X-0.3635
N13315 X-0.3631
N13320 X-0.3625
N13325 X-0.362
N13330 X-0.3615 Y-0.4327
N13335 X-0.361
N13340 X-0.3605
N13345 X-0.36 Y-0.4328
N13350 X-0.3595
N13355 X-0.3591 Y-0.4329
N13360 X-0.3586
N13365 X-0.3581 Y-0.433
N13370 X-0.3577 Y-0.4331
N13375 X-0.3572
N13380 X-0.3568 Y-0.4332
N13385 X-0.3564 Y-0.4333
N13390 X-0.3559 Y-0.4335
N13395 X-0.3554 Y-0.4336
N13400 X-0.355 Y-0.4337
N13405 X-0.3545 Y-0.4339
N13410 X-0.354 Y-0.434
N13415 X-0.3536 Y-0.4342
N13420 X-0.3531 Y-0.4344
N13425 X-0.3522 Y-0.4346
N13430 X-0.352 Y-0.4348
N13435 X-0.3516 Y-0.4349
N13440 X-0.3512 Y-0.4351
N13445 X-0.3509 Y-0.4353
N13450 X-0.3505 Y-0.4355
N13455 X-0.3502 Y-0.4357
N13460 X-0.3498 Y-0.4359
N13465 X-0.3495 Y-0.4361
N13470 X-0.3492 Y-0.4363
N13475 X-0.3489 Y-0.4365
N13480 X-0.3486 Y-0.4367
N13485 X-0.3484 Y-0.4369
N13490 X-0.3481 Y-0.4371
N13495 X-0.3479 Y-0.4373
N13500 X-0.3476 Y-0.4375
N13505 X-0.3474 Y-0.4378
N13510 X-0.3471 Y-0.438
N13515 X-0.3469 Y-0.4383
N13520 X-0.3466 Y-0.4386
N13525 X-0.3464 Y-0.4389
N13530 X-0.3461 Y-0.4393
N13535 X-0.3458 Y-0.4396
N13540 X-0.3456 Y-0.4399
N13545 X-0.3454 Y-0.4401
N13550 Y-0.4402
N13555 X-0.3452 Y-0.4406
N13560 X-0.345 Y-0.441
N13565 X-0.3448 Y-0.4413
N13570 X-0.3446 Y-0.4417
N13575 X-0.3444 Y-0.442
N13580 X-0.3442 Y-0.4424
N13585 X-0.3441 Y-0.4427
N13590 X-0.3439 Y-0.443
N13595 X-0.3438 Y-0.4434
N13600 X-0.3437 Y-0.4437
N13605 X-0.3436 Y-0.444
N13610 X-0.3435 Y-0.4443
N13615 X-0.3434 Y-0.4446
N13620 Y-0.4449
N13625 X-0.3416 Y-0.4462 Z-0.0059
N13630 X-0.3393 Y-0.4482 Z0.
N13635 X-0.3416 Y-0.4462 Z-0.0059
N13640 X-0.3434 Y-0.4449 Z-0.01
N13645 X-0.3445
N13650 X-0.3466 Y-0.4478 Z-0.0027
N13655 X-0.3474 Y-0.4488 Z0.
N13660 X-0.3466 Y-0.4478 Z-0.0027
N13665 X-0.3445 Y-0.4449 Z-0.01
N13670 Y-0.4448
N13675 X-0.3446 Y-0.4444
N13680 X-0.3447 Y-0.4443
N13685 X-0.3448 Y-0.4439
N13690 Y-0.4437
N13695 X-0.345 Y-0.4433
N13700 Y-0.4432
N13705 X-0.3452 Y-0.4428
N13710 Y-0.4426
N13715 X-0.3454 Y-0.4423
N13720 X-0.3455 Y-0.4421
N13725 X-0.3457 Y-0.4417
N13730 X-0.3458 Y-0.4416
N13735 X-0.346 Y-0.4412
N13740 X-0.3461 Y-0.441
N13745 X-0.3463 Y-0.4407
N13750 X-0.3464 Y-0.4406
N13755 X-0.3466 Y-0.4402
N13760 X-0.3467 Y-0.4401
N13765 X-0.3469 Y-0.4398
N13770 X-0.347 Y-0.4397
N13775 X-0.3473 Y-0.4393
N13780 Y-0.4392
N13785 X-0.3476 Y-0.4389
N13790 X-0.3477
N13795 X-0.3479 Y-0.4385
N13800 X-0.348
N13805 X-0.3483 Y-0.4381
N13810 X-0.3486 Y-0.4378
N13815 X-0.3489 Y-0.4374
N13820 X-0.3492 Y-0.4371
N13825 G3 X-0.3501 Y-0.4364 I-0.0027 J-0.0025
N13830 G1 X-0.3505 Y-0.4362
N13835 X-0.3509 Y-0.4359
N13840 X-0.351
N13845 X-0.3514 Y-0.4357
N13850 X-0.3518 Y-0.4354
N13855 X-0.3519
N13860 X-0.3523 Y-0.4351
N13865 X-0.3524
N13870 X-0.3528 Y-0.4349
N13875 X-0.3529
N13880 X-0.3533 Y-0.4346
N13885 X-0.3534
N13890 X-0.3539 Y-0.4344
N13895 X-0.354 Y-0.4343
N13900 X-0.3544 Y-0.4342
N13905 X-0.3546 Y-0.4341
N13910 X-0.355 Y-0.4339
N13915 X-0.3552
N13920 X-0.3556 Y-0.4337
N13925 X-0.3558
N13930 X-0.3562 Y-0.4336
N13935 X-0.3564 Y-0.4335
N13940 X-0.3568 Y-0.4334
N13945 X-0.357
N13950 X-0.3575 Y-0.4333
N13955 X-0.3576
N13960 X-0.358 Y-0.4332
N13965 X-0.3582
N13970 X-0.3586 Y-0.4331
N13975 X-0.3587
N13980 X-0.3592 Y-0.433
N13985 X-0.3593
N13990 X-0.3598
N13995 X-0.3603 Y-0.4329
N14000 X-0.3604
N14005 X-0.3609
N14010 X-0.3614
N14015 X-0.3615
N14020 X-0.362
N14025 X-0.3625 Y-0.4328
N14030 X-0.363
N14035 X-0.3632
N14040 X-0.3642
N14045 X-0.3647 Y-0.4329
N14050 X-0.3652
N14055 X-0.3653
N14060 X-0.3658
N14065 X-0.3663
N14070 X-0.3664
N14075 X-0.3669 Y-0.433
N14080 X-0.3674
N14085 X-0.3675
N14090 X-0.368 Y-0.4331
N14095 X-0.3681
N14100 X-0.3686 Y-0.4332
N14105 X-0.3687
N14110 X-0.3692 Y-0.4333
N14115 X-0.3693
N14120 X-0.3698 Y-0.4334
N14125 X-0.3699
N14130 X-0.3704 Y-0.4336
N14135 X-0.3705
N14140 X-0.371 Y-0.4337
N14145 X-0.3711 Y-0.4338
N14150 X-0.3716 Y-0.4339
N14155 X-0.3717 Y-0.434
N14160 X-0.3722 Y-0.4342
N14165 X-0.3727 Y-0.4344
N14170 X-0.3728
N14175 X-0.3733 Y-0.4346
N14180 Y-0.4347
N14185 X-0.3738 Y-0.4349
N14190 X-0.3739
N14195 X-0.3743 Y-0.4351
N14200 X-0.3748 Y-0.4354
N14205 X-0.3753 Y-0.4356
N14210 X-0.3757 Y-0.4359
N14215 X-0.3762 Y-0.4361
N14220 G3 X-0.3769 Y-0.4367 I0.0018 J-0.0032
N14225 G1 X-0.3771 Y-0.4369
N14230 X-0.3772
N14235 X-0.3774 Y-0.4371
N14240 Y-0.4372
N14245 X-0.3777 Y-0.4374
N14250 X-0.3779 Y-0.4377
N14255 X-0.378
N14260 X-0.3782 Y-0.438
N14265 X-0.3783
N14270 X-0.3785 Y-0.4382
N14275 X-0.3786 Y-0.4383
N14280 X-0.3788 Y-0.4386
N14285 X-0.3789 Y-0.4387
N14290 X-0.3791 Y-0.4389
N14295 X-0.3792 Y-0.439
N14300 X-0.3794 Y-0.4393
N14305 Y-0.4394
N14310 X-0.3796 Y-0.4397
N14315 X-0.3797 Y-0.4398
N14320 X-0.3799 Y-0.4401
N14325 X-0.38 Y-0.4402
N14330 X-0.3801 Y-0.4405
N14335 X-0.3803 Y-0.4407
N14340 X-0.3804 Y-0.441
N14345 X-0.3805 Y-0.4412
N14350 X-0.3806 Y-0.4415
N14355 X-0.3807 Y-0.4417
N14360 X-0.3808 Y-0.442
N14365 Y-0.4421
N14370 X-0.3809 Y-0.4424
N14375 X-0.381 Y-0.4426
N14380 X-0.3811 Y-0.4429
N14385 Y-0.443
N14390 X-0.3812 Y-0.4433
N14395 Y-0.4434
N14400 Y-0.4438
N14405 X-0.3813
N14410 Y-0.4442
N14415 X-0.3814 Y-0.4446
N14420 Y-0.4449
N14425 Y-0.445
N14430 X-0.3815 Y-0.4453
N14435 Y-0.4457
N14440 G3 Y-0.4465 I0.0036 J-0.0005
N14445 G1 Y-0.4467
N14450 Y-0.4468
N14455 Y-0.447
N14460 Y-0.4471
N14465 Y-0.4473
N14470 Y-0.4474
N14475 X-0.3814 Y-0.4476
N14480 Y-0.4477
N14485 Y-0.448
N14490 Y-0.4481
N14495 X-0.3813 Y-0.4483
N14500 Y-0.4484
N14505 Y-0.4487
N14510 X-0.3812 Y-0.4488
N14515 Y-0.449
N14520 Y-0.4492
N14525 X-0.3811 Y-0.4494
N14530 Y-0.4496
N14535 X-0.381 Y-0.4498
N14540 X-0.3809 Y-0.45
N14545 X-0.3808 Y-0.4502
N14550 Y-0.4504
N14555 X-0.3807 Y-0.4506
N14560 X-0.3806 Y-0.4508
N14565 X-0.3805 Y-0.4511
N14570 X-0.3804 Y-0.4512
N14575 X-0.3803 Y-0.4514
N14580 X-0.3802 Y-0.4516
N14585 X-0.3801 Y-0.4518
N14590 X-0.38 Y-0.452
N14595 X-0.3798 Y-0.4522
N14600 Y-0.4523
N14605 X-0.3796 Y-0.4525
N14610 X-0.3795 Y-0.4526
N14615 X-0.3794 Y-0.4528
N14620 X-0.3793 Y-0.4529
N14625 X-0.3792 Y-0.4531
N14630 X-0.3791 Y-0.4532
N14635 X-0.3789 Y-0.4534
N14640 X-0.3787 Y-0.4536
N14645 X-0.3785 Y-0.4539
N14650 X-0.3783 Y-0.4541
N14655 X-0.3781 Y-0.4543
N14660 G3 X-0.3772 Y-0.455 I0.0027 J0.0024
N14665 G1 X-0.3767 Y-0.4553
N14670 X-0.3762 Y-0.4556
N14675 X-0.3757 Y-0.4559
N14680 X-0.3756
N14685 X-0.3751 Y-0.4562
N14690 X-0.3746 Y-0.4564
N14695 X-0.3745 Y-0.4565
N14700 X-0.374 Y-0.4567
N14705 X-0.3735 Y-0.457
N14710 X-0.3734
N14715 X-0.3729 Y-0.4573
N14720 X-0.3728
N14725 X-0.3723 Y-0.4575
N14730 X-0.3722 Y-0.4576
N14735 X-0.3717 Y-0.4578
N14740 X-0.3716
N14745 X-0.371 Y-0.458
N14750 X-0.3705 Y-0.4582
N14755 X-0.3704
N14760 X-0.3698 Y-0.4584
N14765 X-0.3692 Y-0.4586
N14770 X-0.3686 Y-0.4588
N14775 X-0.368 Y-0.4589
N14780 X-0.3674 Y-0.4591
N14785 X-0.3668 Y-0.4592
N14790 Y-0.4593
N14795 X-0.3662 Y-0.4594
N14800 X-0.3656 Y-0.4595
N14805 X-0.3651 Y-0.4596
N14810 X-0.365 Y-0.4597
N14815 X-0.3645 Y-0.4598
N14820 X-0.3639 Y-0.4599
N14825 X-0.3634 Y-0.46
N14830 X-0.3628 Y-0.4601
N14835 X-0.3616 Y-0.4604
N14840 X-0.361 Y-0.4605
N14845 X-0.3604 Y-0.4607
N14850 X-0.3598 Y-0.4608
N14855 X-0.3592 Y-0.461
N14860 X-0.3586 Y-0.4611
N14865 X-0.358 Y-0.4612
N14870 X-0.3575 Y-0.4614
N14875 X-0.3569 Y-0.4615
N14880 X-0.3563 Y-0.4617
N14885 X-0.3558 Y-0.4619
N14890 X-0.3552 Y-0.462
N14895 X-0.3546 Y-0.4622
N14900 X-0.3541 Y-0.4624
N14905 X-0.3535 Y-0.4626
N14910 X-0.353 Y-0.4627
N14915 X-0.3524 Y-0.4629
N14920 X-0.3518 Y-0.4631
N14925 X-0.3513 Y-0.4633
N14930 X-0.3507 Y-0.4635
N14935 X-0.3501 Y-0.4638
N14940 X-0.3498 Y-0.4639
N14945 X-0.3496 Y-0.464
N14950 X-0.3492 Y-0.4642
N14955 X-0.3488 Y-0.4644
N14960 X-0.3484 Y-0.4646
N14965 X-0.3481 Y-0.4648
N14970 X-0.3477 Y-0.465
N14975 X-0.3474 Y-0.4652
N14980 X-0.3471 Y-0.4654
N14985 X-0.3468 Y-0.4656
N14990 X-0.3465 Y-0.4657
N14995 X-0.3462 Y-0.4659
N15000 X-0.3459 Y-0.4661
N15005 X-0.3457 Y-0.4663
N15010 X-0.3454 Y-0.4666
N15015 X-0.3452 Y-0.4668
N15020 X-0.3449 Y-0.467
N15025 X-0.3447 Y-0.4673
N15030 X-0.3444 Y-0.4676
N15035 X-0.3442 Y-0.4678
N15040 X-0.3439 Y-0.4681
N15045 X-0.3436 Y-0.4685
N15050 X-0.3434 Y-0.4688
N15055 X-0.3431 Y-0.4691
N15060 X-0.343 Y-0.4692
N15065 Y-0.4693
N15070 X-0.3428 Y-0.4696
N15075 X-0.3426 Y-0.4699
N15080 X-0.3424 Y-0.4703
N15085 X-0.3423 Y-0.4706
N15090 X-0.3421 Y-0.4709
N15095 X-0.342 Y-0.4712
N15100 X-0.3418 Y-0.4715
N15105 X-0.3417 Y-0.4717
N15110 X-0.3416 Y-0.472
N15115 X-0.3415 Y-0.4723
N15120 Y-0.4725
N15125 X-0.3414 Y-0.4728
N15130 X-0.3413 Y-0.473
N15135 Y-0.4733
N15140 X-0.3412 Y-0.4736
N15145 Y-0.4739
N15150 X-0.3411 Y-0.4743
N15155 Y-0.4746
N15160 Y-0.475
N15165 X-0.341 Y-0.4753
N15170 Y-0.4757
N15175 Y-0.4761
N15180 Y-0.4763
N15185 Y-0.4764
N15190 Y-0.4768
N15195 Y-0.4772
N15200 X-0.3411 Y-0.4776
N15205 Y-0.478
N15210 X-0.3412 Y-0.4784
N15215 Y-0.4787
N15220 X-0.3413 Y-0.4791
N15225 Y-0.4794
N15230 X-0.3414 Y-0.4797
N15235 X-0.3415 Y-0.48
N15240 X-0.3416 Y-0.4803
N15245 Y-0.4806
N15250 X-0.3418 Y-0.4809
N15255 X-0.3419 Y-0.4812
N15260 X-0.342 Y-0.4815
N15265 X-0.3421 Y-0.4818
N15270 X-0.3423 Y-0.4821
N15275 X-0.3425 Y-0.4824
N15280 X-0.3426 Y-0.4828
N15285 X-0.3428 Y-0.4831
N15290 X-0.343 Y-0.4835
N15295 X-0.3432 Y-0.4838
N15300 X-0.3433 Y-0.484
N15305 X-0.3434 Y-0.4841
N15310 X-0.3437 Y-0.4845
N15315 X-0.344 Y-0.4848
N15320 X-0.3442 Y-0.4852
N15325 X-0.3445 Y-0.4855
N15330 X-0.3448 Y-0.4858
N15335 X-0.345 Y-0.4861
N15340 X-0.3453 Y-0.4864
N15345 X-0.3456 Y-0.4866
N15350 X-0.3458 Y-0.4869
N15355 X-0.3461 Y-0.4871
N15360 X-0.3463 Y-0.4873
N15365 X-0.3466 Y-0.4875
N15370 X-0.3468 Y-0.4877
N15375 X-0.3471 Y-0.488
N15380 X-0.3475 Y-0.4882
N15385 X-0.3478 Y-0.4884
N15390 X-0.3481 Y-0.4886
N15395 X-0.3485 Y-0.4888
N15400 X-0.3488 Y-0.489
N15405 X-0.3492 Y-0.4892
N15410 X-0.3496 Y-0.4894
N15415 X-0.35 Y-0.4896
N15420 X-0.3502 Y-0.4897
N15425 X-0.3505 Y-0.4898
N15430 X-0.351 Y-0.49
N15435 X-0.3515 Y-0.4902
N15440 X-0.352 Y-0.4904
N15445 X-0.3524 Y-0.4905
N15450 X-0.3529 Y-0.4907
N15455 X-0.3533 Y-0.4909
N15460 X-0.3538 Y-0.491
N15465 X-0.3542 Y-0.4911
N15470 X-0.3547 Y-0.4912
N15475 X-0.3551 Y-0.4913
N15480 X-0.3555 Y-0.4914
N15485 X-0.3559 Y-0.4915
N15490 X-0.3564 Y-0.4916
N15495 X-0.3568
N15500 X-0.3573 Y-0.4917
N15505 X-0.3578
N15510 X-0.3582 Y-0.4918
N15515 X-0.3587
N15520 X-0.3592
N15525 X-0.3597 Y-0.4919
N15530 X-0.3602
N15535 X-0.3607
N15540 X-0.3608
N15545 X-0.3612
N15550 X-0.3617
N15555 X-0.3623
N15560 X-0.3629
N15565 X-0.3635
N15570 X-0.3641 Y-0.4918
N15575 X-0.3647
N15580 X-0.3653
N15585 X-0.3658 Y-0.4917
N15590 X-0.3664
N15595 X-0.3669 Y-0.4916
N15600 X-0.3675 Y-0.4915
N15605 X-0.368 Y-0.4914
N15610 X-0.3685 Y-0.4913
N15615 X-0.3691 Y-0.4912
N15620 X-0.3696 Y-0.4911
N15625 X-0.3701 Y-0.491
N15630 X-0.3707 Y-0.4908
N15635 X-0.3712 Y-0.4907
N15640 X-0.3718 Y-0.4905
N15645 X-0.3723 Y-0.4903
N15650 X-0.3729 Y-0.4902
N15655 X-0.3741 Y-0.4898
N15660 X-0.3744 Y-0.4897
N15665 X-0.3746 Y-0.4896
N15670 Y-0.4895
N15675 X-0.3751 Y-0.4893
N15680 X-0.3755 Y-0.4891
N15685 X-0.3759 Y-0.4889
N15690 X-0.3763 Y-0.4887
N15695 X-0.3767 Y-0.4884
N15700 X-0.3771 Y-0.4882
N15705 X-0.3774 Y-0.488
N15710 X-0.3778 Y-0.4878
N15715 X-0.3781 Y-0.4875
N15720 X-0.3784 Y-0.4873
N15725 X-0.3787 Y-0.4871
N15730 X-0.379 Y-0.4868
N15735 X-0.3793 Y-0.4866
N15740 X-0.3796 Y-0.4863
N15745 X-0.3798 Y-0.486
N15750 X-0.3801 Y-0.4857
N15755 X-0.3804 Y-0.4854
N15760 X-0.3807 Y-0.485
N15765 X-0.381 Y-0.4847
N15770 X-0.3813 Y-0.4843
N15775 X-0.3816 Y-0.4839
N15780 X-0.3819 Y-0.4835
N15785 X-0.382 Y-0.4834
N15790 X-0.3821 Y-0.4832
N15795 X-0.3824 Y-0.4827
N15800 X-0.3826 Y-0.4823
N15805 X-0.3828 Y-0.4819
N15810 X-0.383 Y-0.4815
N15815 X-0.3832 Y-0.4811
N15820 X-0.3834 Y-0.4807
N15825 X-0.3836 Y-0.4803
N15830 X-0.3838 Y-0.4799
N15835 X-0.3839 Y-0.4795
N15840 X-0.3841 Y-0.4791
N15845 X-0.3842 Y-0.4788
N15850 X-0.3843 Y-0.4784
N15855 X-0.3844 Y-0.478
N15860 X-0.3845 Y-0.4776
N15865 Y-0.4772
N15870 X-0.3846 Y-0.4771
N15875 G0 Z0.1
N15880 X-0.3402 Y-0.2685
N15885 Z0.05
N15890 G1 Z0. F5.
N15895 X-0.3376 Y-0.2729 Z-0.01 F7.5
N15900 X-0.3363 Y-0.2733
N15905 X-0.3317 Y-0.2707 Z-0.0001
N15910 X-0.3363 Y-0.2733 Z-0.01
N15915 X-0.3366 Y-0.274
N15920 X-0.3368 Y-0.2746
N15925 X-0.3371 Y-0.2753
N15930 X-0.3374 Y-0.2759
N15935 X-0.3377 Y-0.2765
N15940 X-0.338 Y-0.2771
N15945 X-0.3383 Y-0.2777
N15950 X-0.3386 Y-0.2782
N15955 X-0.339 Y-0.2787
N15960 X-0.3394 Y-0.2793
N15965 X-0.3398 Y-0.2798
N15970 X-0.3402 Y-0.2803
N15975 X-0.3407 Y-0.2809
N15980 X-0.3412 Y-0.2814
N15985 X-0.3417 Y-0.2819
N15990 X-0.3422 Y-0.2825
N15995 X-0.3427 Y-0.283
N16000 X-0.3433 Y-0.2836
N16005 X-0.3436 Y-0.2839
N16010 X-0.3439 Y-0.2841
N16015 X-0.3446 Y-0.2845
N16020 X-0.3452 Y-0.2849
N16025 X-0.3458 Y-0.2852
N16030 X-0.3464 Y-0.2856
N16035 X-0.347 Y-0.2859
N16040 X-0.3476 Y-0.2862
N16045 X-0.3482 Y-0.2865
N16050 X-0.3487 Y-0.2868
N16055 X-0.3493 Y-0.2871
N16060 X-0.3499 Y-0.2873
N16065 X-0.3504 Y-0.2875
N16070 X-0.351 Y-0.2876
N16075 X-0.3516 Y-0.2878
N16080 X-0.3522 Y-0.2879
N16085 X-0.3529 Y-0.288
N16090 X-0.3535 Y-0.2881
N16095 X-0.3542 Y-0.2882
N16100 X-0.3549 Y-0.2883
N16105 X-0.3556 Y-0.2884
N16110 X-0.3563
N16115 X-0.357 Y-0.2885
N16120 X-0.3578
N16125 X-0.3584 Y-0.2886
N16130 X-0.3588
N16135 X-0.3582 Y-0.2885
N16140 X-0.3577
N16145 X-0.3576
N16150 X-0.3571 Y-0.2884
N16155 X-0.3565
N16160 X-0.3559 Y-0.2883
N16165 X-0.3558
N16170 X-0.3553 Y-0.2882
N16175 X-0.3552
N16180 X-0.3547
N16185 X-0.3546 Y-0.2881
N16190 X-0.3541
N16195 X-0.354 Y-0.288
N16200 X-0.3534 Y-0.2879
N16205 X-0.3533
N16210 X-0.3528 Y-0.2878
N16215 X-0.3527
N16220 X-0.3522 Y-0.2876
N16225 X-0.352
N16230 X-0.3515 Y-0.2874
N16235 X-0.3514
N16240 X-0.3508 Y-0.2872
N16245 X-0.3507 Y-0.2871
N16250 X-0.3502 Y-0.2869
N16255 X-0.3501
N16260 X-0.3496 Y-0.2867
N16265 X-0.3495 Y-0.2866
N16270 X-0.349 Y-0.2864
N16275 X-0.3489 Y-0.2863
N16280 X-0.3484 Y-0.2861
N16285 X-0.3483 Y-0.286
N16290 X-0.3479 Y-0.2857
N16295 X-0.3478
N16300 X-0.3473 Y-0.2854
N16305 X-0.3468 Y-0.2851
N16310 X-0.3463 Y-0.2848
N16315 Y-0.2847
N16320 X-0.3458 Y-0.2844
N16325 X-0.3453 Y-0.2841
N16330 X-0.3449 Y-0.2838
N16335 G3 X-0.3443 Y-0.2833 I-0.002 J0.003
N16340 G1 X-0.3438 Y-0.2829
N16345 Y-0.2828
N16350 X-0.3434 Y-0.2824
N16355 X-0.343 Y-0.2819
N16360 X-0.3426 Y-0.2815
N16365 X-0.3425 Y-0.2814
N16370 X-0.3421 Y-0.281
N16375 Y-0.2809
N16380 X-0.3417 Y-0.2805
N16385 Y-0.2804
N16390 X-0.3413 Y-0.28
N16395 X-0.3412 Y-0.2799
N16400 X-0.3409 Y-0.2794
N16405 X-0.3408 Y-0.2793
N16410 X-0.3405 Y-0.2789
N16415 X-0.3404 Y-0.2788
N16420 X-0.3401 Y-0.2783
N16425 X-0.34 Y-0.2782
N16430 X-0.3397 Y-0.2777
N16435 X-0.3396 Y-0.2775
N16440 X-0.3393 Y-0.277
N16445 Y-0.2769
N16450 X-0.339 Y-0.2764
N16455 X-0.3389 Y-0.2763
N16460 X-0.3387 Y-0.2757
N16465 X-0.3386 Y-0.2756
N16470 X-0.3384 Y-0.2751
N16475 Y-0.275
N16480 X-0.3382 Y-0.2744
N16485 X-0.3381 Y-0.2743
N16490 X-0.3379 Y-0.2738
N16495 Y-0.2737
N16500 X-0.3377 Y-0.2731
N16505 X-0.3376 Y-0.2729
N16510 X-0.3377 Y-0.2731
N16515 X-0.3379 Y-0.2737
N16520 Y-0.2738
N16525 X-0.3381 Y-0.2743
N16530 X-0.3382 Y-0.2744
N16535 X-0.3384 Y-0.275
N16540 Y-0.2751
N16545 X-0.3386 Y-0.2756
N16550 X-0.3387 Y-0.2757
N16555 X-0.3389 Y-0.2763
N16560 X-0.339 Y-0.2764
N16565 X-0.3393 Y-0.2769
N16570 Y-0.277
N16575 X-0.3396 Y-0.2775
N16580 X-0.3397 Y-0.2777
N16585 X-0.34 Y-0.2782
N16590 X-0.3401 Y-0.2783
N16595 X-0.3404 Y-0.2788
N16600 X-0.3405 Y-0.2789
N16605 X-0.3408 Y-0.2793
N16610 X-0.3409 Y-0.2794
N16615 X-0.3412 Y-0.2799
N16620 X-0.3413 Y-0.28
N16625 X-0.3417 Y-0.2804
N16630 Y-0.2805
N16635 X-0.3421 Y-0.2809
N16640 Y-0.281
N16645 X-0.3425 Y-0.2814
N16650 X-0.3426 Y-0.2815
N16655 X-0.343 Y-0.2819
N16660 X-0.3434 Y-0.2824
N16665 X-0.3438 Y-0.2828
N16670 Y-0.2829
N16675 X-0.3443 Y-0.2833
N16680 G2 X-0.3449 Y-0.2838 I-0.0026 J0.0025
N16685 G1 X-0.3453 Y-0.2841
N16690 X-0.3458 Y-0.2844
N16695 X-0.3463 Y-0.2847
N16700 Y-0.2848
N16705 X-0.3468 Y-0.2851
N16710 X-0.3473 Y-0.2854
N16715 X-0.3478 Y-0.2857
N16720 X-0.3479
N16725 X-0.3483 Y-0.286
N16730 X-0.3484 Y-0.2861
N16735 X-0.3489 Y-0.2863
N16740 X-0.349 Y-0.2864
N16745 X-0.3495 Y-0.2866
N16750 X-0.3496 Y-0.2867
N16755 X-0.3501 Y-0.2869
N16760 X-0.3502
N16765 X-0.3507 Y-0.2871
N16770 X-0.3508 Y-0.2872
N16775 X-0.3514 Y-0.2874
N16780 X-0.3515
N16785 X-0.352 Y-0.2876
N16790 X-0.3522
N16795 X-0.3527 Y-0.2878
N16800 X-0.3528
N16805 X-0.3533 Y-0.2879
N16810 X-0.3534
N16815 X-0.354 Y-0.288
N16820 X-0.3541 Y-0.2881
N16825 X-0.3546
N16830 X-0.3547 Y-0.2882
N16835 X-0.3552
N16840 X-0.3553
N16845 X-0.3558 Y-0.2883
N16850 X-0.3559
N16855 X-0.3565 Y-0.2884
N16860 X-0.3571
N16865 X-0.3576 Y-0.2885
N16870 X-0.3577
N16875 X-0.3582
N16880 X-0.3588 Y-0.2886
N16885 X-0.3598 Y-0.2885
N16890 X-0.3602
N16895 X-0.3603
N16900 X-0.3607
N16905 X-0.3608 Y-0.2884
N16910 X-0.3613
N16915 X-0.3618
N16920 X-0.3623 Y-0.2883
N16925 X-0.3624
N16930 X-0.3628 Y-0.2882
N16935 X-0.3629
N16940 X-0.3634
N16945 X-0.3635 Y-0.2881
N16950 X-0.3639
N16955 X-0.364 Y-0.288
N16960 X-0.3645
N16965 X-0.3646 Y-0.2879
N16970 X-0.365 Y-0.2878
N16975 X-0.3652
N16980 X-0.3656 Y-0.2877
N16985 X-0.3657
N16990 X-0.3662 Y-0.2875
N16995 X-0.3663
N17000 X-0.3668 Y-0.2873
N17005 X-0.3669
N17010 X-0.3673 Y-0.2871
N17015 X-0.3674
N17020 X-0.3678 Y-0.2869
N17025 X-0.3679
N17030 X-0.3683 Y-0.2867
N17035 X-0.3684
N17040 X-0.3688 Y-0.2865
N17045 X-0.3689
N17050 X-0.3693 Y-0.2863
N17055 X-0.3694 Y-0.2862
N17060 X-0.3698 Y-0.286
N17065 X-0.3699
N17070 X-0.3703 Y-0.2858
N17075 X-0.3707 Y-0.2856
N17080 X-0.3708
N17085 X-0.3712 Y-0.2854
N17090 Y-0.2853
N17095 X-0.3716 Y-0.2851
N17100 G2 X-0.3721 Y-0.2848 I0.0017 J0.0032
N17105 G1 X-0.3725 Y-0.2845
N17110 X-0.373 Y-0.2842
N17115 X-0.3734 Y-0.2839
N17120 X-0.3738 Y-0.2836
N17125 Y-0.2835
N17130 X-0.3742 Y-0.2832
N17135 X-0.3743
N17140 X-0.3747 Y-0.2829
N17145 Y-0.2828
N17150 X-0.3751 Y-0.2825
N17155 X-0.3752 Y-0.2824
N17160 X-0.3756 Y-0.2821
N17165 Y-0.282
N17170 X-0.376 Y-0.2817
N17175 X-0.3761 Y-0.2816
N17180 X-0.3764 Y-0.2812
N17185 X-0.3765 Y-0.2811
N17190 X-0.3768 Y-0.2808
N17195 X-0.3769 Y-0.2807
N17200 X-0.3773 Y-0.2803
N17205 Y-0.2802
N17210 X-0.3776 Y-0.2798
N17215 X-0.3777 Y-0.2797
N17220 X-0.378 Y-0.2793
N17225 X-0.3781 Y-0.2792
N17230 X-0.3784 Y-0.2788
N17235 Y-0.2787
N17240 X-0.3787 Y-0.2783
N17245 Y-0.2782
N17250 X-0.379 Y-0.2778
N17255 Y-0.2777
N17260 X-0.3793 Y-0.2772
N17265 X-0.3795 Y-0.2767
N17270 X-0.3796
N17275 X-0.3798 Y-0.2762
N17280 X-0.38 Y-0.2757
N17285 X-0.3801
N17290 X-0.3803 Y-0.2752
N17295 X-0.3805 Y-0.2748
N17300 X-0.3807 Y-0.2743
N17305 G2 X-0.3809 Y-0.2738 I0.0033 J0.0016
N17310 G1 X-0.3811 Y-0.2733
N17315 Y-0.2732
N17320 X-0.3813 Y-0.2727
N17325 Y-0.2726
N17330 X-0.3815 Y-0.2721
N17335 Y-0.272
N17340 X-0.3816 Y-0.2715
N17345 X-0.3817 Y-0.2714
N17350 X-0.3818 Y-0.2708
N17355 X-0.382 Y-0.2702
N17360 X-0.3822 Y-0.2696
N17365 Y-0.2695
N17370 X-0.3823 Y-0.2689
N17375 X-0.3825 Y-0.2683
N17380 Y-0.2682
N17385 X-0.3826 Y-0.2676
N17390 X-0.3828 Y-0.267
N17395 Y-0.2669
N17400 X-0.3829 Y-0.2663
N17405 Y-0.2662
N17410 X-0.383 Y-0.2656
N17415 Y-0.2655
N17420 X-0.3831 Y-0.2649
N17425 Y-0.2643
N17430 Y-0.2642
N17435 X-0.3832 Y-0.2636
N17440 X-0.3833 Y-0.2629
N17445 Y-0.2623
N17450 Y-0.2616
N17455 X-0.3834 Y-0.261
N17460 Y-0.2604
N17465 Y-0.2603
N17470 Y-0.2597
N17475 Y-0.2591
N17480 Y-0.2585
N17485 Y-0.2582
N17490 Y-0.2577
N17495 Y-0.2572
N17500 Y-0.2566
N17505 Y-0.2561
N17510 X-0.3833 Y-0.2555
N17515 Y-0.255
N17520 X-0.3832 Y-0.2544
N17525 Y-0.2539
N17530 Y-0.2538
N17535 X-0.3831 Y-0.2533
N17540 Y-0.2532
N17545 Y-0.2527
N17550 X-0.383 Y-0.2522
N17555 Y-0.2521
N17560 X-0.3829 Y-0.2516
N17565 Y-0.2515
N17570 X-0.3828 Y-0.251
N17575 Y-0.2509
N17580 X-0.3827 Y-0.2504
N17585 Y-0.2503
N17590 X-0.3826 Y-0.2498
N17595 X-0.3824 Y-0.2493
N17600 Y-0.2492
N17605 X-0.3823 Y-0.2487
N17610 X-0.3822 Y-0.2482
N17615 Y-0.2481
N17620 X-0.382 Y-0.2476
N17625 X-0.3819 Y-0.2471
N17630 X-0.3817 Y-0.2466
N17635 Y-0.2465
N17640 X-0.3816 Y-0.246
N17645 X-0.3814 Y-0.2455
N17650 X-0.3813 Y-0.245
N17655 G2 X-0.3812 Y-0.2446 I0.0035 J-0.001
N17660 G1 X-0.381 Y-0.2442
N17665 X-0.3808 Y-0.2437
N17670 X-0.3807
N17675 X-0.3805 Y-0.2432
N17680 X-0.3803 Y-0.2427
N17685 X-0.3801 Y-0.2422
N17690 Y-0.2421
N17695 X-0.3799 Y-0.2417
N17700 X-0.3798 Y-0.2416
N17705 X-0.3796 Y-0.2412
N17710 Y-0.2411
N17715 X-0.3793 Y-0.2407
N17720 Y-0.2406
N17725 X-0.3791 Y-0.2401
N17730 X-0.379
N17735 X-0.3787 Y-0.2396
N17740 Y-0.2395
N17745 X-0.3784 Y-0.2391
N17750 X-0.3783 Y-0.239
N17755 X-0.3781 Y-0.2386
N17760 X-0.378 Y-0.2385
N17765 X-0.3777 Y-0.2381
N17770 X-0.3776 Y-0.238
N17775 X-0.3773 Y-0.2376
N17780 X-0.3772 Y-0.2375
N17785 X-0.3769 Y-0.2371
N17790 X-0.3768 Y-0.237
N17795 X-0.3765 Y-0.2367
N17800 X-0.3764 Y-0.2366
N17805 X-0.376 Y-0.2363
N17810 Y-0.2362
N17815 X-0.3756 Y-0.2358
N17820 X-0.3752 Y-0.2355
N17825 Y-0.2354
N17830 X-0.3748 Y-0.2351
N17835 X-0.3747 Y-0.235
N17840 X-0.3744 Y-0.2347
N17845 X-0.3743
N17850 X-0.374 Y-0.2344
N17855 X-0.3739 Y-0.2343
N17860 X-0.3735 Y-0.234
N17865 X-0.3732 Y-0.2337
N17870 G2 X-0.3726 Y-0.2333 I0.0024 J-0.0028
N17875 G1 X-0.3721 Y-0.233
N17880 X-0.3716 Y-0.2327
N17885 X-0.3711 Y-0.2325
N17890 Y-0.2324
N17895 X-0.3706 Y-0.2322
N17900 X-0.3701 Y-0.2319
N17905 X-0.37
N17910 X-0.3695 Y-0.2316
N17915 X-0.369 Y-0.2314
N17920 X-0.3689 Y-0.2313
N17925 X-0.3684 Y-0.2311
N17930 X-0.3683
N17935 X-0.3678 Y-0.2308
N17940 X-0.3681 Y-0.231
N17945 X-0.3687 Y-0.2312
N17950 X-0.3693 Y-0.2314
N17955 X-0.3699 Y-0.2317
N17960 X-0.3705 Y-0.232
N17965 X-0.3711 Y-0.2322
N17970 X-0.3717 Y-0.2325
N17975 X-0.3721 Y-0.2327
N17980 X-0.3724 Y-0.2329
N17985 X-0.373 Y-0.2333
N17990 X-0.3735 Y-0.2336
N17995 X-0.374 Y-0.234
N18000 X-0.3745 Y-0.2343
N18005 X-0.375 Y-0.2347
N18010 X-0.3755 Y-0.2351
N18015 X-0.3759 Y-0.2354
N18020 X-0.3764 Y-0.2358
N18025 X-0.3768 Y-0.2361
N18030 X-0.3772 Y-0.2365
N18035 X-0.3775 Y-0.2369
N18040 X-0.3779 Y-0.2373
N18045 X-0.3783 Y-0.2377
N18050 X-0.3786 Y-0.2381
N18055 X-0.3789 Y-0.2386
N18060 X-0.3793 Y-0.239
N18065 X-0.3796 Y-0.2395
N18070 X-0.38 Y-0.24
N18075 X-0.3803 Y-0.2405
N18080 X-0.3806 Y-0.2411
N18085 X-0.381 Y-0.2416
N18090 X-0.3813 Y-0.2422
N18095 X-0.3815 Y-0.2425
N18100 X-0.3817 Y-0.243
N18105 X-0.382 Y-0.2437
N18110 X-0.3823 Y-0.2444
N18115 X-0.3825 Y-0.245
N18120 X-0.3828 Y-0.2457
N18125 X-0.383 Y-0.2464
N18130 X-0.3833 Y-0.247
N18135 X-0.3835 Y-0.2477
N18140 X-0.3837 Y-0.2483
N18145 X-0.3839 Y-0.2489
N18150 X-0.384 Y-0.2496
N18155 X-0.3842 Y-0.2502
N18160 X-0.3843 Y-0.2508
N18165 X-0.3844 Y-0.2515
N18170 X-0.3845 Y-0.2521
N18175 X-0.3846 Y-0.2528
N18180 X-0.3847 Y-0.2535
N18185 Y-0.2542
N18190 X-0.3848 Y-0.2549
N18195 Y-0.2556
N18200 X-0.3849 Y-0.2563
N18205 Y-0.2571
N18210 Y-0.2578
N18215 X-0.385 Y-0.2584
N18220 X-0.3849 Y-0.259
N18225 Y-0.2597
N18230 Y-0.2604
N18235 X-0.3848 Y-0.2612
N18240 Y-0.2619
N18245 X-0.3847 Y-0.2626
N18250 Y-0.2633
N18255 X-0.3846 Y-0.2639
N18260 X-0.3845 Y-0.2646
N18265 X-0.3844 Y-0.2653
N18270 X-0.3843 Y-0.2659
N18275 X-0.3842 Y-0.2665
N18280 X-0.3841 Y-0.2672
N18285 X-0.3839 Y-0.2678
N18290 X-0.3838 Y-0.2684
N18295 X-0.3836 Y-0.2691
N18300 X-0.3834 Y-0.2697
N18305 X-0.3832 Y-0.2704
N18310 X-0.383 Y-0.2711
N18315 X-0.3828 Y-0.2717
N18320 X-0.3825 Y-0.2724
N18325 X-0.3823 Y-0.2731
N18330 X-0.382 Y-0.2738
N18335 X-0.3819 Y-0.2743
N18340 X-0.3817 Y-0.2747
N18345 X-0.3814 Y-0.2753
N18350 X-0.3811 Y-0.2758
N18355 X-0.3808 Y-0.2764
N18360 X-0.3805 Y-0.277
N18365 X-0.3802 Y-0.2775
N18370 X-0.3799 Y-0.278
N18375 X-0.3796 Y-0.2785
N18380 X-0.3793 Y-0.279
N18385 X-0.379 Y-0.2795
N18390 X-0.3787 Y-0.2799
N18395 X-0.3783 Y-0.2803
N18400 X-0.378 Y-0.2807
N18405 X-0.3776 Y-0.2811
N18410 X-0.3773 Y-0.2815
N18415 X-0.3769 Y-0.2819
N18420 X-0.3764 Y-0.2823
N18425 X-0.376 Y-0.2827
N18430 X-0.3755 Y-0.2831
N18435 X-0.3751 Y-0.2835
N18440 X-0.3746 Y-0.2839
N18445 X-0.3741 Y-0.2843
N18450 X-0.3736 Y-0.2847
N18455 X-0.3733 Y-0.2849
N18460 X-0.373 Y-0.2851
N18465 X-0.3723 Y-0.2854
N18470 X-0.3717 Y-0.2857
N18475 X-0.3711 Y-0.286
N18480 X-0.3704 Y-0.2863
N18485 X-0.3698 Y-0.2866
N18490 X-0.3692 Y-0.2868
N18495 X-0.3686 Y-0.2871
N18500 X-0.368 Y-0.2873
N18505 X-0.3674 Y-0.2875
N18510 X-0.3669 Y-0.2876
N18515 X-0.3663 Y-0.2878
N18520 X-0.3657 Y-0.2879
N18525 X-0.3651 Y-0.288
N18530 X-0.3644 Y-0.2881
N18535 X-0.3638 Y-0.2882
N18540 X-0.3631 Y-0.2883
N18545 X-0.3625 Y-0.2884
N18550 X-0.3618
N18555 X-0.3611 Y-0.2885
N18560 X-0.3604
N18565 X-0.3598
N18570 X-0.3604
N18575 X-0.3611
N18580 X-0.3618 Y-0.2884
N18585 X-0.3625
N18590 X-0.3631 Y-0.2883
N18595 X-0.3638 Y-0.2882
N18600 X-0.3644 Y-0.2881
N18605 X-0.3651 Y-0.288
N18610 X-0.3657 Y-0.2879
N18615 X-0.3663 Y-0.2878
N18620 X-0.3669 Y-0.2876
N18625 X-0.3674 Y-0.2875
N18630 X-0.368 Y-0.2873
N18635 X-0.3686 Y-0.2871
N18640 X-0.3692 Y-0.2868
N18645 X-0.3698 Y-0.2866
N18650 X-0.3704 Y-0.2863
N18655 X-0.3711 Y-0.286
N18660 X-0.3717 Y-0.2857
N18665 X-0.3723 Y-0.2854
N18670 X-0.373 Y-0.2851
N18675 X-0.3733 Y-0.2849
N18680 X-0.3736 Y-0.2847
N18685 X-0.3741 Y-0.2843
N18690 X-0.3746 Y-0.2839
N18695 X-0.3751 Y-0.2835
N18700 X-0.3755 Y-0.2831
N18705 X-0.376 Y-0.2827
N18710 X-0.3764 Y-0.2823
N18715 X-0.3769 Y-0.2819
N18720 X-0.3773 Y-0.2815
N18725 X-0.3776 Y-0.2811
N18730 X-0.378 Y-0.2807
N18735 X-0.3783 Y-0.2803
N18740 X-0.3787 Y-0.2799
N18745 X-0.379 Y-0.2795
N18750 X-0.3793 Y-0.279
N18755 X-0.3796 Y-0.2785
N18760 X-0.3799 Y-0.278
N18765 X-0.3802 Y-0.2775
N18770 X-0.3805 Y-0.277
N18775 X-0.3808 Y-0.2764
N18780 X-0.3811 Y-0.2758
N18785 X-0.3814 Y-0.2753
N18790 X-0.3817 Y-0.2747
N18795 X-0.3819 Y-0.2743
N18800 X-0.382 Y-0.2738
N18805 X-0.3823 Y-0.2731
N18810 X-0.3825 Y-0.2724
N18815 X-0.3828 Y-0.2717
N18820 X-0.383 Y-0.2711
N18825 X-0.3832 Y-0.2704
N18830 X-0.3834 Y-0.2697
N18835 X-0.3836 Y-0.2691
N18840 X-0.3838 Y-0.2684
N18845 X-0.3839 Y-0.2678
N18850 X-0.3841 Y-0.2672
N18855 X-0.3842 Y-0.2665
N18860 X-0.3843 Y-0.2659
N18865 X-0.3844 Y-0.2653
N18870 X-0.3845 Y-0.2646
N18875 X-0.3846 Y-0.2639
N18880 X-0.3847 Y-0.2633
N18885 Y-0.2626
N18890 X-0.3848 Y-0.2619
N18895 Y-0.2612
N18900 X-0.3849 Y-0.2604
N18905 Y-0.2597
N18910 Y-0.259
N18915 X-0.385 Y-0.2584
N18920 X-0.3849 Y-0.2578
N18925 Y-0.2571
N18930 Y-0.2563
N18935 X-0.3848 Y-0.2556
N18940 Y-0.2549
N18945 X-0.3847 Y-0.2542
N18950 Y-0.2535
N18955 X-0.3846 Y-0.2528
N18960 X-0.3845 Y-0.2521
N18965 X-0.3844 Y-0.2515
N18970 X-0.3843 Y-0.2508
N18975 X-0.3842 Y-0.2502
N18980 X-0.384 Y-0.2496
N18985 X-0.3839 Y-0.2489
N18990 X-0.3837 Y-0.2483
N18995 X-0.3835 Y-0.2477
N19000 X-0.3833 Y-0.247
N19005 X-0.383 Y-0.2464
N19010 X-0.3828 Y-0.2457
N19015 X-0.3825 Y-0.245
N19020 X-0.3823 Y-0.2444
N19025 X-0.382 Y-0.2437
N19030 X-0.3817 Y-0.243
N19035 X-0.3815 Y-0.2425
N19040 X-0.3813 Y-0.2422
N19045 X-0.381 Y-0.2416
N19050 X-0.3806 Y-0.2411
N19055 X-0.3803 Y-0.2405
N19060 X-0.38 Y-0.24
N19065 X-0.3796 Y-0.2395
N19070 X-0.3793 Y-0.239
N19075 X-0.3789 Y-0.2386
N19080 X-0.3786 Y-0.2381
N19085 X-0.3783 Y-0.2377
N19090 X-0.3779 Y-0.2373
N19095 X-0.3775 Y-0.2369
N19100 X-0.3772 Y-0.2365
N19105 X-0.3768 Y-0.2361
N19110 X-0.3764 Y-0.2358
N19115 X-0.3759 Y-0.2354
N19120 X-0.3755 Y-0.2351
N19125 X-0.375 Y-0.2347
N19130 X-0.3745 Y-0.2343
N19135 X-0.374 Y-0.234
N19140 X-0.3735 Y-0.2336
N19145 X-0.373 Y-0.2333
N19150 X-0.3724 Y-0.2329
N19155 X-0.3721 Y-0.2327
N19160 X-0.3717 Y-0.2325
N19165 X-0.3711 Y-0.2322
N19170 X-0.3705 Y-0.232
N19175 X-0.3699 Y-0.2317
N19180 X-0.3693 Y-0.2314
N19185 X-0.3687 Y-0.2312
N19190 X-0.3681 Y-0.231
N19195 X-0.3678 Y-0.2308
N19200 X-0.3672 Y-0.2306
N19205 X-0.3658 Y-0.2302
N19210 X-0.3637 Y-0.2297
N19215 X-0.3609 Y-0.2294
N19220 X-0.3584 Y-0.2293
N19225 X-0.3582
N19230 X-0.3577
N19235 X-0.3572
N19240 X-0.3567
N19245 X-0.3562 Y-0.2294
N19250 X-0.3561
N19255 X-0.3557
N19260 X-0.3556
N19265 X-0.3551 Y-0.2295
N19270 X-0.3546
N19275 X-0.3545
N19280 X-0.3541 Y-0.2296
N19285 X-0.354
N19290 X-0.3535 Y-0.2297
N19295 X-0.3534
N19300 X-0.3529 Y-0.2298
N19305 X-0.3528
N19310 X-0.3524 Y-0.2299
N19315 X-0.3522 Y-0.23
N19320 X-0.3518 Y-0.2301
N19325 X-0.3516
N19330 X-0.3512 Y-0.2303
N19335 X-0.3511
N19340 X-0.3506 Y-0.2305
N19345 X-0.3505
N19350 X-0.3501 Y-0.2307
N19355 X-0.35
N19360 X-0.3495 Y-0.2309
N19365 X-0.3494 Y-0.231
N19370 X-0.349 Y-0.2312
N19375 X-0.3489
N19380 X-0.3485 Y-0.2314
N19385 X-0.3484 Y-0.2315
N19390 X-0.348 Y-0.2317
N19395 X-0.3475 Y-0.2319
N19400 Y-0.232
N19405 X-0.3471 Y-0.2322
N19410 X-0.347
N19415 X-0.3466 Y-0.2325
N19420 X-0.3462 Y-0.2327
N19425 X-0.3458 Y-0.233
N19430 G2 X-0.3451 Y-0.2335 I-0.0019 J-0.0031
N19435 G1 X-0.3447 Y-0.2338
N19440 Y-0.2339
N19445 X-0.3444 Y-0.2342
N19450 X-0.3443
N19455 X-0.344 Y-0.2346
N19460 X-0.3439
N19465 X-0.3436 Y-0.235
N19470 X-0.3432 Y-0.2354
N19475 X-0.3428 Y-0.2358
N19480 X-0.3427 Y-0.2359
N19485 X-0.3424 Y-0.2362
N19490 X-0.3423 Y-0.2363
N19495 X-0.342 Y-0.2367
N19500 Y-0.2368
N19505 X-0.3416 Y-0.2372
N19510 Y-0.2373
N19515 X-0.3413 Y-0.2377
N19520 X-0.3412 Y-0.2378
N19525 X-0.3409 Y-0.2382
N19530 X-0.3408 Y-0.2383
N19535 X-0.3405 Y-0.2387
N19540 Y-0.2388
N19545 X-0.3402 Y-0.2393
N19550 Y-0.2394
N19555 X-0.3399 Y-0.2398
N19560 Y-0.2399
N19565 X-0.3396 Y-0.2404
N19570 Y-0.2405
N19575 X-0.3394 Y-0.2409
N19580 X-0.3393 Y-0.241
N19585 X-0.3391 Y-0.2415
N19590 X-0.3389 Y-0.242
N19595 Y-0.2421
N19600 X-0.3376 Y-0.2418
N19605 X-0.3344 Y-0.2435 Z-0.0035
N19610 X-0.3328 Y-0.2443 Z0.
N19615 X-0.3344 Y-0.2435 Z-0.0035
N19620 X-0.3376 Y-0.2418 Z-0.01
N19625 X-0.3379 Y-0.2412
N19630 X-0.3381 Y-0.2407
N19635 X-0.3384 Y-0.2401
N19640 X-0.3387 Y-0.2396
N19645 X-0.3389 Y-0.2391
N19650 X-0.3392 Y-0.2387
N19655 X-0.3395 Y-0.2382
N19660 X-0.3399 Y-0.2378
N19665 X-0.3402 Y-0.2373
N19670 X-0.3406 Y-0.2369
N19675 X-0.341 Y-0.2364
N19680 X-0.3414 Y-0.236
N19685 X-0.3419 Y-0.2355
N19690 X-0.3424 Y-0.2351
N19695 X-0.3428 Y-0.2346
N19700 X-0.3433 Y-0.2342
N19705 X-0.3439 Y-0.2337
N19710 X-0.3441 Y-0.2335
N19715 X-0.3444 Y-0.2333
N19720 X-0.345 Y-0.2329
N19725 X-0.3456 Y-0.2326
N19730 X-0.3462 Y-0.2322
N19735 X-0.3468 Y-0.2319
N19740 X-0.3474 Y-0.2316
N19745 X-0.3479 Y-0.2313
N19750 X-0.3485 Y-0.231
N19755 X-0.3491 Y-0.2308
N19760 X-0.3496 Y-0.2306
N19765 X-0.3501 Y-0.2304
N19770 X-0.3507 Y-0.2302
N19775 X-0.3512 Y-0.2301
N19780 X-0.3518 Y-0.2299
N19785 X-0.3524 Y-0.2298
N19790 X-0.353 Y-0.2297
N19795 X-0.3536 Y-0.2296
N19800 X-0.3542 Y-0.2295
N19805 X-0.3549
N19810 X-0.3556 Y-0.2294
N19815 X-0.3563
N19820 X-0.357 Y-0.2293
N19825 X-0.3577
N19830 X-0.3582 Y-0.2292
N19835 X-0.3584 Y-0.2293
N19840 G0 Z0.1
N19845 X-0.3411 Y-0.2463
N19850 Z0.05
N19855 G1 Z-0.0001 F5.
N19860 X-0.3389 Y-0.2421 Z-0.01 F7.5
N19865 G0 Z0.1
N19870 X-0.3327 Y-0.4945
N19875 Z0.05
N19880 G1 Z0. F5.
N19885 X-0.3274 Y-0.4908 Z-0.01 F7.5
N19890 X-0.3262
N19895 X-0.3237 Y-0.4945 Z0.
N19900 X-0.3262 Y-0.4908 Z-0.01
N19905 X-0.32 Y-0.4737
N19910 G2 X-0.3166 Y-0.4713 I0.0034 J-0.0012
N19915 G1 X-0.3157
N19920 X-0.3149 Y-0.4714 Z-0.0097
N19925 X-0.3142 Y-0.4715 Z-0.0095
N19930 X-0.2923
N19935 X-0.2916 Y-0.4714 Z-0.0097
N19940 X-0.2908 Y-0.4713 Z-0.01
N19945 X-0.2897
N19950 G2 X-0.2863 Y-0.4737 I0. J-0.0036
N19955 G1 X-0.2797 Y-0.4908
N19960 X-0.2822 Y-0.4945 Z0.
N19965 X-0.2797 Y-0.4908 Z-0.01
N19970 X-0.2779
N19975 X-0.2725 Y-0.4945 Z0.
N19980 X-0.2779 Y-0.4908 Z-0.01
N19985 X-0.2992 Y-0.4387
N19990 X-0.2991 Y-0.4391
N19995 X-0.2989 Y-0.4396
N20000 X-0.2987 Y-0.4402
N20005 X-0.2986 Y-0.4407
N20010 X-0.2984 Y-0.4413
N20015 X-0.2982 Y-0.4418
N20020 X-0.298 Y-0.4424
N20025 X-0.2978 Y-0.4429
N20030 X-0.2976 Y-0.4434
N20035 X-0.2974 Y-0.444
N20040 X-0.2972 Y-0.4445
N20045 X-0.2971 Y-0.4451
N20050 X-0.2969 Y-0.4456
N20055 X-0.2967 Y-0.4462
N20060 X-0.2965 Y-0.4467
N20065 X-0.2962 Y-0.4472
N20070 Y-0.4473
N20075 X-0.296 Y-0.4478
N20080 X-0.2958 Y-0.4483
N20085 X-0.2956 Y-0.4489
N20090 X-0.2889 Y-0.4667
N20095 G2 X-0.2908 Y-0.4713 I-0.0034 J-0.0013
N20100 G3 X-0.2889 Y-0.4667 I-0.0015 J0.0033
N20105 G1 X-0.2956 Y-0.4489
N20110 X-0.2958 Y-0.4483
N20115 X-0.296 Y-0.4478
N20120 X-0.2962 Y-0.4473
N20125 Y-0.4472
N20130 X-0.2965 Y-0.4467
N20135 X-0.2967 Y-0.4462
N20140 X-0.2969 Y-0.4456
N20145 X-0.2971 Y-0.4451
N20150 X-0.2972 Y-0.4445
N20155 X-0.2974 Y-0.444
N20160 X-0.2976 Y-0.4434
N20165 X-0.2978 Y-0.4429
N20170 X-0.298 Y-0.4424
N20175 X-0.2982 Y-0.4418
N20180 X-0.2984 Y-0.4413
N20185 X-0.2986 Y-0.4407
N20190 X-0.2987 Y-0.4402
N20195 X-0.2989 Y-0.4396
N20200 X-0.2991 Y-0.4391
N20205 X-0.2992 Y-0.4387
N20210 X-0.2999 Y-0.4369 Z-0.0098
N20215 X-0.3004 Y-0.4355 Z-0.0096
N20220 X-0.301 Y-0.4342 Z-0.01
N20225 G3 X-0.3017 Y-0.4337 I-0.0026 J-0.0026
N20230 G1 X-0.3013
N20235 X-0.2988 Y-0.4301 Z0.
N20240 X-0.3013 Y-0.4337 Z-0.01
N20245 X-0.301 Y-0.4342
N20250 X-0.3013 Y-0.4337
N20255 X-0.3017
N20260 X-0.3027 Y-0.4335 Z-0.0095
N20265 X-0.3036 Y-0.4334 Z-0.0093
N20270 X-0.3045 Y-0.4335 Z-0.0095
N20275 X-0.3055 Y-0.4337 Z-0.01
N20280 X-0.308 Y-0.4301 Z0.
N20285 X-0.3055 Y-0.4337 Z-0.01
N20290 X-0.3062 Y-0.4346 Z-0.0092
N20295 X-0.3067 Y-0.4356 Z-0.009
N20300 X-0.3074 Y-0.4381 Z-0.0095
N20305 X-0.3084 Y-0.4411 Z-0.01
N20310 X-0.3085 Y-0.4416
N20315 X-0.3086 Y-0.442
N20320 X-0.3087 Y-0.4425
N20325 X-0.3089 Y-0.443
N20330 X-0.309 Y-0.4435
N20335 X-0.3092 Y-0.444
N20340 X-0.3093 Y-0.4445
N20345 X-0.3095 Y-0.445
N20350 X-0.3097 Y-0.4454
N20355 X-0.3098 Y-0.4459
N20360 X-0.31 Y-0.4464
N20365 X-0.3102 Y-0.4469
N20370 X-0.3103 Y-0.4474
N20375 X-0.3105 Y-0.4479
N20380 X-0.3176 Y-0.4667
N20385 G3 X-0.3157 Y-0.4713 I0.0034 J-0.0013
N20390 G2 X-0.3176 Y-0.4667 I0.0015 J0.0033
N20395 G1 X-0.3105 Y-0.4479
N20400 X-0.3103 Y-0.4474
N20405 X-0.3102 Y-0.4469
N20410 X-0.31 Y-0.4464
N20415 X-0.3098 Y-0.4459
N20420 X-0.3097 Y-0.4454
N20425 X-0.3095 Y-0.445
N20430 X-0.3093 Y-0.4445
N20435 X-0.3092 Y-0.444
N20440 X-0.309 Y-0.4435
N20445 X-0.3089 Y-0.443
N20450 X-0.3087 Y-0.4425
N20455 X-0.3086 Y-0.442
N20460 X-0.3085 Y-0.4416
N20465 X-0.3084 Y-0.4411
N20470 X-0.3274 Y-0.4908
N20475 G0 Z0.1
N20480 X-0.3282 Y-0.2911
N20485 Z0.05
N20490 G1 Z0. F5.
N20495 X-0.3229 Y-0.2875 Z-0.01 F7.5
N20500 X-0.3038 Y-0.2378
N20505 X-0.3039 Y-0.2382
N20510 X-0.3041 Y-0.2387
N20515 X-0.3042 Y-0.2392
N20520 X-0.3044 Y-0.2397
N20525 X-0.3045 Y-0.2401
N20530 X-0.3047 Y-0.2406
N20535 X-0.3048 Y-0.2411
N20540 X-0.305 Y-0.2416
N20545 X-0.3051 Y-0.2421
N20550 X-0.3053 Y-0.2426
N20555 X-0.3055 Y-0.2431
N20560 X-0.3056 Y-0.2436
N20565 X-0.306 Y-0.2445
N20570 X-0.313 Y-0.2634
N20575 G3 X-0.3112 Y-0.268 I0.0034 J-0.0013
N20580 G1 X-0.3121
N20585 G3 X-0.3155 Y-0.2704 I0. J-0.0036
N20590 G1 X-0.3217 Y-0.2875
N20595 X-0.3229
N20600 X-0.3217
N20605 X-0.3192 Y-0.2911 Z0.
N20610 X-0.3217 Y-0.2875 Z-0.01
N20615 X-0.3155 Y-0.2704
N20620 G2 X-0.3121 Y-0.268 I0.0034 J-0.0012
N20625 G1 X-0.3112
N20630 X-0.3104 Y-0.2681 Z-0.0097
N20635 X-0.3096 Z-0.0095
N20640 X-0.2878
N20645 X-0.287 Z-0.0097
N20650 X-0.2863 Y-0.268 Z-0.01
N20655 X-0.2852
N20660 G2 X-0.2818 Y-0.2703 I0. J-0.0036
N20665 G1 X-0.2751 Y-0.2875
N20670 X-0.2776 Y-0.2911 Z0.
N20675 X-0.2751 Y-0.2875 Z-0.01
N20680 X-0.2733
N20685 X-0.2679 Y-0.2911 Z0.
N20690 X-0.2733 Y-0.2875 Z-0.01
N20695 X-0.2947 Y-0.2353
N20700 X-0.2946 Y-0.2357
N20705 X-0.2944 Y-0.2363
N20710 X-0.2942 Y-0.2368
N20715 X-0.294 Y-0.2374
N20720 X-0.2939 Y-0.2379
N20725 X-0.2937 Y-0.2385
N20730 X-0.2935 Y-0.239
N20735 X-0.2933 Y-0.2395
N20740 X-0.2931 Y-0.2401
N20745 X-0.2929 Y-0.2406
N20750 X-0.2927 Y-0.2412
N20755 X-0.2925 Y-0.2417
N20760 X-0.2923 Y-0.2423
N20765 X-0.2921 Y-0.2428
N20770 X-0.2919 Y-0.2433
N20775 X-0.2917 Y-0.2439
N20780 X-0.2915 Y-0.2444
N20785 X-0.2913 Y-0.245
N20790 X-0.2911 Y-0.2455
N20795 X-0.2844 Y-0.2634
N20800 G2 X-0.2863 Y-0.268 I-0.0034 J-0.0013
N20805 G3 X-0.2844 Y-0.2634 I-0.0015 J0.0033
N20810 G1 X-0.2911 Y-0.2455
N20815 X-0.2913 Y-0.245
N20820 X-0.2915 Y-0.2444
N20825 X-0.2917 Y-0.2439
N20830 X-0.2919 Y-0.2433
N20835 X-0.2921 Y-0.2428
N20840 X-0.2923 Y-0.2423
N20845 X-0.2925 Y-0.2417
N20850 X-0.2927 Y-0.2412
N20855 X-0.2929 Y-0.2406
N20860 X-0.2931 Y-0.2401
N20865 X-0.2933 Y-0.2395
N20870 X-0.2935 Y-0.239
N20875 X-0.2937 Y-0.2385
N20880 X-0.2939 Y-0.2379
N20885 X-0.294 Y-0.2374
N20890 X-0.2942 Y-0.2368
N20895 X-0.2944 Y-0.2363
N20900 X-0.2946 Y-0.2357
N20905 X-0.2947 Y-0.2353
N20910 X-0.2953 Y-0.2335 Z-0.0098
N20915 X-0.2958 Y-0.2321 Z-0.0096
N20920 X-0.2965 Y-0.2309 Z-0.01
N20925 G3 X-0.2972 Y-0.2303 I-0.0026 J-0.0026
N20930 G1 X-0.2967
N20935 X-0.2965 Y-0.2309
N20940 X-0.2967 Y-0.2303
N20945 X-0.2943 Y-0.2267 Z0.
N20950 X-0.2967 Y-0.2303 Z-0.01
N20955 X-0.2972
N20960 X-0.2982 Y-0.2301 Z-0.0095
N20965 X-0.2991 Z-0.0093
N20970 X-0.3 Z-0.0095
N20975 X-0.3009 Y-0.2303 Z-0.01
N20980 X-0.301 Y-0.2304
N20985 X-0.3016 Y-0.2313 Z-0.0092
N20990 X-0.3021 Y-0.2323 Z-0.009
N20995 X-0.3029 Y-0.2348 Z-0.0095
N21000 X-0.3038 Y-0.2378 Z-0.01
N21005 X-0.3029 Y-0.2348 Z-0.0095
N21010 X-0.3021 Y-0.2323 Z-0.009
N21015 X-0.3016 Y-0.2313 Z-0.0092
N21020 X-0.301 Y-0.2304 Z-0.01
N21025 Y-0.2303
N21030 X-0.3009
N21035 X-0.301
N21040 X-0.3035 Y-0.2267 Z0.
N21045 G0 Z0.1
N21050 X-0.3206 Y-0.3303
N21055 Z0.05
N21060 G1 Z-0.01 F5.
N21065 X-0.3196 Z-0.0098 F7.5
N21070 X-0.2995
N21075 X-0.2992
N21080 X-0.2963
N21085 X-0.2942 Y-0.3305 Z-0.01
N21090 X-0.2938 Y-0.3306
N21095 X-0.2933
N21100 X-0.2929 Y-0.3307
N21105 X-0.2924
N21110 X-0.2919 Y-0.3308
N21115 X-0.2915 Y-0.3309
N21120 X-0.291 Y-0.331
N21125 X-0.2905 Y-0.3311
N21130 X-0.29 Y-0.3313
N21135 X-0.2895 Y-0.3314
N21140 X-0.289 Y-0.3315
N21145 X-0.2885 Y-0.3317
N21150 X-0.2879 Y-0.3318
N21155 X-0.2877 Y-0.3319
N21160 X-0.2873 Y-0.3321
N21165 X-0.287 Y-0.3322
N21170 X-0.2867 Y-0.3324
N21175 X-0.2864 Y-0.3326
N21180 X-0.2861 Y-0.3327
N21185 X-0.2858 Y-0.3329
N21190 X-0.2855 Y-0.333
N21195 X-0.2853 Y-0.3332
N21200 X-0.2851 Y-0.3333
N21205 X-0.2849 Y-0.3335
N21210 X-0.2847 Y-0.3337
N21215 X-0.2845 Y-0.3338
N21220 X-0.2843 Y-0.334
N21225 X-0.2841 Y-0.3342
N21230 X-0.2839 Y-0.3344
N21235 X-0.2837 Y-0.3346
N21240 X-0.2835 Y-0.3349
N21245 X-0.2833 Y-0.3352
N21250 X-0.2831 Y-0.3354
N21255 X-0.2829 Y-0.3357
N21260 X-0.2827 Y-0.336
N21265 X-0.2825 Y-0.3363
N21270 X-0.2824 Y-0.3365
N21275 X-0.2823 Y-0.3366
N21280 X-0.2821 Y-0.337
N21285 X-0.2819 Y-0.3373
N21290 X-0.2818 Y-0.3377
N21295 X-0.2816 Y-0.338
N21300 X-0.2814 Y-0.3384
N21305 X-0.2813 Y-0.3387
N21310 X-0.2812 Y-0.339
N21315 X-0.281 Y-0.3393
N21320 X-0.2809 Y-0.3396
N21325 X-0.2808 Y-0.3399
N21330 Y-0.3402
N21335 X-0.2807 Y-0.3405
N21340 X-0.2806 Y-0.3408
N21345 X-0.2805 Y-0.3411
N21350 Y-0.3414
N21355 X-0.2804 Y-0.3418
N21360 Y-0.3421
N21365 Y-0.3425
N21370 X-0.2803 Y-0.3429
N21375 Y-0.3433
N21380 Y-0.3437
N21385 X-0.2802 Y-0.3441
N21390 Y-0.3442
N21395 X-0.2803 Y-0.3445
N21400 Y-0.345
N21405 Y-0.3455
N21410 X-0.2804 Y-0.346
N21415 Y-0.3465
N21420 X-0.2805 Y-0.3469
N21425 X-0.2806 Y-0.3474
N21430 X-0.2807 Y-0.3478
N21435 Y-0.3482
N21440 X-0.2808 Y-0.3485
N21445 X-0.2809 Y-0.3489
N21450 X-0.2811 Y-0.3492
N21455 X-0.2812 Y-0.3495
N21460 X-0.2813 Y-0.3498
N21465 X-0.2815 Y-0.3502
N21470 X-0.2817 Y-0.3505
N21475 X-0.2819 Y-0.3509
N21480 X-0.2822 Y-0.3512
N21485 X-0.2824 Y-0.3516
N21490 X-0.2827 Y-0.352
N21495 X-0.283 Y-0.3524
N21500 X-0.2833 Y-0.3528
N21505 X-0.2836 Y-0.3532
N21510 Y-0.3533
N21515 X-0.2838 Y-0.3534
N21520 X-0.2843 Y-0.3538
N21525 X-0.2847 Y-0.3541
N21530 X-0.2852 Y-0.3545
N21535 X-0.2857 Y-0.3548
N21540 X-0.2861 Y-0.3551
N21545 X-0.2866 Y-0.3554
N21550 X-0.287 Y-0.3557
N21555 X-0.2875 Y-0.356
N21560 X-0.2879 Y-0.3562
N21565 X-0.2883 Y-0.3564
N21570 X-0.2888 Y-0.3566
N21575 X-0.2892 Y-0.3568
N21580 X-0.2897 Y-0.357
N21585 X-0.2902 Y-0.3571
N21590 X-0.2905 Y-0.3572
N21595 X-0.2912 Y-0.3574 Z-0.0099
N21600 X-0.2944 Y-0.3581 Z-0.0098
N21605 X-0.2957 Y-0.3584
N21610 X-0.2963 Y-0.3585 Z-0.01
N21615 X-0.2957 Y-0.3584 Z-0.0098
N21620 X-0.2944 Y-0.3581
N21625 X-0.2912 Y-0.3574 Z-0.0099
