%
(1001)
(14 END MILL)
(T2  D=0.25 CR=0. - ZMIN=-1.37 - FLAT END MILL)
N10 G90 G94 G17 G91.1
N15 G20
N20 G53 G0 Z0.
(FCG_TRIGGER_SLOT)
N25 M9
N30 T2 M6
N35 S2000 M3
N40 G54
N45 M8
N55 G0 X-4.4731 Y0.0068
N60 G43 Z0.3 H2
N65 G0 Z-1.171
N70 G1 Z-1.29 F4.
N75 G3 X-4.4807 Y-0.0092 I0.0041 J-0.0118
N80 G1 X-4.4797 Y-0.0119 F7.
N85 X-4.4784 Y-0.0146
N90 Y-0.0147
N95 X-4.4769 Y-0.0173
N100 X-4.475 Y-0.0197
N105 X-4.473 Y-0.022
N110 X-4.4729
N115 X-4.4708 Y-0.024
N120 X-4.4707 Y-0.0241
N125 X-4.4683 Y-0.0258
N130 Y-0.0259
N135 X-4.4657 Y-0.0274
N140 X-4.4656
N145 X-4.4629 Y-0.0287
N150 X-4.46 Y-0.0298
N155 X-4.4571 Y-0.0305
N160 X-4.457
N165 X-4.4541 Y-0.0309
N170 X-4.454
N175 X-4.449 Y-0.0312
N180 X-4.4411
N185 X-4.0929
N190 X-4.085
N195 X-4.08 Y-0.0309
N200 X-4.077 Y-0.0305
N205 X-4.0769
N210 X-4.074 Y-0.0298
N215 X-4.0711 Y-0.0287
N220 X-4.071
N225 X-4.0684 Y-0.0274
N230 X-4.0683
N235 X-4.0657 Y-0.0259
N240 Y-0.0258
N245 X-4.0633 Y-0.0241
N250 X-4.0632 Y-0.024
N255 X-4.0611 Y-0.022
N260 X-4.061
N265 X-4.059 Y-0.0197
N270 X-4.0571 Y-0.0173
N275 X-4.0556 Y-0.0147
N280 Y-0.0146
N285 X-4.0543 Y-0.0119
N290 X-4.0532 Y-0.009
N295 Y-0.0089
N300 X-4.0525 Y-0.0061
N305 Y-0.006
N310 X-4.0521 Y-0.0031
N315 X-4.052 Y-0.003
N320 X-4.0519 Y0.
N325 X-4.052 Y0.003
N330 X-4.0521 Y0.0031
N335 X-4.0525 Y0.006
N340 Y0.0061
N345 X-4.0532 Y0.0089
N350 Y0.009
N355 X-4.0543 Y0.0119
N360 X-4.0556 Y0.0146
N365 Y0.0147
N370 X-4.0571 Y0.0173
N375 X-4.059 Y0.0197
N380 X-4.061 Y0.022
N385 X-4.0611
N390 X-4.0632 Y0.024
N395 X-4.0633 Y0.0241
N400 X-4.0657 Y0.0258
N405 Y0.0259
N410 X-4.0683 Y0.0274
N415 X-4.0684
N420 X-4.071 Y0.0287
N425 X-4.0711
N430 X-4.074 Y0.0298
N435 X-4.0769 Y0.0305
N440 X-4.077
N445 X-4.08 Y0.0309
N450 X-4.085 Y0.0312
N455 X-4.0929 Y0.0313
N460 X-4.4411
N465 X-4.449 Y0.0312
N470 X-4.454 Y0.0309
N475 X-4.4541
N480 X-4.457 Y0.0305
N485 X-4.4571
N490 X-4.46 Y0.0298
N495 X-4.4629 Y0.0287
N500 X-4.4656 Y0.0274
N505 X-4.4657
N510 X-4.4683 Y0.0259
N515 Y0.0258
N520 X-4.4707 Y0.0241
N525 X-4.4708 Y0.024
N530 X-4.4729 Y0.022
N535 X-4.473
N540 X-4.475 Y0.0197
N545 X-4.4769 Y0.0173
N550 X-4.4784 Y0.0147
N555 Y0.0146
N560 X-4.4797 Y0.0119
N565 X-4.4808 Y0.009
N570 X-4.4815 Y0.0061
N575 Y0.006
N580 X-4.4819 Y0.0031
N585 X-4.482 Y0.003
N590 X-4.4821 Y0.
N595 X-4.482 Y-0.003
N600 X-4.4819 Y-0.0031
N605 X-4.4815 Y-0.006
N610 Y-0.0061
N615 X-4.4808 Y-0.009
N620 X-4.4807 Y-0.0092
N625 X-4.4797 Y-0.0119
N630 X-4.4784 Y-0.0146
N635 Y-0.0147
N640 X-4.4769 Y-0.0173
N645 X-4.475 Y-0.0197
N650 X-4.473 Y-0.022
N655 X-4.4729
N660 X-4.4708 Y-0.024
N665 X-4.4707 Y-0.0241
N670 X-4.4683 Y-0.0258
N675 Y-0.0259
N680 X-4.4657 Y-0.0274
N685 X-4.4656
N690 X-4.4629 Y-0.0287
N695 X-4.46 Y-0.0298
N700 X-4.4571 Y-0.0305
N705 X-4.457
N710 X-4.4541 Y-0.0309
N715 X-4.454
N720 X-4.449 Y-0.0312
N725 X-4.4411
N730 X-4.0929
N735 X-4.085
N740 X-4.08 Y-0.0309
N745 X-4.077 Y-0.0305
N750 X-4.0769
N755 X-4.074 Y-0.0298
N760 X-4.0711 Y-0.0287
N765 X-4.071
N770 X-4.0684 Y-0.0274
N775 X-4.0683
N780 X-4.0657 Y-0.0259
N785 Y-0.0258
N790 X-4.0633 Y-0.0241
N795 X-4.0632 Y-0.024
N800 X-4.0611 Y-0.022
N805 X-4.061
N810 X-4.059 Y-0.0197
N815 X-4.0571 Y-0.0173
N820 X-4.0556 Y-0.0147
N825 Y-0.0146
N830 X-4.0543 Y-0.0119
N835 X-4.0532 Y-0.009
N840 Y-0.0089
N845 X-4.0525 Y-0.0061
N850 Y-0.006
N855 X-4.0521 Y-0.0031
N860 X-4.052 Y-0.003
N865 X-4.0519 Y0.
N870 X-4.052 Y0.003
N875 X-4.0521 Y0.0031
N880 X-4.0525 Y0.006
N885 Y0.0061
N890 X-4.0532 Y0.0089
N895 Y0.009
N900 X-4.0543 Y0.0119
N905 X-4.0556 Y0.0146
N910 Y0.0147
N915 X-4.0571 Y0.0173
N920 X-4.059 Y0.0197
N925 X-4.061 Y0.022
N930 X-4.0611
N935 X-4.0632 Y0.024
N940 X-4.0633 Y0.0241
N945 X-4.0657 Y0.0258
N950 Y0.0259
N955 X-4.0683 Y0.0274
N960 X-4.0684
N965 X-4.071 Y0.0287
N970 X-4.0711
N975 X-4.074 Y0.0298
N980 X-4.0769 Y0.0305
N985 X-4.077
N990 X-4.08 Y0.0309
N995 X-4.085 Y0.0312
N1000 X-4.0929 Y0.0313
N1005 X-4.4411
N1010 X-4.449 Y0.0312
N1015 X-4.454 Y0.0309
N1020 X-4.4541
N1025 X-4.457 Y0.0305
N1030 X-4.4571
N1035 X-4.46 Y0.0298
N1040 X-4.4629 Y0.0287
N1045 X-4.4656 Y0.0274
N1050 X-4.4657
N1055 X-4.4683 Y0.0259
N1060 Y0.0258
N1065 X-4.4707 Y0.0241
N1070 X-4.4708 Y0.024
N1075 X-4.4729 Y0.022
N1080 X-4.473
N1085 X-4.475 Y0.0197
N1090 X-4.4769 Y0.0173
N1095 X-4.4784 Y0.0147
N1100 Y0.0146
N1105 X-4.4797 Y0.0119
N1110 X-4.4808 Y0.009
N1115 X-4.4815 Y0.0061
N1120 Y0.006
N1125 X-4.4819 Y0.0031
N1130 X-4.482 Y0.003
N1135 X-4.4821 Y0.
N1140 X-4.482 Y-0.003
N1145 X-4.4819 Y-0.0031
N1150 X-4.4815 Y-0.006
N1155 Y-0.0061
N1160 X-4.4808 Y-0.009
N1165 X-4.4807 Y-0.0092
N1170 X-4.4804 Y-0.01 F2.
N1175 X-4.4797 Y-0.0119 Z-1.2901
N1180 X-4.4784 Y-0.0146 Z-1.2902
N1185 Y-0.0147
N1190 X-4.4769 Y-0.0173 Z-1.2903
N1195 X-4.475 Y-0.0197 Z-1.2904
N1200 X-4.473 Y-0.022 Z-1.2905
N1205 X-4.4729
N1210 X-4.4708 Y-0.024 Z-1.2906
N1215 X-4.4707 Y-0.0241
N1220 X-4.4683 Y-0.0258 Z-1.2907
N1225 Y-0.0259
N1230 X-4.4657 Y-0.0274 Z-1.2908
N1235 X-4.4656
N1240 X-4.4629 Y-0.0287 Z-1.2909
N1245 X-4.46 Y-0.0298 Z-1.291
N1250 X-4.4571 Y-0.0305 Z-1.2911
N1255 X-4.457 Z-1.2912
N1260 X-4.4541 Y-0.0309 Z-1.2913
N1265 X-4.454
N1270 X-4.449 Y-0.0312 Z-1.2914
N1275 X-4.4411 Z-1.2917
N1280 X-4.0929 Z-1.3039
N1285 X-4.085 Z-1.3041
N1290 X-4.08 Y-0.0309 Z-1.3043
N1295 X-4.077 Y-0.0305 Z-1.3044
N1300 X-4.0769
N1305 X-4.074 Y-0.0298 Z-1.3045
N1310 X-4.0711 Y-0.0287 Z-1.3046
N1315 X-4.071
N1320 X-4.0684 Y-0.0274 Z-1.3047
N1325 X-4.0683
N1330 X-4.0657 Y-0.0259 Z-1.3049
N1335 Y-0.0258
N1340 X-4.0633 Y-0.0241 Z-1.305
N1345 X-4.0632 Y-0.024
N1350 X-4.0611 Y-0.022 Z-1.3051
N1355 X-4.061
N1360 X-4.059 Y-0.0197 Z-1.3052
N1365 X-4.0571 Y-0.0173 Z-1.3053
N1370 X-4.0556 Y-0.0147 Z-1.3054
N1375 Y-0.0146
N1380 X-4.0543 Y-0.0119 Z-1.3055
N1385 X-4.0532 Y-0.009 Z-1.3056
N1390 Y-0.0089
N1395 X-4.0525 Y-0.0061 Z-1.3057
N1400 Y-0.006
N1405 X-4.0521 Y-0.0031 Z-1.3058
N1410 X-4.052 Y-0.003
N1415 X-4.0519 Y0. Z-1.3059
N1420 X-4.052 Y0.003 Z-1.306
N1425 X-4.0521 Y0.0031
N1430 X-4.0525 Y0.006 Z-1.3061
N1435 Y0.0061
N1440 X-4.0532 Y0.0089 Z-1.3062
N1445 Y0.009
N1450 X-4.0543 Y0.0119 Z-1.3063
N1455 X-4.0556 Y0.0146 Z-1.3065
N1460 Y0.0147
N1465 X-4.0571 Y0.0173 Z-1.3066
N1470 X-4.059 Y0.0197 Z-1.3067
N1475 X-4.061 Y0.022 Z-1.3068
N1480 X-4.0611
N1485 X-4.0632 Y0.024 Z-1.3069
N1490 X-4.0633 Y0.0241
N1495 X-4.0657 Y0.0258 Z-1.307
N1500 Y0.0259
N1505 X-4.0683 Y0.0274 Z-1.3071
N1510 X-4.0684
N1515 X-4.071 Y0.0287 Z-1.3072
N1520 X-4.0711
N1525 X-4.074 Y0.0298 Z-1.3073
N1530 X-4.0769 Y0.0305 Z-1.3074
N1535 X-4.077
N1540 X-4.08 Y0.0309 Z-1.3075
N1545 X-4.085 Y0.0312 Z-1.3077
N1550 X-4.0929 Y0.0313 Z-1.308
N1555 X-4.4411 Z-1.3201
N1560 X-4.449 Y0.0312 Z-1.3204
N1565 X-4.454 Y0.0309 Z-1.3206
N1570 X-4.4541
N1575 X-4.457 Y0.0305 Z-1.3207
N1580 X-4.4571
N1585 X-4.46 Y0.0298 Z-1.3208
N1590 X-4.4629 Y0.0287 Z-1.3209
N1595 X-4.4656 Y0.0274 Z-1.321
N1600 X-4.4657
N1605 X-4.4683 Y0.0259 Z-1.3211
N1610 Y0.0258
N1615 X-4.4707 Y0.0241 Z-1.3212
N1620 X-4.4708 Y0.024
N1625 X-4.4729 Y0.022 Z-1.3213
N1630 X-4.473
N1635 X-4.475 Y0.0197 Z-1.3214
N1640 X-4.4769 Y0.0173 Z-1.3215
N1645 X-4.4784 Y0.0147 Z-1.3216
N1650 Y0.0146
N1655 X-4.4797 Y0.0119 Z-1.3218
N1660 X-4.4808 Y0.009 Z-1.3219
N1665 X-4.4815 Y0.0061 Z-1.322
N1670 Y0.006
N1675 X-4.4819 Y0.0031 Z-1.3221
N1680 X-4.482 Y0.003
N1685 X-4.4821 Y0. Z-1.3222
N1690 X-4.482 Y-0.003 Z-1.3223
N1695 X-4.4819 Y-0.0031
N1700 X-4.4815 Y-0.006 Z-1.3224
N1705 Y-0.0061
N1710 X-4.4808 Y-0.009 Z-1.3225
N1715 X-4.4797 Y-0.0119 Z-1.3226
N1720 X-4.4784 Y-0.0146 Z-1.3227
N1725 Y-0.0147
N1730 X-4.4769 Y-0.0173 Z-1.3228
N1735 X-4.475 Y-0.0197 Z-1.3229
N1740 X-4.473 Y-0.022 Z-1.323
N1745 X-4.4729
N1750 X-4.4708 Y-0.024 Z-1.3231
N1755 X-4.4707 Y-0.0241
N1760 X-4.4683 Y-0.0258 Z-1.3232
N1765 Y-0.0259
N1770 X-4.4657 Y-0.0274 Z-1.3234
N1775 X-4.4656
N1780 X-4.4629 Y-0.0287 Z-1.3235
N1785 X-4.46 Y-0.0298 Z-1.3236
N1790 X-4.4571 Y-0.0305 Z-1.3237
N1795 X-4.457
N1800 X-4.4541 Y-0.0309 Z-1.3238
N1805 X-4.454
N1810 X-4.449 Y-0.0312 Z-1.324
N1815 X-4.4411 Z-1.3242
N1820 X-4.2764 Z-1.33
N1825 G18 G2 X-4.2755 I0.0009 K0.025
N1830 G1 X-4.0929 F7.
N1835 X-4.085
N1840 X-4.08 Y-0.0309
N1845 X-4.077 Y-0.0305
N1850 X-4.0769
N1855 X-4.074 Y-0.0298
N1860 X-4.0711 Y-0.0287
N1865 X-4.071
N1870 X-4.0684 Y-0.0274
N1875 X-4.0683
N1880 X-4.0657 Y-0.0259
N1885 Y-0.0258
N1890 X-4.0633 Y-0.0241
N1895 X-4.0632 Y-0.024
N1900 X-4.0611 Y-0.022
N1905 X-4.061
N1910 X-4.059 Y-0.0197
N1915 X-4.0571 Y-0.0173
N1920 X-4.0556 Y-0.0147
N1925 Y-0.0146
N1930 X-4.0543 Y-0.0119
N1935 X-4.0532 Y-0.009
N1940 Y-0.0089
N1945 X-4.0525 Y-0.0061
N1950 Y-0.006
N1955 X-4.0521 Y-0.0031
N1960 X-4.052 Y-0.003
N1965 X-4.0519 Y0.
N1970 X-4.052 Y0.003
N1975 X-4.0521 Y0.0031
N1980 X-4.0525 Y0.006
N1985 Y0.0061
N1990 X-4.0532 Y0.0089
N1995 Y0.009
N2000 X-4.0543 Y0.0119
N2005 X-4.0556 Y0.0146
N2010 Y0.0147
N2015 X-4.0571 Y0.0173
N2020 X-4.059 Y0.0197
N2025 X-4.061 Y0.022
N2030 X-4.0611
N2035 X-4.0632 Y0.024
N2040 X-4.0633 Y0.0241
N2045 X-4.0657 Y0.0258
N2050 Y0.0259
N2055 X-4.0683 Y0.0274
N2060 X-4.0684
N2065 X-4.071 Y0.0287
N2070 X-4.0711
N2075 X-4.074 Y0.0298
N2080 X-4.0769 Y0.0305
N2085 X-4.077
N2090 X-4.08 Y0.0309
N2095 X-4.085 Y0.0312
N2100 X-4.0929 Y0.0313
N2105 X-4.4411
N2110 X-4.449 Y0.0312
N2115 X-4.454 Y0.0309
N2120 X-4.4541
N2125 X-4.457 Y0.0305
N2130 X-4.4571
N2135 X-4.46 Y0.0298
N2140 X-4.4629 Y0.0287
N2145 X-4.4656 Y0.0274
N2150 X-4.4657
N2155 X-4.4683 Y0.0259
N2160 Y0.0258
N2165 X-4.4707 Y0.0241
N2170 X-4.4708 Y0.024
N2175 X-4.4729 Y0.022
N2180 X-4.473
N2185 X-4.475 Y0.0197
N2190 X-4.4769 Y0.0173
N2195 X-4.4784 Y0.0147
N2200 Y0.0146
N2205 X-4.4797 Y0.0119
N2210 X-4.4808 Y0.009
N2215 X-4.4815 Y0.0061
N2220 Y0.006
N2225 X-4.4819 Y0.0031
N2230 X-4.482 Y0.003
N2235 X-4.4821 Y0.
N2240 X-4.482 Y-0.003
N2245 X-4.4819 Y-0.0031
N2250 X-4.4815 Y-0.006
N2255 Y-0.0061
N2260 X-4.4808 Y-0.009
N2265 X-4.4797 Y-0.0119
N2270 X-4.4784 Y-0.0146
N2275 Y-0.0147
N2280 X-4.4769 Y-0.0173
N2285 X-4.475 Y-0.0197
N2290 X-4.473 Y-0.022
N2295 X-4.4729
N2300 X-4.4708 Y-0.024
N2305 X-4.4707 Y-0.0241
N2310 X-4.4683 Y-0.0258
N2315 Y-0.0259
N2320 X-4.4657 Y-0.0274
N2325 X-4.4656
N2330 X-4.4629 Y-0.0287
N2335 X-4.46 Y-0.0298
N2340 X-4.4571 Y-0.0305
N2345 X-4.457
N2350 X-4.4541 Y-0.0309
N2355 X-4.454
N2360 X-4.449 Y-0.0312
N2365 X-4.4411
N2370 X-4.2755
N2375 X-4.0929
N2380 X-4.085
N2385 X-4.08 Y-0.0309
N2390 X-4.077 Y-0.0305
N2395 X-4.0769
N2400 X-4.074 Y-0.0298
N2405 X-4.0711 Y-0.0287
N2410 X-4.071
N2415 X-4.0684 Y-0.0274
N2420 X-4.0683
N2425 X-4.0657 Y-0.0259
N2430 Y-0.0258
N2435 X-4.0633 Y-0.0241
N2440 X-4.0632 Y-0.024
N2445 X-4.0611 Y-0.022
N2450 X-4.061
N2455 X-4.059 Y-0.0197
N2460 X-4.0571 Y-0.0173
N2465 X-4.0556 Y-0.0147
N2470 Y-0.0146
N2475 X-4.0543 Y-0.0119
N2480 X-4.0532 Y-0.009
N2485 Y-0.0089
N2490 X-4.0525 Y-0.0061
N2495 Y-0.006
N2500 X-4.0521 Y-0.0031
N2505 X-4.052 Y-0.003
N2510 X-4.0519 Y0.
N2515 X-4.052 Y0.003
N2520 X-4.0521 Y0.0031
N2525 X-4.0525 Y0.006
N2530 Y0.0061
N2535 X-4.0532 Y0.0089
N2540 Y0.009
N2545 X-4.0543 Y0.0119
N2550 X-4.0556 Y0.0146
N2555 Y0.0147
N2560 X-4.0571 Y0.0173
N2565 X-4.059 Y0.0197
N2570 X-4.061 Y0.022
N2575 X-4.0611
N2580 X-4.0632 Y0.024
N2585 X-4.0633 Y0.0241
N2590 X-4.0657 Y0.0258
N2595 Y0.0259
N2600 X-4.0683 Y0.0274
N2605 X-4.0684
N2610 X-4.071 Y0.0287
N2615 X-4.0711
N2620 X-4.074 Y0.0298
N2625 X-4.0769 Y0.0305
N2630 X-4.077
N2635 X-4.08 Y0.0309
N2640 X-4.085 Y0.0312
N2645 X-4.0929 Y0.0313
N2650 X-4.4411
N2655 X-4.449 Y0.0312
N2660 X-4.454 Y0.0309
N2665 X-4.4541
N2670 X-4.457 Y0.0305
N2675 X-4.4571
N2680 X-4.46 Y0.0298
N2685 X-4.4629 Y0.0287
N2690 X-4.4656 Y0.0274
N2695 X-4.4657
N2700 X-4.4683 Y0.0259
N2705 Y0.0258
N2710 X-4.4707 Y0.0241
N2715 X-4.4708 Y0.024
N2720 X-4.4729 Y0.022
N2725 X-4.473
N2730 X-4.475 Y0.0197
N2735 X-4.4769 Y0.0173
N2740 X-4.4784 Y0.0147
N2745 Y0.0146
N2750 X-4.4797 Y0.0119
N2755 X-4.4808 Y0.009
N2760 X-4.4815 Y0.0061
N2765 Y0.006
N2770 X-4.4819 Y0.0031
N2775 X-4.482 Y0.003
N2780 X-4.4821 Y0.
N2785 X-4.482 Y-0.003
N2790 X-4.4819 Y-0.0031
N2795 X-4.4815 Y-0.006
N2800 Y-0.0061
N2805 X-4.4808 Y-0.009
N2810 X-4.4797 Y-0.0119
N2815 X-4.4784 Y-0.0146
N2820 Y-0.0147
N2825 X-4.4769 Y-0.0173
N2830 X-4.475 Y-0.0197
N2835 X-4.473 Y-0.022
N2840 X-4.4729
N2845 X-4.4708 Y-0.024
N2850 X-4.4707 Y-0.0241
N2855 X-4.4683 Y-0.0258
N2860 Y-0.0259
N2865 X-4.4657 Y-0.0274
N2870 X-4.4656
N2875 X-4.4629 Y-0.0287
N2880 X-4.46 Y-0.0298
N2885 X-4.4571 Y-0.0305
N2890 X-4.457
N2895 X-4.4541 Y-0.0309
N2900 X-4.454
N2905 X-4.449 Y-0.0312
N2910 X-4.4411
N2915 X-4.2755
N2920 G3 X-4.2746 I0. K-0.025 F2.
N2925 G1 X-4.0929 Z-1.3364
N2930 X-4.085 Z-1.3366
N2935 X-4.08 Y-0.0309 Z-1.3368
N2940 X-4.077 Y-0.0305 Z-1.3369
N2945 X-4.0769
N2950 X-4.074 Y-0.0298 Z-1.337
N2955 X-4.0711 Y-0.0287 Z-1.3371
N2960 X-4.071
N2965 X-4.0684 Y-0.0274 Z-1.3372
N2970 X-4.0683
N2975 X-4.0657 Y-0.0259 Z-1.3373
N2980 Y-0.0258
N2985 X-4.0633 Y-0.0241 Z-1.3375
N2990 X-4.0632 Y-0.024
N2995 X-4.0611 Y-0.022 Z-1.3376
N3000 X-4.061
N3005 X-4.059 Y-0.0197 Z-1.3377
N3010 X-4.0571 Y-0.0173 Z-1.3378
N3015 X-4.0556 Y-0.0147 Z-1.3379
N3020 Y-0.0146
N3025 X-4.0543 Y-0.0119 Z-1.338
N3030 X-4.0532 Y-0.009 Z-1.3381
N3035 Y-0.0089
N3040 X-4.0525 Y-0.0061 Z-1.3382
N3045 Y-0.006
N3050 X-4.0521 Y-0.0031 Z-1.3383
N3055 X-4.052 Y-0.003
N3060 X-4.0519 Y0. Z-1.3384
N3065 X-4.052 Y0.003 Z-1.3385
N3070 X-4.0521 Y0.0031
N3075 X-4.0525 Y0.006 Z-1.3386
N3080 Y0.0061
N3085 X-4.0532 Y0.0089 Z-1.3387
N3090 Y0.009
N3095 X-4.0543 Y0.0119 Z-1.3388
N3100 X-4.0556 Y0.0146 Z-1.3389
N3105 Y0.0147
N3110 X-4.0571 Y0.0173 Z-1.3391
N3115 X-4.059 Y0.0197 Z-1.3392
N3120 X-4.061 Y0.022 Z-1.3393
N3125 X-4.0611
N3130 X-4.0632 Y0.024 Z-1.3394
N3135 X-4.0633 Y0.0241
N3140 X-4.0657 Y0.0258 Z-1.3395
N3145 Y0.0259
N3150 X-4.0683 Y0.0274 Z-1.3396
N3155 X-4.0684
N3160 X-4.071 Y0.0287 Z-1.3397
N3165 X-4.0711
N3170 X-4.074 Y0.0298 Z-1.3398
N3175 X-4.0769 Y0.0305 Z-1.3399
N3180 X-4.077
N3185 X-4.08 Y0.0309 Z-1.34
N3190 X-4.085 Y0.0312 Z-1.3402
N3195 X-4.0929 Y0.0313 Z-1.3405
N3200 X-4.4411 Z-1.3526
N3205 X-4.449 Y0.0312 Z-1.3529
N3210 X-4.454 Y0.0309 Z-1.3531
N3215 X-4.4541
N3220 X-4.457 Y0.0305 Z-1.3532
N3225 X-4.4571
N3230 X-4.46 Y0.0298 Z-1.3533
N3235 X-4.4629 Y0.0287 Z-1.3534
N3240 X-4.4656 Y0.0274 Z-1.3535
N3245 X-4.4657
N3250 X-4.4683 Y0.0259 Z-1.3536
N3255 Y0.0258
N3260 X-4.4707 Y0.0241 Z-1.3537
N3265 X-4.4708 Y0.024
N3270 X-4.4729 Y0.022 Z-1.3538
N3275 X-4.473
N3280 X-4.475 Y0.0197 Z-1.3539
N3285 X-4.4769 Y0.0173 Z-1.354
N3290 X-4.4784 Y0.0147 Z-1.3541
N3295 Y0.0146
N3300 X-4.4797 Y0.0119 Z-1.3542
N3305 X-4.4808 Y0.009 Z-1.3544
N3310 X-4.4815 Y0.0061 Z-1.3545
N3315 Y0.006
N3320 X-4.4819 Y0.0031 Z-1.3546
N3325 X-4.482 Y0.003
N3330 X-4.4821 Y0. Z-1.3547
N3335 X-4.482 Y-0.003 Z-1.3548
N3340 X-4.4819 Y-0.0031
N3345 X-4.4815 Y-0.006 Z-1.3549
N3350 Y-0.0061
N3355 X-4.4808 Y-0.009 Z-1.355
N3360 X-4.4797 Y-0.0119 Z-1.3551
N3365 X-4.4784 Y-0.0146 Z-1.3552
N3370 Y-0.0147
N3375 X-4.4769 Y-0.0173 Z-1.3553
N3380 X-4.475 Y-0.0197 Z-1.3554
N3385 X-4.473 Y-0.022 Z-1.3555
N3390 X-4.4729
N3395 X-4.4708 Y-0.024 Z-1.3556
N3400 X-4.4707 Y-0.0241
N3405 X-4.4683 Y-0.0258 Z-1.3557
N3410 Y-0.0259
N3415 X-4.4657 Y-0.0274 Z-1.3558
N3420 X-4.4656
N3425 X-4.4629 Y-0.0287 Z-1.356
N3430 X-4.46 Y-0.0298 Z-1.3561
N3435 X-4.4571 Y-0.0305 Z-1.3562
N3440 X-4.457
N3445 X-4.4541 Y-0.0309 Z-1.3563
N3450 X-4.454
N3455 X-4.449 Y-0.0312 Z-1.3564
N3460 X-4.4411 Z-1.3567
N3465 X-4.0929 Z-1.3689
N3470 X-4.085 Z-1.3692
N3475 X-4.08 Y-0.0309 Z-1.3693
N3480 X-4.077 Y-0.0305 Z-1.3694
N3485 X-4.0769
N3490 X-4.074 Y-0.0298 Z-1.3695
N3495 X-4.0711 Y-0.0287 Z-1.3697
N3500 X-4.071
N3505 X-4.0684 Y-0.0274 Z-1.3698
N3510 X-4.0683
N3515 X-4.0657 Y-0.0259 Z-1.3699
N3520 Y-0.0258
N3525 X-4.0633 Y-0.0241 Z-1.37
N3530 X-4.0632 Y-0.024
N3535 X-4.0631 Y-0.0239
N3540 X-4.0624 Y-0.0233
N3545 X-4.0611 Y-0.022 F7.
N3550 X-4.061
N3555 X-4.059 Y-0.0197
N3560 X-4.0571 Y-0.0173
N3565 X-4.0556 Y-0.0147
N3570 Y-0.0146
N3575 X-4.0543 Y-0.0119
N3580 X-4.0532 Y-0.009
N3585 Y-0.0089
N3590 X-4.0525 Y-0.0061
N3595 Y-0.006
N3600 X-4.0521 Y-0.0031
N3605 X-4.052 Y-0.003
N3610 X-4.0519 Y0.
N3615 X-4.052 Y0.003
N3620 X-4.0521 Y0.0031
N3625 X-4.0525 Y0.006
N3630 Y0.0061
N3635 X-4.0532 Y0.0089
N3640 Y0.009
N3645 X-4.0543 Y0.0119
N3650 X-4.0556 Y0.0146
N3655 Y0.0147
N3660 X-4.0571 Y0.0173
N3665 X-4.059 Y0.0197
N3670 X-4.061 Y0.022
N3675 X-4.0611
N3680 X-4.0632 Y0.024
N3685 X-4.0633 Y0.0241
N3690 X-4.0657 Y0.0258
N3695 Y0.0259
N3700 X-4.0683 Y0.0274
N3705 X-4.0684
N3710 X-4.071 Y0.0287
N3715 X-4.0711
N3720 X-4.074 Y0.0298
N3725 X-4.0769 Y0.0305
N3730 X-4.077
N3735 X-4.08 Y0.0309
N3740 X-4.085 Y0.0312
N3745 X-4.0929 Y0.0313
N3750 X-4.4411
N3755 X-4.449 Y0.0312
N3760 X-4.454 Y0.0309
N3765 X-4.4541
N3770 X-4.457 Y0.0305
N3775 X-4.4571
N3780 X-4.46 Y0.0298
N3785 X-4.4629 Y0.0287
N3790 X-4.4656 Y0.0274
N3795 X-4.4657
N3800 X-4.4683 Y0.0259
N3805 Y0.0258
N3810 X-4.4707 Y0.0241
N3815 X-4.4708 Y0.024
N3820 X-4.4729 Y0.022
N3825 X-4.473
N3830 X-4.475 Y0.0197
N3835 X-4.4769 Y0.0173
N3840 X-4.4784 Y0.0147
N3845 Y0.0146
N3850 X-4.4797 Y0.0119
N3855 X-4.4808 Y0.009
N3860 X-4.4815 Y0.0061
N3865 Y0.006
N3870 X-4.4819 Y0.0031
N3875 X-4.482 Y0.003
N3880 X-4.4821 Y0.
N3885 X-4.482 Y-0.003
N3890 X-4.4819 Y-0.0031
N3895 X-4.4815 Y-0.006
N3900 Y-0.0061
N3905 X-4.4808 Y-0.009
N3910 X-4.4797 Y-0.0119
N3915 X-4.4784 Y-0.0146
N3920 Y-0.0147
N3925 X-4.4769 Y-0.0173
N3930 X-4.475 Y-0.0197
N3935 X-4.473 Y-0.022
N3940 X-4.4729
N3945 X-4.4708 Y-0.024
N3950 X-4.4707 Y-0.0241
N3955 X-4.4683 Y-0.0258
N3960 Y-0.0259
N3965 X-4.4657 Y-0.0274
N3970 X-4.4656
N3975 X-4.4629 Y-0.0287
N3980 X-4.46 Y-0.0298
N3985 X-4.4571 Y-0.0305
N3990 X-4.457
N3995 X-4.4541 Y-0.0309
N4000 X-4.454
N4005 X-4.449 Y-0.0312
N4010 X-4.4411
N4015 X-4.0929
N4020 X-4.085
N4025 X-4.08 Y-0.0309
N4030 X-4.077 Y-0.0305
N4035 X-4.0769
N4040 X-4.074 Y-0.0298
N4045 X-4.0711 Y-0.0287
N4050 X-4.071
N4055 X-4.0684 Y-0.0274
N4060 X-4.0683
N4065 X-4.0657 Y-0.0259
N4070 Y-0.0258
N4075 X-4.0633 Y-0.0241
N4080 X-4.0632 Y-0.024
N4085 X-4.0624 Y-0.0233
N4090 X-4.0611 Y-0.022
N4095 X-4.061
N4100 X-4.059 Y-0.0197
N4105 X-4.0571 Y-0.0173
N4110 X-4.0556 Y-0.0147
N4115 Y-0.0146
N4120 X-4.0543 Y-0.0119
N4125 X-4.0532 Y-0.009
N4130 Y-0.0089
N4135 X-4.0525 Y-0.0061
N4140 Y-0.006
N4145 X-4.0521 Y-0.0031
N4150 X-4.052 Y-0.003
N4155 X-4.0519 Y0.
N4160 X-4.052 Y0.003
N4165 X-4.0521 Y0.0031
N4170 X-4.0525 Y0.006
N4175 Y0.0061
N4180 X-4.0532 Y0.0089
N4185 Y0.009
N4190 X-4.0543 Y0.0119
N4195 X-4.0556 Y0.0146
N4200 Y0.0147
N4205 X-4.0571 Y0.0173
N4210 X-4.059 Y0.0197
N4215 X-4.061 Y0.022
N4220 X-4.0611
N4225 X-4.0632 Y0.024
N4230 X-4.0633 Y0.0241
N4235 X-4.0657 Y0.0258
N4240 Y0.0259
N4245 X-4.0683 Y0.0274
N4250 X-4.0684
N4255 X-4.071 Y0.0287
N4260 X-4.0711
N4265 X-4.074 Y0.0298
N4270 X-4.0769 Y0.0305
N4275 X-4.077
N4280 X-4.08 Y0.0309
N4285 X-4.085 Y0.0312
N4290 X-4.0929 Y0.0313
N4295 X-4.4411
N4300 X-4.449 Y0.0312
N4305 X-4.454 Y0.0309
N4310 X-4.4541
N4315 X-4.457 Y0.0305
N4320 X-4.4571
N4325 X-4.46 Y0.0298
N4330 X-4.4629 Y0.0287
N4335 X-4.4656 Y0.0274
N4340 X-4.4657
N4345 X-4.4683 Y0.0259
N4350 Y0.0258
N4355 X-4.4707 Y0.0241
N4360 X-4.4708 Y0.024
N4365 X-4.4729 Y0.022
N4370 X-4.473
N4375 X-4.475 Y0.0197
N4380 X-4.4769 Y0.0173
N4385 X-4.4784 Y0.0147
N4390 Y0.0146
N4395 X-4.4797 Y0.0119
N4400 X-4.4808 Y0.009
N4405 X-4.4815 Y0.0061
N4410 Y0.006
N4415 X-4.4819 Y0.0031
N4420 X-4.482 Y0.003
N4425 X-4.4821 Y0.
N4430 X-4.482 Y-0.003
N4435 X-4.4819 Y-0.0031
N4440 X-4.4815 Y-0.006
N4445 Y-0.0061
N4450 X-4.4808 Y-0.009
N4455 X-4.4797 Y-0.0119
N4460 X-4.4784 Y-0.0146
N4465 Y-0.0147
N4470 X-4.4769 Y-0.0173
N4475 X-4.475 Y-0.0197
N4480 X-4.473 Y-0.022
N4485 X-4.4729
N4490 X-4.4708 Y-0.024
N4495 X-4.4707 Y-0.0241
N4500 X-4.4683 Y-0.0258
N4505 Y-0.0259
N4510 X-4.4657 Y-0.0274
N4515 X-4.4656
N4520 X-4.4629 Y-0.0287
N4525 X-4.46 Y-0.0298
N4530 X-4.4571 Y-0.0305
N4535 X-4.457
N4540 X-4.4541 Y-0.0309
N4545 X-4.454
N4550 X-4.449 Y-0.0312
N4555 X-4.4411
N4560 X-4.0929
N4565 X-4.085
N4570 X-4.08 Y-0.0309
N4575 X-4.077 Y-0.0305
N4580 X-4.0769
N4585 X-4.074 Y-0.0298
N4590 X-4.0711 Y-0.0287
N4595 X-4.071
N4600 X-4.0684 Y-0.0274
N4605 X-4.0683
N4610 X-4.0657 Y-0.0259
N4615 Y-0.0258
N4620 X-4.0633 Y-0.0241
N4625 X-4.0632 Y-0.024
N4630 X-4.0624 Y-0.0233
N4635 G17 G3 X-4.0614 Y0.0032 I-0.0124 J0.0137 F4.
N4640 G0 Z0.3
N4650 M9
N4655 G53 Z0.
N4660 M30
%
