%
(FCG_POCKET)
(.375 END MILL)
(T1  D=0.375 CR=0. - ZMIN=-1.25 - FLAT END MILL)
N10 G90 G94 G17 G91.1
N15 G20
N20 G53 G0 Z0.
(FCG_POCKET)
N25 M9
N30 T1 M6
N35 S1500 M3
N40 G54
N45 M9
N55 G0 X-5.7171 Y-0.4351
N60 G43 Z0.6 H1
N65 G0 Z0.2
N70 G1 Z0.1294 F20.
N75 Z-0.06
N80 X-5.7174 Z-0.0643
N85 X-5.7182 Y-0.4348 Z-0.0685
N90 X-5.7197 Y-0.4343 Z-0.0725
N95 X-5.7216 Y-0.4337 Z-0.0762
N100 X-5.7241 Y-0.4329 Z-0.0796
N105 X-5.7269 Y-0.4319 Z-0.0827
N110 X-5.7302 Y-0.4309 Z-0.0852
N115 X-5.7338 Y-0.4297 Z-0.0873
N120 X-5.7376 Y-0.4285 Z-0.0888
N125 X-5.7416 Y-0.4272 Z-0.0897
N130 X-5.7456 Y-0.4259 Z-0.09
N135 G3 X-5.7512 Y-0.425 I-0.0055 J-0.017
N140 G1 X-6.051
N145 Y-0.475
N150 X-6.049
N155 G2 X-5.935 Y-0.444 I0.114 J-0.194
N160 G1 X-5.7511
N165 X-5.935 Z-0.0951 F2.
N170 G3 X-6.049 Y-0.475 Z-0.0983 I0. J-0.225
N175 G1 X-6.051 Z-0.0984
N180 Y-0.425 Z-0.0998
N185 X-5.7512 Z-0.108
N190 X-6.051 Z-0.1162
N195 Y-0.475 Z-0.1176
N200 X-6.049 Z-0.1177
N205 G2 X-5.935 Y-0.444 Z-0.1209 I0.114 J-0.194
N210 G1 X-5.7511 Z-0.126
N215 X-5.935 Z-0.1311
N220 G3 X-6.049 Y-0.475 Z-0.1343 I0. J-0.225
N225 G1 X-6.051 Z-0.1344
N230 Y-0.425 Z-0.1358
N235 X-5.7512 Z-0.144
N240 X-6.051 Z-0.1522
N245 Y-0.475 Z-0.1536
N250 X-6.049 Z-0.1537
N255 G2 X-5.935 Y-0.444 Z-0.1569 I0.114 J-0.194
N260 G1 X-5.7511 Z-0.162
N265 X-5.935 Z-0.1671
N270 G3 X-6.049 Y-0.475 Z-0.1703 I0. J-0.225
N275 G1 X-6.051 Z-0.1704
N280 Y-0.425 Z-0.1718
N285 X-5.7512 Z-0.18
N290 X-6.051 F20.
N295 Y-0.475
N300 X-6.049
N305 G2 X-5.935 Y-0.444 I0.114 J-0.194
N310 G1 X-5.7511
N315 X-5.935 Z-0.1851 F2.
N320 G3 X-6.049 Y-0.475 Z-0.1883 I0. J-0.225
N325 G1 X-6.051 Z-0.1884
N330 Y-0.425 Z-0.1898
N335 X-5.7512 Z-0.198
N340 X-6.051 Z-0.2062
N345 Y-0.475 Z-0.2076
N350 X-6.049 Z-0.2077
N355 G2 X-5.935 Y-0.444 Z-0.2109 I0.114 J-0.194
N360 G1 X-5.7511 Z-0.216
N365 X-5.935 Z-0.2211
N370 G3 X-6.049 Y-0.475 Z-0.2243 I0. J-0.225
N375 G1 X-6.051 Z-0.2244
N380 Y-0.425 Z-0.2258
N385 X-5.7512 Z-0.234
N390 X-6.051 Z-0.2422
N395 Y-0.475 Z-0.2436
N400 X-6.049 Z-0.2437
N405 G2 X-5.935 Y-0.444 Z-0.2469 I0.114 J-0.194
N410 G1 X-5.7511 Z-0.252
N415 X-5.935 Z-0.2571
N420 G3 X-6.049 Y-0.475 Z-0.2603 I0. J-0.225
N425 G1 X-6.051 Z-0.2604
N430 Y-0.425 Z-0.2618
N435 X-5.7512 Z-0.27
N440 X-6.051 F20.
N445 Y-0.475
N450 X-6.049
N455 G2 X-5.935 Y-0.444 I0.114 J-0.194
N460 G1 X-5.7511
N465 X-5.935 Z-0.2751 F2.
N470 G3 X-6.049 Y-0.475 Z-0.2783 I0. J-0.225
N475 G1 X-6.051 Z-0.2784
N480 Y-0.425 Z-0.2798
N485 X-5.7512 Z-0.288
N490 X-6.051 Z-0.2962
N495 Y-0.475 Z-0.2976
N500 X-6.049 Z-0.2977
N505 G2 X-5.935 Y-0.444 Z-0.3009 I0.114 J-0.194
N510 G1 X-5.7511 Z-0.306
N515 X-5.935 Z-0.3111
N520 G3 X-6.049 Y-0.475 Z-0.3143 I0. J-0.225
N525 G1 X-6.051 Z-0.3144
N530 Y-0.425 Z-0.3158
N535 X-5.7512 Z-0.324
N540 X-6.051 Z-0.3322
N545 Y-0.475 Z-0.3336
N550 X-6.049 Z-0.3337
N555 G2 X-5.935 Y-0.444 Z-0.3369 I0.114 J-0.194
N560 G1 X-5.7511 Z-0.342
N565 X-5.935 Z-0.3471
N570 G3 X-6.049 Y-0.475 Z-0.3503 I0. J-0.225
N575 G1 X-6.051 Z-0.3504
N580 Y-0.425 Z-0.3518
N585 X-5.7512 Z-0.36
N590 X-6.051 F20.
N595 Y-0.475
N600 X-6.049
N605 G2 X-5.935 Y-0.444 I0.114 J-0.194
N610 G1 X-5.7511
N615 X-5.935 Z-0.3651 F2.
N620 G3 X-6.049 Y-0.475 Z-0.3683 I0. J-0.225
N625 G1 X-6.051 Z-0.3684
N630 Y-0.425 Z-0.3698
N635 X-5.7512 Z-0.378
N640 X-6.051 Z-0.3862
N645 Y-0.475 Z-0.3876
N650 X-6.049 Z-0.3877
N655 G2 X-5.935 Y-0.444 Z-0.3909 I0.114 J-0.194
N660 G1 X-5.7511 Z-0.396
N665 X-5.935 Z-0.4011
N670 G3 X-6.049 Y-0.475 Z-0.4043 I0. J-0.225
N675 G1 X-6.051 Z-0.4044
N680 Y-0.425 Z-0.4058
N685 X-5.7512 Z-0.414
N690 X-6.051 Z-0.4222
N695 Y-0.475 Z-0.4236
N700 X-6.049 Z-0.4237
N705 G2 X-5.935 Y-0.444 Z-0.4269 I0.114 J-0.194
N710 G1 X-5.7511 Z-0.432
N715 X-5.935 Z-0.4371
N720 G3 X-6.049 Y-0.475 Z-0.4403 I0. J-0.225
N725 G1 X-6.051 Z-0.4404
N730 Y-0.425 Z-0.4418
N735 X-5.7512 Z-0.45
N740 X-6.051 F20.
N745 Y-0.475
N750 X-6.049
N755 G2 X-5.935 Y-0.444 I0.114 J-0.194
N760 G1 X-5.7511
N765 X-5.935 Z-0.4551 F2.
N770 G3 X-6.049 Y-0.475 Z-0.4583 I0. J-0.225
N775 G1 X-6.051 Z-0.4584
N780 Y-0.425 Z-0.4598
N785 X-5.7512 Z-0.468
N790 X-6.051 Z-0.4762
N795 Y-0.475 Z-0.4776
N800 X-6.049 Z-0.4777
N805 G2 X-5.935 Y-0.444 Z-0.4809 I0.114 J-0.194
N810 G1 X-5.7511 Z-0.486
N815 X-5.935 Z-0.4911
N820 G3 X-6.049 Y-0.475 Z-0.4943 I0. J-0.225
N825 G1 X-6.051 Z-0.4944
N830 Y-0.425 Z-0.4958
N835 X-5.7512 Z-0.504
N840 X-6.051 Z-0.5122
N845 Y-0.475 Z-0.5136
N850 X-6.049 Z-0.5137
N855 G2 X-5.935 Y-0.444 Z-0.5169 I0.114 J-0.194
N860 G1 X-5.7511 Z-0.522
N865 X-5.935 Z-0.5271
N870 G3 X-6.049 Y-0.475 Z-0.5303 I0. J-0.225
N875 G1 X-6.051 Z-0.5304
N880 Y-0.425 Z-0.5318
N885 X-5.7512 Z-0.54
N890 X-6.051 F20.
N895 Y-0.475
N900 X-6.049
N905 G2 X-5.935 Y-0.444 I0.114 J-0.194
N910 G1 X-5.7511
N915 X-5.935 Z-0.5446 F2.
N920 G3 X-6.049 Y-0.475 Z-0.5476 I0. J-0.225
N925 G1 X-6.051
N930 Y-0.425 Z-0.5489
N935 X-5.7512 Z-0.5564
N940 X-6.051 Z-0.5639
N945 Y-0.475 Z-0.5652
N950 X-6.049
N955 G2 X-5.935 Y-0.444 Z-0.5682 I0.114 J-0.194
N960 G1 X-5.7511 Z-0.5728
N965 X-5.935 Z-0.5774
N970 G3 X-6.049 Y-0.475 Z-0.5804 I0. J-0.225
N975 G1 X-6.051
N980 Y-0.425 Z-0.5817
N985 X-5.7512 Z-0.5892
N990 X-6.051 Z-0.5967
N995 Y-0.475 Z-0.598
N1000 X-6.049
N1005 G2 X-5.935 Y-0.444 Z-0.601 I0.114 J-0.194
N1010 G1 X-5.7511 Z-0.6056
N1015 X-5.935 Z-0.6102
N1020 G3 X-6.049 Y-0.475 Z-0.6132 I0. J-0.225
N1025 G1 X-6.051
N1030 Y-0.425 Z-0.6145
N1035 X-5.7512 Z-0.622
N1040 X-6.051 F20.
N1045 Y-0.475
N1050 X-6.049
N1055 G2 X-5.935 Y-0.444 I0.114 J-0.194
N1060 G1 X-5.7511
N1065 G3 X-5.7499 Y-0.4438 Z-0.6218 I0. J0.0045
N1070 X-5.7489 Y-0.4434 Z-0.6214 I-0.0012 J0.0044
N1075 X-5.7482 Y-0.4429 Z-0.6207 I-0.0022 J0.004
N1080 X-5.7477 Y-0.4424 Z-0.6197 I-0.0029 J0.0034
N1085 X-5.7474 Y-0.4421 Z-0.6187 I-0.0034 J0.0029
N1090 G1 X-5.7473 Y-0.4419 Z-0.6175
N1095 G0 Z0.2
N1100 X-5.5004 Y-0.4231
N1105 G1 Z-0.5962 F20.
N1110 X-5.5007 Z-0.6007
N1115 X-5.5015 Y-0.4229 Z-0.605
N1120 X-5.5029 Y-0.4227 Z-0.6092
N1125 X-5.5049 Y-0.4224 Z-0.6131
N1130 X-5.5073 Y-0.422 Z-0.6168
N1135 X-5.5102 Y-0.4216 Z-0.6201
N1140 X-5.5135 Y-0.4211 Z-0.623
N1145 X-5.5171 Y-0.4205 Z-0.6255
N1150 X-5.521 Y-0.4199 Z-0.6274
N1155 X-5.5251 Y-0.4192 Z-0.6289
N1160 X-5.5294 Y-0.4185 Z-0.6297
N1165 X-5.5337 Y-0.4178 Z-0.63
N1170 X-5.7224 Y-0.388
N1175 G3 X-5.7283 Y-0.3875 I-0.0059 J-0.037
N1180 G1 X-6.0885 F10.
N1185 Y-0.5125
N1190 X-6.0472
N1195 G3 X-6.0312 Y-0.5081 I0. J0.0312
N1200 G2 X-5.935 Y-0.4815 I0.0962 J-0.1609
N1205 G1 X-5.7284
N1210 G3 X-5.7225 Y-0.481 I0. J0.0375 F20.
N1215 G1 X-5.6371 Y-0.4675
N1220 X-5.6327 Y-0.4668 Z-0.6297
N1225 X-5.6283 Y-0.4661 Z-0.6289
N1230 X-5.624 Y-0.4654 Z-0.6276
N1235 X-5.6199 Y-0.4648 Z-0.6257
N1240 X-5.6161 Y-0.4642 Z-0.6234
N1245 X-5.6126 Y-0.4636 Z-0.6206
N1250 X-5.6094 Y-0.4631 Z-0.6174
N1255 X-5.6067 Y-0.4627 Z-0.6138
N1260 X-5.6043 Y-0.4623 Z-0.6099
N1265 X-5.6025 Y-0.462 Z-0.6058
N1270 X-5.6012 Y-0.4618 Z-0.6015
N1275 X-5.6004 Y-0.4617 Z-0.597
N1280 X-5.6001 Z-0.5925
N1285 G0 Z0.6
N1290 X-4.5038 Y-0.4062
N1295 Z0.2
N1300 G1 Z0.1375 F20.
N1305 G18 G3 X-4.54 Z0.1 I-0.0375 K0. F2.
N1310 G1 X-5.106 Z0.0802
N1315 G17 G3 X-5.1217 Y-0.4127 Z0.0796 I0. J-0.0221
N1320 G2 X-5.1376 Y-0.4275 Z0.0789 I-0.2133 J0.2127
N1325 G3 Y-0.4415 Z0.0783 I0.006 J-0.007
N1330 G2 X-5.1001 Y-0.4804 Z0.0764 I-0.1974 J-0.2275
N1335 G3 X-5.0722 Y-0.4938 Z0.0753 I0.0279 J0.0224
N1340 G1 X-3.5787 Z0.0232
N1345 G3 X-3.5662 Y-0.4812 Z0.0225 I0. J0.0125
N1350 G1 Y-0.4188 Z0.0203
N1355 G3 X-3.5787 Y-0.4062 Z0.0196 I-0.0125 J0.
N1360 G1 X-5.106 Z-0.0337
N1365 G3 X-5.1217 Y-0.4127 Z-0.0343 I0. J-0.0221
N1370 G2 X-5.1376 Y-0.4275 Z-0.0351 I-0.2133 J0.2127
N1375 G3 Y-0.4415 Z-0.0357 I0.006 J-0.007
N1380 G2 X-5.1001 Y-0.4804 Z-0.0375 I-0.1974 J-0.2275
N1385 G3 X-5.0722 Y-0.4938 Z-0.0387 I0.0279 J0.0224
N1390 G1 X-3.602 Z-0.09
N1395 X-3.5787 F20.
N1400 G3 X-3.5662 Y-0.4812 I0. J0.0125
N1405 G1 Y-0.4188
N1410 G3 X-3.5787 Y-0.4062 I-0.0125 J0.
N1415 G1 X-5.106
N1420 G3 X-5.1217 Y-0.4127 I0. J-0.0221
N1425 G2 X-5.1376 Y-0.4275 I-0.2133 J0.2127
N1430 G3 Y-0.4415 I0.006 J-0.007
N1435 G2 X-5.1001 Y-0.4804 I-0.1974 J-0.2275
N1440 G3 X-5.0722 Y-0.4938 I0.0279 J0.0224
N1445 G1 X-3.602
N1450 G2 X-3.5494 Y-0.5253 I0. J-0.0595
N1455 G3 X-3.49 Y-0.5105 I0.0279 J0.0148
N1460 G1 Y-0.33
N1465 X-5.1513
N1470 G2 X-5.335 Y-0.425 I-0.1836 J0.13
N1475 G1 X-5.71
N1480 Y-0.444
N1485 X-5.335
N1490 G2 X-5.1329 Y-0.57 I0. J-0.225
N1495 G1 X-3.49
N1500 Y-0.5105
N1505 G3 X-3.5062 Y-0.4919 I-0.0187 J0.
N1510 G1 X-4.1375 Y-0.4064
N1515 G3 X-4.14 Y-0.4062 I-0.0025 J-0.0186
N1520 G1 X-5.106 Z-0.1237 F2.
N1525 G3 X-5.1217 Y-0.4127 Z-0.1243 I0. J-0.0221
N1530 G2 X-5.1376 Y-0.4275 Z-0.1251 I-0.2133 J0.2127
N1535 G3 Y-0.4415 Z-0.1257 I0.006 J-0.007
N1540 G2 X-5.1001 Y-0.4804 Z-0.1275 I-0.1974 J-0.2275
N1545 G3 X-5.0722 Y-0.4938 Z-0.1287 I0.0279 J0.0224
N1550 G1 X-3.602 Z-0.18
N1555 X-3.5787 F20.
N1560 G3 X-3.5662 Y-0.4812 I0. J0.0125
N1565 G1 Y-0.4188
N1570 G3 X-3.5787 Y-0.4062 I-0.0125 J0.
N1575 G1 X-5.106
N1580 G3 X-5.1217 Y-0.4127 I0. J-0.0221
N1585 G2 X-5.1376 Y-0.4275 I-0.2133 J0.2127
N1590 G3 Y-0.4415 I0.006 J-0.007
N1595 G2 X-5.1001 Y-0.4804 I-0.1974 J-0.2275
N1600 G3 X-5.0722 Y-0.4938 I0.0279 J0.0224
N1605 G1 X-3.602
N1610 G2 X-3.5494 Y-0.5253 I0. J-0.0595
N1615 G3 X-3.49 Y-0.5105 I0.0279 J0.0148
N1620 G1 Y-0.33
N1625 X-5.1513
N1630 G2 X-5.335 Y-0.425 I-0.1836 J0.13
N1635 G1 X-5.71
N1640 Y-0.444
N1645 X-5.335
N1650 G2 X-5.1329 Y-0.57 I0. J-0.225
N1655 G1 X-3.49
N1660 Y-0.5105
N1665 G3 X-3.5062 Y-0.4919 I-0.0187 J0.
N1670 G1 X-4.1375 Y-0.4064
N1675 G3 X-4.14 Y-0.4062 I-0.0025 J-0.0186
N1680 G1 X-5.106 Z-0.2137 F2.
N1685 G3 X-5.1217 Y-0.4127 Z-0.2143 I0. J-0.0221
N1690 G2 X-5.1376 Y-0.4275 Z-0.2151 I-0.2133 J0.2127
N1695 G3 Y-0.4415 Z-0.2157 I0.006 J-0.007
N1700 G2 X-5.1001 Y-0.4804 Z-0.2175 I-0.1974 J-0.2275
N1705 G3 X-5.0722 Y-0.4938 Z-0.2187 I0.0279 J0.0224
N1710 G1 X-3.602 Z-0.27
N1715 X-3.5787 F20.
N1720 G3 X-3.5662 Y-0.4812 I0. J0.0125
N1725 G1 Y-0.4188
N1730 G3 X-3.5787 Y-0.4062 I-0.0125 J0.
N1735 G1 X-5.106
N1740 G3 X-5.1217 Y-0.4127 I0. J-0.0221
N1745 G2 X-5.1376 Y-0.4275 I-0.2133 J0.2127
N1750 G3 Y-0.4415 I0.006 J-0.007
N1755 G2 X-5.1001 Y-0.4804 I-0.1974 J-0.2275
N1760 G3 X-5.0722 Y-0.4938 I0.0279 J0.0224
N1765 G1 X-3.602
N1770 G2 X-3.5494 Y-0.5253 I0. J-0.0595
N1775 G3 X-3.49 Y-0.5105 I0.0279 J0.0148
N1780 G1 Y-0.33
N1785 X-5.1513
N1790 G2 X-5.335 Y-0.425 I-0.1836 J0.13
N1795 G1 X-5.71
N1800 Y-0.444
N1805 X-5.335
N1810 G2 X-5.1329 Y-0.57 I0. J-0.225
N1815 G1 X-3.49
N1820 Y-0.5105
N1825 G3 X-3.5062 Y-0.4919 I-0.0187 J0.
N1830 G1 X-4.1375 Y-0.4064
N1835 G3 X-4.14 Y-0.4062 I-0.0025 J-0.0186
N1840 G1 X-5.106 Z-0.3037 F2.
N1845 G3 X-5.1217 Y-0.4127 Z-0.3043 I0. J-0.0221
N1850 G2 X-5.1376 Y-0.4275 Z-0.3051 I-0.2133 J0.2127
N1855 G3 Y-0.4415 Z-0.3057 I0.006 J-0.007
N1860 G2 X-5.1001 Y-0.4804 Z-0.3075 I-0.1974 J-0.2275
N1865 G3 X-5.0722 Y-0.4938 Z-0.3087 I0.0279 J0.0224
N1870 G1 X-3.602 Z-0.36
N1875 X-3.5787 F20.
N1880 G3 X-3.5662 Y-0.4812 I0. J0.0125
N1885 G1 Y-0.4188
N1890 G3 X-3.5787 Y-0.4062 I-0.0125 J0.
N1895 G1 X-5.106
N1900 G3 X-5.1217 Y-0.4127 I0. J-0.0221
N1905 G2 X-5.1376 Y-0.4275 I-0.2133 J0.2127
N1910 G3 Y-0.4415 I0.006 J-0.007
N1915 G2 X-5.1001 Y-0.4804 I-0.1974 J-0.2275
N1920 G3 X-5.0722 Y-0.4938 I0.0279 J0.0224
N1925 G1 X-3.602
N1930 G2 X-3.5494 Y-0.5253 I0. J-0.0595
N1935 G3 X-3.49 Y-0.5105 I0.0279 J0.0148
N1940 G1 Y-0.33
N1945 X-5.1513
N1950 G2 X-5.335 Y-0.425 I-0.1836 J0.13
N1955 G1 X-5.71
N1960 Y-0.444
N1965 X-5.335
N1970 G2 X-5.1329 Y-0.57 I0. J-0.225
N1975 G1 X-3.49
N1980 Y-0.5105
N1985 G3 X-3.5062 Y-0.4919 I-0.0187 J0.
N1990 G1 X-4.1375 Y-0.4064
N1995 G3 X-4.14 Y-0.4062 I-0.0025 J-0.0186
N2000 G1 X-5.106 Z-0.3937 F2.
N2005 G3 X-5.1217 Y-0.4127 Z-0.3943 I0. J-0.0221
N2010 G2 X-5.1376 Y-0.4275 Z-0.3951 I-0.2133 J0.2127
N2015 G3 Y-0.4415 Z-0.3957 I0.006 J-0.007
N2020 G2 X-5.1001 Y-0.4804 Z-0.3975 I-0.1974 J-0.2275
N2025 G3 X-5.0722 Y-0.4938 Z-0.3987 I0.0279 J0.0224
N2030 G1 X-3.602 Z-0.45
N2035 X-3.5787 F20.
N2040 G3 X-3.5662 Y-0.4812 I0. J0.0125
N2045 G1 Y-0.4188
N2050 G3 X-3.5787 Y-0.4062 I-0.0125 J0.
N2055 G1 X-5.106
N2060 G3 X-5.1217 Y-0.4127 I0. J-0.0221
N2065 G2 X-5.1376 Y-0.4275 I-0.2133 J0.2127
N2070 G3 Y-0.4415 I0.006 J-0.007
N2075 G2 X-5.1001 Y-0.4804 I-0.1974 J-0.2275
N2080 G3 X-5.0722 Y-0.4938 I0.0279 J0.0224
N2085 G1 X-3.602
N2090 G2 X-3.5494 Y-0.5253 I0. J-0.0595
N2095 G3 X-3.49 Y-0.5105 I0.0279 J0.0148
N2100 G1 Y-0.33
N2105 X-5.1513
N2110 G2 X-5.335 Y-0.425 I-0.1836 J0.13
N2115 G1 X-5.71
N2120 Y-0.444
N2125 X-5.335
N2130 G2 X-5.1329 Y-0.57 I0. J-0.225
N2135 G1 X-3.49
N2140 Y-0.5105
N2145 G3 X-3.5062 Y-0.4919 I-0.0187 J0.
N2150 G1 X-4.1375 Y-0.4064
N2155 G3 X-4.14 Y-0.4062 I-0.0025 J-0.0186
N2160 G1 X-5.106 Z-0.4837 F2.
N2165 G3 X-5.1217 Y-0.4127 Z-0.4843 I0. J-0.0221
N2170 G2 X-5.1376 Y-0.4275 Z-0.4851 I-0.2133 J0.2127
N2175 G3 Y-0.4415 Z-0.4857 I0.006 J-0.007
N2180 G2 X-5.1001 Y-0.4804 Z-0.4875 I-0.1974 J-0.2275
N2185 G3 X-5.0722 Y-0.4938 Z-0.4887 I0.0279 J0.0224
N2190 G1 X-3.602 Z-0.54
N2195 X-3.5787 F20.
N2200 G3 X-3.5662 Y-0.4812 I0. J0.0125
N2205 G1 Y-0.4188
N2210 G3 X-3.5787 Y-0.4062 I-0.0125 J0.
N2215 G1 X-5.106
N2220 G3 X-5.1217 Y-0.4127 I0. J-0.0221
N2225 G2 X-5.1376 Y-0.4275 I-0.2133 J0.2127
N2230 G3 Y-0.4415 I0.006 J-0.007
N2235 G2 X-5.1001 Y-0.4804 I-0.1974 J-0.2275
N2240 G3 X-5.0722 Y-0.4938 I0.0279 J0.0224
N2245 G1 X-3.602
N2250 G2 X-3.5494 Y-0.5253 I0. J-0.0595
N2255 G3 X-3.49 Y-0.5105 I0.0279 J0.0148
N2260 G1 Y-0.33
N2265 X-5.1513
N2270 G2 X-5.335 Y-0.425 I-0.1836 J0.13
N2275 G1 X-5.71
N2280 Y-0.444
N2285 X-5.335
N2290 G2 X-5.1329 Y-0.57 I0. J-0.225
N2295 G1 X-3.49
N2300 Y-0.5105
N2305 G3 X-3.5062 Y-0.4919 I-0.0187 J0.
N2310 G1 X-4.1375 Y-0.4064
N2315 G3 X-4.14 Y-0.4062 I-0.0025 J-0.0186
N2320 G1 X-5.106 Z-0.5737 F2.
N2325 G3 X-5.1217 Y-0.4127 Z-0.5743 I0. J-0.0221
N2330 G2 X-5.1376 Y-0.4275 Z-0.5751 I-0.2133 J0.2127
N2335 G3 Y-0.4415 Z-0.5757 I0.006 J-0.007
N2340 G2 X-5.1001 Y-0.4804 Z-0.5775 I-0.1974 J-0.2275
N2345 G3 X-5.0722 Y-0.4938 Z-0.5787 I0.0279 J0.0224
N2350 G1 X-3.602 Z-0.63
N2355 X-3.5787 F20.
N2360 G3 X-3.5662 Y-0.4812 I0. J0.0125
N2365 G1 Y-0.4188
N2370 G3 X-3.5787 Y-0.4062 I-0.0125 J0.
N2375 G1 X-5.106
N2380 G3 X-5.1217 Y-0.4127 I0. J-0.0221
N2385 G2 X-5.1376 Y-0.4275 I-0.2133 J0.2127
N2390 G3 Y-0.4415 I0.006 J-0.007
N2395 G2 X-5.1001 Y-0.4804 I-0.1974 J-0.2275
N2400 G3 X-5.0722 Y-0.4938 I0.0279 J0.0224
N2405 G1 X-3.602
N2410 G2 X-3.5494 Y-0.5253 I0. J-0.0595
N2415 G3 X-3.49 Y-0.5105 I0.0279 J0.0148
N2420 G1 Y-0.33
N2425 X-5.1513
N2430 G2 X-5.335 Y-0.425 I-0.1836 J0.13
N2435 G1 X-5.71
N2440 Y-0.444
N2445 X-5.335
N2450 G2 X-5.1329 Y-0.57 I0. J-0.225
N2455 G1 X-3.49
N2460 Y-0.5105
N2465 G3 X-3.5062 Y-0.4919 I-0.0187 J0.
N2470 G1 X-4.1375 Y-0.4064
N2475 G3 X-4.14 Y-0.4062 I-0.0025 J-0.0186
N2480 G1 X-5.106 Z-0.6637 F2.
N2485 G3 X-5.1217 Y-0.4127 Z-0.6643 I0. J-0.0221
N2490 G2 X-5.1376 Y-0.4275 Z-0.6651 I-0.2133 J0.2127
N2495 G3 Y-0.4415 Z-0.6657 I0.006 J-0.007
N2500 G2 X-5.1001 Y-0.4804 Z-0.6675 I-0.1974 J-0.2275
N2505 G3 X-5.0722 Y-0.4938 Z-0.6687 I0.0279 J0.0224
N2510 G1 X-3.602 Z-0.72
N2515 X-3.5787 F20.
N2520 G3 X-3.5662 Y-0.4812 I0. J0.0125
N2525 G1 Y-0.4188
N2530 G3 X-3.5787 Y-0.4062 I-0.0125 J0.
N2535 G1 X-5.106
N2540 G3 X-5.1217 Y-0.4127 I0. J-0.0221
N2545 G2 X-5.1376 Y-0.4275 I-0.2133 J0.2127
N2550 G3 Y-0.4415 I0.006 J-0.007
N2555 G2 X-5.1001 Y-0.4804 I-0.1974 J-0.2275
N2560 G3 X-5.0722 Y-0.4938 I0.0279 J0.0224
N2565 G1 X-3.602
N2570 G2 X-3.5494 Y-0.5253 I0. J-0.0595
N2575 G3 X-3.49 Y-0.5105 I0.0279 J0.0148
N2580 G1 Y-0.33
N2585 X-5.1513
N2590 G2 X-5.335 Y-0.425 I-0.1836 J0.13
N2595 G1 X-5.71
N2600 Y-0.444
N2605 X-5.335
N2610 G2 X-5.1329 Y-0.57 I0. J-0.225
N2615 G1 X-3.49
N2620 Y-0.5105
N2625 G3 X-3.5062 Y-0.4919 I-0.0187 J0.
N2630 G1 X-4.1375 Y-0.4064
N2635 G3 X-4.14 Y-0.4062 I-0.0025 J-0.0186
N2640 G1 X-5.106 Z-0.7537 F2.
N2645 G3 X-5.1217 Y-0.4127 Z-0.7543 I0. J-0.0221
N2650 G2 X-5.1376 Y-0.4275 Z-0.7551 I-0.2133 J0.2127
N2655 G3 Y-0.4415 Z-0.7557 I0.006 J-0.007
N2660 G2 X-5.1001 Y-0.4804 Z-0.7575 I-0.1974 J-0.2275
N2665 G3 X-5.0722 Y-0.4938 Z-0.7587 I0.0279 J0.0224
N2670 G1 X-3.602 Z-0.81
N2675 X-3.5787 F20.
N2680 G3 X-3.5662 Y-0.4812 I0. J0.0125
N2685 G1 Y-0.4188
N2690 G3 X-3.5787 Y-0.4062 I-0.0125 J0.
N2695 G1 X-5.106
N2700 G3 X-5.1217 Y-0.4127 I0. J-0.0221
N2705 G2 X-5.1376 Y-0.4275 I-0.2133 J0.2127
N2710 G3 Y-0.4415 I0.006 J-0.007
N2715 G2 X-5.1001 Y-0.4804 I-0.1974 J-0.2275
N2720 G3 X-5.0722 Y-0.4938 I0.0279 J0.0224
N2725 G1 X-3.602
N2730 G2 X-3.5494 Y-0.5253 I0. J-0.0595
N2735 G3 X-3.49 Y-0.5105 I0.0279 J0.0148
N2740 G1 Y-0.33
N2745 X-5.1513
N2750 G2 X-5.335 Y-0.425 I-0.1836 J0.13
N2755 G1 X-5.71
N2760 Y-0.444
N2765 X-5.335
N2770 G2 X-5.1329 Y-0.57 I0. J-0.225
N2775 G1 X-3.49
N2780 Y-0.5105
N2785 G3 X-3.5062 Y-0.4919 I-0.0187 J0.
N2790 G1 X-4.1375 Y-0.4064
N2795 G3 X-4.14 Y-0.4062 I-0.0025 J-0.0186
N2800 G1 X-5.106 Z-0.8437 F2.
N2805 G3 X-5.1217 Y-0.4127 Z-0.8443 I0. J-0.0221
N2810 G2 X-5.1376 Y-0.4275 Z-0.8451 I-0.2133 J0.2127
N2815 G3 Y-0.4415 Z-0.8457 I0.006 J-0.007
N2820 G2 X-5.1001 Y-0.4804 Z-0.8475 I-0.1974 J-0.2275
N2825 G3 X-5.0722 Y-0.4938 Z-0.8487 I0.0279 J0.0224
N2830 G1 X-3.602 Z-0.9
N2835 X-3.5787 F20.
N2840 G3 X-3.5662 Y-0.4812 I0. J0.0125
N2845 G1 Y-0.4188
N2850 G3 X-3.5787 Y-0.4062 I-0.0125 J0.
N2855 G1 X-5.106
N2860 G3 X-5.1217 Y-0.4127 I0. J-0.0221
N2865 G2 X-5.1376 Y-0.4275 I-0.2133 J0.2127
N2870 G3 Y-0.4415 I0.006 J-0.007
N2875 G2 X-5.1001 Y-0.4804 I-0.1974 J-0.2275
N2880 G3 X-5.0722 Y-0.4938 I0.0279 J0.0224
N2885 G1 X-3.602
N2890 G2 X-3.5494 Y-0.5253 I0. J-0.0595
N2895 G3 X-3.49 Y-0.5105 I0.0279 J0.0148
N2900 G1 Y-0.33
N2905 X-5.1513
N2910 G2 X-5.335 Y-0.425 I-0.1836 J0.13
N2915 G1 X-5.71
N2920 Y-0.444
N2925 X-5.335
N2930 G2 X-5.1329 Y-0.57 I0. J-0.225
N2935 G1 X-3.49
N2940 Y-0.5105
N2945 G3 X-3.5062 Y-0.4919 I-0.0187 J0.
N2950 G1 X-4.1375 Y-0.4064
N2955 G3 X-4.14 Y-0.4062 I-0.0025 J-0.0186
N2960 G1 X-5.106 Z-0.9337 F2.
N2965 G3 X-5.1217 Y-0.4127 Z-0.9343 I0. J-0.0221
N2970 G2 X-5.1376 Y-0.4275 Z-0.9351 I-0.2133 J0.2127
N2975 G3 Y-0.4415 Z-0.9357 I0.006 J-0.007
N2980 G2 X-5.1001 Y-0.4804 Z-0.9375 I-0.1974 J-0.2275
N2985 G3 X-5.0722 Y-0.4938 Z-0.9387 I0.0279 J0.0224
N2990 G1 X-3.602 Z-0.99
N2995 X-3.5787 F20.
N3000 G3 X-3.5662 Y-0.4812 I0. J0.0125
N3005 G1 Y-0.4188
N3010 G3 X-3.5787 Y-0.4062 I-0.0125 J0.
N3015 G1 X-5.106
N3020 G3 X-5.1217 Y-0.4127 I0. J-0.0221
N3025 G2 X-5.1376 Y-0.4275 I-0.2133 J0.2127
N3030 G3 Y-0.4415 I0.006 J-0.007
N3035 G2 X-5.1001 Y-0.4804 I-0.1974 J-0.2275
N3040 G3 X-5.0722 Y-0.4938 I0.0279 J0.0224
N3045 G1 X-3.602
N3050 G2 X-3.5494 Y-0.5253 I0. J-0.0595
N3055 G3 X-3.49 Y-0.5105 I0.0279 J0.0148
N3060 G1 Y-0.33
N3065 X-5.1513
N3070 G2 X-5.335 Y-0.425 I-0.1836 J0.13
N3075 G1 X-5.71
N3080 Y-0.444
N3085 X-5.335
N3090 G2 X-5.1329 Y-0.57 I0. J-0.225
N3095 G1 X-3.49
N3100 Y-0.5105
N3105 G3 X-3.5062 Y-0.4919 I-0.0187 J0.
N3110 G1 X-4.1375 Y-0.4064
N3115 G3 X-4.14 Y-0.4062 I-0.0025 J-0.0186
N3120 G1 X-5.106 Z-1.0237 F2.
N3125 G3 X-5.1217 Y-0.4127 Z-1.0243 I0. J-0.0221
N3130 G2 X-5.1376 Y-0.4275 Z-1.0251 I-0.2133 J0.2127
N3135 G3 Y-0.4415 Z-1.0257 I0.006 J-0.007
N3140 G2 X-5.1001 Y-0.4804 Z-1.0275 I-0.1974 J-0.2275
N3145 G3 X-5.0722 Y-0.4938 Z-1.0287 I0.0279 J0.0224
N3150 G1 X-3.602 Z-1.08
N3155 X-3.5787 F20.
N3160 G3 X-3.5662 Y-0.4812 I0. J0.0125
N3165 G1 Y-0.4188
N3170 G3 X-3.5787 Y-0.4062 I-0.0125 J0.
N3175 G1 X-5.106
N3180 G3 X-5.1217 Y-0.4127 I0. J-0.0221
N3185 G2 X-5.1376 Y-0.4275 I-0.2133 J0.2127
N3190 G3 Y-0.4415 I0.006 J-0.007
N3195 G2 X-5.1001 Y-0.4804 I-0.1974 J-0.2275
N3200 G3 X-5.0722 Y-0.4938 I0.0279 J0.0224
N3205 G1 X-3.602
N3210 G2 X-3.5494 Y-0.5253 I0. J-0.0595
N3215 G3 X-3.49 Y-0.5105 I0.0279 J0.0148
N3220 G1 Y-0.33
N3225 X-5.1513
N3230 G2 X-5.335 Y-0.425 I-0.1836 J0.13
N3235 G1 X-5.71
N3240 Y-0.444
N3245 X-5.335
N3250 G2 X-5.1329 Y-0.57 I0. J-0.225
N3255 G1 X-3.49
N3260 Y-0.5105
N3265 G3 X-3.5062 Y-0.4919 I-0.0187 J0.
N3270 G1 X-4.1375 Y-0.4064
N3275 G3 X-4.14 Y-0.4062 I-0.0025 J-0.0186
N3280 G1 X-5.106 Z-1.1137 F2.
N3285 G3 X-5.1217 Y-0.4127 Z-1.1143 I0. J-0.0221
N3290 G2 X-5.1376 Y-0.4275 Z-1.1151 I-0.2133 J0.2127
N3295 G3 Y-0.4415 Z-1.1157 I0.006 J-0.007
N3300 G2 X-5.1001 Y-0.4804 Z-1.1175 I-0.1974 J-0.2275
N3305 G3 X-5.0722 Y-0.4938 Z-1.1187 I0.0279 J0.0224
N3310 G1 X-3.602 Z-1.17
N3315 X-3.5787 F20.
N3320 G3 X-3.5662 Y-0.4812 I0. J0.0125
N3325 G1 Y-0.4188
N3330 G3 X-3.5787 Y-0.4062 I-0.0125 J0.
N3335 G1 X-5.106
N3340 G3 X-5.1217 Y-0.4127 I0. J-0.0221
N3345 G2 X-5.1376 Y-0.4275 I-0.2133 J0.2127
N3350 G3 Y-0.4415 I0.006 J-0.007
N3355 G2 X-5.1001 Y-0.4804 I-0.1974 J-0.2275
N3360 G3 X-5.0722 Y-0.4938 I0.0279 J0.0224
N3365 G1 X-3.602
N3370 G2 X-3.5494 Y-0.5253 I0. J-0.0595
N3375 G3 X-3.49 Y-0.5105 I0.0279 J0.0148
N3380 G1 Y-0.33
N3385 X-5.1513
N3390 G2 X-5.335 Y-0.425 I-0.1836 J0.13
N3395 G1 X-5.71
N3400 Y-0.444
N3405 X-5.335
N3410 G2 X-5.1329 Y-0.57 I0. J-0.225
N3415 G1 X-3.49
N3420 Y-0.5105
N3425 G3 X-3.5073 Y-0.4918 I-0.0187 J0.
N3430 G1 X-4.6554 Y-0.4062
N3435 X-5.106 Z-1.1857 F2.
N3440 G3 X-5.1217 Y-0.4127 Z-1.1863 I0. J-0.0221
N3445 G2 X-5.1376 Y-0.4275 Z-1.1871 I-0.2133 J0.2127
N3450 G3 Y-0.4415 Z-1.1877 I0.006 J-0.007
N3455 G2 X-5.1001 Y-0.4804 Z-1.1895 I-0.1974 J-0.2275
N3460 G3 X-5.0722 Y-0.4938 Z-1.1907 I0.0279 J0.0224
N3465 G1 X-3.602 Z-1.242
N3470 X-3.5787 F20.
N3475 G3 X-3.5662 Y-0.4812 I0. J0.0125
N3480 G1 Y-0.4188
N3485 G3 X-3.5787 Y-0.4062 I-0.0125 J0.
N3490 G1 X-5.106
N3495 G3 X-5.1217 Y-0.4127 I0. J-0.0221
N3500 G2 X-5.1376 Y-0.4275 I-0.2133 J0.2127
N3505 G3 Y-0.4415 I0.006 J-0.007
N3510 G2 X-5.1001 Y-0.4804 I-0.1974 J-0.2275
N3515 G3 X-5.0722 Y-0.4938 I0.0279 J0.0224
N3520 G1 X-3.602
N3525 G2 X-3.5494 Y-0.5253 I0. J-0.0595
N3530 G3 X-3.49 Y-0.5105 I0.0279 J0.0148
N3535 G1 Y-0.33
N3540 X-5.1513
N3545 G2 X-5.335 Y-0.425 I-0.1836 J0.13
N3550 G1 X-5.71
N3555 Y-0.444
N3560 X-5.335
N3565 G2 X-5.1329 Y-0.57 I0. J-0.225
N3570 G1 X-3.49
N3575 Y-0.5105
N3580 G3 X-3.4939 Y-0.4892 Z-1.2427 I-0.0595 J0. F2.
N3585 G1 X-3.5544 Y-0.3308 Z-1.2478
N3590 G3 X-3.61 Y-0.2925 Z-1.25 I-0.0556 J-0.0212
N3595 G1 X-5.1546 F10.
N3600 G3 X-5.1804 Y-0.3061 I0. J-0.0313
N3605 G2 X-5.335 Y-0.3875 I-0.1546 J0.1061
N3610 G1 X-5.7162
N3615 G3 X-5.7475 Y-0.4187 I0. J-0.0312
N3620 G1 Y-0.4503
N3625 G3 X-5.7162 Y-0.4815 I0.0312 J0.
N3630 G1 X-5.335
N3635 G2 X-5.1652 Y-0.5895 I0. J-0.1875
N3640 G3 X-5.1369 Y-0.6075 I0.0283 J0.0132
N3645 G1 X-3.4837
N3650 G3 X-3.4525 Y-0.5763 I0. J0.0312
N3655 G1 Y-0.3237
N3660 G3 X-3.4837 Y-0.2925 I-0.0312 J0.
N3665 G1 X-3.61
N3670 G3 X-3.6196 Y-0.2937 Z-1.2487 I0. J-0.0375 F20.
N3675 X-3.628 Y-0.2971 Z-1.245 I0.0096 J-0.0363
N3680 X-3.6343 Y-0.3015 Z-1.239 I0.018 J-0.0329
N3685 X-3.6386 Y-0.3057 Z-1.2313 I0.0244 J-0.0285
N3690 X-3.6408 Y-0.3087 Z-1.2222 I0.0286 J-0.0243
N3695 X-3.6415 Y-0.3097 Z-1.2125 I0.0308 J-0.0213
N3700 G0 Z0.6
N3710 M9
N3715 G53 Z0.
N3720 M30
%
