%
(FCG_TRIGGER_SLOT)
(.25 END MILL 3 MINUTES)
(T2  D=0.25 CR=0. - ZMIN=-1.37 - FLAT END MILL)
N10 G90 G94 G17 G91.1
N15 G20
N20 G53 G0 Z0.
(FCG_TRIGGER_SLOT)
N25 M9
N30 T2 M6
N35 S2000 M3
N40 G54
N45 M8
N55 G0 X-4.4731 Y-0.4432
N60 G43 Z0.3 H2
N65 G0 Z-1.171
N70 G1 Z-1.29 F4.
N75 G3 X-4.4807 Y-0.4592 I0.0041 J-0.0118
N80 G1 X-4.4797 Y-0.4619 F7.
N85 X-4.4784 Y-0.4646
N90 Y-0.4647
N95 X-4.4769 Y-0.4673
N100 X-4.475 Y-0.4697
N105 X-4.473 Y-0.472
N110 X-4.4729
N115 X-4.4708 Y-0.474
N120 X-4.4707 Y-0.4741
N125 X-4.4683 Y-0.4758
N130 Y-0.4759
N135 X-4.4657 Y-0.4774
N140 X-4.4656
N145 X-4.4629 Y-0.4787
N150 X-4.46 Y-0.4798
N155 X-4.4571 Y-0.4805
N160 X-4.457
N165 X-4.4541 Y-0.4809
N170 X-4.454
N175 X-4.449 Y-0.4812
N180 X-4.4411 Y-0.4813
N185 X-4.0929
N190 X-4.085 Y-0.4812
N195 X-4.08 Y-0.4809
N200 X-4.077 Y-0.4805
N205 X-4.0769
N210 X-4.074 Y-0.4798
N215 X-4.0711 Y-0.4787
N220 X-4.071
N225 X-4.0684 Y-0.4774
N230 X-4.0683
N235 X-4.0657 Y-0.4759
N240 Y-0.4758
N245 X-4.0633 Y-0.4741
N250 X-4.0632 Y-0.474
N255 X-4.0611 Y-0.472
N260 X-4.061
N265 X-4.059 Y-0.4697
N270 X-4.0571 Y-0.4673
N275 X-4.0556 Y-0.4647
N280 Y-0.4646
N285 X-4.0543 Y-0.4619
N290 X-4.0532 Y-0.459
N295 Y-0.4589
N300 X-4.0525 Y-0.4561
N305 X-4.0521 Y-0.4531
N310 X-4.052 Y-0.453
N315 X-4.0519 Y-0.45
N320 X-4.052 Y-0.447
N325 X-4.0521 Y-0.4469
N330 X-4.0525 Y-0.444
N335 Y-0.4439
N340 X-4.0532 Y-0.4411
N345 Y-0.441
N350 X-4.0543 Y-0.4381
N355 X-4.0556 Y-0.4354
N360 Y-0.4353
N365 X-4.0571 Y-0.4327
N370 X-4.0573 Y-0.4325
N375 X-4.059 Y-0.4303
N380 X-4.061 Y-0.428
N385 X-4.0611
N390 X-4.0632 Y-0.426
N395 X-4.0633 Y-0.4259
N400 X-4.0657 Y-0.4242
N405 Y-0.4241
N410 X-4.0683 Y-0.4226
N415 X-4.0684
N420 X-4.071 Y-0.4213
N425 X-4.0711
N430 X-4.074 Y-0.4202
N435 X-4.0769 Y-0.4195
N440 X-4.077
N445 X-4.08 Y-0.4191
N450 X-4.085 Y-0.4188
N455 X-4.0929 Y-0.4187
N460 X-4.4411
N465 X-4.449 Y-0.4188
N470 X-4.454 Y-0.4191
N475 X-4.4541
N480 X-4.457 Y-0.4195
N485 X-4.4571
N490 X-4.46 Y-0.4202
N495 X-4.4629 Y-0.4213
N500 X-4.4656 Y-0.4226
N505 X-4.4657
N510 X-4.4683 Y-0.4241
N515 Y-0.4242
N520 X-4.4707 Y-0.4259
N525 X-4.4708 Y-0.426
N530 X-4.4729 Y-0.428
N535 X-4.473
N540 X-4.475 Y-0.4303
N545 X-4.4769 Y-0.4327
N550 X-4.4784 Y-0.4353
N555 Y-0.4354
N560 X-4.4797 Y-0.4381
N565 X-4.4808 Y-0.441
N570 X-4.4815 Y-0.4439
N575 Y-0.444
N580 X-4.4819 Y-0.4469
N585 X-4.482 Y-0.447
N590 X-4.4821 Y-0.45
N595 X-4.482 Y-0.453
N600 X-4.4819 Y-0.4531
N605 X-4.4815 Y-0.4561
N610 X-4.4808 Y-0.459
N615 X-4.4807 Y-0.4592
N620 X-4.4797 Y-0.4619
N625 X-4.4784 Y-0.4646
N630 Y-0.4647
N635 X-4.4769 Y-0.4673
N640 X-4.475 Y-0.4697
N645 X-4.473 Y-0.472
N650 X-4.4729
N655 X-4.4708 Y-0.474
N660 X-4.4707 Y-0.4741
N665 X-4.4683 Y-0.4758
N670 Y-0.4759
N675 X-4.4657 Y-0.4774
N680 X-4.4656
N685 X-4.4629 Y-0.4787
N690 X-4.46 Y-0.4798
N695 X-4.4571 Y-0.4805
N700 X-4.457
N705 X-4.4541 Y-0.4809
N710 X-4.454
N715 X-4.449 Y-0.4812
N720 X-4.4411 Y-0.4813
N725 X-4.0929
N730 X-4.085 Y-0.4812
N735 X-4.08 Y-0.4809
N740 X-4.077 Y-0.4805
N745 X-4.0769
N750 X-4.074 Y-0.4798
N755 X-4.0711 Y-0.4787
N760 X-4.071
N765 X-4.0684 Y-0.4774
N770 X-4.0683
N775 X-4.0657 Y-0.4759
N780 Y-0.4758
N785 X-4.0633 Y-0.4741
N790 X-4.0632 Y-0.474
N795 X-4.0611 Y-0.472
N800 X-4.061
N805 X-4.059 Y-0.4697
N810 X-4.0571 Y-0.4673
N815 X-4.0556 Y-0.4647
N820 Y-0.4646
N825 X-4.0543 Y-0.4619
N830 X-4.0532 Y-0.459
N835 Y-0.4589
N840 X-4.0525 Y-0.4561
N845 X-4.0521 Y-0.4531
N850 X-4.052 Y-0.453
N855 X-4.0519 Y-0.45
N860 X-4.052 Y-0.447
N865 X-4.0521 Y-0.4469
N870 X-4.0525 Y-0.444
N875 Y-0.4439
N880 X-4.0532 Y-0.4411
N885 Y-0.441
N890 X-4.0543 Y-0.4381
N895 X-4.0556 Y-0.4354
N900 Y-0.4353
N905 X-4.0571 Y-0.4327
N910 X-4.0573 Y-0.4325
N915 X-4.059 Y-0.4303
N920 X-4.061 Y-0.428
N925 X-4.0611
N930 X-4.0632 Y-0.426
N935 X-4.0633 Y-0.4259
N940 X-4.0657 Y-0.4242
N945 Y-0.4241
N950 X-4.0683 Y-0.4226
N955 X-4.0684
N960 X-4.071 Y-0.4213
N965 X-4.0711
N970 X-4.074 Y-0.4202
N975 X-4.0769 Y-0.4195
N980 X-4.077
N985 X-4.08 Y-0.4191
N990 X-4.085 Y-0.4188
N995 X-4.0929 Y-0.4187
N1000 X-4.4411
N1005 X-4.449 Y-0.4188
N1010 X-4.454 Y-0.4191
N1015 X-4.4541
N1020 X-4.457 Y-0.4195
N1025 X-4.4571
N1030 X-4.46 Y-0.4202
N1035 X-4.4629 Y-0.4213
N1040 X-4.4656 Y-0.4226
N1045 X-4.4657
N1050 X-4.4683 Y-0.4241
N1055 Y-0.4242
N1060 X-4.4707 Y-0.4259
N1065 X-4.4708 Y-0.426
N1070 X-4.4729 Y-0.428
N1075 X-4.473
N1080 X-4.475 Y-0.4303
N1085 X-4.4769 Y-0.4327
N1090 X-4.4784 Y-0.4353
N1095 Y-0.4354
N1100 X-4.4797 Y-0.4381
N1105 X-4.4808 Y-0.441
N1110 X-4.4815 Y-0.4439
N1115 Y-0.444
N1120 X-4.4819 Y-0.4469
N1125 X-4.482 Y-0.447
N1130 X-4.4821 Y-0.45
N1135 X-4.482 Y-0.453
N1140 X-4.4819 Y-0.4531
N1145 X-4.4815 Y-0.4561
N1150 X-4.4808 Y-0.459
N1155 X-4.4807 Y-0.4592
N1160 X-4.4804 Y-0.46 F2.
N1165 X-4.4797 Y-0.4619 Z-1.2901
N1170 X-4.4784 Y-0.4646 Z-1.2902
N1175 Y-0.4647
N1180 X-4.4769 Y-0.4673 Z-1.2903
N1185 X-4.475 Y-0.4697 Z-1.2904
N1190 X-4.473 Y-0.472 Z-1.2905
N1195 X-4.4729
N1200 X-4.4708 Y-0.474 Z-1.2906
N1205 X-4.4707 Y-0.4741
N1210 X-4.4683 Y-0.4758 Z-1.2907
N1215 Y-0.4759
N1220 X-4.4657 Y-0.4774 Z-1.2908
N1225 X-4.4656
N1230 X-4.4629 Y-0.4787 Z-1.2909
N1235 X-4.46 Y-0.4798 Z-1.291
N1240 X-4.4571 Y-0.4805 Z-1.2911
N1245 X-4.457 Z-1.2912
N1250 X-4.4541 Y-0.4809 Z-1.2913
N1255 X-4.454
N1260 X-4.449 Y-0.4812 Z-1.2914
N1265 X-4.4411 Y-0.4813 Z-1.2917
N1270 X-4.0929 Z-1.3039
N1275 X-4.085 Y-0.4812 Z-1.3041
N1280 X-4.08 Y-0.4809 Z-1.3043
N1285 X-4.077 Y-0.4805 Z-1.3044
N1290 X-4.0769
N1295 X-4.074 Y-0.4798 Z-1.3045
N1300 X-4.0711 Y-0.4787 Z-1.3046
N1305 X-4.071
N1310 X-4.0684 Y-0.4774 Z-1.3047
N1315 X-4.0683
N1320 X-4.0657 Y-0.4759 Z-1.3049
N1325 Y-0.4758
N1330 X-4.0633 Y-0.4741 Z-1.305
N1335 X-4.0632 Y-0.474
N1340 X-4.0611 Y-0.472 Z-1.3051
N1345 X-4.061
N1350 X-4.059 Y-0.4697 Z-1.3052
N1355 X-4.0571 Y-0.4673 Z-1.3053
N1360 X-4.0556 Y-0.4647 Z-1.3054
N1365 Y-0.4646
N1370 X-4.0543 Y-0.4619 Z-1.3055
N1375 X-4.0532 Y-0.459 Z-1.3056
N1380 Y-0.4589
N1385 X-4.0525 Y-0.4561 Z-1.3057
N1390 X-4.0521 Y-0.4531 Z-1.3058
N1395 X-4.052 Y-0.453
N1400 X-4.0519 Y-0.45 Z-1.3059
N1405 X-4.052 Y-0.447 Z-1.306
N1410 X-4.0521 Y-0.4469
N1415 X-4.0525 Y-0.444 Z-1.3061
N1420 Y-0.4439
N1425 X-4.0532 Y-0.4411 Z-1.3062
N1430 Y-0.441
N1435 X-4.0543 Y-0.4381 Z-1.3063
N1440 X-4.0556 Y-0.4354 Z-1.3065
N1445 Y-0.4353
N1450 X-4.0571 Y-0.4327 Z-1.3066
N1455 X-4.0573 Y-0.4325
N1460 X-4.059 Y-0.4303 Z-1.3067
N1465 X-4.061 Y-0.428 Z-1.3068
N1470 X-4.0611
N1475 X-4.0632 Y-0.426 Z-1.3069
N1480 X-4.0633 Y-0.4259
N1485 X-4.0657 Y-0.4242 Z-1.307
N1490 Y-0.4241
N1495 X-4.0683 Y-0.4226 Z-1.3071
N1500 X-4.0684
N1505 X-4.071 Y-0.4213 Z-1.3072
N1510 X-4.0711
N1515 X-4.074 Y-0.4202 Z-1.3073
N1520 X-4.0769 Y-0.4195 Z-1.3074
N1525 X-4.077
N1530 X-4.08 Y-0.4191 Z-1.3075
N1535 X-4.085 Y-0.4188 Z-1.3077
N1540 X-4.0929 Y-0.4187 Z-1.308
N1545 X-4.4411 Z-1.3201
N1550 X-4.449 Y-0.4188 Z-1.3204
N1555 X-4.454 Y-0.4191 Z-1.3206
N1560 X-4.4541
N1565 X-4.457 Y-0.4195 Z-1.3207
N1570 X-4.4571
N1575 X-4.46 Y-0.4202 Z-1.3208
N1580 X-4.4629 Y-0.4213 Z-1.3209
N1585 X-4.4656 Y-0.4226 Z-1.321
N1590 X-4.4657
N1595 X-4.4683 Y-0.4241 Z-1.3211
N1600 Y-0.4242
N1605 X-4.4707 Y-0.4259 Z-1.3212
N1610 X-4.4708 Y-0.426
N1615 X-4.4729 Y-0.428 Z-1.3213
N1620 X-4.473
N1625 X-4.475 Y-0.4303 Z-1.3214
N1630 X-4.4769 Y-0.4327 Z-1.3215
N1635 X-4.4784 Y-0.4353 Z-1.3216
N1640 Y-0.4354
N1645 X-4.4797 Y-0.4381 Z-1.3218
N1650 X-4.4808 Y-0.441 Z-1.3219
N1655 X-4.4815 Y-0.4439 Z-1.322
N1660 Y-0.444
N1665 X-4.4819 Y-0.4469 Z-1.3221
N1670 X-4.482 Y-0.447
N1675 X-4.4821 Y-0.45 Z-1.3222
N1680 X-4.482 Y-0.453 Z-1.3223
N1685 X-4.4819 Y-0.4531
N1690 X-4.4815 Y-0.4561 Z-1.3224
N1695 X-4.4808 Y-0.459 Z-1.3225
N1700 X-4.4797 Y-0.4619 Z-1.3226
N1705 X-4.4784 Y-0.4646 Z-1.3227
N1710 Y-0.4647
N1715 X-4.4769 Y-0.4673 Z-1.3228
N1720 X-4.475 Y-0.4697 Z-1.3229
N1725 X-4.473 Y-0.472 Z-1.323
N1730 X-4.4729
N1735 X-4.4708 Y-0.474 Z-1.3231
N1740 X-4.4707 Y-0.4741
N1745 X-4.4683 Y-0.4758 Z-1.3232
N1750 Y-0.4759
N1755 X-4.4657 Y-0.4774 Z-1.3234
N1760 X-4.4656
N1765 X-4.4629 Y-0.4787 Z-1.3235
N1770 X-4.46 Y-0.4798 Z-1.3236
N1775 X-4.4571 Y-0.4805 Z-1.3237
N1780 X-4.457
N1785 X-4.4541 Y-0.4809 Z-1.3238
N1790 X-4.454
N1795 X-4.449 Y-0.4812 Z-1.324
N1800 X-4.4411 Y-0.4813 Z-1.3242
N1805 X-4.2764 Z-1.33
N1810 G18 G2 X-4.2755 I0.0009 K0.025
N1815 G1 X-4.0929 F7.
N1820 X-4.085 Y-0.4812
N1825 X-4.08 Y-0.4809
N1830 X-4.077 Y-0.4805
N1835 X-4.0769
N1840 X-4.074 Y-0.4798
N1845 X-4.0711 Y-0.4787
N1850 X-4.071
N1855 X-4.0684 Y-0.4774
N1860 X-4.0683
N1865 X-4.0657 Y-0.4759
N1870 Y-0.4758
N1875 X-4.0633 Y-0.4741
N1880 X-4.0632 Y-0.474
N1885 X-4.0611 Y-0.472
N1890 X-4.061
N1895 X-4.059 Y-0.4697
N1900 X-4.0571 Y-0.4673
N1905 X-4.0556 Y-0.4647
N1910 Y-0.4646
N1915 X-4.0543 Y-0.4619
N1920 X-4.0532 Y-0.459
N1925 Y-0.4589
N1930 X-4.0525 Y-0.4561
N1935 X-4.0521 Y-0.4531
N1940 X-4.052 Y-0.453
N1945 X-4.0519 Y-0.45
N1950 X-4.052 Y-0.447
N1955 X-4.0521 Y-0.4469
N1960 X-4.0525 Y-0.444
N1965 Y-0.4439
N1970 X-4.0532 Y-0.4411
N1975 Y-0.441
N1980 X-4.0543 Y-0.4381
N1985 X-4.0556 Y-0.4354
N1990 Y-0.4353
N1995 X-4.0571 Y-0.4327
N2000 X-4.0573 Y-0.4325
N2005 X-4.059 Y-0.4303
N2010 X-4.061 Y-0.428
N2015 X-4.0611
N2020 X-4.0632 Y-0.426
N2025 X-4.0633 Y-0.4259
N2030 X-4.0657 Y-0.4242
N2035 Y-0.4241
N2040 X-4.0683 Y-0.4226
N2045 X-4.0684
N2050 X-4.071 Y-0.4213
N2055 X-4.0711
N2060 X-4.074 Y-0.4202
N2065 X-4.0769 Y-0.4195
N2070 X-4.077
N2075 X-4.08 Y-0.4191
N2080 X-4.085 Y-0.4188
N2085 X-4.0929 Y-0.4187
N2090 X-4.4411
N2095 X-4.449 Y-0.4188
N2100 X-4.454 Y-0.4191
N2105 X-4.4541
N2110 X-4.457 Y-0.4195
N2115 X-4.4571
N2120 X-4.46 Y-0.4202
N2125 X-4.4629 Y-0.4213
N2130 X-4.4656 Y-0.4226
N2135 X-4.4657
N2140 X-4.4683 Y-0.4241
N2145 Y-0.4242
N2150 X-4.4707 Y-0.4259
N2155 X-4.4708 Y-0.426
N2160 X-4.4729 Y-0.428
N2165 X-4.473
N2170 X-4.475 Y-0.4303
N2175 X-4.4769 Y-0.4327
N2180 X-4.4784 Y-0.4353
N2185 Y-0.4354
N2190 X-4.4797 Y-0.4381
N2195 X-4.4808 Y-0.441
N2200 X-4.4815 Y-0.4439
N2205 Y-0.444
N2210 X-4.4819 Y-0.4469
N2215 X-4.482 Y-0.447
N2220 X-4.4821 Y-0.45
N2225 X-4.482 Y-0.453
N2230 X-4.4819 Y-0.4531
N2235 X-4.4815 Y-0.4561
N2240 X-4.4808 Y-0.459
N2245 X-4.4797 Y-0.4619
N2250 X-4.4784 Y-0.4646
N2255 Y-0.4647
N2260 X-4.4769 Y-0.4673
N2265 X-4.475 Y-0.4697
N2270 X-4.473 Y-0.472
N2275 X-4.4729
N2280 X-4.4708 Y-0.474
N2285 X-4.4707 Y-0.4741
N2290 X-4.4683 Y-0.4758
N2295 Y-0.4759
N2300 X-4.4657 Y-0.4774
N2305 X-4.4656
N2310 X-4.4629 Y-0.4787
N2315 X-4.46 Y-0.4798
N2320 X-4.4571 Y-0.4805
N2325 X-4.457
N2330 X-4.4541 Y-0.4809
N2335 X-4.454
N2340 X-4.449 Y-0.4812
N2345 X-4.4411 Y-0.4813
N2350 X-4.2755
N2355 X-4.0929
N2360 X-4.085 Y-0.4812
N2365 X-4.08 Y-0.4809
N2370 X-4.077 Y-0.4805
N2375 X-4.0769
N2380 X-4.074 Y-0.4798
N2385 X-4.0711 Y-0.4787
N2390 X-4.071
N2395 X-4.0684 Y-0.4774
N2400 X-4.0683
N2405 X-4.0657 Y-0.4759
N2410 Y-0.4758
N2415 X-4.0633 Y-0.4741
N2420 X-4.0632 Y-0.474
N2425 X-4.0611 Y-0.472
N2430 X-4.061
N2435 X-4.059 Y-0.4697
N2440 X-4.0571 Y-0.4673
N2445 X-4.0556 Y-0.4647
N2450 Y-0.4646
N2455 X-4.0543 Y-0.4619
N2460 X-4.0532 Y-0.459
N2465 Y-0.4589
N2470 X-4.0525 Y-0.4561
N2475 X-4.0521 Y-0.4531
N2480 X-4.052 Y-0.453
N2485 X-4.0519 Y-0.45
N2490 X-4.052 Y-0.447
N2495 X-4.0521 Y-0.4469
N2500 X-4.0525 Y-0.444
N2505 Y-0.4439
N2510 X-4.0532 Y-0.4411
N2515 Y-0.441
N2520 X-4.0543 Y-0.4381
N2525 X-4.0556 Y-0.4354
N2530 Y-0.4353
N2535 X-4.0571 Y-0.4327
N2540 X-4.0573 Y-0.4325
N2545 X-4.059 Y-0.4303
N2550 X-4.061 Y-0.428
N2555 X-4.0611
N2560 X-4.0632 Y-0.426
N2565 X-4.0633 Y-0.4259
N2570 X-4.0657 Y-0.4242
N2575 Y-0.4241
N2580 X-4.0683 Y-0.4226
N2585 X-4.0684
N2590 X-4.071 Y-0.4213
N2595 X-4.0711
N2600 X-4.074 Y-0.4202
N2605 X-4.0769 Y-0.4195
N2610 X-4.077
N2615 X-4.08 Y-0.4191
N2620 X-4.085 Y-0.4188
N2625 X-4.0929 Y-0.4187
N2630 X-4.4411
N2635 X-4.449 Y-0.4188
N2640 X-4.454 Y-0.4191
N2645 X-4.4541
N2650 X-4.457 Y-0.4195
N2655 X-4.4571
N2660 X-4.46 Y-0.4202
N2665 X-4.4629 Y-0.4213
N2670 X-4.4656 Y-0.4226
N2675 X-4.4657
N2680 X-4.4683 Y-0.4241
N2685 Y-0.4242
N2690 X-4.4707 Y-0.4259
N2695 X-4.4708 Y-0.426
N2700 X-4.4729 Y-0.428
N2705 X-4.473
N2710 X-4.475 Y-0.4303
N2715 X-4.4769 Y-0.4327
N2720 X-4.4784 Y-0.4353
N2725 Y-0.4354
N2730 X-4.4797 Y-0.4381
N2735 X-4.4808 Y-0.441
N2740 X-4.4815 Y-0.4439
N2745 Y-0.444
N2750 X-4.4819 Y-0.4469
N2755 X-4.482 Y-0.447
N2760 X-4.4821 Y-0.45
N2765 X-4.482 Y-0.453
N2770 X-4.4819 Y-0.4531
N2775 X-4.4815 Y-0.4561
N2780 X-4.4808 Y-0.459
N2785 X-4.4797 Y-0.4619
N2790 X-4.4784 Y-0.4646
N2795 Y-0.4647
N2800 X-4.4769 Y-0.4673
N2805 X-4.475 Y-0.4697
N2810 X-4.473 Y-0.472
N2815 X-4.4729
N2820 X-4.4708 Y-0.474
N2825 X-4.4707 Y-0.4741
N2830 X-4.4683 Y-0.4758
N2835 Y-0.4759
N2840 X-4.4657 Y-0.4774
N2845 X-4.4656
N2850 X-4.4629 Y-0.4787
N2855 X-4.46 Y-0.4798
N2860 X-4.4571 Y-0.4805
N2865 X-4.457
N2870 X-4.4541 Y-0.4809
N2875 X-4.454
N2880 X-4.449 Y-0.4812
N2885 X-4.4411 Y-0.4813
N2890 X-4.2755
N2895 G3 X-4.2746 I0. K-0.025 F2.
N2900 G1 X-4.0929 Z-1.3364
N2905 X-4.085 Y-0.4812 Z-1.3366
N2910 X-4.08 Y-0.4809 Z-1.3368
N2915 X-4.077 Y-0.4805 Z-1.3369
N2920 X-4.0769
N2925 X-4.074 Y-0.4798 Z-1.337
N2930 X-4.0711 Y-0.4787 Z-1.3371
N2935 X-4.071
N2940 X-4.0684 Y-0.4774 Z-1.3372
N2945 X-4.0683
N2950 X-4.0657 Y-0.4759 Z-1.3373
N2955 Y-0.4758
N2960 X-4.0633 Y-0.4741 Z-1.3375
N2965 X-4.0632 Y-0.474
N2970 X-4.0611 Y-0.472 Z-1.3376
N2975 X-4.061
N2980 X-4.059 Y-0.4697 Z-1.3377
N2985 X-4.0571 Y-0.4673 Z-1.3378
N2990 X-4.0556 Y-0.4647 Z-1.3379
N2995 Y-0.4646
N3000 X-4.0543 Y-0.4619 Z-1.338
N3005 X-4.0532 Y-0.459 Z-1.3381
N3010 Y-0.4589
N3015 X-4.0525 Y-0.4561 Z-1.3382
N3020 X-4.0521 Y-0.4531 Z-1.3383
N3025 X-4.052 Y-0.453
N3030 X-4.0519 Y-0.45 Z-1.3384
N3035 X-4.052 Y-0.447 Z-1.3385
N3040 X-4.0521 Y-0.4469
N3045 X-4.0525 Y-0.444 Z-1.3386
N3050 Y-0.4439
N3055 X-4.0532 Y-0.4411 Z-1.3387
N3060 Y-0.441
N3065 X-4.0543 Y-0.4381 Z-1.3388
N3070 X-4.0556 Y-0.4354 Z-1.3389
N3075 Y-0.4353
N3080 X-4.0571 Y-0.4327 Z-1.3391
N3085 X-4.0573 Y-0.4325
N3090 X-4.059 Y-0.4303 Z-1.3392
N3095 X-4.061 Y-0.428 Z-1.3393
N3100 X-4.0611
N3105 X-4.0632 Y-0.426 Z-1.3394
N3110 X-4.0633 Y-0.4259
N3115 X-4.0657 Y-0.4242 Z-1.3395
N3120 Y-0.4241
N3125 X-4.0683 Y-0.4226 Z-1.3396
N3130 X-4.0684
N3135 X-4.071 Y-0.4213 Z-1.3397
N3140 X-4.0711
N3145 X-4.074 Y-0.4202 Z-1.3398
N3150 X-4.0769 Y-0.4195 Z-1.3399
N3155 X-4.077
N3160 X-4.08 Y-0.4191 Z-1.34
N3165 X-4.085 Y-0.4188 Z-1.3402
N3170 X-4.0929 Y-0.4187 Z-1.3405
N3175 X-4.4411 Z-1.3526
N3180 X-4.449 Y-0.4188 Z-1.3529
N3185 X-4.454 Y-0.4191 Z-1.3531
N3190 X-4.4541
N3195 X-4.457 Y-0.4195 Z-1.3532
N3200 X-4.4571
N3205 X-4.46 Y-0.4202 Z-1.3533
N3210 X-4.4629 Y-0.4213 Z-1.3534
N3215 X-4.4656 Y-0.4226 Z-1.3535
N3220 X-4.4657
N3225 X-4.4683 Y-0.4241 Z-1.3536
N3230 Y-0.4242
N3235 X-4.4707 Y-0.4259 Z-1.3537
N3240 X-4.4708 Y-0.426
N3245 X-4.4729 Y-0.428 Z-1.3538
N3250 X-4.473
N3255 X-4.475 Y-0.4303 Z-1.3539
N3260 X-4.4769 Y-0.4327 Z-1.354
N3265 X-4.4784 Y-0.4353 Z-1.3541
N3270 Y-0.4354
N3275 X-4.4797 Y-0.4381 Z-1.3542
N3280 X-4.4808 Y-0.441 Z-1.3544
N3285 X-4.4815 Y-0.4439 Z-1.3545
N3290 Y-0.444
N3295 X-4.4819 Y-0.4469 Z-1.3546
N3300 X-4.482 Y-0.447
N3305 X-4.4821 Y-0.45 Z-1.3547
N3310 X-4.482 Y-0.453 Z-1.3548
N3315 X-4.4819 Y-0.4531
N3320 X-4.4815 Y-0.4561 Z-1.3549
N3325 X-4.4808 Y-0.459 Z-1.355
N3330 X-4.4797 Y-0.4619 Z-1.3551
N3335 X-4.4784 Y-0.4646 Z-1.3552
N3340 Y-0.4647
N3345 X-4.4769 Y-0.4673 Z-1.3553
N3350 X-4.475 Y-0.4697 Z-1.3554
N3355 X-4.473 Y-0.472 Z-1.3555
N3360 X-4.4729
N3365 X-4.4708 Y-0.474 Z-1.3556
N3370 X-4.4707 Y-0.4741
N3375 X-4.4683 Y-0.4758 Z-1.3557
N3380 Y-0.4759
N3385 X-4.4657 Y-0.4774 Z-1.3558
N3390 X-4.4656
N3395 X-4.4629 Y-0.4787 Z-1.356
N3400 X-4.46 Y-0.4798 Z-1.3561
N3405 X-4.4571 Y-0.4805 Z-1.3562
N3410 X-4.457
N3415 X-4.4541 Y-0.4809 Z-1.3563
N3420 X-4.454
N3425 X-4.449 Y-0.4812 Z-1.3564
N3430 X-4.4411 Y-0.4813 Z-1.3567
N3435 X-4.0929 Z-1.3689
N3440 X-4.085 Y-0.4812 Z-1.3692
N3445 X-4.08 Y-0.4809 Z-1.3693
N3450 X-4.077 Y-0.4805 Z-1.3694
N3455 X-4.0769
N3460 X-4.074 Y-0.4798 Z-1.3695
N3465 X-4.0711 Y-0.4787 Z-1.3697
N3470 X-4.071
N3475 X-4.0684 Y-0.4774 Z-1.3698
N3480 X-4.0683
N3485 X-4.0657 Y-0.4759 Z-1.3699
N3490 Y-0.4758
N3495 X-4.0633 Y-0.4741 Z-1.37
N3500 X-4.0632 Y-0.474
N3505 X-4.0631 Y-0.4739
N3510 X-4.0624 Y-0.4733
N3515 X-4.0611 Y-0.472 F7.
N3520 X-4.061
N3525 X-4.059 Y-0.4697
N3530 X-4.0571 Y-0.4673
N3535 X-4.0556 Y-0.4647
N3540 Y-0.4646
N3545 X-4.0543 Y-0.4619
N3550 X-4.0532 Y-0.459
N3555 Y-0.4589
N3560 X-4.0525 Y-0.4561
N3565 X-4.0521 Y-0.4531
N3570 X-4.052 Y-0.453
N3575 X-4.0519 Y-0.45
N3580 X-4.052 Y-0.447
N3585 X-4.0521 Y-0.4469
N3590 X-4.0525 Y-0.444
N3595 Y-0.4439
N3600 X-4.0532 Y-0.4411
N3605 Y-0.441
N3610 X-4.0543 Y-0.4381
N3615 X-4.0556 Y-0.4354
N3620 Y-0.4353
N3625 X-4.0571 Y-0.4327
N3630 X-4.0573 Y-0.4325
N3635 X-4.059 Y-0.4303
N3640 X-4.061 Y-0.428
N3645 X-4.0611
N3650 X-4.0632 Y-0.426
N3655 X-4.0633 Y-0.4259
N3660 X-4.0657 Y-0.4242
N3665 Y-0.4241
N3670 X-4.0683 Y-0.4226
N3675 X-4.0684
N3680 X-4.071 Y-0.4213
N3685 X-4.0711
N3690 X-4.074 Y-0.4202
N3695 X-4.0769 Y-0.4195
N3700 X-4.077
N3705 X-4.08 Y-0.4191
N3710 X-4.085 Y-0.4188
N3715 X-4.0929 Y-0.4187
N3720 X-4.4411
N3725 X-4.449 Y-0.4188
N3730 X-4.454 Y-0.4191
N3735 X-4.4541
N3740 X-4.457 Y-0.4195
N3745 X-4.4571
N3750 X-4.46 Y-0.4202
N3755 X-4.4629 Y-0.4213
N3760 X-4.4656 Y-0.4226
N3765 X-4.4657
N3770 X-4.4683 Y-0.4241
N3775 Y-0.4242
N3780 X-4.4707 Y-0.4259
N3785 X-4.4708 Y-0.426
N3790 X-4.4729 Y-0.428
N3795 X-4.473
N3800 X-4.475 Y-0.4303
N3805 X-4.4769 Y-0.4327
N3810 X-4.4784 Y-0.4353
N3815 Y-0.4354
N3820 X-4.4797 Y-0.4381
N3825 X-4.4808 Y-0.441
N3830 X-4.4815 Y-0.4439
N3835 Y-0.444
N3840 X-4.4819 Y-0.4469
N3845 X-4.482 Y-0.447
N3850 X-4.4821 Y-0.45
N3855 X-4.482 Y-0.453
N3860 X-4.4819 Y-0.4531
N3865 X-4.4815 Y-0.4561
N3870 X-4.4808 Y-0.459
N3875 X-4.4797 Y-0.4619
N3880 X-4.4784 Y-0.4646
N3885 Y-0.4647
N3890 X-4.4769 Y-0.4673
N3895 X-4.475 Y-0.4697
N3900 X-4.473 Y-0.472
N3905 X-4.4729
N3910 X-4.4708 Y-0.474
N3915 X-4.4707 Y-0.4741
N3920 X-4.4683 Y-0.4758
N3925 Y-0.4759
N3930 X-4.4657 Y-0.4774
N3935 X-4.4656
N3940 X-4.4629 Y-0.4787
N3945 X-4.46 Y-0.4798
N3950 X-4.4571 Y-0.4805
N3955 X-4.457
N3960 X-4.4541 Y-0.4809
N3965 X-4.454
N3970 X-4.449 Y-0.4812
N3975 X-4.4411 Y-0.4813
N3980 X-4.0929
N3985 X-4.085 Y-0.4812
N3990 X-4.08 Y-0.4809
N3995 X-4.077 Y-0.4805
N4000 X-4.0769
N4005 X-4.074 Y-0.4798
N4010 X-4.0711 Y-0.4787
N4015 X-4.071
N4020 X-4.0684 Y-0.4774
N4025 X-4.0683
N4030 X-4.0657 Y-0.4759
N4035 Y-0.4758
N4040 X-4.0633 Y-0.4741
N4045 X-4.0632 Y-0.474
N4050 X-4.0624 Y-0.4733
N4055 X-4.0611 Y-0.472
N4060 X-4.061
N4065 X-4.059 Y-0.4697
N4070 X-4.0571 Y-0.4673
N4075 X-4.0556 Y-0.4647
N4080 Y-0.4646
N4085 X-4.0543 Y-0.4619
N4090 X-4.0532 Y-0.459
N4095 Y-0.4589
N4100 X-4.0525 Y-0.4561
N4105 X-4.0521 Y-0.4531
N4110 X-4.052 Y-0.453
N4115 X-4.0519 Y-0.45
N4120 X-4.052 Y-0.447
N4125 X-4.0521 Y-0.4469
N4130 X-4.0525 Y-0.444
N4135 Y-0.4439
N4140 X-4.0532 Y-0.4411
N4145 Y-0.441
N4150 X-4.0543 Y-0.4381
N4155 X-4.0556 Y-0.4354
N4160 Y-0.4353
N4165 X-4.0571 Y-0.4327
N4170 X-4.0573 Y-0.4325
N4175 X-4.059 Y-0.4303
N4180 X-4.061 Y-0.428
N4185 X-4.0611
N4190 X-4.0632 Y-0.426
N4195 X-4.0633 Y-0.4259
N4200 X-4.0657 Y-0.4242
N4205 Y-0.4241
N4210 X-4.0683 Y-0.4226
N4215 X-4.0684
N4220 X-4.071 Y-0.4213
N4225 X-4.0711
N4230 X-4.074 Y-0.4202
N4235 X-4.0769 Y-0.4195
N4240 X-4.077
N4245 X-4.08 Y-0.4191
N4250 X-4.085 Y-0.4188
N4255 X-4.0929 Y-0.4187
N4260 X-4.4411
N4265 X-4.449 Y-0.4188
N4270 X-4.454 Y-0.4191
N4275 X-4.4541
N4280 X-4.457 Y-0.4195
N4285 X-4.4571
N4290 X-4.46 Y-0.4202
N4295 X-4.4629 Y-0.4213
N4300 X-4.4656 Y-0.4226
N4305 X-4.4657
N4310 X-4.4683 Y-0.4241
N4315 Y-0.4242
N4320 X-4.4707 Y-0.4259
N4325 X-4.4708 Y-0.426
N4330 X-4.4729 Y-0.428
N4335 X-4.473
N4340 X-4.475 Y-0.4303
N4345 X-4.4769 Y-0.4327
N4350 X-4.4784 Y-0.4353
N4355 Y-0.4354
N4360 X-4.4797 Y-0.4381
N4365 X-4.4808 Y-0.441
N4370 X-4.4815 Y-0.4439
N4375 Y-0.444
N4380 X-4.4819 Y-0.4469
N4385 X-4.482 Y-0.447
N4390 X-4.4821 Y-0.45
N4395 X-4.482 Y-0.453
N4400 X-4.4819 Y-0.4531
N4405 X-4.4815 Y-0.4561
N4410 X-4.4808 Y-0.459
N4415 X-4.4797 Y-0.4619
N4420 X-4.4784 Y-0.4646
N4425 Y-0.4647
N4430 X-4.4769 Y-0.4673
N4435 X-4.475 Y-0.4697
N4440 X-4.473 Y-0.472
N4445 X-4.4729
N4450 X-4.4708 Y-0.474
N4455 X-4.4707 Y-0.4741
N4460 X-4.4683 Y-0.4758
N4465 Y-0.4759
N4470 X-4.4657 Y-0.4774
N4475 X-4.4656
N4480 X-4.4629 Y-0.4787
N4485 X-4.46 Y-0.4798
N4490 X-4.4571 Y-0.4805
N4495 X-4.457
N4500 X-4.4541 Y-0.4809
N4505 X-4.454
N4510 X-4.449 Y-0.4812
N4515 X-4.4411 Y-0.4813
N4520 X-4.0929
N4525 X-4.085 Y-0.4812
N4530 X-4.08 Y-0.4809
N4535 X-4.077 Y-0.4805
N4540 X-4.0769
N4545 X-4.074 Y-0.4798
N4550 X-4.0711 Y-0.4787
N4555 X-4.071
N4560 X-4.0684 Y-0.4774
N4565 X-4.0683
N4570 X-4.0657 Y-0.4759
N4575 Y-0.4758
N4580 X-4.0633 Y-0.4741
N4585 X-4.0632 Y-0.474
N4590 X-4.0624 Y-0.4733
N4595 G17 G3 X-4.0614 Y-0.4468 I-0.0124 J0.0137 F4.
N4600 G0 Z0.3
N4610 M9
N4615 G53 Z0.
N4620 M30
%
