%
(FCG_POCKET_FINISH)
(.375 END MILL 6 MINUTES)
(T1  D=0.375 CR=0. - ZMIN=-1.25 - FLAT END MILL)
N10 G90 G94 G17 G91.1
N15 G20
N20 G53 G0 Z0.
(CONTOUR2)
N25 M9
N30 T1 M6
N35 S2000 M3
N40 G54
N45 M8
N55 G0 X-5.8635 Y-0.4815
N60 G43 Z0.6 H1
N65 G0 Z0.4144
N70 G1 Z0.0563 F2.
N75 G18 G2 X-5.8273 Z0.0188 I0.0375 K0. F10.
N80 G1 X-5.3373 Z0.0017
N85 X-5.3275 Y-0.4817 Z0.0013
N90 X-5.3177 Y-0.4823 Z0.001
N95 X-5.3079 Y-0.4835 Z0.0007
N100 X-5.2981 Y-0.4852 Z0.0003
N105 X-5.2883 Y-0.4874 Z0.
N110 X-5.2819 Y-0.4892 Z-0.0003
N115 X-5.2785 Y-0.4902 Z-0.0004
N120 X-5.2687 Y-0.4936 Z-0.0008
N125 X-5.2589 Y-0.4976 Z-0.0011
N130 X-5.256 Y-0.499 Z-0.0012
N135 X-5.2491 Y-0.5023 Z-0.0015
N140 X-5.2393 Y-0.5077 Z-0.0019
N145 X-5.2376 Y-0.5088 Z-0.002
N150 X-5.2295 Y-0.514 Z-0.0023
N155 X-5.2231 Y-0.5186 Z-0.0026
N160 X-5.2198 Y-0.5211 Z-0.0027
N165 X-5.211 Y-0.5283 Z-0.0031
N170 X-5.21 Y-0.5293 Z-0.0032
N175 X-5.2007 Y-0.5381 Z-0.0036
N180 X-5.2002 Y-0.5387 Z-0.0037
N185 X-5.1918 Y-0.5479 Z-0.0041
N190 X-5.1904 Y-0.5497 Z-0.0042
N195 X-5.1841 Y-0.5577 Z-0.0045
N200 X-5.1806 Y-0.5626 Z-0.0047
N205 X-5.1773 Y-0.5675 Z-0.0049
N210 X-5.1714 Y-0.5773 Z-0.0053
N215 X-5.1708 Y-0.5785 Z-0.0054
N220 X-5.1663 Y-0.5871 Z-0.0057
N225 X-5.164 Y-0.5915 Z-0.0059
N230 X-5.1626 Y-0.5937 Z-0.006
N235 X-5.1618 Y-0.5948
N240 X-5.161 Y-0.5959 Z-0.0061
N245 X-5.1601 Y-0.5969
N250 X-5.1579 Y-0.5992 Z-0.0062
N255 X-5.1556 Y-0.601 Z-0.0063
N260 X-5.1545 Y-0.6018 Z-0.0064
N265 X-5.1534 Y-0.6026
N270 X-5.1512 Y-0.6038 Z-0.0065
N275 X-5.1471 Y-0.6056 Z-0.0067
N280 X-5.1451 Y-0.6062 Z-0.0068
N285 X-5.1431 Y-0.6067
N290 X-5.1414 Y-0.607 Z-0.0069
N295 X-5.1365 Y-0.6074 Z-0.0071
N300 X-5.1316 Y-0.6075 Z-0.0072
N305 X-3.496 Z-0.0643
N310 X-3.4862 Y-0.6074 Z-0.0647
N315 X-3.4819 Y-0.6073 Z-0.0648
N320 X-3.4797 Y-0.6071 Z-0.0649
N325 X-3.4776 Y-0.6067 Z-0.065
N330 X-3.4764 Y-0.6064
N335 X-3.474 Y-0.6057 Z-0.0651
N340 X-3.4715 Y-0.6048 Z-0.0652
N345 X-3.4691 Y-0.6036 Z-0.0653
N350 X-3.4678 Y-0.6029 Z-0.0654
N355 X-3.4666 Y-0.6022
N360 X-3.4636 Y-0.5999 Z-0.0655
N365 X-3.4621 Y-0.5985 Z-0.0656
N370 X-3.4605 Y-0.5969 Z-0.0657
N375 X-3.4585 Y-0.5943 Z-0.0658
N380 X-3.4568 Y-0.5917 Z-0.0659
N385 X-3.4556 Y-0.5894 Z-0.066
N390 X-3.4546 Y-0.5871 Z-0.0661
N395 X-3.4538 Y-0.5847 Z-0.0662
N400 X-3.4533 Y-0.5822 Z-0.0663
N405 X-3.4529 Y-0.5798 Z-0.0664
N410 X-3.4527 Y-0.5773
N415 X-3.4525 Y-0.5675 Z-0.0668
N420 Y-0.3325 Z-0.075
N425 X-3.4527 Y-0.3227 Z-0.0753
N430 X-3.4529 Y-0.3202 Z-0.0754
N435 X-3.4533 Y-0.3178 Z-0.0755
N440 X-3.4538 Y-0.3153 Z-0.0756
N445 X-3.4546 Y-0.3129 Z-0.0757
N450 X-3.4556 Y-0.3106 Z-0.0758
N455 X-3.4568 Y-0.3083 Z-0.0759
N460 X-3.4585 Y-0.3057 Z-0.076
N465 X-3.4605 Y-0.3031 Z-0.0761
N470 X-3.4621 Y-0.3015 Z-0.0762
N475 X-3.4636 Y-0.3001
N480 X-3.4666 Y-0.2978 Z-0.0764
N485 X-3.4678 Y-0.2971
N490 X-3.4691 Y-0.2964 Z-0.0765
N495 X-3.4715 Y-0.2952 Z-0.0766
N500 X-3.474 Y-0.2943 Z-0.0767
N505 X-3.4764 Y-0.2936
N510 X-3.4776 Y-0.2933 Z-0.0768
N515 X-3.4797 Y-0.2929 Z-0.0769
N520 X-3.4819 Y-0.2927
N525 X-3.4862 Y-0.2926 Z-0.0771
N530 X-3.496 Y-0.2925 Z-0.0774
N535 X-5.1414 Z-0.1349
N540 X-5.1512 Z-0.1352
N545 X-5.156 Y-0.2927 Z-0.1354
N550 X-5.1584 Y-0.2929 Z-0.1355
N555 X-5.1608 Y-0.2933 Z-0.1356
N560 X-5.161
N565 X-5.1634 Y-0.294 Z-0.1357
N570 X-5.1659 Y-0.2948
N575 X-5.1683 Y-0.2959 Z-0.1358
N580 X-5.1708 Y-0.2972 Z-0.1359
N585 X-5.1725 Y-0.2984 Z-0.136
N590 X-5.1743 Y-0.2997 Z-0.1361
N595 X-5.1761 Y-0.3013 Z-0.1362
N600 X-5.1778 Y-0.3031 Z-0.1363
N605 X-5.1806 Y-0.3066 Z-0.1364
N610 X-5.1853 Y-0.3129 Z-0.1367
N615 X-5.1904 Y-0.3193 Z-0.137
N620 X-5.1932 Y-0.3227 Z-0.1371
N625 X-5.2002 Y-0.3303 Z-0.1375
N630 X-5.2023 Y-0.3325 Z-0.1376
N635 X-5.21 Y-0.3397 Z-0.138
N640 X-5.2129 Y-0.3423 Z-0.1381
N645 X-5.2198 Y-0.3479 Z-0.1384
N650 X-5.2253 Y-0.3521 Z-0.1387
N655 X-5.2295 Y-0.355 Z-0.1388
N660 X-5.2393 Y-0.3613 Z-0.1392
N665 X-5.2404 Y-0.3619 Z-0.1393
N670 X-5.2491 Y-0.3667 Z-0.1396
N675 X-5.2589 Y-0.3714 Z-0.14
N680 X-5.2596 Y-0.3717
N685 X-5.2687 Y-0.3754 Z-0.1404
N690 X-5.2785 Y-0.3788 Z-0.1407
N695 X-5.2877 Y-0.3814 Z-0.1411
N700 X-5.2883 Y-0.3816
N705 X-5.2981 Y-0.3838 Z-0.1414
N710 X-5.3079 Y-0.3855 Z-0.1418
N715 X-5.3177 Y-0.3867 Z-0.1421
N720 X-5.3275 Y-0.3873 Z-0.1425
N725 X-5.3373 Y-0.3875 Z-0.1428
N730 X-6.0816 Z-0.1688
N735 X-6.0851 Z-0.1689
N740 X-6.0882 Y-0.3877 Z-0.169
N745 X-6.0883 Y-0.3878 Z-0.1691
N750 X-6.0885 Y-0.3912 Z-0.1692
N755 Y-0.401 Z-0.1695
N760 Y-0.499 Z-0.1729
N765 Y-0.5088 Z-0.1733
N770 X-6.0883 Y-0.5122 Z-0.1734
N775 X-6.0882 Y-0.5123
N780 X-6.0851 Y-0.5125 Z-0.1735
N785 X-6.0816 Z-0.1736
N790 X-6.0523 Z-0.1747
N795 X-6.0474 Y-0.5124 Z-0.1748
N800 X-6.0449 Y-0.5123 Z-0.1749
N805 X-6.0437 Y-0.5121 Z-0.175
N810 X-6.0425 Y-0.512
N815 X-6.04 Y-0.5115 Z-0.1751
N820 X-6.0376 Y-0.5108 Z-0.1752
N825 X-6.0352 Y-0.5099 Z-0.1753
N830 X-6.0328 Y-0.5088 Z-0.1754
N835 X-6.0229 Y-0.5034 Z-0.1758
N840 X-6.014 Y-0.499 Z-0.1761
N845 X-6.0131 Y-0.4985
N850 X-6.0033 Y-0.4944 Z-0.1765
N855 X-5.9935 Y-0.4909 Z-0.1769
N860 X-5.9881 Y-0.4892 Z-0.1771
N865 X-5.9837 Y-0.4879 Z-0.1772
N870 X-5.9739 Y-0.4856 Z-0.1776
N875 X-5.9641 Y-0.4838 Z-0.1779
N880 X-5.9543 Y-0.4825 Z-0.1783
N885 X-5.9445 Y-0.4817 Z-0.1786
N890 X-5.9347 Y-0.4815 Z-0.179
N895 X-5.3373 Z-0.1998
N900 X-5.3275 Y-0.4817 Z-0.2002
N905 X-5.3177 Y-0.4823 Z-0.2005
N910 X-5.3079 Y-0.4835 Z-0.2009
N915 X-5.2981 Y-0.4852 Z-0.2012
N920 X-5.2883 Y-0.4874 Z-0.2016
N925 X-5.2819 Y-0.4892 Z-0.2018
N930 X-5.2785 Y-0.4902 Z-0.2019
N935 X-5.2687 Y-0.4936 Z-0.2023
N940 X-5.2589 Y-0.4976 Z-0.2026
N945 X-5.256 Y-0.499 Z-0.2028
N950 X-5.2491 Y-0.5023 Z-0.203
N955 X-5.2393 Y-0.5077 Z-0.2034
N960 X-5.2376 Y-0.5088 Z-0.2035
N965 X-5.2295 Y-0.514 Z-0.2038
N970 X-5.2231 Y-0.5186 Z-0.2041
N975 X-5.2198 Y-0.5211 Z-0.2042
N980 X-5.211 Y-0.5283 Z-0.2046
N985 X-5.21 Y-0.5293 Z-0.2047
N990 X-5.2007 Y-0.5381 Z-0.2051
N995 X-5.2002 Y-0.5387 Z-0.2052
N1000 X-5.1918 Y-0.5479 Z-0.2056
N1005 X-5.1904 Y-0.5497 Z-0.2057
N1010 X-5.1841 Y-0.5577 Z-0.206
N1015 X-5.1806 Y-0.5626 Z-0.2062
N1020 X-5.1773 Y-0.5675 Z-0.2064
N1025 X-5.1714 Y-0.5773 Z-0.2068
N1030 X-5.1708 Y-0.5785 Z-0.2069
N1035 X-5.1663 Y-0.5871 Z-0.2072
N1040 X-5.164 Y-0.5915 Z-0.2074
N1045 X-5.1626 Y-0.5937 Z-0.2075
N1050 X-5.1618 Y-0.5948
N1055 X-5.161 Y-0.5959 Z-0.2076
N1060 X-5.1601 Y-0.5969
N1065 X-5.1579 Y-0.5992 Z-0.2077
N1070 X-5.1556 Y-0.601 Z-0.2078
N1075 X-5.1545 Y-0.6018 Z-0.2079
N1080 X-5.1534 Y-0.6026
N1085 X-5.1512 Y-0.6038 Z-0.208
N1090 X-5.1471 Y-0.6056 Z-0.2082
N1095 X-5.1451 Y-0.6062 Z-0.2083
N1100 X-5.1431 Y-0.6067
N1105 X-5.1414 Y-0.607 Z-0.2084
N1110 X-5.1365 Y-0.6074 Z-0.2086
N1115 X-5.1316 Y-0.6075 Z-0.2087
N1120 X-3.496 Z-0.2659
N1125 X-3.4862 Y-0.6074 Z-0.2662
N1130 X-3.4819 Y-0.6073 Z-0.2663
N1135 X-3.4797 Y-0.6071 Z-0.2664
N1140 X-3.4776 Y-0.6067 Z-0.2665
N1145 X-3.4764 Y-0.6064
N1150 X-3.474 Y-0.6057 Z-0.2666
N1155 X-3.4715 Y-0.6048 Z-0.2667
N1160 X-3.4691 Y-0.6036 Z-0.2668
N1165 X-3.4678 Y-0.6029 Z-0.2669
N1170 X-3.4666 Y-0.6022
N1175 X-3.4636 Y-0.5999 Z-0.267
N1180 X-3.4621 Y-0.5985 Z-0.2671
N1185 X-3.4605 Y-0.5969 Z-0.2672
N1190 X-3.4585 Y-0.5943 Z-0.2673
N1195 X-3.4568 Y-0.5917 Z-0.2674
N1200 X-3.4556 Y-0.5894 Z-0.2675
N1205 X-3.4546 Y-0.5871 Z-0.2676
N1210 X-3.4538 Y-0.5847 Z-0.2677
N1215 X-3.4533 Y-0.5822 Z-0.2678
N1220 X-3.4529 Y-0.5798 Z-0.2679
N1225 X-3.4527 Y-0.5773
N1230 X-3.4525 Y-0.5675 Z-0.2683
N1235 Y-0.3325 Z-0.2765
N1240 X-3.4527 Y-0.3227 Z-0.2768
N1245 X-3.4529 Y-0.3202 Z-0.2769
N1250 X-3.4533 Y-0.3178 Z-0.277
N1255 X-3.4538 Y-0.3153 Z-0.2771
N1260 X-3.4546 Y-0.3129 Z-0.2772
N1265 X-3.4556 Y-0.3106 Z-0.2773
N1270 X-3.4568 Y-0.3083 Z-0.2774
N1275 X-3.4585 Y-0.3057 Z-0.2775
N1280 X-3.4605 Y-0.3031 Z-0.2776
N1285 X-3.4621 Y-0.3015 Z-0.2777
N1290 X-3.4636 Y-0.3001
N1295 X-3.4666 Y-0.2978 Z-0.2779
N1300 X-3.4678 Y-0.2971
N1305 X-3.4691 Y-0.2964 Z-0.278
N1310 X-3.4715 Y-0.2952 Z-0.2781
N1315 X-3.474 Y-0.2943 Z-0.2782
N1320 X-3.4764 Y-0.2936
N1325 X-3.4776 Y-0.2933 Z-0.2783
N1330 X-3.4797 Y-0.2929 Z-0.2784
N1335 X-3.4819 Y-0.2927
N1340 X-3.4862 Y-0.2926 Z-0.2786
N1345 X-3.496 Y-0.2925 Z-0.2789
N1350 X-5.1414 Z-0.3364
N1355 X-5.1512 Z-0.3367
N1360 X-5.156 Y-0.2927 Z-0.3369
N1365 X-5.1584 Y-0.2929 Z-0.337
N1370 X-5.1608 Y-0.2933 Z-0.3371
N1375 X-5.161
N1380 X-5.1634 Y-0.294 Z-0.3372
N1385 X-5.1659 Y-0.2948 Z-0.3373
N1390 X-5.1683 Y-0.2959
N1395 X-5.1708 Y-0.2972 Z-0.3374
N1400 X-5.1725 Y-0.2984 Z-0.3375
N1405 X-5.1743 Y-0.2997 Z-0.3376
N1410 X-5.1761 Y-0.3013 Z-0.3377
N1415 X-5.1778 Y-0.3031 Z-0.3378
N1420 X-5.1806 Y-0.3066 Z-0.3379
N1425 X-5.1853 Y-0.3129 Z-0.3382
N1430 X-5.1904 Y-0.3193 Z-0.3385
N1435 X-5.1932 Y-0.3227 Z-0.3386
N1440 X-5.2002 Y-0.3303 Z-0.339
N1445 X-5.2023 Y-0.3325 Z-0.3391
N1450 X-5.21 Y-0.3397 Z-0.3395
N1455 X-5.2129 Y-0.3423 Z-0.3396
N1460 X-5.2198 Y-0.3479 Z-0.3399
N1465 X-5.2253 Y-0.3521 Z-0.3402
N1470 X-5.2295 Y-0.355 Z-0.3403
N1475 X-5.2393 Y-0.3613 Z-0.3407
N1480 X-5.2404 Y-0.3619 Z-0.3408
N1485 X-5.2491 Y-0.3667 Z-0.3411
N1490 X-5.2589 Y-0.3714 Z-0.3415
N1495 X-5.2596 Y-0.3717
N1500 X-5.2687 Y-0.3754 Z-0.3419
N1505 X-5.2785 Y-0.3788 Z-0.3422
N1510 X-5.2877 Y-0.3814 Z-0.3426
N1515 X-5.2883 Y-0.3816
N1520 X-5.2981 Y-0.3838 Z-0.343
N1525 X-5.3079 Y-0.3855 Z-0.3433
N1530 X-5.3177 Y-0.3867 Z-0.3436
N1535 X-5.3275 Y-0.3873 Z-0.344
N1540 X-5.3373 Y-0.3875 Z-0.3443
N1545 X-6.0816 Z-0.3703
N1550 X-6.0851 Z-0.3704
N1555 X-6.0882 Y-0.3877 Z-0.3706
N1560 X-6.0883 Y-0.3878
N1565 X-6.0885 Y-0.3912 Z-0.3707
N1570 Y-0.401 Z-0.371
N1575 Y-0.499 Z-0.3744
N1580 Y-0.5088 Z-0.3748
N1585 X-6.0883 Y-0.5122 Z-0.3749
N1590 X-6.0882 Y-0.5123
N1595 X-6.0864 Y-0.5124 Z-0.375
N1600 X-6.0851 Y-0.5125
N1605 X-6.0816 F15.
N1610 X-6.0523
N1615 X-6.0474 Y-0.5124
N1620 X-6.0449 Y-0.5123
N1625 X-6.0437 Y-0.5121
N1630 X-6.0425 Y-0.512
N1635 X-6.04 Y-0.5115
N1640 X-6.0376 Y-0.5108
N1645 X-6.0352 Y-0.5099
N1650 X-6.0328 Y-0.5088
N1655 X-6.0229 Y-0.5034
N1660 X-6.014 Y-0.499
N1665 X-6.0131 Y-0.4985
N1670 X-6.0033 Y-0.4944
N1675 X-5.9935 Y-0.4909
N1680 X-5.9881 Y-0.4892
N1685 X-5.9837 Y-0.4879
N1690 X-5.9739 Y-0.4856
N1695 X-5.9641 Y-0.4838
N1700 X-5.9543 Y-0.4825
N1705 X-5.9445 Y-0.4817
N1710 X-5.9347 Y-0.4815
N1715 X-5.3373
N1720 X-5.3275 Y-0.4817
N1725 X-5.3177 Y-0.4823
N1730 X-5.3079 Y-0.4835
N1735 X-5.2981 Y-0.4852
N1740 X-5.2883 Y-0.4874
N1745 X-5.2819 Y-0.4892
N1750 X-5.2785 Y-0.4902
N1755 X-5.2687 Y-0.4936
N1760 X-5.2589 Y-0.4976
N1765 X-5.256 Y-0.499
N1770 X-5.2491 Y-0.5023
N1775 X-5.2393 Y-0.5077
N1780 X-5.2376 Y-0.5088
N1785 X-5.2295 Y-0.514
N1790 X-5.2231 Y-0.5186
N1795 X-5.2198 Y-0.5211
N1800 X-5.211 Y-0.5283
N1805 X-5.21 Y-0.5293
N1810 X-5.2007 Y-0.5381
N1815 X-5.2002 Y-0.5387
N1820 X-5.1918 Y-0.5479
N1825 X-5.1904 Y-0.5497
N1830 X-5.1841 Y-0.5577
N1835 X-5.1806 Y-0.5626
N1840 X-5.1773 Y-0.5675
N1845 X-5.1714 Y-0.5773
N1850 X-5.1708 Y-0.5785
N1855 X-5.1663 Y-0.5871
N1860 X-5.164 Y-0.5915
N1865 X-5.1626 Y-0.5937
N1870 X-5.1618 Y-0.5948
N1875 X-5.161 Y-0.5959
N1880 X-5.1601 Y-0.5969
N1885 X-5.1579 Y-0.5992
N1890 X-5.1556 Y-0.601
N1895 X-5.1545 Y-0.6018
N1900 X-5.1534 Y-0.6026
N1905 X-5.1512 Y-0.6038
N1910 X-5.1471 Y-0.6056
N1915 X-5.1451 Y-0.6062
N1920 X-5.1431 Y-0.6067
N1925 X-5.1414 Y-0.607
N1930 X-5.1365 Y-0.6074
N1935 X-5.1316 Y-0.6075
N1940 X-3.496
N1945 X-3.4862 Y-0.6074
N1950 X-3.4819 Y-0.6073
N1955 X-3.4797 Y-0.6071
N1960 X-3.4776 Y-0.6067
N1965 X-3.4764 Y-0.6064
N1970 X-3.474 Y-0.6057
N1975 X-3.4715 Y-0.6048
N1980 X-3.4691 Y-0.6036
N1985 X-3.4678 Y-0.6029
N1990 X-3.4666 Y-0.6022
N1995 X-3.4636 Y-0.5999
N2000 X-3.4621 Y-0.5985
N2005 X-3.4605 Y-0.5969
N2010 X-3.4585 Y-0.5943
N2015 X-3.4568 Y-0.5917
N2020 X-3.4556 Y-0.5894
N2025 X-3.4546 Y-0.5871
N2030 X-3.4538 Y-0.5847
N2035 X-3.4533 Y-0.5822
N2040 X-3.4529 Y-0.5798
N2045 X-3.4527 Y-0.5773
N2050 X-3.4525 Y-0.5675
N2055 Y-0.3325
N2060 X-3.4527 Y-0.3227
N2065 X-3.4529 Y-0.3202
N2070 X-3.4533 Y-0.3178
N2075 X-3.4538 Y-0.3153
N2080 X-3.4546 Y-0.3129
N2085 X-3.4556 Y-0.3106
N2090 X-3.4568 Y-0.3083
N2095 X-3.4585 Y-0.3057
N2100 X-3.4605 Y-0.3031
N2105 X-3.4621 Y-0.3015
N2110 X-3.4636 Y-0.3001
N2115 X-3.4666 Y-0.2978
N2120 X-3.4678 Y-0.2971
N2125 X-3.4691 Y-0.2964
N2130 X-3.4715 Y-0.2952
N2135 X-3.474 Y-0.2943
N2140 X-3.4764 Y-0.2936
N2145 X-3.4776 Y-0.2933
N2150 X-3.4797 Y-0.2929
N2155 X-3.4819 Y-0.2927
N2160 X-3.4862 Y-0.2926
N2165 X-3.496 Y-0.2925
N2170 X-5.1414
N2175 X-5.1512
N2180 X-5.156 Y-0.2927
N2185 X-5.1584 Y-0.2929
N2190 X-5.1608 Y-0.2933
N2195 X-5.161
N2200 X-5.1634 Y-0.294
N2205 X-5.1659 Y-0.2948
N2210 X-5.1683 Y-0.2959
N2215 X-5.1708 Y-0.2972
N2220 X-5.1725 Y-0.2984
N2225 X-5.1743 Y-0.2997
N2230 X-5.1761 Y-0.3013
N2235 X-5.1778 Y-0.3031
N2240 X-5.1806 Y-0.3066
N2245 X-5.1853 Y-0.3129
N2250 X-5.1904 Y-0.3193
N2255 X-5.1932 Y-0.3227
N2260 X-5.2002 Y-0.3303
N2265 X-5.2023 Y-0.3325
N2270 X-5.21 Y-0.3397
N2275 X-5.2129 Y-0.3423
N2280 X-5.2198 Y-0.3479
N2285 X-5.2253 Y-0.3521
N2290 X-5.2295 Y-0.355
N2295 X-5.2393 Y-0.3613
N2300 X-5.2404 Y-0.3619
N2305 X-5.2491 Y-0.3667
N2310 X-5.2589 Y-0.3714
N2315 X-5.2596 Y-0.3717
N2320 X-5.2687 Y-0.3754
N2325 X-5.2785 Y-0.3788
N2330 X-5.2877 Y-0.3814
N2335 X-5.2883 Y-0.3816
N2340 X-5.2981 Y-0.3838
N2345 X-5.3079 Y-0.3855
N2350 X-5.3177 Y-0.3867
N2355 X-5.3275 Y-0.3873
N2360 X-5.3373 Y-0.3875
N2365 X-6.0816
N2370 X-6.0851
N2375 X-6.0882 Y-0.3877
N2380 X-6.0883 Y-0.3878
N2385 X-6.0885 Y-0.3912
N2390 Y-0.401
N2395 Y-0.499
N2400 Y-0.5088
N2405 X-6.0883 Y-0.5122
N2410 X-6.0882 Y-0.5123
N2415 X-6.0851 Y-0.5125
N2420 X-6.0838 F10.
N2425 X-6.0816 Z-0.3751
N2430 X-6.0523 Z-0.3761
N2435 X-6.0474 Y-0.5124 Z-0.3763
N2440 X-6.0449 Y-0.5123 Z-0.3764
N2445 X-6.0437 Y-0.5121
N2450 X-6.0425 Y-0.512 Z-0.3765
N2455 X-6.04 Y-0.5115 Z-0.3766
N2460 X-6.0376 Y-0.5108
N2465 X-6.0352 Y-0.5099 Z-0.3767
N2470 X-6.0328 Y-0.5088 Z-0.3768
N2475 X-6.0229 Y-0.5034 Z-0.3772
N2480 X-6.014 Y-0.499 Z-0.3776
N2485 X-6.0131 Y-0.4985
N2490 X-6.0033 Y-0.4944 Z-0.378
N2495 X-5.9935 Y-0.4909 Z-0.3783
N2500 X-5.9881 Y-0.4892 Z-0.3785
N2505 X-5.9837 Y-0.4879 Z-0.3787
N2510 X-5.9739 Y-0.4856 Z-0.379
N2515 X-5.9641 Y-0.4838 Z-0.3794
N2520 X-5.9543 Y-0.4825 Z-0.3797
N2525 X-5.9445 Y-0.4817 Z-0.3801
N2530 X-5.9347 Y-0.4815 Z-0.3804
N2535 X-5.3373 Z-0.4013
N2540 X-5.3275 Y-0.4817 Z-0.4016
N2545 X-5.3177 Y-0.4823 Z-0.402
N2550 X-5.3079 Y-0.4835 Z-0.4023
N2555 X-5.2981 Y-0.4852 Z-0.4027
N2560 X-5.2883 Y-0.4874 Z-0.403
N2565 X-5.2819 Y-0.4892 Z-0.4032
N2570 X-5.2785 Y-0.4902 Z-0.4034
N2575 X-5.2687 Y-0.4936 Z-0.4037
N2580 X-5.2589 Y-0.4976 Z-0.4041
N2585 X-5.256 Y-0.499 Z-0.4042
N2590 X-5.2491 Y-0.5023 Z-0.4045
N2595 X-5.2393 Y-0.5077 Z-0.4049
N2600 X-5.2376 Y-0.5088
N2605 X-5.2295 Y-0.514 Z-0.4053
N2610 X-5.2231 Y-0.5186 Z-0.4056
N2615 X-5.2198 Y-0.5211 Z-0.4057
N2620 X-5.211 Y-0.5283 Z-0.4061
N2625 X-5.21 Y-0.5293
N2630 X-5.2007 Y-0.5381 Z-0.4066
N2635 X-5.2002 Y-0.5387
N2640 X-5.1918 Y-0.5479 Z-0.4071
N2645 X-5.1904 Y-0.5497
N2650 X-5.1841 Y-0.5577 Z-0.4075
N2655 X-5.1806 Y-0.5626 Z-0.4077
N2660 X-5.1773 Y-0.5675 Z-0.4079
N2665 X-5.1714 Y-0.5773 Z-0.4083
N2670 X-5.1708 Y-0.5785
N2675 X-5.1663 Y-0.5871 Z-0.4087
N2680 X-5.164 Y-0.5915 Z-0.4089
N2685 X-5.1626 Y-0.5937 Z-0.409
N2690 X-5.1618 Y-0.5948
N2695 X-5.161 Y-0.5959
N2700 X-5.1601 Y-0.5969 Z-0.4091
N2705 X-5.1579 Y-0.5992 Z-0.4092
N2710 X-5.1556 Y-0.601 Z-0.4093
N2715 X-5.1545 Y-0.6018 Z-0.4094
N2720 X-5.1534 Y-0.6026
N2725 X-5.1512 Y-0.6038 Z-0.4095
N2730 X-5.1471 Y-0.6056 Z-0.4096
N2735 X-5.1451 Y-0.6062 Z-0.4097
N2740 X-5.1431 Y-0.6067 Z-0.4098
N2745 X-5.1414 Y-0.607 Z-0.4099
N2750 X-5.1365 Y-0.6074 Z-0.41
N2755 X-5.1316 Y-0.6075 Z-0.4102
N2760 X-3.496 Z-0.4673
N2765 X-3.4862 Y-0.6074 Z-0.4677
N2770 X-3.4819 Y-0.6073 Z-0.4678
N2775 X-3.4797 Y-0.6071 Z-0.4679
N2780 X-3.4776 Y-0.6067 Z-0.468
N2785 X-3.4764 Y-0.6064
N2790 X-3.474 Y-0.6057 Z-0.4681
N2795 X-3.4715 Y-0.6048 Z-0.4682
N2800 X-3.4691 Y-0.6036 Z-0.4683
N2805 X-3.4678 Y-0.6029
N2810 X-3.4666 Y-0.6022 Z-0.4684
N2815 X-3.4636 Y-0.5999 Z-0.4685
N2820 X-3.4621 Y-0.5985 Z-0.4686
N2825 X-3.4605 Y-0.5969 Z-0.4687
N2830 X-3.4585 Y-0.5943 Z-0.4688
N2835 X-3.4568 Y-0.5917 Z-0.4689
N2840 X-3.4556 Y-0.5894 Z-0.469
N2845 X-3.4546 Y-0.5871 Z-0.4691
N2850 X-3.4538 Y-0.5847
N2855 X-3.4533 Y-0.5822 Z-0.4692
N2860 X-3.4529 Y-0.5798 Z-0.4693
N2865 X-3.4527 Y-0.5773 Z-0.4694
N2870 X-3.4525 Y-0.5675 Z-0.4697
N2875 Y-0.3325 Z-0.478
N2880 X-3.4527 Y-0.3227 Z-0.4783
N2885 X-3.4529 Y-0.3202 Z-0.4784
N2890 X-3.4533 Y-0.3178 Z-0.4785
N2895 X-3.4538 Y-0.3153 Z-0.4786
N2900 X-3.4546 Y-0.3129
N2905 X-3.4556 Y-0.3106 Z-0.4787
N2910 X-3.4568 Y-0.3083 Z-0.4788
N2915 X-3.4585 Y-0.3057 Z-0.4789
N2920 X-3.4605 Y-0.3031 Z-0.479
N2925 X-3.4621 Y-0.3015 Z-0.4791
N2930 X-3.4636 Y-0.3001 Z-0.4792
N2935 X-3.4666 Y-0.2978 Z-0.4793
N2940 X-3.4678 Y-0.2971 Z-0.4794
N2945 X-3.4691 Y-0.2964
N2950 X-3.4715 Y-0.2952 Z-0.4795
N2955 X-3.474 Y-0.2943 Z-0.4796
N2960 X-3.4764 Y-0.2936 Z-0.4797
N2965 X-3.4776 Y-0.2933
N2970 X-3.4797 Y-0.2929 Z-0.4798
N2975 X-3.4819 Y-0.2927 Z-0.4799
N2980 X-3.4862 Y-0.2926 Z-0.48
N2985 X-3.496 Y-0.2925 Z-0.4804
N2990 X-5.1414 Z-0.5379
N2995 X-5.1512 Z-0.5382
N3000 X-5.156 Y-0.2927 Z-0.5384
N3005 X-5.1584 Y-0.2929
N3010 X-5.1608 Y-0.2933 Z-0.5385
N3015 X-5.161
N3020 X-5.1634 Y-0.294 Z-0.5386
N3025 X-5.1659 Y-0.2948 Z-0.5387
N3030 X-5.1683 Y-0.2959 Z-0.5388
N3035 X-5.1708 Y-0.2972 Z-0.5389
N3040 X-5.1725 Y-0.2984 Z-0.539
N3045 X-5.1743 Y-0.2997 Z-0.5391
N3050 X-5.1761 Y-0.3013
N3055 X-5.1778 Y-0.3031 Z-0.5392
N3060 X-5.1806 Y-0.3066 Z-0.5394
N3065 X-5.1853 Y-0.3129 Z-0.5397
N3070 X-5.1904 Y-0.3193 Z-0.5399
N3075 X-5.1932 Y-0.3227 Z-0.5401
N3080 X-5.2002 Y-0.3303 Z-0.5405
N3085 X-5.2023 Y-0.3325 Z-0.5406
N3090 X-5.21 Y-0.3397 Z-0.5409
N3095 X-5.2129 Y-0.3423 Z-0.5411
N3100 X-5.2198 Y-0.3479 Z-0.5414
N3105 X-5.2253 Y-0.3521 Z-0.5416
N3110 X-5.2295 Y-0.355 Z-0.5418
N3115 X-5.2393 Y-0.3613 Z-0.5422
N3120 X-5.2404 Y-0.3619
N3125 X-5.2491 Y-0.3667 Z-0.5426
N3130 X-5.2589 Y-0.3714 Z-0.543
N3135 X-5.2596 Y-0.3717
N3140 X-5.2687 Y-0.3754 Z-0.5433
N3145 X-5.2785 Y-0.3788 Z-0.5437
N3150 X-5.2877 Y-0.3814 Z-0.544
N3155 X-5.2883 Y-0.3816 Z-0.5441
N3160 X-5.2981 Y-0.3838 Z-0.5444
N3165 X-5.3079 Y-0.3855 Z-0.5448
N3170 X-5.3177 Y-0.3867 Z-0.5451
N3175 X-5.3275 Y-0.3873 Z-0.5454
N3180 X-5.3373 Y-0.3875 Z-0.5458
N3185 X-6.0816 Z-0.5718
N3190 X-6.0851 Z-0.5719
N3195 X-6.0882 Y-0.3877 Z-0.572
N3200 X-6.0883 Y-0.3878
N3205 X-6.0885 Y-0.3912 Z-0.5721
N3210 Y-0.401 Z-0.5725
N3215 Y-0.499 Z-0.5759
N3220 Y-0.5088 Z-0.5762
N3225 X-6.0883 Y-0.5122 Z-0.5764
N3230 X-6.0882 Y-0.5123
N3235 X-6.0851 Y-0.5125 Z-0.5765
N3240 X-6.0816 Z-0.5766
N3245 X-6.0523 Z-0.5776
N3250 X-6.0474 Y-0.5124 Z-0.5778
N3255 X-6.0449 Y-0.5123 Z-0.5779
N3260 X-6.0437 Y-0.5121
N3265 X-6.0425 Y-0.512 Z-0.578
N3270 X-6.04 Y-0.5115 Z-0.5781
N3275 X-6.0376 Y-0.5108
N3280 X-6.0352 Y-0.5099 Z-0.5782
N3285 X-6.0328 Y-0.5088 Z-0.5783
N3290 X-6.0229 Y-0.5034 Z-0.5787
N3295 X-6.014 Y-0.499 Z-0.5791
N3300 X-6.0131 Y-0.4985
N3305 X-6.0033 Y-0.4944 Z-0.5795
N3310 X-5.9935 Y-0.4909 Z-0.5798
N3315 X-5.9881 Y-0.4892 Z-0.58
N3320 X-5.9837 Y-0.4879 Z-0.5802
N3325 X-5.9739 Y-0.4856 Z-0.5805
N3330 X-5.9641 Y-0.4838 Z-0.5809
N3335 X-5.9543 Y-0.4825 Z-0.5812
N3340 X-5.9445 Y-0.4817 Z-0.5816
N3345 X-5.9347 Y-0.4815 Z-0.5819
N3350 X-5.3373 Z-0.6028
N3355 X-5.3275 Y-0.4817 Z-0.6031
N3360 X-5.3177 Y-0.4823 Z-0.6035
N3365 X-5.3079 Y-0.4835 Z-0.6038
N3370 X-5.2981 Y-0.4852 Z-0.6042
N3375 X-5.2883 Y-0.4874 Z-0.6045
N3380 X-5.2819 Y-0.4892 Z-0.6047
N3385 X-5.2785 Y-0.4902 Z-0.6049
N3390 X-5.2687 Y-0.4936 Z-0.6052
N3395 X-5.2589 Y-0.4976 Z-0.6056
N3400 X-5.256 Y-0.499 Z-0.6057
N3405 X-5.2491 Y-0.5023 Z-0.606
N3410 X-5.2393 Y-0.5077 Z-0.6064
N3415 X-5.2376 Y-0.5088
N3420 X-5.2295 Y-0.514 Z-0.6068
N3425 X-5.2231 Y-0.5186 Z-0.6071
N3430 X-5.2198 Y-0.5211 Z-0.6072
N3435 X-5.211 Y-0.5283 Z-0.6076
N3440 X-5.21 Y-0.5293
N3445 X-5.2007 Y-0.5381 Z-0.6081
N3450 X-5.2002 Y-0.5387
N3455 X-5.1918 Y-0.5479 Z-0.6086
N3460 X-5.1904 Y-0.5497
N3465 X-5.1841 Y-0.5577 Z-0.609
N3470 X-5.1806 Y-0.5626 Z-0.6092
N3475 X-5.1773 Y-0.5675 Z-0.6094
N3480 X-5.1714 Y-0.5773 Z-0.6098
N3485 X-5.1708 Y-0.5785 Z-0.6099
N3490 X-5.1663 Y-0.5871 Z-0.6102
N3495 X-5.164 Y-0.5915 Z-0.6104
N3500 X-5.1626 Y-0.5937 Z-0.6105
N3505 X-5.1618 Y-0.5948
N3510 X-5.161 Y-0.5959 Z-0.6106
N3515 X-5.1601 Y-0.5969
N3520 X-5.1579 Y-0.5992 Z-0.6107
N3525 X-5.1556 Y-0.601 Z-0.6108
N3530 X-5.1545 Y-0.6018 Z-0.6109
N3535 X-5.1534 Y-0.6026
N3540 X-5.1512 Y-0.6038 Z-0.611
N3545 X-5.1471 Y-0.6056 Z-0.6112
N3550 X-5.1451 Y-0.6062
N3555 X-5.1431 Y-0.6067 Z-0.6113
N3560 X-5.1414 Y-0.607 Z-0.6114
N3565 X-5.1365 Y-0.6074 Z-0.6115
N3570 X-5.1316 Y-0.6075 Z-0.6117
N3575 X-4.6082 Z-0.63
N3580 G2 X-4.6069 I0.0013 K0.0375
N3585 G1 X-3.496 F15.
N3590 X-3.4862 Y-0.6074
N3595 X-3.4819 Y-0.6073
N3600 X-3.4797 Y-0.6071
N3605 X-3.4776 Y-0.6067
N3610 X-3.4764 Y-0.6064
N3615 X-3.474 Y-0.6057
N3620 X-3.4715 Y-0.6048
N3625 X-3.4691 Y-0.6036
N3630 X-3.4678 Y-0.6029
N3635 X-3.4666 Y-0.6022
N3640 X-3.4636 Y-0.5999
N3645 X-3.4621 Y-0.5985
N3650 X-3.4605 Y-0.5969
N3655 X-3.4585 Y-0.5943
N3660 X-3.4568 Y-0.5917
N3665 X-3.4556 Y-0.5894
N3670 X-3.4546 Y-0.5871
N3675 X-3.4538 Y-0.5847
N3680 X-3.4533 Y-0.5822
N3685 X-3.4529 Y-0.5798
N3690 X-3.4527 Y-0.5773
N3695 X-3.4525 Y-0.5675
N3700 Y-0.3325
N3705 X-3.4527 Y-0.3227
N3710 X-3.4529 Y-0.3202
N3715 X-3.4533 Y-0.3178
N3720 X-3.4538 Y-0.3153
N3725 X-3.4546 Y-0.3129
N3730 X-3.4556 Y-0.3106
N3735 X-3.4568 Y-0.3083
N3740 X-3.4585 Y-0.3057
N3745 X-3.4605 Y-0.3031
N3750 X-3.4621 Y-0.3015
N3755 X-3.4636 Y-0.3001
N3760 X-3.4666 Y-0.2978
N3765 X-3.4678 Y-0.2971
N3770 X-3.4691 Y-0.2964
N3775 X-3.4715 Y-0.2952
N3780 X-3.474 Y-0.2943
N3785 X-3.4764 Y-0.2936
N3790 X-3.4776 Y-0.2933
N3795 X-3.4797 Y-0.2929
N3800 X-3.4819 Y-0.2927
N3805 X-3.4862 Y-0.2926
N3810 X-3.496 Y-0.2925
N3815 X-5.1414
N3820 X-5.1512
N3825 X-5.156 Y-0.2927
N3830 X-5.1584 Y-0.2929
N3835 X-5.1608 Y-0.2933
N3840 X-5.161
N3845 X-5.1634 Y-0.294
N3850 X-5.1659 Y-0.2948
N3855 X-5.1683 Y-0.2959
N3860 X-5.1708 Y-0.2972
N3865 X-5.1725 Y-0.2984
N3870 X-5.1743 Y-0.2997
N3875 X-5.1761 Y-0.3013
N3880 X-5.1778 Y-0.3031
N3885 X-5.1806 Y-0.3066
N3890 X-5.1853 Y-0.3129
N3895 X-5.1904 Y-0.3193
N3900 X-5.1932 Y-0.3227
N3905 X-5.2002 Y-0.3303
N3910 X-5.2023 Y-0.3325
N3915 X-5.21 Y-0.3397
N3920 X-5.2129 Y-0.3423
N3925 X-5.2198 Y-0.3479
N3930 X-5.2253 Y-0.3521
N3935 X-5.2295 Y-0.355
N3940 X-5.2393 Y-0.3613
N3945 X-5.2404 Y-0.3619
N3950 X-5.2491 Y-0.3667
N3955 X-5.2589 Y-0.3714
N3960 X-5.2596 Y-0.3717
N3965 X-5.2687 Y-0.3754
N3970 X-5.2785 Y-0.3788
N3975 X-5.2877 Y-0.3814
N3980 X-5.2883 Y-0.3816
N3985 X-5.2981 Y-0.3838
N3990 X-5.3079 Y-0.3855
N3995 X-5.3177 Y-0.3867
N4000 X-5.3275 Y-0.3873
N4005 X-5.3373 Y-0.3875
N4010 X-6.0816
N4015 X-6.0851
N4020 X-6.0882 Y-0.3877
N4025 X-6.0883 Y-0.3878
N4030 X-6.0885 Y-0.3912
N4035 Y-0.401
N4040 Y-0.499
N4045 Y-0.5088
N4050 X-6.0883 Y-0.5122
N4055 X-6.0882 Y-0.5123
N4060 X-6.0851 Y-0.5125
N4065 X-6.0816
N4070 X-6.0523
N4075 X-6.0474 Y-0.5124
N4080 X-6.0449 Y-0.5123
N4085 X-6.0437 Y-0.5121
N4090 X-6.0425 Y-0.512
N4095 X-6.04 Y-0.5115
N4100 X-6.0376 Y-0.5108
N4105 X-6.0352 Y-0.5099
N4110 X-6.0328 Y-0.5088
N4115 X-6.0229 Y-0.5034
N4120 X-6.014 Y-0.499
N4125 X-6.0131 Y-0.4985
N4130 X-6.0033 Y-0.4944
N4135 X-5.9935 Y-0.4909
N4140 X-5.9881 Y-0.4892
N4145 X-5.9837 Y-0.4879
N4150 X-5.9739 Y-0.4856
N4155 X-5.9641 Y-0.4838
N4160 X-5.9543 Y-0.4825
N4165 X-5.9445 Y-0.4817
N4170 X-5.9347 Y-0.4815
N4175 X-5.3373
N4180 X-5.3275 Y-0.4817
N4185 X-5.3177 Y-0.4823
N4190 X-5.3079 Y-0.4835
N4195 X-5.2981 Y-0.4852
N4200 X-5.2883 Y-0.4874
N4205 X-5.2819 Y-0.4892
N4210 X-5.2785 Y-0.4902
N4215 X-5.2687 Y-0.4936
N4220 X-5.2589 Y-0.4976
N4225 X-5.256 Y-0.499
N4230 X-5.2491 Y-0.5023
N4235 X-5.2393 Y-0.5077
N4240 X-5.2376 Y-0.5088
N4245 X-5.2295 Y-0.514
N4250 X-5.2231 Y-0.5186
N4255 X-5.2198 Y-0.5211
N4260 X-5.211 Y-0.5283
N4265 X-5.21 Y-0.5293
N4270 X-5.2007 Y-0.5381
N4275 X-5.2002 Y-0.5387
N4280 X-5.1918 Y-0.5479
N4285 X-5.1904 Y-0.5497
N4290 X-5.1841 Y-0.5577
N4295 X-5.1806 Y-0.5626
N4300 X-5.1773 Y-0.5675
N4305 X-5.1714 Y-0.5773
N4310 X-5.1708 Y-0.5785
N4315 X-5.1663 Y-0.5871
N4320 X-5.164 Y-0.5915
N4325 X-5.1626 Y-0.5937
N4330 X-5.1618 Y-0.5948
N4335 X-5.161 Y-0.5959
N4340 X-5.1601 Y-0.5969
N4345 X-5.1579 Y-0.5992
N4350 X-5.1556 Y-0.601
N4355 X-5.1545 Y-0.6018
N4360 X-5.1534 Y-0.6026
N4365 X-5.1512 Y-0.6038
N4370 X-5.1471 Y-0.6056
N4375 X-5.1451 Y-0.6062
N4380 X-5.1431 Y-0.6067
N4385 X-5.1414 Y-0.607
N4390 X-5.1365 Y-0.6074
N4395 X-5.1316 Y-0.6075
N4400 X-4.6069
N4405 G17 G3 X-4.5694 Y-0.57 I0. J0.0375 F2.
N4410 X-4.5696 Y-0.5659 I-0.0375 J0. F15.
N4415 G1 X-4.5882 Y-0.3993
N4420 G3 X-4.6547 Y-0.3166 I-0.0982 J-0.0109
N4425 X-4.656 Y-0.3162 I-0.0317 J-0.0936 F10.
N4430 X-4.7168 Y-0.5043 Z-0.6409 I-0.0304 J-0.094
N4435 X-4.656 Y-0.3162 Z-0.6517 I0.0304 J0.094
N4440 X-4.7168 Y-0.5043 Z-0.6625 I-0.0304 J-0.094
N4445 X-4.656 Y-0.3162 Z-0.6734 I0.0304 J0.094
N4450 X-4.7168 Y-0.5043 Z-0.6842 I-0.0304 J-0.094
N4455 X-4.656 Y-0.3162 Z-0.6951 I0.0304 J0.094
N4460 X-4.7168 Y-0.5043 Z-0.7059 I-0.0304 J-0.094
N4465 X-4.656 Y-0.3162 Z-0.7167 I0.0304 J0.094
N4470 X-4.7168 Y-0.5043 Z-0.7276 I-0.0304 J-0.094
N4475 X-4.656 Y-0.3162 Z-0.7384 I0.0304 J0.094
N4480 X-4.7168 Y-0.5043 Z-0.7492 I-0.0304 J-0.094
N4485 X-4.656 Y-0.3162 Z-0.7601 I0.0304 J0.094
N4490 X-4.7168 Y-0.5043 Z-0.7709 I-0.0304 J-0.094
N4495 X-4.656 Y-0.3162 Z-0.7818 I0.0304 J0.094
N4500 X-4.7168 Y-0.5043 Z-0.7926 I-0.0304 J-0.094
N4505 X-4.656 Y-0.3162 Z-0.8034 I0.0304 J0.094
N4510 X-4.7168 Y-0.5043 Z-0.8143 I-0.0304 J-0.094
N4515 X-4.656 Y-0.3162 Z-0.8251 I0.0304 J0.094
N4520 X-4.7168 Y-0.5043 Z-0.836 I-0.0304 J-0.094
N4525 X-4.656 Y-0.3162 Z-0.8468 I0.0304 J0.094
N4530 X-4.7168 Y-0.5043 Z-0.8576 I-0.0304 J-0.094
N4535 X-4.656 Y-0.3162 Z-0.8685 I0.0304 J0.094
N4540 X-4.7168 Y-0.5043 Z-0.8793 I-0.0304 J-0.094
N4545 X-4.656 Y-0.3162 Z-0.8901 I0.0304 J0.094
N4550 X-4.7168 Y-0.5043 Z-0.901 I-0.0304 J-0.094
N4555 X-4.656 Y-0.3162 Z-0.9118 I0.0304 J0.094
N4560 X-4.7168 Y-0.5043 Z-0.9227 I-0.0304 J-0.094
N4565 X-4.656 Y-0.3162 Z-0.9335 I0.0304 J0.094
N4570 X-4.7168 Y-0.5043 Z-0.9443 I-0.0304 J-0.094
N4575 X-4.656 Y-0.3162 Z-0.9552 I0.0304 J0.094
N4580 X-4.7168 Y-0.5043 Z-0.966 I-0.0304 J-0.094
N4585 X-4.656 Y-0.3162 Z-0.9768 I0.0304 J0.094
N4590 X-4.7168 Y-0.5043 Z-0.9877 I-0.0304 J-0.094
N4595 X-4.656 Y-0.3162 Z-0.9985 I0.0304 J0.094
N4600 X-4.7852 Y-0.4089 Z-1.005 I-0.0304 J-0.094
N4605 Y-0.4102 I0.0988 J-0.0013
N4610 G1 Y-0.4292 F2.
N4615 G3 X-4.6069 Y-0.6075 I0.1783 J0.
N4620 G1 X-3.496 F15.
N4625 X-3.4862 Y-0.6074
N4630 X-3.4819 Y-0.6073
N4635 X-3.4797 Y-0.6071
N4640 X-3.4776 Y-0.6067
N4645 X-3.4764 Y-0.6064
N4650 X-3.474 Y-0.6057
N4655 X-3.4715 Y-0.6048
N4660 X-3.4691 Y-0.6036
N4665 X-3.4678 Y-0.6029
N4670 X-3.4666 Y-0.6022
N4675 X-3.4636 Y-0.5999
N4680 X-3.4621 Y-0.5985
N4685 X-3.4605 Y-0.5969
N4690 X-3.4585 Y-0.5943
N4695 X-3.4568 Y-0.5917
N4700 X-3.4556 Y-0.5894
N4705 X-3.4546 Y-0.5871
N4710 X-3.4538 Y-0.5847
N4715 X-3.4533 Y-0.5822
N4720 X-3.4529 Y-0.5798
N4725 X-3.4527 Y-0.5773
N4730 X-3.4525 Y-0.5675
N4735 Y-0.3325
N4740 X-3.4527 Y-0.3227
N4745 X-3.4529 Y-0.3202
N4750 X-3.4533 Y-0.3178
N4755 X-3.4538 Y-0.3153
N4760 X-3.4546 Y-0.3129
N4765 X-3.4556 Y-0.3106
N4770 X-3.4568 Y-0.3083
N4775 X-3.4585 Y-0.3057
N4780 X-3.4605 Y-0.3031
N4785 X-3.4621 Y-0.3015
N4790 X-3.4636 Y-0.3001
N4795 X-3.4666 Y-0.2978
N4800 X-3.4678 Y-0.2971
N4805 X-3.4691 Y-0.2964
N4810 X-3.4715 Y-0.2952
N4815 X-3.474 Y-0.2943
N4820 X-3.4764 Y-0.2936
N4825 X-3.4776 Y-0.2933
N4830 X-3.4797 Y-0.2929
N4835 X-3.4819 Y-0.2927
N4840 X-3.4862 Y-0.2926
N4845 X-3.496 Y-0.2925
N4850 X-5.1414
N4855 X-5.1512
N4860 X-5.156 Y-0.2927
N4865 X-5.1584 Y-0.2929
N4870 X-5.1608 Y-0.2933
N4875 X-5.161
N4880 X-5.1634 Y-0.294
N4885 X-5.1659 Y-0.2948
N4890 X-5.1683 Y-0.2959
N4895 X-5.1708 Y-0.2972
N4900 X-5.1725 Y-0.2984
N4905 X-5.1743 Y-0.2997
N4910 X-5.1761 Y-0.3013
N4915 X-5.1778 Y-0.3031
N4920 X-5.1806 Y-0.3066
N4925 X-5.1853 Y-0.3129
N4930 X-5.1904 Y-0.3193
N4935 X-5.1932 Y-0.3227
N4940 X-5.2002 Y-0.3303
N4945 X-5.2023 Y-0.3325
N4950 X-5.21 Y-0.3397
N4955 X-5.2129 Y-0.3423
N4960 X-5.2198 Y-0.3479
N4965 X-5.2253 Y-0.3521
N4970 X-5.2295 Y-0.355
N4975 X-5.2393 Y-0.3613
N4980 X-5.2404 Y-0.3619
N4985 X-5.2491 Y-0.3667
N4990 X-5.2589 Y-0.3714
N4995 X-5.2596 Y-0.3717
N5000 X-5.2687 Y-0.3754
N5005 X-5.2785 Y-0.3788
N5010 X-5.2877 Y-0.3814
N5015 X-5.2883 Y-0.3816
N5020 X-5.2981 Y-0.3838
N5025 X-5.3079 Y-0.3855
N5030 X-5.3177 Y-0.3867
N5035 X-5.3275 Y-0.3873
N5040 X-5.3373 Y-0.3875
N5045 X-5.7144
N5050 X-5.7168 Y-0.3876
N5055 X-5.7182
N5060 X-5.7183
N5065 X-5.7193 Y-0.3878
N5070 X-5.7242 Y-0.3887
N5075 X-5.7266 Y-0.3894
N5080 X-5.729 Y-0.3904
N5085 X-5.7307 Y-0.3912
N5090 X-5.7327 Y-0.3924
N5095 X-5.7348 Y-0.3938
N5100 X-5.7368 Y-0.3955
N5105 X-5.7388 Y-0.3974
N5110 X-5.7404 Y-0.3992
N5115 X-5.7418 Y-0.401
N5120 X-5.7433 Y-0.4035
N5125 X-5.7446 Y-0.4059
N5130 X-5.7455 Y-0.4084
N5135 X-5.7463 Y-0.4108
N5140 X-5.7468 Y-0.4133
N5145 X-5.7472 Y-0.4157
N5150 X-5.7474 Y-0.4206
N5155 X-5.7475 Y-0.4304
N5160 Y-0.4402
N5165 X-5.7474 Y-0.45
N5170 X-5.747 Y-0.4549
N5175 X-5.7465 Y-0.4573
N5180 X-5.7458 Y-0.4598
N5185 X-5.7449 Y-0.4622
N5190 X-5.7438 Y-0.4647
N5195 X-5.7431 Y-0.4659
N5200 X-5.7424 Y-0.4671
N5205 X-5.7406 Y-0.4696
N5210 X-5.7388 Y-0.4716
N5215 X-5.7364 Y-0.4739
N5220 X-5.7339 Y-0.4758
N5225 X-5.7327 Y-0.4766
N5230 X-5.7315 Y-0.4773
N5235 X-5.729 Y-0.4786
N5240 X-5.7271 Y-0.4794
N5245 X-5.7251 Y-0.48
N5250 X-5.7232 Y-0.4805
N5255 X-5.7193 Y-0.4812
N5260 X-5.7183 Y-0.4814
N5265 X-5.7182
N5270 X-5.7168
N5275 X-5.7144 Y-0.4815
N5280 X-5.3373
N5285 X-5.3275 Y-0.4817
N5290 X-5.3177 Y-0.4823
N5295 X-5.3079 Y-0.4835
N5300 X-5.2981 Y-0.4852
N5305 X-5.2883 Y-0.4874
N5310 X-5.2819 Y-0.4892
N5315 X-5.2785 Y-0.4902
N5320 X-5.2687 Y-0.4936
N5325 X-5.2589 Y-0.4976
N5330 X-5.256 Y-0.499
N5335 X-5.2491 Y-0.5023
N5340 X-5.2393 Y-0.5077
N5345 X-5.2376 Y-0.5088
N5350 X-5.2295 Y-0.514
N5355 X-5.2231 Y-0.5186
N5360 X-5.2198 Y-0.5211
N5365 X-5.211 Y-0.5283
N5370 X-5.21 Y-0.5293
N5375 X-5.2007 Y-0.5381
N5380 X-5.2002 Y-0.5387
N5385 X-5.1918 Y-0.5479
N5390 X-5.1904 Y-0.5497
N5395 X-5.1841 Y-0.5577
N5400 X-5.1806 Y-0.5626
N5405 X-5.1773 Y-0.5675
N5410 X-5.1714 Y-0.5773
N5415 X-5.1708 Y-0.5785
N5420 X-5.1663 Y-0.5871
N5425 X-5.164 Y-0.5915
N5430 X-5.1626 Y-0.5937
N5435 X-5.1618 Y-0.5948
N5440 X-5.161 Y-0.5959
N5445 X-5.1601 Y-0.5969
N5450 X-5.1579 Y-0.5992
N5455 X-5.1556 Y-0.601
N5460 X-5.1545 Y-0.6018
N5465 X-5.1534 Y-0.6026
N5470 X-5.1512 Y-0.6038
N5475 X-5.1471 Y-0.6056
N5480 X-5.1451 Y-0.6062
N5485 X-5.1431 Y-0.6067
N5490 X-5.1414 Y-0.607
N5495 X-5.1365 Y-0.6074
N5500 X-5.1316 Y-0.6075
N5505 X-4.6069
N5510 G3 X-4.5694 Y-0.57 I0. J0.0375 F2.
N5515 X-4.5696 Y-0.5659 I-0.0375 J0. F15.
N5520 G1 X-4.5882 Y-0.3993
N5525 G3 X-4.6531 Y-0.3172 I-0.0982 J-0.0109
N5530 X-4.6544 Y-0.3167 I-0.0333 J-0.0931 F10.
N5535 X-4.7184 Y-0.5037 Z-1.0159 I-0.032 J-0.0935
N5540 X-4.6544 Y-0.3167 Z-1.0267 I0.032 J0.0935
N5545 X-4.7184 Y-0.5037 Z-1.0375 I-0.032 J-0.0935
N5550 X-4.6544 Y-0.3167 Z-1.0484 I0.032 J0.0935
N5555 X-4.7184 Y-0.5037 Z-1.0592 I-0.032 J-0.0935
N5560 X-4.6544 Y-0.3167 Z-1.0701 I0.032 J0.0935
N5565 X-4.7184 Y-0.5037 Z-1.0809 I-0.032 J-0.0935
N5570 X-4.6544 Y-0.3167 Z-1.0917 I0.032 J0.0935
N5575 X-4.7184 Y-0.5037 Z-1.1026 I-0.032 J-0.0935
N5580 X-4.6544 Y-0.3167 Z-1.1134 I0.032 J0.0935
N5585 X-4.7184 Y-0.5037 Z-1.1242 I-0.032 J-0.0935
N5590 X-4.6544 Y-0.3167 Z-1.1351 I0.032 J0.0935
N5595 X-4.7184 Y-0.5037 Z-1.1459 I-0.032 J-0.0935
N5600 X-4.6544 Y-0.3167 Z-1.1568 I0.032 J0.0935
N5605 X-4.7184 Y-0.5037 Z-1.1676 I-0.032 J-0.0935
N5610 X-4.6544 Y-0.3167 Z-1.1784 I0.032 J0.0935
N5615 X-4.7184 Y-0.5037 Z-1.1893 I-0.032 J-0.0935
N5620 X-4.6544 Y-0.3167 Z-1.2001 I0.032 J0.0935
N5625 X-4.7184 Y-0.5037 Z-1.211 I-0.032 J-0.0935
N5630 X-4.6544 Y-0.3167 Z-1.2218 I0.032 J0.0935
N5635 X-4.7184 Y-0.5037 Z-1.2326 I-0.032 J-0.0935
N5640 X-4.6544 Y-0.3167 Z-1.2435 I0.032 J0.0935
N5645 X-4.7852 Y-0.4089 Z-1.25 I-0.032 J-0.0935
N5650 Y-0.4102 I0.0988 J-0.0013
N5655 G1 Y-0.4292 F2.
N5660 G3 X-4.6069 Y-0.6075 I0.1783 J0.
N5665 G1 X-3.496 F15.
N5670 X-3.4862 Y-0.6074
N5675 X-3.4819 Y-0.6073
N5680 X-3.4797 Y-0.6071
N5685 X-3.4776 Y-0.6067
N5690 X-3.4764 Y-0.6064
N5695 X-3.474 Y-0.6057
N5700 X-3.4715 Y-0.6048
N5705 X-3.4691 Y-0.6036
N5710 X-3.4678 Y-0.6029
N5715 X-3.4666 Y-0.6022
N5720 X-3.4636 Y-0.5999
N5725 X-3.4621 Y-0.5985
N5730 X-3.4605 Y-0.5969
N5735 X-3.4585 Y-0.5943
N5740 X-3.4568 Y-0.5917
N5745 X-3.4556 Y-0.5894
N5750 X-3.4546 Y-0.5871
N5755 X-3.4538 Y-0.5847
N5760 X-3.4533 Y-0.5822
N5765 X-3.4529 Y-0.5798
N5770 X-3.4527 Y-0.5773
N5775 X-3.4525 Y-0.5675
N5780 Y-0.3325
N5785 X-3.4527 Y-0.3227
N5790 X-3.4529 Y-0.3202
N5795 X-3.4533 Y-0.3178
N5800 X-3.4538 Y-0.3153
N5805 X-3.4546 Y-0.3129
N5810 X-3.4556 Y-0.3106
N5815 X-3.4568 Y-0.3083
N5820 X-3.4585 Y-0.3057
N5825 X-3.4605 Y-0.3031
N5830 X-3.4621 Y-0.3015
N5835 X-3.4636 Y-0.3001
N5840 X-3.4666 Y-0.2978
N5845 X-3.4678 Y-0.2971
N5850 X-3.4691 Y-0.2964
N5855 X-3.4715 Y-0.2952
N5860 X-3.474 Y-0.2943
N5865 X-3.4764 Y-0.2936
N5870 X-3.4776 Y-0.2933
N5875 X-3.4797 Y-0.2929
N5880 X-3.4819 Y-0.2927
N5885 X-3.4862 Y-0.2926
N5890 X-3.496 Y-0.2925
N5895 X-5.1414
N5900 X-5.1512
N5905 X-5.156 Y-0.2927
N5910 X-5.1584 Y-0.2929
N5915 X-5.1608 Y-0.2933
N5920 X-5.161
N5925 X-5.1634 Y-0.294
N5930 X-5.1659 Y-0.2948
N5935 X-5.1683 Y-0.2959
N5940 X-5.1708 Y-0.2972
N5945 X-5.1725 Y-0.2984
N5950 X-5.1743 Y-0.2997
N5955 X-5.1761 Y-0.3013
N5960 X-5.1778 Y-0.3031
N5965 X-5.1806 Y-0.3066
N5970 X-5.1853 Y-0.3129
N5975 X-5.1904 Y-0.3193
N5980 X-5.1932 Y-0.3227
N5985 X-5.2002 Y-0.3303
N5990 X-5.2023 Y-0.3325
N5995 X-5.21 Y-0.3397
N6000 X-5.2129 Y-0.3423
N6005 X-5.2198 Y-0.3479
N6010 X-5.2253 Y-0.3521
N6015 X-5.2295 Y-0.355
N6020 X-5.2393 Y-0.3613
N6025 X-5.2404 Y-0.3619
N6030 X-5.2491 Y-0.3667
N6035 X-5.2589 Y-0.3714
N6040 X-5.2596 Y-0.3717
N6045 X-5.2687 Y-0.3754
N6050 X-5.2785 Y-0.3788
N6055 X-5.2877 Y-0.3814
N6060 X-5.2883 Y-0.3816
N6065 X-5.2981 Y-0.3838
N6070 X-5.3079 Y-0.3855
N6075 X-5.3177 Y-0.3867
N6080 X-5.3275 Y-0.3873
N6085 X-5.3373 Y-0.3875
N6090 X-5.7095
N6095 X-5.7144 Y-0.3876
N6100 X-5.7193 Y-0.3878
N6105 X-5.7217 Y-0.3882
N6110 X-5.7242 Y-0.3887
N6115 X-5.7266 Y-0.3894
N6120 X-5.729 Y-0.3904
N6125 X-5.7307 Y-0.3912
N6130 X-5.7327 Y-0.3924
N6135 X-5.7348 Y-0.3938
N6140 X-5.7368 Y-0.3955
N6145 X-5.7378 Y-0.3964
N6150 X-5.7388 Y-0.3974
N6155 X-5.7404 Y-0.3992
N6160 X-5.7418 Y-0.401
N6165 X-5.7433 Y-0.4035
N6170 X-5.7446 Y-0.4059
N6175 X-5.7455 Y-0.4084
N6180 X-5.7463 Y-0.4108
N6185 X-5.7468 Y-0.4133
N6190 X-5.7472 Y-0.4157
N6195 X-5.7474 Y-0.4206
N6200 X-5.7475 Y-0.4304
N6205 Y-0.4402
N6210 X-5.7474 Y-0.45
N6215 X-5.747 Y-0.4549
N6220 X-5.7465 Y-0.4573
N6225 X-5.7458 Y-0.4598
N6230 X-5.7449 Y-0.4622
N6235 X-5.7438 Y-0.4647
N6240 X-5.7423 Y-0.4671
N6245 X-5.7415 Y-0.4684
N6250 X-5.7406 Y-0.4696
N6255 X-5.7388 Y-0.4716
N6260 X-5.7376 Y-0.4728
N6265 X-5.7364 Y-0.4739
N6270 X-5.7339 Y-0.4758
N6275 X-5.7315 Y-0.4773
N6280 X-5.729 Y-0.4786
N6285 X-5.7271 Y-0.4794
N6290 X-5.7251 Y-0.48
N6295 X-5.7232 Y-0.4805
N6300 X-5.7193 Y-0.4812
N6305 X-5.7144 Y-0.4814
N6310 X-5.7095 Y-0.4815
N6315 X-5.3373
N6320 X-5.3275 Y-0.4817
N6325 X-5.3177 Y-0.4823
N6330 X-5.3079 Y-0.4835
N6335 X-5.2981 Y-0.4852
N6340 X-5.2883 Y-0.4874
N6345 X-5.2819 Y-0.4892
N6350 X-5.2785 Y-0.4902
N6355 X-5.2687 Y-0.4936
N6360 X-5.2589 Y-0.4976
N6365 X-5.256 Y-0.499
N6370 X-5.2491 Y-0.5023
N6375 X-5.2393 Y-0.5077
N6380 X-5.2376 Y-0.5088
N6385 X-5.2295 Y-0.514
N6390 X-5.2231 Y-0.5186
N6395 X-5.2198 Y-0.5211
N6400 X-5.211 Y-0.5283
N6405 X-5.21 Y-0.5293
N6410 X-5.2007 Y-0.5381
N6415 X-5.2002 Y-0.5387
N6420 X-5.1918 Y-0.5479
N6425 X-5.1904 Y-0.5497
N6430 X-5.1841 Y-0.5577
N6435 X-5.1806 Y-0.5626
N6440 X-5.1773 Y-0.5675
N6445 X-5.1714 Y-0.5773
N6450 X-5.1708 Y-0.5785
N6455 X-5.1663 Y-0.5871
N6460 X-5.164 Y-0.5915
N6465 X-5.1626 Y-0.5937
N6470 X-5.1618 Y-0.5948
N6475 X-5.161 Y-0.5959
N6480 X-5.1601 Y-0.5969
N6485 X-5.1579 Y-0.5992
N6490 X-5.1556 Y-0.601
N6495 X-5.1545 Y-0.6018
N6500 X-5.1534 Y-0.6026
N6505 X-5.1512 Y-0.6038
N6510 X-5.1471 Y-0.6056
N6515 X-5.1451 Y-0.6062
N6520 X-5.1431 Y-0.6067
N6525 X-5.1414 Y-0.607
N6530 X-5.1365 Y-0.6074
N6535 X-5.1316 Y-0.6075
N6540 X-4.6069
N6545 G3 X-4.5694 Y-0.5688 I0. J0.0375 F2.
N6550 G0 Z0.6
N6560 M9
N6565 G53 Z0.
N6570 M30
%
