%
(1001)
(38 END MILL)
(T1  D=0.375 CR=0. - ZMIN=-1.25 - FLAT END MILL)
N10 G90 G94 G17 G91.1
N15 G20
N20 G53 G0 Z0.
(CONTOUR2)
N25 M9
N30 T1 M6
N35 S2000 M3
N40 G54
N45 M8
N55 G0 X-5.8635 Y-0.0315
N60 G43 Z0.6 H1
N65 G0 Z0.4144
N70 G1 Z0.0563 F2.
N75 G18 G2 X-5.8273 Z0.0188 I0.0375 K0. F10.
N80 G1 X-5.3373 Z0.0017
N85 X-5.3275 Y-0.0317 Z0.0013
N90 X-5.3177 Y-0.0323 Z0.001
N95 X-5.3079 Y-0.0335 Z0.0007
N100 X-5.2981 Y-0.0352 Z0.0003
N105 X-5.2883 Y-0.0374 Z0.
N110 X-5.2819 Y-0.0392 Z-0.0003
N115 X-5.2785 Y-0.0402 Z-0.0004
N120 X-5.2687 Y-0.0436 Z-0.0008
N125 X-5.2589 Y-0.0476 Z-0.0011
N130 X-5.256 Y-0.049 Z-0.0012
N135 X-5.2491 Y-0.0523 Z-0.0015
N140 X-5.2393 Y-0.0577 Z-0.0019
N145 X-5.2376 Y-0.0588 Z-0.002
N150 X-5.2295 Y-0.064 Z-0.0023
N155 X-5.2231 Y-0.0686 Z-0.0026
N160 X-5.2198 Y-0.0711 Z-0.0027
N165 X-5.211 Y-0.0783 Z-0.0031
N170 X-5.21 Y-0.0793 Z-0.0032
N175 X-5.2007 Y-0.0881 Z-0.0036
N180 X-5.2002 Y-0.0887 Z-0.0037
N185 X-5.1918 Y-0.0979 Z-0.0041
N190 X-5.1904 Y-0.0997 Z-0.0042
N195 X-5.1841 Y-0.1077 Z-0.0045
N200 X-5.1806 Y-0.1126 Z-0.0047
N205 X-5.1773 Y-0.1175 Z-0.0049
N210 X-5.1714 Y-0.1273 Z-0.0053
N215 X-5.1708 Y-0.1285 Z-0.0054
N220 X-5.1663 Y-0.1371 Z-0.0057
N225 X-5.164 Y-0.1415 Z-0.0059
N230 X-5.1626 Y-0.1437 Z-0.006
N235 X-5.1618 Y-0.1448
N240 X-5.161 Y-0.1459 Z-0.0061
N245 X-5.1601 Y-0.1469
N250 X-5.1579 Y-0.1492 Z-0.0062
N255 X-5.1556 Y-0.151 Z-0.0063
N260 X-5.1545 Y-0.1518 Z-0.0064
N265 X-5.1534 Y-0.1526
N270 X-5.1512 Y-0.1538 Z-0.0065
N275 X-5.1471 Y-0.1556 Z-0.0067
N280 X-5.1451 Y-0.1562 Z-0.0068
N285 X-5.1431 Y-0.1567
N290 X-5.1414 Y-0.157 Z-0.0069
N295 X-5.1365 Y-0.1574 Z-0.0071
N300 X-5.1316 Y-0.1575 Z-0.0072
N305 X-3.496 Z-0.0643
N310 X-3.4862 Y-0.1574 Z-0.0647
N315 X-3.4819 Y-0.1573 Z-0.0648
N320 X-3.4797 Y-0.1571 Z-0.0649
N325 X-3.4776 Y-0.1567 Z-0.065
N330 X-3.4764 Y-0.1564
N335 X-3.474 Y-0.1557 Z-0.0651
N340 X-3.4715 Y-0.1548 Z-0.0652
N345 X-3.4691 Y-0.1536 Z-0.0653
N350 X-3.4678 Y-0.1529 Z-0.0654
N355 X-3.4666 Y-0.1522
N360 X-3.4636 Y-0.1499 Z-0.0655
N365 X-3.4621 Y-0.1485 Z-0.0656
N370 X-3.4605 Y-0.1469 Z-0.0657
N375 X-3.4585 Y-0.1443 Z-0.0658
N380 X-3.4568 Y-0.1417 Z-0.0659
N385 X-3.4556 Y-0.1394 Z-0.066
N390 X-3.4546 Y-0.1371 Z-0.0661
N395 X-3.4538 Y-0.1347 Z-0.0662
N400 X-3.4533 Y-0.1322 Z-0.0663
N405 X-3.4529 Y-0.1298 Z-0.0664
N410 X-3.4527 Y-0.1273
N415 X-3.4525 Y-0.1175 Z-0.0668
N420 Y0.1175 Z-0.075
N425 X-3.4527 Y0.1273 Z-0.0753
N430 X-3.4529 Y0.1298 Z-0.0754
N435 X-3.4533 Y0.1322 Z-0.0755
N440 X-3.4538 Y0.1347 Z-0.0756
N445 X-3.4546 Y0.1371 Z-0.0757
N450 X-3.4556 Y0.1394 Z-0.0758
N455 X-3.4568 Y0.1417 Z-0.0759
N460 X-3.4585 Y0.1443 Z-0.076
N465 X-3.4605 Y0.1469 Z-0.0761
N470 X-3.4621 Y0.1485 Z-0.0762
N475 X-3.4636 Y0.1499
N480 X-3.4666 Y0.1522 Z-0.0764
N485 X-3.4678 Y0.1529
N490 X-3.4691 Y0.1536 Z-0.0765
N495 X-3.4715 Y0.1548 Z-0.0766
N500 X-3.474 Y0.1557 Z-0.0767
N505 X-3.4764 Y0.1564
N510 X-3.4776 Y0.1567 Z-0.0768
N515 X-3.4797 Y0.1571 Z-0.0769
N520 X-3.4819 Y0.1573
N525 X-3.4862 Y0.1574 Z-0.0771
N530 X-3.496 Y0.1575 Z-0.0774
N535 X-5.1414 Z-0.1349
N540 X-5.1512 Z-0.1352
N545 X-5.156 Y0.1573 Z-0.1354
N550 X-5.1584 Y0.1571 Z-0.1355
N555 X-5.1608 Y0.1567 Z-0.1356
N560 X-5.161
N565 X-5.1634 Y0.156 Z-0.1357
N570 X-5.1659 Y0.1552
N575 X-5.1683 Y0.1541 Z-0.1358
N580 X-5.1708 Y0.1528 Z-0.1359
N585 X-5.1725 Y0.1516 Z-0.136
N590 X-5.1743 Y0.1503 Z-0.1361
N595 X-5.1761 Y0.1487 Z-0.1362
N600 X-5.1778 Y0.1469 Z-0.1363
N605 X-5.1806 Y0.1434 Z-0.1364
N610 X-5.1853 Y0.1371 Z-0.1367
N615 X-5.1904 Y0.1307 Z-0.137
N620 X-5.1932 Y0.1273 Z-0.1371
N625 X-5.2002 Y0.1197 Z-0.1375
N630 X-5.2023 Y0.1175 Z-0.1376
N635 X-5.21 Y0.1103 Z-0.138
N640 X-5.2129 Y0.1077 Z-0.1381
N645 X-5.2198 Y0.1021 Z-0.1384
N650 X-5.2253 Y0.0979 Z-0.1387
N655 X-5.2295 Y0.095 Z-0.1388
N660 X-5.2393 Y0.0887 Z-0.1392
N665 X-5.2404 Y0.0881 Z-0.1393
N670 X-5.2491 Y0.0833 Z-0.1396
N675 X-5.2589 Y0.0786 Z-0.14
N680 X-5.2596 Y0.0783
N685 X-5.2687 Y0.0746 Z-0.1404
N690 X-5.2785 Y0.0712 Z-0.1407
N695 X-5.2877 Y0.0686 Z-0.1411
N700 X-5.2883 Y0.0684
N705 X-5.2981 Y0.0662 Z-0.1414
N710 X-5.3079 Y0.0645 Z-0.1418
N715 X-5.3177 Y0.0633 Z-0.1421
N720 X-5.3275 Y0.0627 Z-0.1425
N725 X-5.3373 Y0.0625 Z-0.1428
N730 X-6.0816 Z-0.1688
N735 X-6.0851 Z-0.1689
N740 X-6.0882 Y0.0623 Z-0.169
N745 X-6.0883 Y0.0622 Z-0.1691
N750 X-6.0885 Y0.0588 Z-0.1692
N755 Y0.049 Z-0.1695
N760 Y-0.049 Z-0.1729
N765 Y-0.0588 Z-0.1733
N770 X-6.0883 Y-0.0622 Z-0.1734
N775 X-6.0882 Y-0.0623
N780 X-6.0851 Y-0.0625 Z-0.1735
N785 X-6.0816 Z-0.1736
N790 X-6.0523 Z-0.1747
N795 X-6.0474 Y-0.0624 Z-0.1748
N800 X-6.0449 Y-0.0623 Z-0.1749
N805 X-6.0437 Y-0.0621 Z-0.175
N810 X-6.0425 Y-0.062
N815 X-6.04 Y-0.0615 Z-0.1751
N820 X-6.0376 Y-0.0608 Z-0.1752
N825 X-6.0352 Y-0.0599 Z-0.1753
N830 X-6.0328 Y-0.0588 Z-0.1754
N835 X-6.0229 Y-0.0534 Z-0.1758
N840 X-6.014 Y-0.049 Z-0.1761
N845 X-6.0131 Y-0.0485
N850 X-6.0033 Y-0.0444 Z-0.1765
N855 X-5.9935 Y-0.0409 Z-0.1769
N860 X-5.9881 Y-0.0392 Z-0.1771
N865 X-5.9837 Y-0.0379 Z-0.1772
N870 X-5.9739 Y-0.0356 Z-0.1776
N875 X-5.9641 Y-0.0338 Z-0.1779
N880 X-5.9543 Y-0.0325 Z-0.1783
N885 X-5.9445 Y-0.0317 Z-0.1786
N890 X-5.9347 Y-0.0315 Z-0.179
N895 X-5.3373 Z-0.1998
N900 X-5.3275 Y-0.0317 Z-0.2002
N905 X-5.3177 Y-0.0323 Z-0.2005
N910 X-5.3079 Y-0.0335 Z-0.2009
N915 X-5.2981 Y-0.0352 Z-0.2012
N920 X-5.2883 Y-0.0374 Z-0.2016
N925 X-5.2819 Y-0.0392 Z-0.2018
N930 X-5.2785 Y-0.0402 Z-0.2019
N935 X-5.2687 Y-0.0436 Z-0.2023
N940 X-5.2589 Y-0.0476 Z-0.2026
N945 X-5.256 Y-0.049 Z-0.2028
N950 X-5.2491 Y-0.0523 Z-0.203
N955 X-5.2393 Y-0.0577 Z-0.2034
N960 X-5.2376 Y-0.0588 Z-0.2035
N965 X-5.2295 Y-0.064 Z-0.2038
N970 X-5.2231 Y-0.0686 Z-0.2041
N975 X-5.2198 Y-0.0711 Z-0.2042
N980 X-5.211 Y-0.0783 Z-0.2046
N985 X-5.21 Y-0.0793 Z-0.2047
N990 X-5.2007 Y-0.0881 Z-0.2051
N995 X-5.2002 Y-0.0887 Z-0.2052
N1000 X-5.1918 Y-0.0979 Z-0.2056
N1005 X-5.1904 Y-0.0997 Z-0.2057
N1010 X-5.1841 Y-0.1077 Z-0.206
N1015 X-5.1806 Y-0.1126 Z-0.2062
N1020 X-5.1773 Y-0.1175 Z-0.2064
N1025 X-5.1714 Y-0.1273 Z-0.2068
N1030 X-5.1708 Y-0.1285 Z-0.2069
N1035 X-5.1663 Y-0.1371 Z-0.2072
N1040 X-5.164 Y-0.1415 Z-0.2074
N1045 X-5.1626 Y-0.1437 Z-0.2075
N1050 X-5.1618 Y-0.1448
N1055 X-5.161 Y-0.1459 Z-0.2076
N1060 X-5.1601 Y-0.1469
N1065 X-5.1579 Y-0.1492 Z-0.2077
N1070 X-5.1556 Y-0.151 Z-0.2078
N1075 X-5.1545 Y-0.1518 Z-0.2079
N1080 X-5.1534 Y-0.1526
N1085 X-5.1512 Y-0.1538 Z-0.208
N1090 X-5.1471 Y-0.1556 Z-0.2082
N1095 X-5.1451 Y-0.1562 Z-0.2083
N1100 X-5.1431 Y-0.1567
N1105 X-5.1414 Y-0.157 Z-0.2084
N1110 X-5.1365 Y-0.1574 Z-0.2086
N1115 X-5.1316 Y-0.1575 Z-0.2087
N1120 X-3.496 Z-0.2659
N1125 X-3.4862 Y-0.1574 Z-0.2662
N1130 X-3.4819 Y-0.1573 Z-0.2663
N1135 X-3.4797 Y-0.1571 Z-0.2664
N1140 X-3.4776 Y-0.1567 Z-0.2665
N1145 X-3.4764 Y-0.1564
N1150 X-3.474 Y-0.1557 Z-0.2666
N1155 X-3.4715 Y-0.1548 Z-0.2667
N1160 X-3.4691 Y-0.1536 Z-0.2668
N1165 X-3.4678 Y-0.1529 Z-0.2669
N1170 X-3.4666 Y-0.1522
N1175 X-3.4636 Y-0.1499 Z-0.267
N1180 X-3.4621 Y-0.1485 Z-0.2671
N1185 X-3.4605 Y-0.1469 Z-0.2672
N1190 X-3.4585 Y-0.1443 Z-0.2673
N1195 X-3.4568 Y-0.1417 Z-0.2674
N1200 X-3.4556 Y-0.1394 Z-0.2675
N1205 X-3.4546 Y-0.1371 Z-0.2676
N1210 X-3.4538 Y-0.1347 Z-0.2677
N1215 X-3.4533 Y-0.1322 Z-0.2678
N1220 X-3.4529 Y-0.1298 Z-0.2679
N1225 X-3.4527 Y-0.1273
N1230 X-3.4525 Y-0.1175 Z-0.2683
N1235 Y0.1175 Z-0.2765
N1240 X-3.4527 Y0.1273 Z-0.2768
N1245 X-3.4529 Y0.1298 Z-0.2769
N1250 X-3.4533 Y0.1322 Z-0.277
N1255 X-3.4538 Y0.1347 Z-0.2771
N1260 X-3.4546 Y0.1371 Z-0.2772
N1265 X-3.4556 Y0.1394 Z-0.2773
N1270 X-3.4568 Y0.1417 Z-0.2774
N1275 X-3.4585 Y0.1443 Z-0.2775
N1280 X-3.4605 Y0.1469 Z-0.2776
N1285 X-3.4621 Y0.1485 Z-0.2777
N1290 X-3.4636 Y0.1499
N1295 X-3.4666 Y0.1522 Z-0.2779
N1300 X-3.4678 Y0.1529
N1305 X-3.4691 Y0.1536 Z-0.278
N1310 X-3.4715 Y0.1548 Z-0.2781
N1315 X-3.474 Y0.1557 Z-0.2782
N1320 X-3.4764 Y0.1564
N1325 X-3.4776 Y0.1567 Z-0.2783
N1330 X-3.4797 Y0.1571 Z-0.2784
N1335 X-3.4819 Y0.1573
N1340 X-3.4862 Y0.1574 Z-0.2786
N1345 X-3.496 Y0.1575 Z-0.2789
N1350 X-5.1414 Z-0.3364
N1355 X-5.1512 Z-0.3367
N1360 X-5.156 Y0.1573 Z-0.3369
N1365 X-5.1584 Y0.1571 Z-0.337
N1370 X-5.1608 Y0.1567 Z-0.3371
N1375 X-5.161
N1380 X-5.1634 Y0.156 Z-0.3372
N1385 X-5.1659 Y0.1552 Z-0.3373
N1390 X-5.1683 Y0.1541
N1395 X-5.1708 Y0.1528 Z-0.3374
N1400 X-5.1725 Y0.1516 Z-0.3375
N1405 X-5.1743 Y0.1503 Z-0.3376
N1410 X-5.1761 Y0.1487 Z-0.3377
N1415 X-5.1778 Y0.1469 Z-0.3378
N1420 X-5.1806 Y0.1434 Z-0.3379
N1425 X-5.1853 Y0.1371 Z-0.3382
N1430 X-5.1904 Y0.1307 Z-0.3385
N1435 X-5.1932 Y0.1273 Z-0.3386
N1440 X-5.2002 Y0.1197 Z-0.339
N1445 X-5.2023 Y0.1175 Z-0.3391
N1450 X-5.21 Y0.1103 Z-0.3395
N1455 X-5.2129 Y0.1077 Z-0.3396
N1460 X-5.2198 Y0.1021 Z-0.3399
N1465 X-5.2253 Y0.0979 Z-0.3402
N1470 X-5.2295 Y0.095 Z-0.3403
N1475 X-5.2393 Y0.0887 Z-0.3407
N1480 X-5.2404 Y0.0881 Z-0.3408
N1485 X-5.2491 Y0.0833 Z-0.3411
N1490 X-5.2589 Y0.0786 Z-0.3415
N1495 X-5.2596 Y0.0783
N1500 X-5.2687 Y0.0746 Z-0.3419
N1505 X-5.2785 Y0.0712 Z-0.3422
N1510 X-5.2877 Y0.0686 Z-0.3426
N1515 X-5.2883 Y0.0684
N1520 X-5.2981 Y0.0662 Z-0.343
N1525 X-5.3079 Y0.0645 Z-0.3433
N1530 X-5.3177 Y0.0633 Z-0.3436
N1535 X-5.3275 Y0.0627 Z-0.344
N1540 X-5.3373 Y0.0625 Z-0.3443
N1545 X-6.0816 Z-0.3703
N1550 X-6.0851 Z-0.3704
N1555 X-6.0882 Y0.0623 Z-0.3706
N1560 X-6.0883 Y0.0622
N1565 X-6.0885 Y0.0588 Z-0.3707
N1570 Y0.049 Z-0.371
N1575 Y-0.049 Z-0.3744
N1580 Y-0.0588 Z-0.3748
N1585 X-6.0883 Y-0.0622 Z-0.3749
N1590 X-6.0882 Y-0.0623
N1595 X-6.0864 Y-0.0624 Z-0.375
N1600 X-6.0851 Y-0.0625
N1605 X-6.0816
N1610 X-6.0523
N1615 X-6.0474 Y-0.0624
N1620 X-6.0449 Y-0.0623
N1625 X-6.0437 Y-0.0621
N1630 X-6.0425 Y-0.062
N1635 X-6.04 Y-0.0615
N1640 X-6.0376 Y-0.0608
N1645 X-6.0352 Y-0.0599
N1650 X-6.0328 Y-0.0588
N1655 X-6.0229 Y-0.0534
N1660 X-6.014 Y-0.049
N1665 X-6.0131 Y-0.0485
N1670 X-6.0033 Y-0.0444
N1675 X-5.9935 Y-0.0409
N1680 X-5.9881 Y-0.0392
N1685 X-5.9837 Y-0.0379
N1690 X-5.9739 Y-0.0356
N1695 X-5.9641 Y-0.0338
N1700 X-5.9543 Y-0.0325
N1705 X-5.9445 Y-0.0317
N1710 X-5.9347 Y-0.0315
N1715 X-5.3373
N1720 X-5.3275 Y-0.0317
N1725 X-5.3177 Y-0.0323
N1730 X-5.3079 Y-0.0335
N1735 X-5.2981 Y-0.0352
N1740 X-5.2883 Y-0.0374
N1745 X-5.2819 Y-0.0392
N1750 X-5.2785 Y-0.0402
N1755 X-5.2687 Y-0.0436
N1760 X-5.2589 Y-0.0476
N1765 X-5.256 Y-0.049
N1770 X-5.2491 Y-0.0523
N1775 X-5.2393 Y-0.0577
N1780 X-5.2376 Y-0.0588
N1785 X-5.2295 Y-0.064
N1790 X-5.2231 Y-0.0686
N1795 X-5.2198 Y-0.0711
N1800 X-5.211 Y-0.0783
N1805 X-5.21 Y-0.0793
N1810 X-5.2007 Y-0.0881
N1815 X-5.2002 Y-0.0887
N1820 X-5.1918 Y-0.0979
N1825 X-5.1904 Y-0.0997
N1830 X-5.1841 Y-0.1077
N1835 X-5.1806 Y-0.1126
N1840 X-5.1773 Y-0.1175
N1845 X-5.1714 Y-0.1273
N1850 X-5.1708 Y-0.1285
N1855 X-5.1663 Y-0.1371
N1860 X-5.164 Y-0.1415
N1865 X-5.1626 Y-0.1437
N1870 X-5.1618 Y-0.1448
N1875 X-5.161 Y-0.1459
N1880 X-5.1601 Y-0.1469
N1885 X-5.1579 Y-0.1492
N1890 X-5.1556 Y-0.151
N1895 X-5.1545 Y-0.1518
N1900 X-5.1534 Y-0.1526
N1905 X-5.1512 Y-0.1538
N1910 X-5.1471 Y-0.1556
N1915 X-5.1451 Y-0.1562
N1920 X-5.1431 Y-0.1567
N1925 X-5.1414 Y-0.157
N1930 X-5.1365 Y-0.1574
N1935 X-5.1316 Y-0.1575
N1940 X-3.496
N1945 X-3.4862 Y-0.1574
N1950 X-3.4819 Y-0.1573
N1955 X-3.4797 Y-0.1571
N1960 X-3.4776 Y-0.1567
N1965 X-3.4764 Y-0.1564
N1970 X-3.474 Y-0.1557
N1975 X-3.4715 Y-0.1548
N1980 X-3.4691 Y-0.1536
N1985 X-3.4678 Y-0.1529
N1990 X-3.4666 Y-0.1522
N1995 X-3.4636 Y-0.1499
N2000 X-3.4621 Y-0.1485
N2005 X-3.4605 Y-0.1469
N2010 X-3.4585 Y-0.1443
N2015 X-3.4568 Y-0.1417
N2020 X-3.4556 Y-0.1394
N2025 X-3.4546 Y-0.1371
N2030 X-3.4538 Y-0.1347
N2035 X-3.4533 Y-0.1322
N2040 X-3.4529 Y-0.1298
N2045 X-3.4527 Y-0.1273
N2050 X-3.4525 Y-0.1175
N2055 Y0.1175
N2060 X-3.4527 Y0.1273
N2065 X-3.4529 Y0.1298
N2070 X-3.4533 Y0.1322
N2075 X-3.4538 Y0.1347
N2080 X-3.4546 Y0.1371
N2085 X-3.4556 Y0.1394
N2090 X-3.4568 Y0.1417
N2095 X-3.4585 Y0.1443
N2100 X-3.4605 Y0.1469
N2105 X-3.4621 Y0.1485
N2110 X-3.4636 Y0.1499
N2115 X-3.4666 Y0.1522
N2120 X-3.4678 Y0.1529
N2125 X-3.4691 Y0.1536
N2130 X-3.4715 Y0.1548
N2135 X-3.474 Y0.1557
N2140 X-3.4764 Y0.1564
N2145 X-3.4776 Y0.1567
N2150 X-3.4797 Y0.1571
N2155 X-3.4819 Y0.1573
N2160 X-3.4862 Y0.1574
N2165 X-3.496 Y0.1575
N2170 X-5.1414
N2175 X-5.1512
N2180 X-5.156 Y0.1573
N2185 X-5.1584 Y0.1571
N2190 X-5.1608 Y0.1567
N2195 X-5.161
N2200 X-5.1634 Y0.156
N2205 X-5.1659 Y0.1552
N2210 X-5.1683 Y0.1541
N2215 X-5.1708 Y0.1528
N2220 X-5.1725 Y0.1516
N2225 X-5.1743 Y0.1503
N2230 X-5.1761 Y0.1487
N2235 X-5.1778 Y0.1469
N2240 X-5.1806 Y0.1434
N2245 X-5.1853 Y0.1371
N2250 X-5.1904 Y0.1307
N2255 X-5.1932 Y0.1273
N2260 X-5.2002 Y0.1197
N2265 X-5.2023 Y0.1175
N2270 X-5.21 Y0.1103
N2275 X-5.2129 Y0.1077
N2280 X-5.2198 Y0.1021
N2285 X-5.2253 Y0.0979
N2290 X-5.2295 Y0.095
N2295 X-5.2393 Y0.0887
N2300 X-5.2404 Y0.0881
N2305 X-5.2491 Y0.0833
N2310 X-5.2589 Y0.0786
N2315 X-5.2596 Y0.0783
N2320 X-5.2687 Y0.0746
N2325 X-5.2785 Y0.0712
N2330 X-5.2877 Y0.0686
N2335 X-5.2883 Y0.0684
N2340 X-5.2981 Y0.0662
N2345 X-5.3079 Y0.0645
N2350 X-5.3177 Y0.0633
N2355 X-5.3275 Y0.0627
N2360 X-5.3373 Y0.0625
N2365 X-6.0816
N2370 X-6.0851
N2375 X-6.0882 Y0.0623
N2380 X-6.0883 Y0.0622
N2385 X-6.0885 Y0.0588
N2390 Y0.049
N2395 Y-0.049
N2400 Y-0.0588
N2405 X-6.0883 Y-0.0622
N2410 X-6.0882 Y-0.0623
N2415 X-6.0851 Y-0.0625
N2420 X-6.0816
N2425 X-6.0523
N2430 X-6.0474 Y-0.0624
N2435 X-6.0449 Y-0.0623
N2440 X-6.0437 Y-0.0621
N2445 X-6.0425 Y-0.062
N2450 X-6.04 Y-0.0615
N2455 X-6.0376 Y-0.0608
N2460 X-6.0352 Y-0.0599
N2465 X-6.0328 Y-0.0588
N2470 X-6.0229 Y-0.0534
N2475 X-6.014 Y-0.049
N2480 X-6.0131 Y-0.0485
N2485 X-6.0033 Y-0.0444
N2490 X-5.9935 Y-0.0409
N2495 X-5.9881 Y-0.0392
N2500 X-5.9837 Y-0.0379
N2505 X-5.9739 Y-0.0356
N2510 X-5.9641 Y-0.0338
N2515 X-5.9543 Y-0.0325
N2520 X-5.9445 Y-0.0317
N2525 X-5.9347 Y-0.0315
N2530 X-5.3373
N2535 X-5.3275 Y-0.0317
N2540 X-5.3177 Y-0.0323
N2545 X-5.3079 Y-0.0335
N2550 X-5.2981 Y-0.0352
N2555 X-5.2883 Y-0.0374
N2560 X-5.2819 Y-0.0392
N2565 X-5.2785 Y-0.0402
N2570 X-5.2687 Y-0.0436
N2575 X-5.2589 Y-0.0476
N2580 X-5.256 Y-0.049
N2585 X-5.2491 Y-0.0523
N2590 X-5.2393 Y-0.0577
N2595 X-5.2376 Y-0.0588
N2600 X-5.2295 Y-0.064
N2605 X-5.2231 Y-0.0686
N2610 X-5.2198 Y-0.0711
N2615 X-5.211 Y-0.0783
N2620 X-5.21 Y-0.0793
N2625 X-5.2007 Y-0.0881
N2630 X-5.2002 Y-0.0887
N2635 X-5.1918 Y-0.0979
N2640 X-5.1904 Y-0.0997
N2645 X-5.1841 Y-0.1077
N2650 X-5.1806 Y-0.1126
N2655 X-5.1773 Y-0.1175
N2660 X-5.1714 Y-0.1273
N2665 X-5.1708 Y-0.1285
N2670 X-5.1663 Y-0.1371
N2675 X-5.164 Y-0.1415
N2680 X-5.1626 Y-0.1437
N2685 X-5.1618 Y-0.1448
N2690 X-5.161 Y-0.1459
N2695 X-5.1601 Y-0.1469
N2700 X-5.1579 Y-0.1492
N2705 X-5.1556 Y-0.151
N2710 X-5.1545 Y-0.1518
N2715 X-5.1534 Y-0.1526
N2720 X-5.1512 Y-0.1538
N2725 X-5.1471 Y-0.1556
N2730 X-5.1451 Y-0.1562
N2735 X-5.1431 Y-0.1567
N2740 X-5.1414 Y-0.157
N2745 X-5.1365 Y-0.1574
N2750 X-5.1316 Y-0.1575
N2755 X-3.496
N2760 X-3.4862 Y-0.1574
N2765 X-3.4819 Y-0.1573
N2770 X-3.4797 Y-0.1571
N2775 X-3.4776 Y-0.1567
N2780 X-3.4764 Y-0.1564
N2785 X-3.474 Y-0.1557
N2790 X-3.4715 Y-0.1548
N2795 X-3.4691 Y-0.1536
N2800 X-3.4678 Y-0.1529
N2805 X-3.4666 Y-0.1522
N2810 X-3.4636 Y-0.1499
N2815 X-3.4621 Y-0.1485
N2820 X-3.4605 Y-0.1469
N2825 X-3.4585 Y-0.1443
N2830 X-3.4568 Y-0.1417
N2835 X-3.4556 Y-0.1394
N2840 X-3.4546 Y-0.1371
N2845 X-3.4538 Y-0.1347
N2850 X-3.4533 Y-0.1322
N2855 X-3.4529 Y-0.1298
N2860 X-3.4527 Y-0.1273
N2865 X-3.4525 Y-0.1175
N2870 Y0.1175
N2875 X-3.4527 Y0.1273
N2880 X-3.4529 Y0.1298
N2885 X-3.4533 Y0.1322
N2890 X-3.4538 Y0.1347
N2895 X-3.4546 Y0.1371
N2900 X-3.4556 Y0.1394
N2905 X-3.4568 Y0.1417
N2910 X-3.4585 Y0.1443
N2915 X-3.4605 Y0.1469
N2920 X-3.4621 Y0.1485
N2925 X-3.4636 Y0.1499
N2930 X-3.4666 Y0.1522
N2935 X-3.4678 Y0.1529
N2940 X-3.4691 Y0.1536
N2945 X-3.4715 Y0.1548
N2950 X-3.474 Y0.1557
N2955 X-3.4764 Y0.1564
N2960 X-3.4776 Y0.1567
N2965 X-3.4797 Y0.1571
N2970 X-3.4819 Y0.1573
N2975 X-3.4862 Y0.1574
N2980 X-3.496 Y0.1575
N2985 X-5.1414
N2990 X-5.1512
N2995 X-5.156 Y0.1573
N3000 X-5.1584 Y0.1571
N3005 X-5.1608 Y0.1567
N3010 X-5.161
N3015 X-5.1634 Y0.156
N3020 X-5.1659 Y0.1552
N3025 X-5.1683 Y0.1541
N3030 X-5.1708 Y0.1528
N3035 X-5.1725 Y0.1516
N3040 X-5.1743 Y0.1503
N3045 X-5.1761 Y0.1487
N3050 X-5.1778 Y0.1469
N3055 X-5.1806 Y0.1434
N3060 X-5.1853 Y0.1371
N3065 X-5.1904 Y0.1307
N3070 X-5.1932 Y0.1273
N3075 X-5.2002 Y0.1197
N3080 X-5.2023 Y0.1175
N3085 X-5.21 Y0.1103
N3090 X-5.2129 Y0.1077
N3095 X-5.2198 Y0.1021
N3100 X-5.2253 Y0.0979
N3105 X-5.2295 Y0.095
N3110 X-5.2393 Y0.0887
N3115 X-5.2404 Y0.0881
N3120 X-5.2491 Y0.0833
N3125 X-5.2589 Y0.0786
N3130 X-5.2596 Y0.0783
N3135 X-5.2687 Y0.0746
N3140 X-5.2785 Y0.0712
N3145 X-5.2877 Y0.0686
N3150 X-5.2883 Y0.0684
N3155 X-5.2981 Y0.0662
N3160 X-5.3079 Y0.0645
N3165 X-5.3177 Y0.0633
N3170 X-5.3275 Y0.0627
N3175 X-5.3373 Y0.0625
N3180 X-6.0816
N3185 X-6.0851
N3190 X-6.0882 Y0.0623
N3195 X-6.0883 Y0.0622
N3200 X-6.0885 Y0.0588
N3205 Y0.049
N3210 Y-0.049
N3215 Y-0.0588
N3220 X-6.0883 Y-0.0622
N3225 X-6.0882 Y-0.0623
N3230 X-6.0851 Y-0.0625
N3235 X-6.0838
N3240 X-6.0816 Z-0.3751
N3245 X-6.0523 Z-0.3761
N3250 X-6.0474 Y-0.0624 Z-0.3763
N3255 X-6.0449 Y-0.0623 Z-0.3764
N3260 X-6.0437 Y-0.0621
N3265 X-6.0425 Y-0.062 Z-0.3765
N3270 X-6.04 Y-0.0615 Z-0.3766
N3275 X-6.0376 Y-0.0608
N3280 X-6.0352 Y-0.0599 Z-0.3767
N3285 X-6.0328 Y-0.0588 Z-0.3768
N3290 X-6.0229 Y-0.0534 Z-0.3772
N3295 X-6.014 Y-0.049 Z-0.3776
N3300 X-6.0131 Y-0.0485
N3305 X-6.0033 Y-0.0444 Z-0.378
N3310 X-5.9935 Y-0.0409 Z-0.3783
N3315 X-5.9881 Y-0.0392 Z-0.3785
N3320 X-5.9837 Y-0.0379 Z-0.3787
N3325 X-5.9739 Y-0.0356 Z-0.379
N3330 X-5.9641 Y-0.0338 Z-0.3794
N3335 X-5.9543 Y-0.0325 Z-0.3797
N3340 X-5.9445 Y-0.0317 Z-0.3801
N3345 X-5.9347 Y-0.0315 Z-0.3804
N3350 X-5.3373 Z-0.4013
N3355 X-5.3275 Y-0.0317 Z-0.4016
N3360 X-5.3177 Y-0.0323 Z-0.402
N3365 X-5.3079 Y-0.0335 Z-0.4023
N3370 X-5.2981 Y-0.0352 Z-0.4027
N3375 X-5.2883 Y-0.0374 Z-0.403
N3380 X-5.2819 Y-0.0392 Z-0.4032
N3385 X-5.2785 Y-0.0402 Z-0.4034
N3390 X-5.2687 Y-0.0436 Z-0.4037
N3395 X-5.2589 Y-0.0476 Z-0.4041
N3400 X-5.256 Y-0.049 Z-0.4042
N3405 X-5.2491 Y-0.0523 Z-0.4045
N3410 X-5.2393 Y-0.0577 Z-0.4049
N3415 X-5.2376 Y-0.0588
N3420 X-5.2295 Y-0.064 Z-0.4053
N3425 X-5.2231 Y-0.0686 Z-0.4056
N3430 X-5.2198 Y-0.0711 Z-0.4057
N3435 X-5.211 Y-0.0783 Z-0.4061
N3440 X-5.21 Y-0.0793
N3445 X-5.2007 Y-0.0881 Z-0.4066
N3450 X-5.2002 Y-0.0887
N3455 X-5.1918 Y-0.0979 Z-0.4071
N3460 X-5.1904 Y-0.0997
N3465 X-5.1841 Y-0.1077 Z-0.4075
N3470 X-5.1806 Y-0.1126 Z-0.4077
N3475 X-5.1773 Y-0.1175 Z-0.4079
N3480 X-5.1714 Y-0.1273 Z-0.4083
N3485 X-5.1708 Y-0.1285
N3490 X-5.1663 Y-0.1371 Z-0.4087
N3495 X-5.164 Y-0.1415 Z-0.4089
N3500 X-5.1626 Y-0.1437 Z-0.409
N3505 X-5.1618 Y-0.1448
N3510 X-5.161 Y-0.1459
N3515 X-5.1601 Y-0.1469 Z-0.4091
N3520 X-5.1579 Y-0.1492 Z-0.4092
N3525 X-5.1556 Y-0.151 Z-0.4093
N3530 X-5.1545 Y-0.1518 Z-0.4094
N3535 X-5.1534 Y-0.1526
N3540 X-5.1512 Y-0.1538 Z-0.4095
N3545 X-5.1471 Y-0.1556 Z-0.4096
N3550 X-5.1451 Y-0.1562 Z-0.4097
N3555 X-5.1431 Y-0.1567 Z-0.4098
N3560 X-5.1414 Y-0.157 Z-0.4099
N3565 X-5.1365 Y-0.1574 Z-0.41
N3570 X-5.1316 Y-0.1575 Z-0.4102
N3575 X-3.496 Z-0.4673
N3580 X-3.4862 Y-0.1574 Z-0.4677
N3585 X-3.4819 Y-0.1573 Z-0.4678
N3590 X-3.4797 Y-0.1571 Z-0.4679
N3595 X-3.4776 Y-0.1567 Z-0.468
N3600 X-3.4764 Y-0.1564
N3605 X-3.474 Y-0.1557 Z-0.4681
N3610 X-3.4715 Y-0.1548 Z-0.4682
N3615 X-3.4691 Y-0.1536 Z-0.4683
N3620 X-3.4678 Y-0.1529
N3625 X-3.4666 Y-0.1522 Z-0.4684
N3630 X-3.4636 Y-0.1499 Z-0.4685
N3635 X-3.4621 Y-0.1485 Z-0.4686
N3640 X-3.4605 Y-0.1469 Z-0.4687
N3645 X-3.4585 Y-0.1443 Z-0.4688
N3650 X-3.4568 Y-0.1417 Z-0.4689
N3655 X-3.4556 Y-0.1394 Z-0.469
N3660 X-3.4546 Y-0.1371 Z-0.4691
N3665 X-3.4538 Y-0.1347
N3670 X-3.4533 Y-0.1322 Z-0.4692
N3675 X-3.4529 Y-0.1298 Z-0.4693
N3680 X-3.4527 Y-0.1273 Z-0.4694
N3685 X-3.4525 Y-0.1175 Z-0.4697
N3690 Y0.1175 Z-0.478
N3695 X-3.4527 Y0.1273 Z-0.4783
N3700 X-3.4529 Y0.1298 Z-0.4784
N3705 X-3.4533 Y0.1322 Z-0.4785
N3710 X-3.4538 Y0.1347 Z-0.4786
N3715 X-3.4546 Y0.1371
N3720 X-3.4556 Y0.1394 Z-0.4787
N3725 X-3.4568 Y0.1417 Z-0.4788
N3730 X-3.4585 Y0.1443 Z-0.4789
N3735 X-3.4605 Y0.1469 Z-0.479
N3740 X-3.4621 Y0.1485 Z-0.4791
N3745 X-3.4636 Y0.1499 Z-0.4792
N3750 X-3.4666 Y0.1522 Z-0.4793
N3755 X-3.4678 Y0.1529 Z-0.4794
N3760 X-3.4691 Y0.1536
N3765 X-3.4715 Y0.1548 Z-0.4795
N3770 X-3.474 Y0.1557 Z-0.4796
N3775 X-3.4764 Y0.1564 Z-0.4797
N3780 X-3.4776 Y0.1567
N3785 X-3.4797 Y0.1571 Z-0.4798
N3790 X-3.4819 Y0.1573 Z-0.4799
N3795 X-3.4862 Y0.1574 Z-0.48
N3800 X-3.496 Y0.1575 Z-0.4804
N3805 X-5.1414 Z-0.5379
N3810 X-5.1512 Z-0.5382
N3815 X-5.156 Y0.1573 Z-0.5384
N3820 X-5.1584 Y0.1571
N3825 X-5.1608 Y0.1567 Z-0.5385
N3830 X-5.161
N3835 X-5.1634 Y0.156 Z-0.5386
N3840 X-5.1659 Y0.1552 Z-0.5387
N3845 X-5.1683 Y0.1541 Z-0.5388
N3850 X-5.1708 Y0.1528 Z-0.5389
N3855 X-5.1725 Y0.1516 Z-0.539
N3860 X-5.1743 Y0.1503 Z-0.5391
N3865 X-5.1761 Y0.1487
N3870 X-5.1778 Y0.1469 Z-0.5392
N3875 X-5.1806 Y0.1434 Z-0.5394
N3880 X-5.1853 Y0.1371 Z-0.5397
N3885 X-5.1904 Y0.1307 Z-0.5399
N3890 X-5.1932 Y0.1273 Z-0.5401
N3895 X-5.2002 Y0.1197 Z-0.5405
N3900 X-5.2023 Y0.1175 Z-0.5406
N3905 X-5.21 Y0.1103 Z-0.5409
N3910 X-5.2129 Y0.1077 Z-0.5411
N3915 X-5.2198 Y0.1021 Z-0.5414
N3920 X-5.2253 Y0.0979 Z-0.5416
N3925 X-5.2295 Y0.095 Z-0.5418
N3930 X-5.2393 Y0.0887 Z-0.5422
N3935 X-5.2404 Y0.0881
N3940 X-5.2491 Y0.0833 Z-0.5426
N3945 X-5.2589 Y0.0786 Z-0.543
N3950 X-5.2596 Y0.0783
N3955 X-5.2687 Y0.0746 Z-0.5433
N3960 X-5.2785 Y0.0712 Z-0.5437
N3965 X-5.2877 Y0.0686 Z-0.544
N3970 X-5.2883 Y0.0684 Z-0.5441
N3975 X-5.2981 Y0.0662 Z-0.5444
N3980 X-5.3079 Y0.0645 Z-0.5448
N3985 X-5.3177 Y0.0633 Z-0.5451
N3990 X-5.3275 Y0.0627 Z-0.5454
N3995 X-5.3373 Y0.0625 Z-0.5458
N4000 X-6.0816 Z-0.5718
N4005 X-6.0851 Z-0.5719
N4010 X-6.0882 Y0.0623 Z-0.572
N4015 X-6.0883 Y0.0622
N4020 X-6.0885 Y0.0588 Z-0.5721
N4025 Y0.049 Z-0.5725
N4030 Y-0.049 Z-0.5759
N4035 Y-0.0588 Z-0.5762
N4040 X-6.0883 Y-0.0622 Z-0.5764
N4045 X-6.0882 Y-0.0623
N4050 X-6.0851 Y-0.0625 Z-0.5765
N4055 X-6.0816 Z-0.5766
N4060 X-6.0523 Z-0.5776
N4065 X-6.0474 Y-0.0624 Z-0.5778
N4070 X-6.0449 Y-0.0623 Z-0.5779
N4075 X-6.0437 Y-0.0621
N4080 X-6.0425 Y-0.062 Z-0.578
N4085 X-6.04 Y-0.0615 Z-0.5781
N4090 X-6.0376 Y-0.0608
N4095 X-6.0352 Y-0.0599 Z-0.5782
N4100 X-6.0328 Y-0.0588 Z-0.5783
N4105 X-6.0229 Y-0.0534 Z-0.5787
N4110 X-6.014 Y-0.049 Z-0.5791
N4115 X-6.0131 Y-0.0485
N4120 X-6.0033 Y-0.0444 Z-0.5795
N4125 X-5.9935 Y-0.0409 Z-0.5798
N4130 X-5.9881 Y-0.0392 Z-0.58
N4135 X-5.9837 Y-0.0379 Z-0.5802
N4140 X-5.9739 Y-0.0356 Z-0.5805
N4145 X-5.9641 Y-0.0338 Z-0.5809
N4150 X-5.9543 Y-0.0325 Z-0.5812
N4155 X-5.9445 Y-0.0317 Z-0.5816
N4160 X-5.9347 Y-0.0315 Z-0.5819
N4165 X-5.3373 Z-0.6028
N4170 X-5.3275 Y-0.0317 Z-0.6031
N4175 X-5.3177 Y-0.0323 Z-0.6035
N4180 X-5.3079 Y-0.0335 Z-0.6038
N4185 X-5.2981 Y-0.0352 Z-0.6042
N4190 X-5.2883 Y-0.0374 Z-0.6045
N4195 X-5.2819 Y-0.0392 Z-0.6047
N4200 X-5.2785 Y-0.0402 Z-0.6049
N4205 X-5.2687 Y-0.0436 Z-0.6052
N4210 X-5.2589 Y-0.0476 Z-0.6056
N4215 X-5.256 Y-0.049 Z-0.6057
N4220 X-5.2491 Y-0.0523 Z-0.606
N4225 X-5.2393 Y-0.0577 Z-0.6064
N4230 X-5.2376 Y-0.0588
N4235 X-5.2295 Y-0.064 Z-0.6068
N4240 X-5.2231 Y-0.0686 Z-0.6071
N4245 X-5.2198 Y-0.0711 Z-0.6072
N4250 X-5.211 Y-0.0783 Z-0.6076
N4255 X-5.21 Y-0.0793
N4260 X-5.2007 Y-0.0881 Z-0.6081
N4265 X-5.2002 Y-0.0887
N4270 X-5.1918 Y-0.0979 Z-0.6086
N4275 X-5.1904 Y-0.0997
N4280 X-5.1841 Y-0.1077 Z-0.609
N4285 X-5.1806 Y-0.1126 Z-0.6092
N4290 X-5.1773 Y-0.1175 Z-0.6094
N4295 X-5.1714 Y-0.1273 Z-0.6098
N4300 X-5.1708 Y-0.1285 Z-0.6099
N4305 X-5.1663 Y-0.1371 Z-0.6102
N4310 X-5.164 Y-0.1415 Z-0.6104
N4315 X-5.1626 Y-0.1437 Z-0.6105
N4320 X-5.1618 Y-0.1448
N4325 X-5.161 Y-0.1459 Z-0.6106
N4330 X-5.1601 Y-0.1469
N4335 X-5.1579 Y-0.1492 Z-0.6107
N4340 X-5.1556 Y-0.151 Z-0.6108
N4345 X-5.1545 Y-0.1518 Z-0.6109
N4350 X-5.1534 Y-0.1526
N4355 X-5.1512 Y-0.1538 Z-0.611
N4360 X-5.1471 Y-0.1556 Z-0.6112
N4365 X-5.1451 Y-0.1562
N4370 X-5.1431 Y-0.1567 Z-0.6113
N4375 X-5.1414 Y-0.157 Z-0.6114
N4380 X-5.1365 Y-0.1574 Z-0.6115
N4385 X-5.1316 Y-0.1575 Z-0.6117
N4390 X-4.6082 Z-0.63
N4395 G2 X-4.6069 I0.0013 K0.0375
N4400 G1 X-3.496
N4405 X-3.4862 Y-0.1574
N4410 X-3.4819 Y-0.1573
N4415 X-3.4797 Y-0.1571
N4420 X-3.4776 Y-0.1567
N4425 X-3.4764 Y-0.1564
N4430 X-3.474 Y-0.1557
N4435 X-3.4715 Y-0.1548
N4440 X-3.4691 Y-0.1536
N4445 X-3.4678 Y-0.1529
N4450 X-3.4666 Y-0.1522
N4455 X-3.4636 Y-0.1499
N4460 X-3.4621 Y-0.1485
N4465 X-3.4605 Y-0.1469
N4470 X-3.4585 Y-0.1443
N4475 X-3.4568 Y-0.1417
N4480 X-3.4556 Y-0.1394
N4485 X-3.4546 Y-0.1371
N4490 X-3.4538 Y-0.1347
N4495 X-3.4533 Y-0.1322
N4500 X-3.4529 Y-0.1298
N4505 X-3.4527 Y-0.1273
N4510 X-3.4525 Y-0.1175
N4515 Y0.1175
N4520 X-3.4527 Y0.1273
N4525 X-3.4529 Y0.1298
N4530 X-3.4533 Y0.1322
N4535 X-3.4538 Y0.1347
N4540 X-3.4546 Y0.1371
N4545 X-3.4556 Y0.1394
N4550 X-3.4568 Y0.1417
N4555 X-3.4585 Y0.1443
N4560 X-3.4605 Y0.1469
N4565 X-3.4621 Y0.1485
N4570 X-3.4636 Y0.1499
N4575 X-3.4666 Y0.1522
N4580 X-3.4678 Y0.1529
N4585 X-3.4691 Y0.1536
N4590 X-3.4715 Y0.1548
N4595 X-3.474 Y0.1557
N4600 X-3.4764 Y0.1564
N4605 X-3.4776 Y0.1567
N4610 X-3.4797 Y0.1571
N4615 X-3.4819 Y0.1573
N4620 X-3.4862 Y0.1574
N4625 X-3.496 Y0.1575
N4630 X-5.1414
N4635 X-5.1512
N4640 X-5.156 Y0.1573
N4645 X-5.1584 Y0.1571
N4650 X-5.1608 Y0.1567
N4655 X-5.161
N4660 X-5.1634 Y0.156
N4665 X-5.1659 Y0.1552
N4670 X-5.1683 Y0.1541
N4675 X-5.1708 Y0.1528
N4680 X-5.1725 Y0.1516
N4685 X-5.1743 Y0.1503
N4690 X-5.1761 Y0.1487
N4695 X-5.1778 Y0.1469
N4700 X-5.1806 Y0.1434
N4705 X-5.1853 Y0.1371
N4710 X-5.1904 Y0.1307
N4715 X-5.1932 Y0.1273
N4720 X-5.2002 Y0.1197
N4725 X-5.2023 Y0.1175
N4730 X-5.21 Y0.1103
N4735 X-5.2129 Y0.1077
N4740 X-5.2198 Y0.1021
N4745 X-5.2253 Y0.0979
N4750 X-5.2295 Y0.095
N4755 X-5.2393 Y0.0887
N4760 X-5.2404 Y0.0881
N4765 X-5.2491 Y0.0833
N4770 X-5.2589 Y0.0786
N4775 X-5.2596 Y0.0783
N4780 X-5.2687 Y0.0746
N4785 X-5.2785 Y0.0712
N4790 X-5.2877 Y0.0686
N4795 X-5.2883 Y0.0684
N4800 X-5.2981 Y0.0662
N4805 X-5.3079 Y0.0645
N4810 X-5.3177 Y0.0633
N4815 X-5.3275 Y0.0627
N4820 X-5.3373 Y0.0625
N4825 X-6.0816
N4830 X-6.0851
N4835 X-6.0882 Y0.0623
N4840 X-6.0883 Y0.0622
N4845 X-6.0885 Y0.0588
N4850 Y0.049
N4855 Y-0.049
N4860 Y-0.0588
N4865 X-6.0883 Y-0.0622
N4870 X-6.0882 Y-0.0623
N4875 X-6.0851 Y-0.0625
N4880 X-6.0816
N4885 X-6.0523
N4890 X-6.0474 Y-0.0624
N4895 X-6.0449 Y-0.0623
N4900 X-6.0437 Y-0.0621
N4905 X-6.0425 Y-0.062
N4910 X-6.04 Y-0.0615
N4915 X-6.0376 Y-0.0608
N4920 X-6.0352 Y-0.0599
N4925 X-6.0328 Y-0.0588
N4930 X-6.0229 Y-0.0534
N4935 X-6.014 Y-0.049
N4940 X-6.0131 Y-0.0485
N4945 X-6.0033 Y-0.0444
N4950 X-5.9935 Y-0.0409
N4955 X-5.9881 Y-0.0392
N4960 X-5.9837 Y-0.0379
N4965 X-5.9739 Y-0.0356
N4970 X-5.9641 Y-0.0338
N4975 X-5.9543 Y-0.0325
N4980 X-5.9445 Y-0.0317
N4985 X-5.9347 Y-0.0315
N4990 X-5.3373
N4995 X-5.3275 Y-0.0317
N5000 X-5.3177 Y-0.0323
N5005 X-5.3079 Y-0.0335
N5010 X-5.2981 Y-0.0352
N5015 X-5.2883 Y-0.0374
N5020 X-5.2819 Y-0.0392
N5025 X-5.2785 Y-0.0402
N5030 X-5.2687 Y-0.0436
N5035 X-5.2589 Y-0.0476
N5040 X-5.256 Y-0.049
N5045 X-5.2491 Y-0.0523
N5050 X-5.2393 Y-0.0577
N5055 X-5.2376 Y-0.0588
N5060 X-5.2295 Y-0.064
N5065 X-5.2231 Y-0.0686
N5070 X-5.2198 Y-0.0711
N5075 X-5.211 Y-0.0783
N5080 X-5.21 Y-0.0793
N5085 X-5.2007 Y-0.0881
N5090 X-5.2002 Y-0.0887
N5095 X-5.1918 Y-0.0979
N5100 X-5.1904 Y-0.0997
N5105 X-5.1841 Y-0.1077
N5110 X-5.1806 Y-0.1126
N5115 X-5.1773 Y-0.1175
N5120 X-5.1714 Y-0.1273
N5125 X-5.1708 Y-0.1285
N5130 X-5.1663 Y-0.1371
N5135 X-5.164 Y-0.1415
N5140 X-5.1626 Y-0.1437
N5145 X-5.1618 Y-0.1448
N5150 X-5.161 Y-0.1459
N5155 X-5.1601 Y-0.1469
N5160 X-5.1579 Y-0.1492
N5165 X-5.1556 Y-0.151
N5170 X-5.1545 Y-0.1518
N5175 X-5.1534 Y-0.1526
N5180 X-5.1512 Y-0.1538
N5185 X-5.1471 Y-0.1556
N5190 X-5.1451 Y-0.1562
N5195 X-5.1431 Y-0.1567
N5200 X-5.1414 Y-0.157
N5205 X-5.1365 Y-0.1574
N5210 X-5.1316 Y-0.1575
N5215 X-4.6069
N5220 X-3.496
N5225 X-3.4862 Y-0.1574
N5230 X-3.4819 Y-0.1573
N5235 X-3.4797 Y-0.1571
N5240 X-3.4776 Y-0.1567
N5245 X-3.4764 Y-0.1564
N5250 X-3.474 Y-0.1557
N5255 X-3.4715 Y-0.1548
N5260 X-3.4691 Y-0.1536
N5265 X-3.4678 Y-0.1529
N5270 X-3.4666 Y-0.1522
N5275 X-3.4636 Y-0.1499
N5280 X-3.4621 Y-0.1485
N5285 X-3.4605 Y-0.1469
N5290 X-3.4585 Y-0.1443
N5295 X-3.4568 Y-0.1417
N5300 X-3.4556 Y-0.1394
N5305 X-3.4546 Y-0.1371
N5310 X-3.4538 Y-0.1347
N5315 X-3.4533 Y-0.1322
N5320 X-3.4529 Y-0.1298
N5325 X-3.4527 Y-0.1273
N5330 X-3.4525 Y-0.1175
N5335 Y0.1175
N5340 X-3.4527 Y0.1273
N5345 X-3.4529 Y0.1298
N5350 X-3.4533 Y0.1322
N5355 X-3.4538 Y0.1347
N5360 X-3.4546 Y0.1371
N5365 X-3.4556 Y0.1394
N5370 X-3.4568 Y0.1417
N5375 X-3.4585 Y0.1443
N5380 X-3.4605 Y0.1469
N5385 X-3.4621 Y0.1485
N5390 X-3.4636 Y0.1499
N5395 X-3.4666 Y0.1522
N5400 X-3.4678 Y0.1529
N5405 X-3.4691 Y0.1536
N5410 X-3.4715 Y0.1548
N5415 X-3.474 Y0.1557
N5420 X-3.4764 Y0.1564
N5425 X-3.4776 Y0.1567
N5430 X-3.4797 Y0.1571
N5435 X-3.4819 Y0.1573
N5440 X-3.4862 Y0.1574
N5445 X-3.496 Y0.1575
N5450 X-5.1414
N5455 X-5.1512
N5460 X-5.156 Y0.1573
N5465 X-5.1584 Y0.1571
N5470 X-5.1608 Y0.1567
N5475 X-5.161
N5480 X-5.1634 Y0.156
N5485 X-5.1659 Y0.1552
N5490 X-5.1683 Y0.1541
N5495 X-5.1708 Y0.1528
N5500 X-5.1725 Y0.1516
N5505 X-5.1743 Y0.1503
N5510 X-5.1761 Y0.1487
N5515 X-5.1778 Y0.1469
N5520 X-5.1806 Y0.1434
N5525 X-5.1853 Y0.1371
N5530 X-5.1904 Y0.1307
N5535 X-5.1932 Y0.1273
N5540 X-5.2002 Y0.1197
N5545 X-5.2023 Y0.1175
N5550 X-5.21 Y0.1103
N5555 X-5.2129 Y0.1077
N5560 X-5.2198 Y0.1021
N5565 X-5.2253 Y0.0979
N5570 X-5.2295 Y0.095
N5575 X-5.2393 Y0.0887
N5580 X-5.2404 Y0.0881
N5585 X-5.2491 Y0.0833
N5590 X-5.2589 Y0.0786
N5595 X-5.2596 Y0.0783
N5600 X-5.2687 Y0.0746
N5605 X-5.2785 Y0.0712
N5610 X-5.2877 Y0.0686
N5615 X-5.2883 Y0.0684
N5620 X-5.2981 Y0.0662
N5625 X-5.3079 Y0.0645
N5630 X-5.3177 Y0.0633
N5635 X-5.3275 Y0.0627
N5640 X-5.3373 Y0.0625
N5645 X-6.0816
N5650 X-6.0851
N5655 X-6.0882 Y0.0623
N5660 X-6.0883 Y0.0622
N5665 X-6.0885 Y0.0588
N5670 Y0.049
N5675 Y-0.049
N5680 Y-0.0588
N5685 X-6.0883 Y-0.0622
N5690 X-6.0882 Y-0.0623
N5695 X-6.0851 Y-0.0625
N5700 X-6.0816
N5705 X-6.0523
N5710 X-6.0474 Y-0.0624
N5715 X-6.0449 Y-0.0623
N5720 X-6.0437 Y-0.0621
N5725 X-6.0425 Y-0.062
N5730 X-6.04 Y-0.0615
N5735 X-6.0376 Y-0.0608
N5740 X-6.0352 Y-0.0599
N5745 X-6.0328 Y-0.0588
N5750 X-6.0229 Y-0.0534
N5755 X-6.014 Y-0.049
N5760 X-6.0131 Y-0.0485
N5765 X-6.0033 Y-0.0444
N5770 X-5.9935 Y-0.0409
N5775 X-5.9881 Y-0.0392
N5780 X-5.9837 Y-0.0379
N5785 X-5.9739 Y-0.0356
N5790 X-5.9641 Y-0.0338
N5795 X-5.9543 Y-0.0325
N5800 X-5.9445 Y-0.0317
N5805 X-5.9347 Y-0.0315
N5810 X-5.3373
N5815 X-5.3275 Y-0.0317
N5820 X-5.3177 Y-0.0323
N5825 X-5.3079 Y-0.0335
N5830 X-5.2981 Y-0.0352
N5835 X-5.2883 Y-0.0374
N5840 X-5.2819 Y-0.0392
N5845 X-5.2785 Y-0.0402
N5850 X-5.2687 Y-0.0436
N5855 X-5.2589 Y-0.0476
N5860 X-5.256 Y-0.049
N5865 X-5.2491 Y-0.0523
N5870 X-5.2393 Y-0.0577
N5875 X-5.2376 Y-0.0588
N5880 X-5.2295 Y-0.064
N5885 X-5.2231 Y-0.0686
N5890 X-5.2198 Y-0.0711
N5895 X-5.211 Y-0.0783
N5900 X-5.21 Y-0.0793
N5905 X-5.2007 Y-0.0881
N5910 X-5.2002 Y-0.0887
N5915 X-5.1918 Y-0.0979
N5920 X-5.1904 Y-0.0997
N5925 X-5.1841 Y-0.1077
N5930 X-5.1806 Y-0.1126
N5935 X-5.1773 Y-0.1175
N5940 X-5.1714 Y-0.1273
N5945 X-5.1708 Y-0.1285
N5950 X-5.1663 Y-0.1371
N5955 X-5.164 Y-0.1415
N5960 X-5.1626 Y-0.1437
N5965 X-5.1618 Y-0.1448
N5970 X-5.161 Y-0.1459
N5975 X-5.1601 Y-0.1469
N5980 X-5.1579 Y-0.1492
N5985 X-5.1556 Y-0.151
N5990 X-5.1545 Y-0.1518
N5995 X-5.1534 Y-0.1526
N6000 X-5.1512 Y-0.1538
N6005 X-5.1471 Y-0.1556
N6010 X-5.1451 Y-0.1562
N6015 X-5.1431 Y-0.1567
N6020 X-5.1414 Y-0.157
N6025 X-5.1365 Y-0.1574
N6030 X-5.1316 Y-0.1575
N6035 X-4.6069
N6040 G17 G3 X-4.5694 Y-0.12 I0. J0.0375 F2.
N6045 X-4.5696 Y-0.1159 I-0.0375 J0. F10.
N6050 G1 X-4.5882 Y0.0507
N6055 G3 X-4.6547 Y0.1334 I-0.0982 J-0.0109
N6060 X-4.656 Y0.1338 I-0.0317 J-0.0936
N6065 X-4.7168 Y-0.0543 Z-0.6409 I-0.0304 J-0.094
N6070 X-4.656 Y0.1338 Z-0.6517 I0.0304 J0.094
N6075 X-4.7168 Y-0.0543 Z-0.6625 I-0.0304 J-0.094
N6080 X-4.656 Y0.1338 Z-0.6734 I0.0304 J0.094
N6085 X-4.7168 Y-0.0543 Z-0.6842 I-0.0304 J-0.094
N6090 X-4.656 Y0.1338 Z-0.6951 I0.0304 J0.094
N6095 X-4.7168 Y-0.0543 Z-0.7059 I-0.0304 J-0.094
N6100 X-4.656 Y0.1338 Z-0.7167 I0.0304 J0.094
N6105 X-4.7168 Y-0.0543 Z-0.7276 I-0.0304 J-0.094
N6110 X-4.656 Y0.1338 Z-0.7384 I0.0304 J0.094
N6115 X-4.7168 Y-0.0543 Z-0.7492 I-0.0304 J-0.094
N6120 X-4.656 Y0.1338 Z-0.7601 I0.0304 J0.094
N6125 X-4.7168 Y-0.0543 Z-0.7709 I-0.0304 J-0.094
N6130 X-4.656 Y0.1338 Z-0.7818 I0.0304 J0.094
N6135 X-4.7168 Y-0.0543 Z-0.7926 I-0.0304 J-0.094
N6140 X-4.656 Y0.1338 Z-0.8034 I0.0304 J0.094
N6145 X-4.7168 Y-0.0543 Z-0.8143 I-0.0304 J-0.094
N6150 X-4.656 Y0.1338 Z-0.8251 I0.0304 J0.094
N6155 X-4.7168 Y-0.0543 Z-0.836 I-0.0304 J-0.094
N6160 X-4.656 Y0.1338 Z-0.8468 I0.0304 J0.094
N6165 X-4.7168 Y-0.0543 Z-0.8576 I-0.0304 J-0.094
N6170 X-4.656 Y0.1338 Z-0.8685 I0.0304 J0.094
N6175 X-4.7168 Y-0.0543 Z-0.8793 I-0.0304 J-0.094
N6180 X-4.656 Y0.1338 Z-0.8901 I0.0304 J0.094
N6185 X-4.7168 Y-0.0543 Z-0.901 I-0.0304 J-0.094
N6190 X-4.656 Y0.1338 Z-0.9118 I0.0304 J0.094
N6195 X-4.7168 Y-0.0543 Z-0.9227 I-0.0304 J-0.094
N6200 X-4.656 Y0.1338 Z-0.9335 I0.0304 J0.094
N6205 X-4.7168 Y-0.0543 Z-0.9443 I-0.0304 J-0.094
N6210 X-4.656 Y0.1338 Z-0.9552 I0.0304 J0.094
N6215 X-4.7168 Y-0.0543 Z-0.966 I-0.0304 J-0.094
N6220 X-4.656 Y0.1338 Z-0.9768 I0.0304 J0.094
N6225 X-4.7168 Y-0.0543 Z-0.9877 I-0.0304 J-0.094
N6230 X-4.656 Y0.1338 Z-0.9985 I0.0304 J0.094
N6235 X-4.7852 Y0.0411 Z-1.005 I-0.0304 J-0.094
N6240 Y0.0398 I0.0988 J-0.0013
N6245 G1 Y0.0208 F2.
N6250 G3 X-4.6069 Y-0.1575 I0.1783 J0.
N6255 G1 X-3.496 F10.
N6260 X-3.4862 Y-0.1574
N6265 X-3.4819 Y-0.1573
N6270 X-3.4797 Y-0.1571
N6275 X-3.4776 Y-0.1567
N6280 X-3.4764 Y-0.1564
N6285 X-3.474 Y-0.1557
N6290 X-3.4715 Y-0.1548
N6295 X-3.4691 Y-0.1536
N6300 X-3.4678 Y-0.1529
N6305 X-3.4666 Y-0.1522
N6310 X-3.4636 Y-0.1499
N6315 X-3.4621 Y-0.1485
N6320 X-3.4605 Y-0.1469
N6325 X-3.4585 Y-0.1443
N6330 X-3.4568 Y-0.1417
N6335 X-3.4556 Y-0.1394
N6340 X-3.4546 Y-0.1371
N6345 X-3.4538 Y-0.1347
N6350 X-3.4533 Y-0.1322
N6355 X-3.4529 Y-0.1298
N6360 X-3.4527 Y-0.1273
N6365 X-3.4525 Y-0.1175
N6370 Y0.1175
N6375 X-3.4527 Y0.1273
N6380 X-3.4529 Y0.1298
N6385 X-3.4533 Y0.1322
N6390 X-3.4538 Y0.1347
N6395 X-3.4546 Y0.1371
N6400 X-3.4556 Y0.1394
N6405 X-3.4568 Y0.1417
N6410 X-3.4585 Y0.1443
N6415 X-3.4605 Y0.1469
N6420 X-3.4621 Y0.1485
N6425 X-3.4636 Y0.1499
N6430 X-3.4666 Y0.1522
N6435 X-3.4678 Y0.1529
N6440 X-3.4691 Y0.1536
N6445 X-3.4715 Y0.1548
N6450 X-3.474 Y0.1557
N6455 X-3.4764 Y0.1564
N6460 X-3.4776 Y0.1567
N6465 X-3.4797 Y0.1571
N6470 X-3.4819 Y0.1573
N6475 X-3.4862 Y0.1574
N6480 X-3.496 Y0.1575
N6485 X-5.1414
N6490 X-5.1512
N6495 X-5.156 Y0.1573
N6500 X-5.1584 Y0.1571
N6505 X-5.1608 Y0.1567
N6510 X-5.161
N6515 X-5.1634 Y0.156
N6520 X-5.1659 Y0.1552
N6525 X-5.1683 Y0.1541
N6530 X-5.1708 Y0.1528
N6535 X-5.1725 Y0.1516
N6540 X-5.1743 Y0.1503
N6545 X-5.1761 Y0.1487
N6550 X-5.1778 Y0.1469
N6555 X-5.1806 Y0.1434
N6560 X-5.1853 Y0.1371
N6565 X-5.1904 Y0.1307
N6570 X-5.1932 Y0.1273
N6575 X-5.2002 Y0.1197
N6580 X-5.2023 Y0.1175
N6585 X-5.21 Y0.1103
N6590 X-5.2129 Y0.1077
N6595 X-5.2198 Y0.1021
N6600 X-5.2253 Y0.0979
N6605 X-5.2295 Y0.095
N6610 X-5.2393 Y0.0887
N6615 X-5.2404 Y0.0881
N6620 X-5.2491 Y0.0833
N6625 X-5.2589 Y0.0786
N6630 X-5.2596 Y0.0783
N6635 X-5.2687 Y0.0746
N6640 X-5.2785 Y0.0712
N6645 X-5.2877 Y0.0686
N6650 X-5.2883 Y0.0684
N6655 X-5.2981 Y0.0662
N6660 X-5.3079 Y0.0645
N6665 X-5.3177 Y0.0633
N6670 X-5.3275 Y0.0627
N6675 X-5.3373 Y0.0625
N6680 X-5.7144
N6685 X-5.7168 Y0.0624
N6690 X-5.7182
N6695 X-5.7183
N6700 X-5.7193 Y0.0622
N6705 X-5.7242 Y0.0613
N6710 X-5.7266 Y0.0606
N6715 X-5.729 Y0.0596
N6720 X-5.7307 Y0.0588
N6725 X-5.7327 Y0.0576
N6730 X-5.7348 Y0.0562
N6735 X-5.7368 Y0.0545
N6740 X-5.7388 Y0.0526
N6745 X-5.7404 Y0.0508
N6750 X-5.7418 Y0.049
N6755 X-5.7433 Y0.0465
N6760 X-5.7446 Y0.0441
N6765 X-5.7455 Y0.0416
N6770 X-5.7463 Y0.0392
N6775 X-5.7468 Y0.0367
N6780 X-5.7472 Y0.0343
N6785 X-5.7474 Y0.0294
N6790 X-5.7475 Y0.0196
N6795 Y0.0098
N6800 X-5.7474 Y0.
N6805 X-5.747 Y-0.0049
N6810 X-5.7465 Y-0.0073
N6815 X-5.7458 Y-0.0098
N6820 X-5.7449 Y-0.0122
N6825 X-5.7438 Y-0.0147
N6830 X-5.7431 Y-0.0159
N6835 X-5.7424 Y-0.0171
N6840 X-5.7406 Y-0.0196
N6845 X-5.7388 Y-0.0216
N6850 X-5.7364 Y-0.0239
N6855 X-5.7339 Y-0.0258
N6860 X-5.7327 Y-0.0266
N6865 X-5.7315 Y-0.0273
N6870 X-5.729 Y-0.0286
N6875 X-5.7271 Y-0.0294
N6880 X-5.7251 Y-0.03
N6885 X-5.7232 Y-0.0305
N6890 X-5.7193 Y-0.0312
N6895 X-5.7183 Y-0.0314
N6900 X-5.7182
N6905 X-5.7168
N6910 X-5.7144 Y-0.0315
N6915 X-5.3373
N6920 X-5.3275 Y-0.0317
N6925 X-5.3177 Y-0.0323
N6930 X-5.3079 Y-0.0335
N6935 X-5.2981 Y-0.0352
N6940 X-5.2883 Y-0.0374
N6945 X-5.2819 Y-0.0392
N6950 X-5.2785 Y-0.0402
N6955 X-5.2687 Y-0.0436
N6960 X-5.2589 Y-0.0476
N6965 X-5.256 Y-0.049
N6970 X-5.2491 Y-0.0523
N6975 X-5.2393 Y-0.0577
N6980 X-5.2376 Y-0.0588
N6985 X-5.2295 Y-0.064
N6990 X-5.2231 Y-0.0686
N6995 X-5.2198 Y-0.0711
N7000 X-5.211 Y-0.0783
N7005 X-5.21 Y-0.0793
N7010 X-5.2007 Y-0.0881
N7015 X-5.2002 Y-0.0887
N7020 X-5.1918 Y-0.0979
N7025 X-5.1904 Y-0.0997
N7030 X-5.1841 Y-0.1077
N7035 X-5.1806 Y-0.1126
N7040 X-5.1773 Y-0.1175
N7045 X-5.1714 Y-0.1273
N7050 X-5.1708 Y-0.1285
N7055 X-5.1663 Y-0.1371
N7060 X-5.164 Y-0.1415
N7065 X-5.1626 Y-0.1437
N7070 X-5.1618 Y-0.1448
N7075 X-5.161 Y-0.1459
N7080 X-5.1601 Y-0.1469
N7085 X-5.1579 Y-0.1492
N7090 X-5.1556 Y-0.151
N7095 X-5.1545 Y-0.1518
N7100 X-5.1534 Y-0.1526
N7105 X-5.1512 Y-0.1538
N7110 X-5.1471 Y-0.1556
N7115 X-5.1451 Y-0.1562
N7120 X-5.1431 Y-0.1567
N7125 X-5.1414 Y-0.157
N7130 X-5.1365 Y-0.1574
N7135 X-5.1316 Y-0.1575
N7140 X-4.6069
N7145 X-3.496
N7150 X-3.4862 Y-0.1574
N7155 X-3.4819 Y-0.1573
N7160 X-3.4797 Y-0.1571
N7165 X-3.4776 Y-0.1567
N7170 X-3.4764 Y-0.1564
N7175 X-3.474 Y-0.1557
N7180 X-3.4715 Y-0.1548
N7185 X-3.4691 Y-0.1536
N7190 X-3.4678 Y-0.1529
N7195 X-3.4666 Y-0.1522
N7200 X-3.4636 Y-0.1499
N7205 X-3.4621 Y-0.1485
N7210 X-3.4605 Y-0.1469
N7215 X-3.4585 Y-0.1443
N7220 X-3.4568 Y-0.1417
N7225 X-3.4556 Y-0.1394
N7230 X-3.4546 Y-0.1371
N7235 X-3.4538 Y-0.1347
N7240 X-3.4533 Y-0.1322
N7245 X-3.4529 Y-0.1298
N7250 X-3.4527 Y-0.1273
N7255 X-3.4525 Y-0.1175
N7260 Y0.1175
N7265 X-3.4527 Y0.1273
N7270 X-3.4529 Y0.1298
N7275 X-3.4533 Y0.1322
N7280 X-3.4538 Y0.1347
N7285 X-3.4546 Y0.1371
N7290 X-3.4556 Y0.1394
N7295 X-3.4568 Y0.1417
N7300 X-3.4585 Y0.1443
N7305 X-3.4605 Y0.1469
N7310 X-3.4621 Y0.1485
N7315 X-3.4636 Y0.1499
N7320 X-3.4666 Y0.1522
N7325 X-3.4678 Y0.1529
N7330 X-3.4691 Y0.1536
N7335 X-3.4715 Y0.1548
N7340 X-3.474 Y0.1557
N7345 X-3.4764 Y0.1564
N7350 X-3.4776 Y0.1567
N7355 X-3.4797 Y0.1571
N7360 X-3.4819 Y0.1573
N7365 X-3.4862 Y0.1574
N7370 X-3.496 Y0.1575
N7375 X-5.1414
N7380 X-5.1512
N7385 X-5.156 Y0.1573
N7390 X-5.1584 Y0.1571
N7395 X-5.1608 Y0.1567
N7400 X-5.161
N7405 X-5.1634 Y0.156
N7410 X-5.1659 Y0.1552
N7415 X-5.1683 Y0.1541
N7420 X-5.1708 Y0.1528
N7425 X-5.1725 Y0.1516
N7430 X-5.1743 Y0.1503
N7435 X-5.1761 Y0.1487
N7440 X-5.1778 Y0.1469
N7445 X-5.1806 Y0.1434
N7450 X-5.1853 Y0.1371
N7455 X-5.1904 Y0.1307
N7460 X-5.1932 Y0.1273
N7465 X-5.2002 Y0.1197
N7470 X-5.2023 Y0.1175
N7475 X-5.21 Y0.1103
N7480 X-5.2129 Y0.1077
N7485 X-5.2198 Y0.1021
N7490 X-5.2253 Y0.0979
N7495 X-5.2295 Y0.095
N7500 X-5.2393 Y0.0887
N7505 X-5.2404 Y0.0881
N7510 X-5.2491 Y0.0833
N7515 X-5.2589 Y0.0786
N7520 X-5.2596 Y0.0783
N7525 X-5.2687 Y0.0746
N7530 X-5.2785 Y0.0712
N7535 X-5.2877 Y0.0686
N7540 X-5.2883 Y0.0684
N7545 X-5.2981 Y0.0662
N7550 X-5.3079 Y0.0645
N7555 X-5.3177 Y0.0633
N7560 X-5.3275 Y0.0627
N7565 X-5.3373 Y0.0625
N7570 X-5.7144
N7575 X-5.7168 Y0.0624
N7580 X-5.7182
N7585 X-5.7183
N7590 X-5.7193 Y0.0622
N7595 X-5.7242 Y0.0613
N7600 X-5.7266 Y0.0606
N7605 X-5.729 Y0.0596
N7610 X-5.7307 Y0.0588
N7615 X-5.7327 Y0.0576
N7620 X-5.7348 Y0.0562
N7625 X-5.7368 Y0.0545
N7630 X-5.7388 Y0.0526
N7635 X-5.7404 Y0.0508
N7640 X-5.7418 Y0.049
N7645 X-5.7433 Y0.0465
N7650 X-5.7446 Y0.0441
N7655 X-5.7455 Y0.0416
N7660 X-5.7463 Y0.0392
N7665 X-5.7468 Y0.0367
N7670 X-5.7472 Y0.0343
N7675 X-5.7474 Y0.0294
N7680 X-5.7475 Y0.0196
N7685 Y0.0098
N7690 X-5.7474 Y0.
N7695 X-5.747 Y-0.0049
N7700 X-5.7465 Y-0.0073
N7705 X-5.7458 Y-0.0098
N7710 X-5.7449 Y-0.0122
N7715 X-5.7438 Y-0.0147
N7720 X-5.7431 Y-0.0159
N7725 X-5.7424 Y-0.0171
N7730 X-5.7406 Y-0.0196
N7735 X-5.7388 Y-0.0216
N7740 X-5.7364 Y-0.0239
N7745 X-5.7339 Y-0.0258
N7750 X-5.7327 Y-0.0266
N7755 X-5.7315 Y-0.0273
N7760 X-5.729 Y-0.0286
N7765 X-5.7271 Y-0.0294
N7770 X-5.7251 Y-0.03
N7775 X-5.7232 Y-0.0305
N7780 X-5.7193 Y-0.0312
N7785 X-5.7183 Y-0.0314
N7790 X-5.7182
N7795 X-5.7168
N7800 X-5.7144 Y-0.0315
N7805 X-5.3373
N7810 X-5.3275 Y-0.0317
N7815 X-5.3177 Y-0.0323
N7820 X-5.3079 Y-0.0335
N7825 X-5.2981 Y-0.0352
N7830 X-5.2883 Y-0.0374
N7835 X-5.2819 Y-0.0392
N7840 X-5.2785 Y-0.0402
N7845 X-5.2687 Y-0.0436
N7850 X-5.2589 Y-0.0476
N7855 X-5.256 Y-0.049
N7860 X-5.2491 Y-0.0523
N7865 X-5.2393 Y-0.0577
N7870 X-5.2376 Y-0.0588
N7875 X-5.2295 Y-0.064
N7880 X-5.2231 Y-0.0686
N7885 X-5.2198 Y-0.0711
N7890 X-5.211 Y-0.0783
N7895 X-5.21 Y-0.0793
N7900 X-5.2007 Y-0.0881
N7905 X-5.2002 Y-0.0887
N7910 X-5.1918 Y-0.0979
N7915 X-5.1904 Y-0.0997
N7920 X-5.1841 Y-0.1077
N7925 X-5.1806 Y-0.1126
N7930 X-5.1773 Y-0.1175
N7935 X-5.1714 Y-0.1273
N7940 X-5.1708 Y-0.1285
N7945 X-5.1663 Y-0.1371
N7950 X-5.164 Y-0.1415
N7955 X-5.1626 Y-0.1437
N7960 X-5.1618 Y-0.1448
N7965 X-5.161 Y-0.1459
N7970 X-5.1601 Y-0.1469
N7975 X-5.1579 Y-0.1492
N7980 X-5.1556 Y-0.151
N7985 X-5.1545 Y-0.1518
N7990 X-5.1534 Y-0.1526
N7995 X-5.1512 Y-0.1538
N8000 X-5.1471 Y-0.1556
N8005 X-5.1451 Y-0.1562
N8010 X-5.1431 Y-0.1567
N8015 X-5.1414 Y-0.157
N8020 X-5.1365 Y-0.1574
N8025 X-5.1316 Y-0.1575
N8030 X-4.6069
N8035 G3 X-4.5694 Y-0.12 I0. J0.0375 F2.
N8040 X-4.5696 Y-0.1159 I-0.0375 J0. F10.
N8045 G1 X-4.5882 Y0.0507
N8050 G3 X-4.6531 Y0.1328 I-0.0982 J-0.0109
N8055 X-4.6544 Y0.1333 I-0.0333 J-0.0931
N8060 X-4.7184 Y-0.0537 Z-1.0159 I-0.032 J-0.0935
N8065 X-4.6544 Y0.1333 Z-1.0267 I0.032 J0.0935
N8070 X-4.7184 Y-0.0537 Z-1.0375 I-0.032 J-0.0935
N8075 X-4.6544 Y0.1333 Z-1.0484 I0.032 J0.0935
N8080 X-4.7184 Y-0.0537 Z-1.0592 I-0.032 J-0.0935
N8085 X-4.6544 Y0.1333 Z-1.0701 I0.032 J0.0935
N8090 X-4.7184 Y-0.0537 Z-1.0809 I-0.032 J-0.0935
N8095 X-4.6544 Y0.1333 Z-1.0917 I0.032 J0.0935
N8100 X-4.7184 Y-0.0537 Z-1.1026 I-0.032 J-0.0935
N8105 X-4.6544 Y0.1333 Z-1.1134 I0.032 J0.0935
N8110 X-4.7184 Y-0.0537 Z-1.1242 I-0.032 J-0.0935
N8115 X-4.6544 Y0.1333 Z-1.1351 I0.032 J0.0935
N8120 X-4.7184 Y-0.0537 Z-1.1459 I-0.032 J-0.0935
N8125 X-4.6544 Y0.1333 Z-1.1568 I0.032 J0.0935
N8130 X-4.7184 Y-0.0537 Z-1.1676 I-0.032 J-0.0935
N8135 X-4.6544 Y0.1333 Z-1.1784 I0.032 J0.0935
N8140 X-4.7184 Y-0.0537 Z-1.1893 I-0.032 J-0.0935
N8145 X-4.6544 Y0.1333 Z-1.2001 I0.032 J0.0935
N8150 X-4.7184 Y-0.0537 Z-1.211 I-0.032 J-0.0935
N8155 X-4.6544 Y0.1333 Z-1.2218 I0.032 J0.0935
N8160 X-4.7184 Y-0.0537 Z-1.2326 I-0.032 J-0.0935
N8165 X-4.6544 Y0.1333 Z-1.2435 I0.032 J0.0935
N8170 X-4.7852 Y0.0411 Z-1.25 I-0.032 J-0.0935
N8175 Y0.0398 I0.0988 J-0.0013
N8180 G1 Y0.0208 F2.
N8185 G3 X-4.6069 Y-0.1575 I0.1783 J0.
N8190 G1 X-3.496 F10.
N8195 X-3.4862 Y-0.1574
N8200 X-3.4819 Y-0.1573
N8205 X-3.4797 Y-0.1571
N8210 X-3.4776 Y-0.1567
N8215 X-3.4764 Y-0.1564
N8220 X-3.474 Y-0.1557
N8225 X-3.4715 Y-0.1548
N8230 X-3.4691 Y-0.1536
N8235 X-3.4678 Y-0.1529
N8240 X-3.4666 Y-0.1522
N8245 X-3.4636 Y-0.1499
N8250 X-3.4621 Y-0.1485
N8255 X-3.4605 Y-0.1469
N8260 X-3.4585 Y-0.1443
N8265 X-3.4568 Y-0.1417
N8270 X-3.4556 Y-0.1394
N8275 X-3.4546 Y-0.1371
N8280 X-3.4538 Y-0.1347
N8285 X-3.4533 Y-0.1322
N8290 X-3.4529 Y-0.1298
N8295 X-3.4527 Y-0.1273
N8300 X-3.4525 Y-0.1175
N8305 Y0.1175
N8310 X-3.4527 Y0.1273
N8315 X-3.4529 Y0.1298
N8320 X-3.4533 Y0.1322
N8325 X-3.4538 Y0.1347
N8330 X-3.4546 Y0.1371
N8335 X-3.4556 Y0.1394
N8340 X-3.4568 Y0.1417
N8345 X-3.4585 Y0.1443
N8350 X-3.4605 Y0.1469
N8355 X-3.4621 Y0.1485
N8360 X-3.4636 Y0.1499
N8365 X-3.4666 Y0.1522
N8370 X-3.4678 Y0.1529
N8375 X-3.4691 Y0.1536
N8380 X-3.4715 Y0.1548
N8385 X-3.474 Y0.1557
N8390 X-3.4764 Y0.1564
N8395 X-3.4776 Y0.1567
N8400 X-3.4797 Y0.1571
N8405 X-3.4819 Y0.1573
N8410 X-3.4862 Y0.1574
N8415 X-3.496 Y0.1575
N8420 X-5.1414
N8425 X-5.1512
N8430 X-5.156 Y0.1573
N8435 X-5.1584 Y0.1571
N8440 X-5.1608 Y0.1567
N8445 X-5.161
N8450 X-5.1634 Y0.156
N8455 X-5.1659 Y0.1552
N8460 X-5.1683 Y0.1541
N8465 X-5.1708 Y0.1528
N8470 X-5.1725 Y0.1516
N8475 X-5.1743 Y0.1503
N8480 X-5.1761 Y0.1487
N8485 X-5.1778 Y0.1469
N8490 X-5.1806 Y0.1434
N8495 X-5.1853 Y0.1371
N8500 X-5.1904 Y0.1307
N8505 X-5.1932 Y0.1273
N8510 X-5.2002 Y0.1197
N8515 X-5.2023 Y0.1175
N8520 X-5.21 Y0.1103
N8525 X-5.2129 Y0.1077
N8530 X-5.2198 Y0.1021
N8535 X-5.2253 Y0.0979
N8540 X-5.2295 Y0.095
N8545 X-5.2393 Y0.0887
N8550 X-5.2404 Y0.0881
N8555 X-5.2491 Y0.0833
N8560 X-5.2589 Y0.0786
N8565 X-5.2596 Y0.0783
N8570 X-5.2687 Y0.0746
N8575 X-5.2785 Y0.0712
N8580 X-5.2877 Y0.0686
N8585 X-5.2883 Y0.0684
N8590 X-5.2981 Y0.0662
N8595 X-5.3079 Y0.0645
N8600 X-5.3177 Y0.0633
N8605 X-5.3275 Y0.0627
N8610 X-5.3373 Y0.0625
N8615 X-5.7095
N8620 X-5.7144 Y0.0624
N8625 X-5.7193 Y0.0622
N8630 X-5.7217 Y0.0618
N8635 X-5.7242 Y0.0613
N8640 X-5.7266 Y0.0606
N8645 X-5.729 Y0.0596
N8650 X-5.7307 Y0.0588
N8655 X-5.7327 Y0.0576
N8660 X-5.7348 Y0.0562
N8665 X-5.7368 Y0.0545
N8670 X-5.7378 Y0.0536
N8675 X-5.7388 Y0.0526
N8680 X-5.7404 Y0.0508
N8685 X-5.7418 Y0.049
N8690 X-5.7433 Y0.0465
N8695 X-5.7446 Y0.0441
N8700 X-5.7455 Y0.0416
N8705 X-5.7463 Y0.0392
N8710 X-5.7468 Y0.0367
N8715 X-5.7472 Y0.0343
N8720 X-5.7474 Y0.0294
N8725 X-5.7475 Y0.0196
N8730 Y0.0098
N8735 X-5.7474 Y0.
N8740 X-5.747 Y-0.0049
N8745 X-5.7465 Y-0.0073
N8750 X-5.7458 Y-0.0098
N8755 X-5.7449 Y-0.0122
N8760 X-5.7438 Y-0.0147
N8765 X-5.7423 Y-0.0171
N8770 X-5.7415 Y-0.0184
N8775 X-5.7406 Y-0.0196
N8780 X-5.7388 Y-0.0216
N8785 X-5.7376 Y-0.0228
N8790 X-5.7364 Y-0.0239
N8795 X-5.7339 Y-0.0258
N8800 X-5.7315 Y-0.0273
N8805 X-5.729 Y-0.0286
N8810 X-5.7271 Y-0.0294
N8815 X-5.7251 Y-0.03
N8820 X-5.7232 Y-0.0305
N8825 X-5.7193 Y-0.0312
N8830 X-5.7144 Y-0.0314
N8835 X-5.7095 Y-0.0315
N8840 X-5.3373
N8845 X-5.3275 Y-0.0317
N8850 X-5.3177 Y-0.0323
N8855 X-5.3079 Y-0.0335
N8860 X-5.2981 Y-0.0352
N8865 X-5.2883 Y-0.0374
N8870 X-5.2819 Y-0.0392
N8875 X-5.2785 Y-0.0402
N8880 X-5.2687 Y-0.0436
N8885 X-5.2589 Y-0.0476
N8890 X-5.256 Y-0.049
N8895 X-5.2491 Y-0.0523
N8900 X-5.2393 Y-0.0577
N8905 X-5.2376 Y-0.0588
N8910 X-5.2295 Y-0.064
N8915 X-5.2231 Y-0.0686
N8920 X-5.2198 Y-0.0711
N8925 X-5.211 Y-0.0783
N8930 X-5.21 Y-0.0793
N8935 X-5.2007 Y-0.0881
N8940 X-5.2002 Y-0.0887
N8945 X-5.1918 Y-0.0979
N8950 X-5.1904 Y-0.0997
N8955 X-5.1841 Y-0.1077
N8960 X-5.1806 Y-0.1126
N8965 X-5.1773 Y-0.1175
N8970 X-5.1714 Y-0.1273
N8975 X-5.1708 Y-0.1285
N8980 X-5.1663 Y-0.1371
N8985 X-5.164 Y-0.1415
N8990 X-5.1626 Y-0.1437
N8995 X-5.1618 Y-0.1448
N9000 X-5.161 Y-0.1459
N9005 X-5.1601 Y-0.1469
N9010 X-5.1579 Y-0.1492
N9015 X-5.1556 Y-0.151
N9020 X-5.1545 Y-0.1518
N9025 X-5.1534 Y-0.1526
N9030 X-5.1512 Y-0.1538
N9035 X-5.1471 Y-0.1556
N9040 X-5.1451 Y-0.1562
N9045 X-5.1431 Y-0.1567
N9050 X-5.1414 Y-0.157
N9055 X-5.1365 Y-0.1574
N9060 X-5.1316 Y-0.1575
N9065 X-4.6069
N9070 X-3.496
N9075 X-3.4862 Y-0.1574
N9080 X-3.4819 Y-0.1573
N9085 X-3.4797 Y-0.1571
N9090 X-3.4776 Y-0.1567
N9095 X-3.4764 Y-0.1564
N9100 X-3.474 Y-0.1557
N9105 X-3.4715 Y-0.1548
N9110 X-3.4691 Y-0.1536
N9115 X-3.4678 Y-0.1529
N9120 X-3.4666 Y-0.1522
N9125 X-3.4636 Y-0.1499
N9130 X-3.4621 Y-0.1485
N9135 X-3.4605 Y-0.1469
N9140 X-3.4585 Y-0.1443
N9145 X-3.4568 Y-0.1417
N9150 X-3.4556 Y-0.1394
N9155 X-3.4546 Y-0.1371
N9160 X-3.4538 Y-0.1347
N9165 X-3.4533 Y-0.1322
N9170 X-3.4529 Y-0.1298
N9175 X-3.4527 Y-0.1273
N9180 X-3.4525 Y-0.1175
N9185 Y0.1175
N9190 X-3.4527 Y0.1273
N9195 X-3.4529 Y0.1298
N9200 X-3.4533 Y0.1322
N9205 X-3.4538 Y0.1347
N9210 X-3.4546 Y0.1371
N9215 X-3.4556 Y0.1394
N9220 X-3.4568 Y0.1417
N9225 X-3.4585 Y0.1443
N9230 X-3.4605 Y0.1469
N9235 X-3.4621 Y0.1485
N9240 X-3.4636 Y0.1499
N9245 X-3.4666 Y0.1522
N9250 X-3.4678 Y0.1529
N9255 X-3.4691 Y0.1536
N9260 X-3.4715 Y0.1548
N9265 X-3.474 Y0.1557
N9270 X-3.4764 Y0.1564
N9275 X-3.4776 Y0.1567
N9280 X-3.4797 Y0.1571
N9285 X-3.4819 Y0.1573
N9290 X-3.4862 Y0.1574
N9295 X-3.496 Y0.1575
N9300 X-5.1414
N9305 X-5.1512
N9310 X-5.156 Y0.1573
N9315 X-5.1584 Y0.1571
N9320 X-5.1608 Y0.1567
N9325 X-5.161
N9330 X-5.1634 Y0.156
N9335 X-5.1659 Y0.1552
N9340 X-5.1683 Y0.1541
N9345 X-5.1708 Y0.1528
N9350 X-5.1725 Y0.1516
N9355 X-5.1743 Y0.1503
N9360 X-5.1761 Y0.1487
N9365 X-5.1778 Y0.1469
N9370 X-5.1806 Y0.1434
N9375 X-5.1853 Y0.1371
N9380 X-5.1904 Y0.1307
N9385 X-5.1932 Y0.1273
N9390 X-5.2002 Y0.1197
N9395 X-5.2023 Y0.1175
N9400 X-5.21 Y0.1103
N9405 X-5.2129 Y0.1077
N9410 X-5.2198 Y0.1021
N9415 X-5.2253 Y0.0979
N9420 X-5.2295 Y0.095
N9425 X-5.2393 Y0.0887
N9430 X-5.2404 Y0.0881
N9435 X-5.2491 Y0.0833
N9440 X-5.2589 Y0.0786
N9445 X-5.2596 Y0.0783
N9450 X-5.2687 Y0.0746
N9455 X-5.2785 Y0.0712
N9460 X-5.2877 Y0.0686
N9465 X-5.2883 Y0.0684
N9470 X-5.2981 Y0.0662
N9475 X-5.3079 Y0.0645
N9480 X-5.3177 Y0.0633
N9485 X-5.3275 Y0.0627
N9490 X-5.3373 Y0.0625
N9495 X-5.7095
N9500 X-5.7144 Y0.0624
N9505 X-5.7193 Y0.0622
N9510 X-5.7217 Y0.0618
N9515 X-5.7242 Y0.0613
N9520 X-5.7266 Y0.0606
N9525 X-5.729 Y0.0596
N9530 X-5.7307 Y0.0588
N9535 X-5.7327 Y0.0576
N9540 X-5.7348 Y0.0562
N9545 X-5.7368 Y0.0545
N9550 X-5.7378 Y0.0536
N9555 X-5.7388 Y0.0526
N9560 X-5.7404 Y0.0508
N9565 X-5.7418 Y0.049
N9570 X-5.7433 Y0.0465
N9575 X-5.7446 Y0.0441
N9580 X-5.7455 Y0.0416
N9585 X-5.7463 Y0.0392
N9590 X-5.7468 Y0.0367
N9595 X-5.7472 Y0.0343
N9600 X-5.7474 Y0.0294
N9605 X-5.7475 Y0.0196
N9610 Y0.0098
N9615 X-5.7474 Y0.
N9620 X-5.747 Y-0.0049
N9625 X-5.7465 Y-0.0073
N9630 X-5.7458 Y-0.0098
N9635 X-5.7449 Y-0.0122
N9640 X-5.7438 Y-0.0147
N9645 X-5.7423 Y-0.0171
N9650 X-5.7415 Y-0.0184
N9655 X-5.7406 Y-0.0196
N9660 X-5.7388 Y-0.0216
N9665 X-5.7376 Y-0.0228
N9670 X-5.7364 Y-0.0239
N9675 X-5.7339 Y-0.0258
N9680 X-5.7315 Y-0.0273
N9685 X-5.729 Y-0.0286
N9690 X-5.7271 Y-0.0294
N9695 X-5.7251 Y-0.03
N9700 X-5.7232 Y-0.0305
N9705 X-5.7193 Y-0.0312
N9710 X-5.7144 Y-0.0314
N9715 X-5.7095 Y-0.0315
N9720 X-5.3373
N9725 X-5.3275 Y-0.0317
N9730 X-5.3177 Y-0.0323
N9735 X-5.3079 Y-0.0335
N9740 X-5.2981 Y-0.0352
N9745 X-5.2883 Y-0.0374
N9750 X-5.2819 Y-0.0392
N9755 X-5.2785 Y-0.0402
N9760 X-5.2687 Y-0.0436
N9765 X-5.2589 Y-0.0476
N9770 X-5.256 Y-0.049
N9775 X-5.2491 Y-0.0523
N9780 X-5.2393 Y-0.0577
N9785 X-5.2376 Y-0.0588
N9790 X-5.2295 Y-0.064
N9795 X-5.2231 Y-0.0686
N9800 X-5.2198 Y-0.0711
N9805 X-5.211 Y-0.0783
N9810 X-5.21 Y-0.0793
N9815 X-5.2007 Y-0.0881
N9820 X-5.2002 Y-0.0887
N9825 X-5.1918 Y-0.0979
N9830 X-5.1904 Y-0.0997
N9835 X-5.1841 Y-0.1077
N9840 X-5.1806 Y-0.1126
N9845 X-5.1773 Y-0.1175
N9850 X-5.1714 Y-0.1273
N9855 X-5.1708 Y-0.1285
N9860 X-5.1663 Y-0.1371
N9865 X-5.164 Y-0.1415
N9870 X-5.1626 Y-0.1437
N9875 X-5.1618 Y-0.1448
N9880 X-5.161 Y-0.1459
N9885 X-5.1601 Y-0.1469
N9890 X-5.1579 Y-0.1492
N9895 X-5.1556 Y-0.151
N9900 X-5.1545 Y-0.1518
N9905 X-5.1534 Y-0.1526
N9910 X-5.1512 Y-0.1538
N9915 X-5.1471 Y-0.1556
N9920 X-5.1451 Y-0.1562
N9925 X-5.1431 Y-0.1567
N9930 X-5.1414 Y-0.157
N9935 X-5.1365 Y-0.1574
N9940 X-5.1316 Y-0.1575
N9945 X-4.6069
N9950 G3 X-4.5694 Y-0.1188 I0. J0.0375 F2.
N9955 G0 Z0.6
N9965 M9
N9970 G53 Z0.
N9975 M30
%
