%
(1001)
(38 END MILL 61 MINUTES)
(T1  D=0.375 CR=0. - ZMIN=-1.25 - FLAT END MILL)
N10 G90 G94 G17 G91.1
N15 G20
N20 G53 G0 Z0.
(3D POCKET CLEARING)
N25 M9
N30 T1 M6
N35 S2000 M3
N40 G54
N45 M8
N55 G0 X-3.6125 Y-0.1475
N60 G43 Z0.6 H1
N65 G0 Z0.132
N70 G18 G2 X-3.5756 Z0.0945 I0.0375 K0. F3.
N75 G1 X-3.4978 Z0.0933
N80 X-3.4785 Y-0.1451 Z0.093
N85 X-3.4742 Y-0.1433 Z0.0929
N90 X-3.4698 Y-0.1399 Z0.0928
N95 X-3.4669 Y-0.1361 Z0.0927
N100 X-3.4661 Y-0.1342
N105 X-3.4649 Y-0.1313 Z0.0926
N110 X-3.4626 Y-0.1141 Z0.0924
N115 X-3.4625 Y-0.1088 Z0.0923
N120 Y0.1129 Z0.0888
N125 X-3.4626 Y0.1143
N130 X-3.4649 Y0.1312 Z0.0885
N135 X-3.4669 Y0.1361 Z0.0884
N140 X-3.4699 Y0.14 Z0.0883
N145 X-3.4742 Y0.1433 Z0.0882
N150 X-3.4786 Y0.1451
N155 X-3.4977 Y0.1475 Z0.0879
N160 X-5.1442 Y0.1473 Z0.0618
N165 X-5.1594 Y0.1455 Z0.0616
N170 X-5.1638 Y0.1438 Z0.0615
N175 X-5.1678 Y0.141 Z0.0614
N180 X-5.1883 Y0.1177 Z0.0609
N185 G17 G2 X-5.1925 Y0.1133 Z0.0608 I-0.074 J0.0653
N190 G1 X-5.1982 Y0.1076 Z0.0607
N195 G2 X-5.2039 Y0.1024 Z0.0606 I-0.0698 J0.0698
N200 G1 X-5.2095 Y0.0975 Z0.0605
N205 G2 X-5.2151 Y0.0931 Z0.0604 I-0.0642 J0.0751
N210 G1 X-5.2207 Y0.089 Z0.0602
N215 G2 X-5.2281 Y0.084 Z0.0601 I-0.0586 J0.0795
N220 G1 X-5.2376 Y0.0783 Z0.0599
N225 G2 X-5.2483 Y0.0727 Z0.0597 I-0.0511 J0.0845
N230 G1 X-5.2602 Y0.0673 Z0.0595
N235 G2 X-5.2701 Y0.0635 Z0.0594 I-0.0404 J0.0901
N240 G1 X-5.278 Y0.0609 Z0.0592
N245 G2 X-5.2859 Y0.0587 Z0.0591 I-0.0305 J0.0939
N250 G1 X-5.2939 Y0.0569 Z0.059
N255 G2 X-5.3018 Y0.0554 Z0.0588 I-0.0226 J0.0961
N260 G1 X-5.3097 Y0.0542 Z0.0587
N265 G2 X-5.3176 Y0.0533 Z0.0586 I-0.0146 J0.0977
N270 G1 X-5.3255 Y0.0528 Z0.0585
N275 G2 X-5.3323 Y0.0525 Z0.0584 I-0.0067 J0.0985
N280 G1 X-6.0743 Z0.0466
N285 X-6.0781 Y0.052
N290 X-6.0785 Y0.0487 Z0.0465
N295 Y-0.0487 Z0.045
N300 X-6.0781 Y-0.052 Z0.0449
N305 X-6.0743 Y-0.0525
N310 X-6.0573 Z0.0446
N315 X-6.0434 Y-0.0512 Z0.0444
N320 X-6.0392 Y-0.05 Z0.0443
N325 X-6.0161 Y-0.039 Z0.0439
N330 G2 X-6.0081 Y-0.0356 Z0.0438 I0.0426 J-0.0891
N335 G1 X-6.0002 Y-0.0326 Z0.0436
N340 G2 X-5.9923 Y-0.03 Z0.0435 I0.0346 J-0.0925
N345 G1 X-5.9844 Y-0.0278 Z0.0434
N350 G2 X-5.9765 Y-0.0259 Z0.0432 I0.0267 J-0.0951
N355 G1 X-5.9685 Y-0.0244 Z0.0431
N360 G2 X-5.9606 Y-0.0232 Z0.043 I0.0188 J-0.097
N365 G1 X-5.9527 Y-0.0223 Z0.0429
N370 G2 X-5.9429 Y-0.0217 Z0.0427 I0.0108 J-0.0982
N375 G1 X-5.9191 Y-0.0215 Z0.0423
N380 G2 X-5.9181 I0.001 J-0.0987
N385 G1 X-5.3322 Z0.033
N390 G2 X-5.3255 Y-0.0218 Z0.0329 I0. J-0.0988
N395 G1 X-5.3176 Y-0.0223 Z0.0328
N400 G2 X-5.3097 Y-0.0232 Z0.0327 I-0.0067 J-0.0985
N405 G1 X-5.3018 Y-0.0244 Z0.0326
N410 G2 X-5.2939 Y-0.0259 Z0.0324 I-0.0146 J-0.0977
N415 G1 X-5.2859 Y-0.0277 Z0.0323
N420 G2 X-5.278 Y-0.0299 Z0.0322 I-0.0226 J-0.0961
N425 G1 X-5.2701 Y-0.0325 Z0.032
N430 G2 X-5.2602 Y-0.0363 Z0.0319 I-0.0305 J-0.0939
N435 G1 X-5.2483 Y-0.0417 Z0.0317
N440 G2 X-5.2377 Y-0.0472 Z0.0315 I-0.0404 J-0.0901
N445 G1 X-5.2285 Y-0.0528 Z0.0313
N450 G2 X-5.2213 Y-0.0576 Z0.0312 I-0.051 J-0.0846
N455 G1 X-5.216 Y-0.0614 Z0.0311
N460 G2 X-5.2086 Y-0.0674 Z0.0309 I-0.0582 J-0.0798
N465 G1 X-5.1993 Y-0.0756 Z0.0307
N470 G2 X-5.1908 Y-0.0842 Z0.0305 I-0.0656 J-0.0738
N475 G1 X-5.1831 Y-0.0929 Z0.0303
N480 G2 X-5.1773 Y-0.1002 Z0.0302 I-0.0741 J-0.0653
N485 G1 X-5.1732 Y-0.1058 Z0.0301
N490 G2 X-5.1691 Y-0.1119 Z0.03 I-0.0799 J-0.058
N495 G1 X-5.1526 Y-0.1386 Z0.0295
N500 X-5.1494 Y-0.1418 Z0.0294
N505 X-5.146 Y-0.144 Z0.0293
N510 X-5.1416 Y-0.1455
N515 X-5.1262 Y-0.1474 Z0.029
N520 X-5.1243 Y-0.1475
N525 X-3.4978 Z0.0033
N530 X-3.4785 Y-0.1451 Z0.003
N535 X-3.4742 Y-0.1433 Z0.0029
N540 X-3.4698 Y-0.1399 Z0.0028
N545 X-3.4669 Y-0.1361 Z0.0027
N550 X-3.4661 Y-0.1342
N555 X-3.4649 Y-0.1313 Z0.0026
N560 X-3.4626 Y-0.1141 Z0.0024
N565 X-3.4625 Y-0.1088 Z0.0023
N570 Y0.1129 Z-0.0012
N575 X-3.4626 Y0.1143
N580 X-3.4649 Y0.1312 Z-0.0015
N585 X-3.4669 Y0.1361 Z-0.0016
N590 X-3.4699 Y0.14 Z-0.0017
N595 X-3.4742 Y0.1433 Z-0.0018
N600 X-3.4786 Y0.1451
N605 X-3.4977 Y0.1475 Z-0.0021
N610 X-5.1442 Y0.1473 Z-0.0282
N615 X-5.1594 Y0.1455 Z-0.0284
N620 X-5.1638 Y0.1438 Z-0.0285
N625 X-5.1678 Y0.141 Z-0.0286
N630 X-5.1883 Y0.1177 Z-0.0291
N635 G2 X-5.1925 Y0.1133 Z-0.0292 I-0.074 J0.0653
N640 G1 X-5.1982 Y0.1076 Z-0.0293
N645 G2 X-5.2039 Y0.1024 Z-0.0294 I-0.0698 J0.0698
N650 G1 X-5.2095 Y0.0975 Z-0.0295
N655 G2 X-5.2151 Y0.0931 Z-0.0296 I-0.0642 J0.0751
N660 G1 X-5.2207 Y0.089 Z-0.0298
N665 G2 X-5.2281 Y0.084 Z-0.0299 I-0.0586 J0.0795
N670 G1 X-5.2376 Y0.0783 Z-0.0301
N675 G2 X-5.2483 Y0.0727 Z-0.0303 I-0.0511 J0.0845
N680 G1 X-5.2602 Y0.0673 Z-0.0305
N685 G2 X-5.2701 Y0.0635 Z-0.0306 I-0.0404 J0.0901
N690 G1 X-5.278 Y0.0609 Z-0.0308
N695 G2 X-5.2859 Y0.0587 Z-0.0309 I-0.0305 J0.0939
N700 G1 X-5.2939 Y0.0569 Z-0.031
N705 G2 X-5.3018 Y0.0554 Z-0.0312 I-0.0226 J0.0961
N710 G1 X-5.3097 Y0.0542 Z-0.0313
N715 G2 X-5.3176 Y0.0533 Z-0.0314 I-0.0146 J0.0977
N720 G1 X-5.3255 Y0.0528 Z-0.0315
N725 G2 X-5.3323 Y0.0525 Z-0.0316 I-0.0067 J0.0985
N730 G1 X-6.0743 Z-0.0434
N735 X-6.0781 Y0.052
N740 X-6.0785 Y0.0487 Z-0.0435
N745 Y-0.0487 Z-0.045
N750 X-6.0781 Y-0.052 Z-0.0451
N755 X-6.0743 Y-0.0525
N760 X-6.0573 Z-0.0454
N765 X-6.0434 Y-0.0512 Z-0.0456
N770 X-6.0392 Y-0.05 Z-0.0457
N775 X-6.0161 Y-0.039 Z-0.0461
N780 G2 X-6.0081 Y-0.0356 Z-0.0462 I0.0426 J-0.0891
N785 G1 X-6.0002 Y-0.0326 Z-0.0464
N790 G2 X-5.9923 Y-0.03 Z-0.0465 I0.0346 J-0.0925
N795 G1 X-5.9844 Y-0.0278 Z-0.0466
N800 G2 X-5.9765 Y-0.0259 Z-0.0468 I0.0267 J-0.0951
N805 G1 X-5.9685 Y-0.0244 Z-0.0469
N810 G2 X-5.9606 Y-0.0232 Z-0.047 I0.0188 J-0.097
N815 G1 X-5.9527 Y-0.0223 Z-0.0471
N820 G2 X-5.9429 Y-0.0217 Z-0.0473 I0.0108 J-0.0982
N825 G1 X-5.9191 Y-0.0215 Z-0.0477
N830 G2 X-5.9181 I0.001 J-0.0987
N835 G1 X-5.3322 Z-0.057
N840 G2 X-5.3255 Y-0.0218 Z-0.0571 I0. J-0.0988
N845 G1 X-5.3176 Y-0.0223 Z-0.0572
N850 G2 X-5.3097 Y-0.0232 Z-0.0573 I-0.0067 J-0.0985
N855 G1 X-5.3018 Y-0.0244 Z-0.0574
N860 G2 X-5.2939 Y-0.0259 Z-0.0576 I-0.0146 J-0.0977
N865 G1 X-5.2859 Y-0.0277 Z-0.0577
N870 G2 X-5.278 Y-0.0299 Z-0.0578 I-0.0226 J-0.0961
N875 G1 X-5.2701 Y-0.0325 Z-0.058
N880 G2 X-5.2602 Y-0.0363 Z-0.0581 I-0.0305 J-0.0939
N885 G1 X-5.2483 Y-0.0417 Z-0.0583
N890 G2 X-5.2377 Y-0.0472 Z-0.0585 I-0.0404 J-0.0901
N895 G1 X-5.2285 Y-0.0528 Z-0.0587
N900 G2 X-5.2213 Y-0.0576 Z-0.0588 I-0.051 J-0.0846
N905 G1 X-5.216 Y-0.0614 Z-0.0589
N910 G2 X-5.2086 Y-0.0674 Z-0.0591 I-0.0582 J-0.0798
N915 G1 X-5.1993 Y-0.0756 Z-0.0593
N920 G2 X-5.1908 Y-0.0842 Z-0.0595 I-0.0656 J-0.0738
N925 G1 X-5.1831 Y-0.0929 Z-0.0597
N930 G2 X-5.1773 Y-0.1002 Z-0.0598 I-0.0741 J-0.0653
N935 G1 X-5.1732 Y-0.1058 Z-0.0599
N940 G2 X-5.1691 Y-0.1119 Z-0.06 I-0.0799 J-0.058
N945 G1 X-5.1526 Y-0.1386 Z-0.0605
N950 X-5.1494 Y-0.1418 Z-0.0606
N955 X-5.146 Y-0.144 Z-0.0607
N960 X-5.1416 Y-0.1455
N965 X-5.1262 Y-0.1474 Z-0.061
N970 X-5.1243 Y-0.1475
N975 X-3.4978 Z-0.0867
N980 X-3.4785 Y-0.1451 Z-0.087
N985 X-3.4742 Y-0.1433 Z-0.0871
N990 X-3.4698 Y-0.1399 Z-0.0872
N995 X-3.4669 Y-0.1361 Z-0.0873
N1000 X-3.4661 Y-0.1342
N1005 X-3.4649 Y-0.1313 Z-0.0874
N1010 X-3.4626 Y-0.1141 Z-0.0876
N1015 X-3.4625 Y-0.1088 Z-0.0877
N1020 Y0.0356 Z-0.09
N1025 Y0.1129 F15.
N1030 X-3.4626 Y0.1143
N1035 X-3.4649 Y0.1312
N1040 X-3.4669 Y0.1361
N1045 X-3.4699 Y0.14
N1050 X-3.4742 Y0.1433
N1055 X-3.4786 Y0.1451
N1060 X-3.4977 Y0.1475
N1065 X-5.1442 Y0.1473
N1070 X-5.1594 Y0.1455
N1075 X-5.1638 Y0.1438
N1080 X-5.1678 Y0.141
N1085 X-5.1883 Y0.1177
N1090 G2 X-5.1925 Y0.1133 I-0.074 J0.0653
N1095 G1 X-5.1982 Y0.1076
N1100 G2 X-5.2039 Y0.1024 I-0.0698 J0.0698
N1105 G1 X-5.2095 Y0.0975
N1110 G2 X-5.2151 Y0.0931 I-0.0642 J0.0751
N1115 G1 X-5.2207 Y0.089
N1120 G2 X-5.2281 Y0.084 I-0.0586 J0.0795
N1125 G1 X-5.2376 Y0.0783
N1130 G2 X-5.2483 Y0.0727 I-0.0511 J0.0845
N1135 G1 X-5.2602 Y0.0673
N1140 G2 X-5.2701 Y0.0635 I-0.0404 J0.0901
N1145 G1 X-5.278 Y0.0609
N1150 G2 X-5.2859 Y0.0587 I-0.0305 J0.0939
N1155 G1 X-5.2939 Y0.0569
N1160 G2 X-5.3018 Y0.0554 I-0.0226 J0.0961
N1165 G1 X-5.3097 Y0.0542
N1170 G2 X-5.3176 Y0.0533 I-0.0146 J0.0977
N1175 G1 X-5.3255 Y0.0528
N1180 G2 X-5.3323 Y0.0525 I-0.0067 J0.0985
N1185 G1 X-6.0743
N1190 X-6.0781 Y0.052
N1195 X-6.0785 Y0.0487
N1200 Y-0.0487
N1205 X-6.0781 Y-0.052
N1210 X-6.0743 Y-0.0525
N1215 X-6.0573
N1220 X-6.0434 Y-0.0512
N1225 X-6.0392 Y-0.05
N1230 X-6.0161 Y-0.039
N1235 G2 X-6.0081 Y-0.0356 I0.0426 J-0.0891
N1240 G1 X-6.0002 Y-0.0326
N1245 G2 X-5.9923 Y-0.03 I0.0346 J-0.0925
N1250 G1 X-5.9844 Y-0.0278
N1255 G2 X-5.9765 Y-0.0259 I0.0267 J-0.0951
N1260 G1 X-5.9685 Y-0.0244
N1265 G2 X-5.9606 Y-0.0232 I0.0188 J-0.097
N1270 G1 X-5.9527 Y-0.0223
N1275 G2 X-5.9429 Y-0.0217 I0.0108 J-0.0982
N1280 G1 X-5.9191 Y-0.0215
N1285 G2 X-5.9181 I0.001 J-0.0987
N1290 G1 X-5.3322
N1295 G2 X-5.3255 Y-0.0218 I0. J-0.0988
N1300 G1 X-5.3176 Y-0.0223
N1305 G2 X-5.3097 Y-0.0232 I-0.0067 J-0.0985
N1310 G1 X-5.3018 Y-0.0244
N1315 G2 X-5.2939 Y-0.0259 I-0.0146 J-0.0977
N1320 G1 X-5.2859 Y-0.0277
N1325 G2 X-5.278 Y-0.0299 I-0.0226 J-0.0961
N1330 G1 X-5.2701 Y-0.0325
N1335 G2 X-5.2602 Y-0.0363 I-0.0305 J-0.0939
N1340 G1 X-5.2483 Y-0.0417
N1345 G2 X-5.2377 Y-0.0472 I-0.0404 J-0.0901
N1350 G1 X-5.2285 Y-0.0528
N1355 G2 X-5.2213 Y-0.0576 I-0.051 J-0.0846
N1360 G1 X-5.216 Y-0.0614
N1365 G2 X-5.2086 Y-0.0674 I-0.0582 J-0.0798
N1370 G1 X-5.1993 Y-0.0756
N1375 G2 X-5.1908 Y-0.0842 I-0.0656 J-0.0738
N1380 G1 X-5.1831 Y-0.0929
N1385 G2 X-5.1773 Y-0.1002 I-0.0741 J-0.0653
N1390 G1 X-5.1732 Y-0.1058
N1395 G2 X-5.1691 Y-0.1119 I-0.0799 J-0.058
N1400 G1 X-5.1526 Y-0.1386
N1405 X-5.1494 Y-0.1418
N1410 X-5.146 Y-0.144
N1415 X-5.1416 Y-0.1455
N1420 X-5.1262 Y-0.1474
N1425 X-5.1243 Y-0.1475
N1430 X-3.4978
N1435 X-3.4785 Y-0.1451
N1440 X-3.4742 Y-0.1433
N1445 X-3.4698 Y-0.1399
N1450 X-3.4669 Y-0.1361
N1455 X-3.4661 Y-0.1342
N1460 X-3.4649 Y-0.1313
N1465 X-3.4626 Y-0.1141
N1470 X-3.4625 Y-0.1088
N1475 Y0.0356
N1480 G3 X-3.4632 Y0.0429 Z-0.0893 I-0.0375 J0. F2.
N1485 X-3.4652 Y0.0496 Z-0.0871 I-0.0368 J-0.0073
N1490 X-3.4681 Y0.0554 Z-0.0837 I-0.0348 J-0.014
N1495 X-3.4715 Y0.06 Z-0.079 I-0.0319 J-0.0198
N1500 X-3.4747 Y0.0633 Z-0.0733 I-0.0285 J-0.0244
N1505 X-3.4774 Y0.0655 Z-0.0669 I-0.0253 J-0.0277
N1510 X-3.4791 Y0.0668 Z-0.0598 I-0.0226 J-0.0299
N1515 X-3.4797 Y0.0672 Z-0.0525 I-0.0209 J-0.0312
N1520 G0 Z0.2
N1525 X-3.6125 Y-0.1475
N1530 Z0.042
N1535 G18 G2 X-3.5756 Z0.0045 I0.0375 K0. F3.
N1540 G1 X-3.4978 Z0.0033
N1545 X-3.4785 Y-0.1451 Z0.003
N1550 X-3.4742 Y-0.1433 Z0.0029
N1555 X-3.4698 Y-0.1399 Z0.0028
N1560 X-3.4669 Y-0.1361 Z0.0027
N1565 X-3.4661 Y-0.1342
N1570 X-3.4649 Y-0.1313 Z0.0026
N1575 X-3.4626 Y-0.1141 Z0.0024
N1580 X-3.4625 Y-0.1088 Z0.0023
N1585 Y0.1129 Z-0.0012
N1590 X-3.4626 Y0.1143
N1595 X-3.4649 Y0.1312 Z-0.0015
N1600 X-3.4669 Y0.1361 Z-0.0016
N1605 X-3.4699 Y0.14 Z-0.0017
N1610 X-3.4742 Y0.1433 Z-0.0018
N1615 X-3.4786 Y0.1451
N1620 X-3.4977 Y0.1475 Z-0.0021
N1625 X-5.1442 Y0.1473 Z-0.0282
N1630 X-5.1594 Y0.1455 Z-0.0284
N1635 X-5.1638 Y0.1438 Z-0.0285
N1640 X-5.1678 Y0.141 Z-0.0286
N1645 X-5.1883 Y0.1177 Z-0.0291
N1650 G17 G2 X-5.1925 Y0.1133 Z-0.0292 I-0.074 J0.0653
N1655 G1 X-5.1982 Y0.1076 Z-0.0293
N1660 G2 X-5.2039 Y0.1024 Z-0.0294 I-0.0698 J0.0698
N1665 G1 X-5.2095 Y0.0975 Z-0.0295
N1670 G2 X-5.2151 Y0.0931 Z-0.0296 I-0.0642 J0.0751
N1675 G1 X-5.2207 Y0.089 Z-0.0298
N1680 G2 X-5.2281 Y0.084 Z-0.0299 I-0.0586 J0.0795
N1685 G1 X-5.2376 Y0.0783 Z-0.0301
N1690 G2 X-5.2483 Y0.0727 Z-0.0303 I-0.0511 J0.0845
N1695 G1 X-5.2602 Y0.0673 Z-0.0305
N1700 G2 X-5.2701 Y0.0635 Z-0.0306 I-0.0404 J0.0901
N1705 G1 X-5.278 Y0.0609 Z-0.0308
N1710 G2 X-5.2859 Y0.0587 Z-0.0309 I-0.0305 J0.0939
N1715 G1 X-5.2939 Y0.0569 Z-0.031
N1720 G2 X-5.3018 Y0.0554 Z-0.0312 I-0.0226 J0.0961
N1725 G1 X-5.3097 Y0.0542 Z-0.0313
N1730 G2 X-5.3176 Y0.0533 Z-0.0314 I-0.0146 J0.0977
N1735 G1 X-5.3255 Y0.0528 Z-0.0315
N1740 G2 X-5.3323 Y0.0525 Z-0.0316 I-0.0067 J0.0985
N1745 G1 X-6.0743 Z-0.0434
N1750 X-6.0781 Y0.052
N1755 X-6.0785 Y0.0487 Z-0.0435
N1760 Y-0.0487 Z-0.045
N1765 X-6.0781 Y-0.052 Z-0.0451
N1770 X-6.0743 Y-0.0525
N1775 X-6.0573 Z-0.0454
N1780 X-6.0434 Y-0.0512 Z-0.0456
N1785 X-6.0392 Y-0.05 Z-0.0457
N1790 X-6.0161 Y-0.039 Z-0.0461
N1795 G2 X-6.0081 Y-0.0356 Z-0.0462 I0.0426 J-0.0891
N1800 G1 X-6.0002 Y-0.0326 Z-0.0464
N1805 G2 X-5.9923 Y-0.03 Z-0.0465 I0.0346 J-0.0925
N1810 G1 X-5.9844 Y-0.0278 Z-0.0466
N1815 G2 X-5.9765 Y-0.0259 Z-0.0468 I0.0267 J-0.0951
N1820 G1 X-5.9685 Y-0.0244 Z-0.0469
N1825 G2 X-5.9606 Y-0.0232 Z-0.047 I0.0188 J-0.097
N1830 G1 X-5.9527 Y-0.0223 Z-0.0471
N1835 G2 X-5.9429 Y-0.0217 Z-0.0473 I0.0108 J-0.0982
N1840 G1 X-5.9191 Y-0.0215 Z-0.0477
N1845 G2 X-5.9181 I0.001 J-0.0987
N1850 G1 X-5.3322 Z-0.057
N1855 G2 X-5.3255 Y-0.0218 Z-0.0571 I0. J-0.0988
N1860 G1 X-5.3176 Y-0.0223 Z-0.0572
N1865 G2 X-5.3097 Y-0.0232 Z-0.0573 I-0.0067 J-0.0985
N1870 G1 X-5.3018 Y-0.0244 Z-0.0574
N1875 G2 X-5.2939 Y-0.0259 Z-0.0576 I-0.0146 J-0.0977
N1880 G1 X-5.2859 Y-0.0277 Z-0.0577
N1885 G2 X-5.278 Y-0.0299 Z-0.0578 I-0.0226 J-0.0961
N1890 G1 X-5.2701 Y-0.0325 Z-0.058
N1895 G2 X-5.2602 Y-0.0363 Z-0.0581 I-0.0305 J-0.0939
N1900 G1 X-5.2483 Y-0.0417 Z-0.0583
N1905 G2 X-5.2377 Y-0.0472 Z-0.0585 I-0.0404 J-0.0901
N1910 G1 X-5.2285 Y-0.0528 Z-0.0587
N1915 G2 X-5.2213 Y-0.0576 Z-0.0588 I-0.051 J-0.0846
N1920 G1 X-5.216 Y-0.0614 Z-0.0589
N1925 G2 X-5.2086 Y-0.0674 Z-0.0591 I-0.0582 J-0.0798
N1930 G1 X-5.1993 Y-0.0756 Z-0.0593
N1935 G2 X-5.1908 Y-0.0842 Z-0.0595 I-0.0656 J-0.0738
N1940 G1 X-5.1831 Y-0.0929 Z-0.0597
N1945 G2 X-5.1773 Y-0.1002 Z-0.0598 I-0.0741 J-0.0653
N1950 G1 X-5.1732 Y-0.1058 Z-0.0599
N1955 G2 X-5.1691 Y-0.1119 Z-0.06 I-0.0799 J-0.058
N1960 G1 X-5.1526 Y-0.1386 Z-0.0605
N1965 X-5.1494 Y-0.1418 Z-0.0606
N1970 X-5.146 Y-0.144 Z-0.0607
N1975 X-5.1416 Y-0.1455
N1980 X-5.1262 Y-0.1474 Z-0.061
N1985 X-5.1243 Y-0.1475
N1990 X-3.4978 Z-0.0867
N1995 X-3.4785 Y-0.1451 Z-0.087
N2000 X-3.4742 Y-0.1433 Z-0.0871
N2005 X-3.4698 Y-0.1399 Z-0.0872
N2010 X-3.4669 Y-0.1361 Z-0.0873
N2015 X-3.4661 Y-0.1342
N2020 X-3.4649 Y-0.1313 Z-0.0874
N2025 X-3.4626 Y-0.1141 Z-0.0876
N2030 X-3.4625 Y-0.1088 Z-0.0877
N2035 Y0.1129 Z-0.0912
N2040 X-3.4626 Y0.1143
N2045 X-3.4649 Y0.1312 Z-0.0915
N2050 X-3.4669 Y0.1361 Z-0.0916
N2055 X-3.4699 Y0.14 Z-0.0917
N2060 X-3.4742 Y0.1433 Z-0.0918
N2065 X-3.4786 Y0.1451
N2070 X-3.4977 Y0.1475 Z-0.0921
N2075 X-5.1442 Y0.1473 Z-0.1182
N2080 X-5.1594 Y0.1455 Z-0.1184
N2085 X-5.1638 Y0.1438 Z-0.1185
N2090 X-5.1678 Y0.141 Z-0.1186
N2095 X-5.1883 Y0.1177 Z-0.1191
N2100 G2 X-5.1925 Y0.1133 Z-0.1192 I-0.074 J0.0653
N2105 G1 X-5.1982 Y0.1076 Z-0.1193
N2110 G2 X-5.2039 Y0.1024 Z-0.1194 I-0.0698 J0.0698
N2115 G1 X-5.2095 Y0.0975 Z-0.1195
N2120 G2 X-5.2151 Y0.0931 Z-0.1196 I-0.0642 J0.0751
N2125 G1 X-5.2207 Y0.089 Z-0.1198
N2130 G2 X-5.2281 Y0.084 Z-0.1199 I-0.0586 J0.0795
N2135 G1 X-5.2376 Y0.0783 Z-0.1201
N2140 G2 X-5.2483 Y0.0727 Z-0.1203 I-0.0511 J0.0845
N2145 G1 X-5.2602 Y0.0673 Z-0.1205
N2150 G2 X-5.2701 Y0.0635 Z-0.1206 I-0.0404 J0.0901
N2155 G1 X-5.278 Y0.0609 Z-0.1208
N2160 G2 X-5.2859 Y0.0587 Z-0.1209 I-0.0305 J0.0939
N2165 G1 X-5.2939 Y0.0569 Z-0.121
N2170 G2 X-5.3018 Y0.0554 Z-0.1212 I-0.0226 J0.0961
N2175 G1 X-5.3097 Y0.0542 Z-0.1213
N2180 G2 X-5.3176 Y0.0533 Z-0.1214 I-0.0146 J0.0977
N2185 G1 X-5.3255 Y0.0528 Z-0.1215
N2190 G2 X-5.3323 Y0.0525 Z-0.1216 I-0.0067 J0.0985
N2195 G1 X-6.0743 Z-0.1334
N2200 X-6.0781 Y0.052
N2205 X-6.0785 Y0.0487 Z-0.1335
N2210 Y-0.0487 Z-0.135
N2215 X-6.0781 Y-0.052 Z-0.1351
N2220 X-6.0743 Y-0.0525
N2225 X-6.0573 Z-0.1354
N2230 X-6.0434 Y-0.0512 Z-0.1356
N2235 X-6.0392 Y-0.05 Z-0.1357
N2240 X-6.0161 Y-0.039 Z-0.1361
N2245 G2 X-6.0081 Y-0.0356 Z-0.1362 I0.0426 J-0.0891
N2250 G1 X-6.0002 Y-0.0326 Z-0.1364
N2255 G2 X-5.9923 Y-0.03 Z-0.1365 I0.0346 J-0.0925
N2260 G1 X-5.9844 Y-0.0278 Z-0.1366
N2265 G2 X-5.9765 Y-0.0259 Z-0.1368 I0.0267 J-0.0951
N2270 G1 X-5.9685 Y-0.0244 Z-0.1369
N2275 G2 X-5.9606 Y-0.0232 Z-0.137 I0.0188 J-0.097
N2280 G1 X-5.9527 Y-0.0223 Z-0.1371
N2285 G2 X-5.9429 Y-0.0217 Z-0.1373 I0.0108 J-0.0982
N2290 G1 X-5.9191 Y-0.0215 Z-0.1377
N2295 G2 X-5.9181 I0.001 J-0.0987
N2300 G1 X-5.3322 Z-0.147
N2305 G2 X-5.3255 Y-0.0218 Z-0.1471 I0. J-0.0988
N2310 G1 X-5.3176 Y-0.0223 Z-0.1472
N2315 G2 X-5.3097 Y-0.0232 Z-0.1473 I-0.0067 J-0.0985
N2320 G1 X-5.3018 Y-0.0244 Z-0.1474
N2325 G2 X-5.2939 Y-0.0259 Z-0.1476 I-0.0146 J-0.0977
N2330 G1 X-5.2859 Y-0.0277 Z-0.1477
N2335 G2 X-5.278 Y-0.0299 Z-0.1478 I-0.0226 J-0.0961
N2340 G1 X-5.2701 Y-0.0325 Z-0.148
N2345 G2 X-5.2602 Y-0.0363 Z-0.1481 I-0.0305 J-0.0939
N2350 G1 X-5.2483 Y-0.0417 Z-0.1483
N2355 G2 X-5.2377 Y-0.0472 Z-0.1485 I-0.0404 J-0.0901
N2360 G1 X-5.2285 Y-0.0528 Z-0.1487
N2365 G2 X-5.2213 Y-0.0576 Z-0.1488 I-0.051 J-0.0846
N2370 G1 X-5.216 Y-0.0614 Z-0.1489
N2375 G2 X-5.2086 Y-0.0674 Z-0.1491 I-0.0582 J-0.0798
N2380 G1 X-5.1993 Y-0.0756 Z-0.1493
N2385 G2 X-5.1908 Y-0.0842 Z-0.1495 I-0.0656 J-0.0738
N2390 G1 X-5.1831 Y-0.0929 Z-0.1497
N2395 G2 X-5.1773 Y-0.1002 Z-0.1498 I-0.0741 J-0.0653
N2400 G1 X-5.1732 Y-0.1058 Z-0.1499
N2405 G2 X-5.1691 Y-0.1119 Z-0.15 I-0.0799 J-0.058
N2410 G1 X-5.1526 Y-0.1386 Z-0.1505
N2415 X-5.1494 Y-0.1418 Z-0.1506
N2420 X-5.146 Y-0.144 Z-0.1507
N2425 X-5.1416 Y-0.1455
N2430 X-5.1262 Y-0.1474 Z-0.151
N2435 X-5.1243 Y-0.1475
N2440 X-3.4978 Z-0.1767
N2445 X-3.4785 Y-0.1451 Z-0.177
N2450 X-3.4742 Y-0.1433 Z-0.1771
N2455 X-3.4698 Y-0.1399 Z-0.1772
N2460 X-3.4669 Y-0.1361 Z-0.1773
N2465 X-3.4661 Y-0.1342
N2470 X-3.4649 Y-0.1313 Z-0.1774
N2475 X-3.4626 Y-0.1141 Z-0.1776
N2480 X-3.4625 Y-0.1088 Z-0.1777
N2485 Y0.0356 Z-0.18
N2490 Y0.1129 F15.
N2495 X-3.4626 Y0.1143
N2500 X-3.4649 Y0.1312
N2505 X-3.4669 Y0.1361
N2510 X-3.4699 Y0.14
N2515 X-3.4742 Y0.1433
N2520 X-3.4786 Y0.1451
N2525 X-3.4977 Y0.1475
N2530 X-5.1442 Y0.1473
N2535 X-5.1594 Y0.1455
N2540 X-5.1638 Y0.1438
N2545 X-5.1678 Y0.141
N2550 X-5.1883 Y0.1177
N2555 G2 X-5.1925 Y0.1133 I-0.074 J0.0653
N2560 G1 X-5.1982 Y0.1076
N2565 G2 X-5.2039 Y0.1024 I-0.0698 J0.0698
N2570 G1 X-5.2095 Y0.0975
N2575 G2 X-5.2151 Y0.0931 I-0.0642 J0.0751
N2580 G1 X-5.2207 Y0.089
N2585 G2 X-5.2281 Y0.084 I-0.0586 J0.0795
N2590 G1 X-5.2376 Y0.0783
N2595 G2 X-5.2483 Y0.0727 I-0.0511 J0.0845
N2600 G1 X-5.2602 Y0.0673
N2605 G2 X-5.2701 Y0.0635 I-0.0404 J0.0901
N2610 G1 X-5.278 Y0.0609
N2615 G2 X-5.2859 Y0.0587 I-0.0305 J0.0939
N2620 G1 X-5.2939 Y0.0569
N2625 G2 X-5.3018 Y0.0554 I-0.0226 J0.0961
N2630 G1 X-5.3097 Y0.0542
N2635 G2 X-5.3176 Y0.0533 I-0.0146 J0.0977
N2640 G1 X-5.3255 Y0.0528
N2645 G2 X-5.3323 Y0.0525 I-0.0067 J0.0985
N2650 G1 X-6.0743
N2655 X-6.0781 Y0.052
N2660 X-6.0785 Y0.0487
N2665 Y-0.0487
N2670 X-6.0781 Y-0.052
N2675 X-6.0743 Y-0.0525
N2680 X-6.0573
N2685 X-6.0434 Y-0.0512
N2690 X-6.0392 Y-0.05
N2695 X-6.0161 Y-0.039
N2700 G2 X-6.0081 Y-0.0356 I0.0426 J-0.0891
N2705 G1 X-6.0002 Y-0.0326
N2710 G2 X-5.9923 Y-0.03 I0.0346 J-0.0925
N2715 G1 X-5.9844 Y-0.0278
N2720 G2 X-5.9765 Y-0.0259 I0.0267 J-0.0951
N2725 G1 X-5.9685 Y-0.0244
N2730 G2 X-5.9606 Y-0.0232 I0.0188 J-0.097
N2735 G1 X-5.9527 Y-0.0223
N2740 G2 X-5.9429 Y-0.0217 I0.0108 J-0.0982
N2745 G1 X-5.9191 Y-0.0215
N2750 G2 X-5.9181 I0.001 J-0.0987
N2755 G1 X-5.3322
N2760 G2 X-5.3255 Y-0.0218 I0. J-0.0988
N2765 G1 X-5.3176 Y-0.0223
N2770 G2 X-5.3097 Y-0.0232 I-0.0067 J-0.0985
N2775 G1 X-5.3018 Y-0.0244
N2780 G2 X-5.2939 Y-0.0259 I-0.0146 J-0.0977
N2785 G1 X-5.2859 Y-0.0277
N2790 G2 X-5.278 Y-0.0299 I-0.0226 J-0.0961
N2795 G1 X-5.2701 Y-0.0325
N2800 G2 X-5.2602 Y-0.0363 I-0.0305 J-0.0939
N2805 G1 X-5.2483 Y-0.0417
N2810 G2 X-5.2377 Y-0.0472 I-0.0404 J-0.0901
N2815 G1 X-5.2285 Y-0.0528
N2820 G2 X-5.2213 Y-0.0576 I-0.051 J-0.0846
N2825 G1 X-5.216 Y-0.0614
N2830 G2 X-5.2086 Y-0.0674 I-0.0582 J-0.0798
N2835 G1 X-5.1993 Y-0.0756
N2840 G2 X-5.1908 Y-0.0842 I-0.0656 J-0.0738
N2845 G1 X-5.1831 Y-0.0929
N2850 G2 X-5.1773 Y-0.1002 I-0.0741 J-0.0653
N2855 G1 X-5.1732 Y-0.1058
N2860 G2 X-5.1691 Y-0.1119 I-0.0799 J-0.058
N2865 G1 X-5.1526 Y-0.1386
N2870 X-5.1494 Y-0.1418
N2875 X-5.146 Y-0.144
N2880 X-5.1416 Y-0.1455
N2885 X-5.1262 Y-0.1474
N2890 X-5.1243 Y-0.1475
N2895 X-3.4978
N2900 X-3.4785 Y-0.1451
N2905 X-3.4742 Y-0.1433
N2910 X-3.4698 Y-0.1399
N2915 X-3.4669 Y-0.1361
N2920 X-3.4661 Y-0.1342
N2925 X-3.4649 Y-0.1313
N2930 X-3.4626 Y-0.1141
N2935 X-3.4625 Y-0.1088
N2940 Y0.0356
N2945 G3 X-3.4632 Y0.0429 Z-0.1793 I-0.0375 J0. F2.
N2950 X-3.4652 Y0.0496 Z-0.1771 I-0.0368 J-0.0073
N2955 X-3.4681 Y0.0554 Z-0.1737 I-0.0348 J-0.014
N2960 X-3.4715 Y0.06 Z-0.169 I-0.0319 J-0.0198
N2965 X-3.4747 Y0.0633 Z-0.1633 I-0.0285 J-0.0244
N2970 X-3.4774 Y0.0655 Z-0.1569 I-0.0253 J-0.0277
N2975 X-3.4791 Y0.0668 Z-0.1498 I-0.0226 J-0.0299
N2980 X-3.4797 Y0.0672 Z-0.1425 I-0.0209 J-0.0312
N2985 G0 Z0.2
N2990 X-3.6125 Y-0.1475
N2995 Z0.1294
N3000 G1 Z-0.048 F1.
N3005 G18 G2 X-3.5756 Z-0.0855 I0.0375 K0. F3.
N3010 G1 X-3.4978 Z-0.0867
N3015 X-3.4785 Y-0.1451 Z-0.087
N3020 X-3.4742 Y-0.1433 Z-0.0871
N3025 X-3.4698 Y-0.1399 Z-0.0872
N3030 X-3.4669 Y-0.1361 Z-0.0873
N3035 X-3.4661 Y-0.1342
N3040 X-3.4649 Y-0.1313 Z-0.0874
N3045 X-3.4626 Y-0.1141 Z-0.0876
N3050 X-3.4625 Y-0.1088 Z-0.0877
N3055 Y0.1129 Z-0.0912
N3060 X-3.4626 Y0.1143
N3065 X-3.4649 Y0.1312 Z-0.0915
N3070 X-3.4669 Y0.1361 Z-0.0916
N3075 X-3.4699 Y0.14 Z-0.0917
N3080 X-3.4742 Y0.1433 Z-0.0918
N3085 X-3.4786 Y0.1451
N3090 X-3.4977 Y0.1475 Z-0.0921
N3095 X-5.1442 Y0.1473 Z-0.1182
N3100 X-5.1594 Y0.1455 Z-0.1184
N3105 X-5.1638 Y0.1438 Z-0.1185
N3110 X-5.1678 Y0.141 Z-0.1186
N3115 X-5.1883 Y0.1177 Z-0.1191
N3120 G17 G2 X-5.1925 Y0.1133 Z-0.1192 I-0.074 J0.0653
N3125 G1 X-5.1982 Y0.1076 Z-0.1193
N3130 G2 X-5.2039 Y0.1024 Z-0.1194 I-0.0698 J0.0698
N3135 G1 X-5.2095 Y0.0975 Z-0.1195
N3140 G2 X-5.2151 Y0.0931 Z-0.1196 I-0.0642 J0.0751
N3145 G1 X-5.2207 Y0.089 Z-0.1198
N3150 G2 X-5.2281 Y0.084 Z-0.1199 I-0.0586 J0.0795
N3155 G1 X-5.2376 Y0.0783 Z-0.1201
N3160 G2 X-5.2483 Y0.0727 Z-0.1203 I-0.0511 J0.0845
N3165 G1 X-5.2602 Y0.0673 Z-0.1205
N3170 G2 X-5.2701 Y0.0635 Z-0.1206 I-0.0404 J0.0901
N3175 G1 X-5.278 Y0.0609 Z-0.1208
N3180 G2 X-5.2859 Y0.0587 Z-0.1209 I-0.0305 J0.0939
N3185 G1 X-5.2939 Y0.0569 Z-0.121
N3190 G2 X-5.3018 Y0.0554 Z-0.1212 I-0.0226 J0.0961
N3195 G1 X-5.3097 Y0.0542 Z-0.1213
N3200 G2 X-5.3176 Y0.0533 Z-0.1214 I-0.0146 J0.0977
N3205 G1 X-5.3255 Y0.0528 Z-0.1215
N3210 G2 X-5.3323 Y0.0525 Z-0.1216 I-0.0067 J0.0985
N3215 G1 X-6.0743 Z-0.1334
N3220 X-6.0781 Y0.052
N3225 X-6.0785 Y0.0487 Z-0.1335
N3230 Y-0.0487 Z-0.135
N3235 X-6.0781 Y-0.052 Z-0.1351
N3240 X-6.0743 Y-0.0525
N3245 X-6.0573 Z-0.1354
N3250 X-6.0434 Y-0.0512 Z-0.1356
N3255 X-6.0392 Y-0.05 Z-0.1357
N3260 X-6.0161 Y-0.039 Z-0.1361
N3265 G2 X-6.0081 Y-0.0356 Z-0.1362 I0.0426 J-0.0891
N3270 G1 X-6.0002 Y-0.0326 Z-0.1364
N3275 G2 X-5.9923 Y-0.03 Z-0.1365 I0.0346 J-0.0925
N3280 G1 X-5.9844 Y-0.0278 Z-0.1366
N3285 G2 X-5.9765 Y-0.0259 Z-0.1368 I0.0267 J-0.0951
N3290 G1 X-5.9685 Y-0.0244 Z-0.1369
N3295 G2 X-5.9606 Y-0.0232 Z-0.137 I0.0188 J-0.097
N3300 G1 X-5.9527 Y-0.0223 Z-0.1371
N3305 G2 X-5.9429 Y-0.0217 Z-0.1373 I0.0108 J-0.0982
N3310 G1 X-5.9191 Y-0.0215 Z-0.1377
N3315 G2 X-5.9181 I0.001 J-0.0987
N3320 G1 X-5.3322 Z-0.147
N3325 G2 X-5.3255 Y-0.0218 Z-0.1471 I0. J-0.0988
N3330 G1 X-5.3176 Y-0.0223 Z-0.1472
N3335 G2 X-5.3097 Y-0.0232 Z-0.1473 I-0.0067 J-0.0985
N3340 G1 X-5.3018 Y-0.0244 Z-0.1474
N3345 G2 X-5.2939 Y-0.0259 Z-0.1476 I-0.0146 J-0.0977
N3350 G1 X-5.2859 Y-0.0277 Z-0.1477
N3355 G2 X-5.278 Y-0.0299 Z-0.1478 I-0.0226 J-0.0961
N3360 G1 X-5.2701 Y-0.0325 Z-0.148
N3365 G2 X-5.2602 Y-0.0363 Z-0.1481 I-0.0305 J-0.0939
N3370 G1 X-5.2483 Y-0.0417 Z-0.1483
N3375 G2 X-5.2377 Y-0.0472 Z-0.1485 I-0.0404 J-0.0901
N3380 G1 X-5.2285 Y-0.0528 Z-0.1487
N3385 G2 X-5.2213 Y-0.0576 Z-0.1488 I-0.051 J-0.0846
N3390 G1 X-5.216 Y-0.0614 Z-0.1489
N3395 G2 X-5.2086 Y-0.0674 Z-0.1491 I-0.0582 J-0.0798
N3400 G1 X-5.1993 Y-0.0756 Z-0.1493
N3405 G2 X-5.1908 Y-0.0842 Z-0.1495 I-0.0656 J-0.0738
N3410 G1 X-5.1831 Y-0.0929 Z-0.1497
N3415 G2 X-5.1773 Y-0.1002 Z-0.1498 I-0.0741 J-0.0653
N3420 G1 X-5.1732 Y-0.1058 Z-0.1499
N3425 G2 X-5.1691 Y-0.1119 Z-0.15 I-0.0799 J-0.058
N3430 G1 X-5.1526 Y-0.1386 Z-0.1505
N3435 X-5.1494 Y-0.1418 Z-0.1506
N3440 X-5.146 Y-0.144 Z-0.1507
N3445 X-5.1416 Y-0.1455
N3450 X-5.1262 Y-0.1474 Z-0.151
N3455 X-5.1243 Y-0.1475
N3460 X-3.4978 Z-0.1767
N3465 X-3.4785 Y-0.1451 Z-0.177
N3470 X-3.4742 Y-0.1433 Z-0.1771
N3475 X-3.4698 Y-0.1399 Z-0.1772
N3480 X-3.4669 Y-0.1361 Z-0.1773
N3485 X-3.4661 Y-0.1342
N3490 X-3.4649 Y-0.1313 Z-0.1774
N3495 X-3.4626 Y-0.1141 Z-0.1776
N3500 X-3.4625 Y-0.1088 Z-0.1777
N3505 Y0.1129 Z-0.1812
N3510 X-3.4626 Y0.1143
N3515 X-3.4649 Y0.1312 Z-0.1815
N3520 X-3.4669 Y0.1361 Z-0.1816
N3525 X-3.4699 Y0.14 Z-0.1817
N3530 X-3.4742 Y0.1433 Z-0.1818
N3535 X-3.4786 Y0.1451
N3540 X-3.4977 Y0.1475 Z-0.1821
N3545 X-5.1442 Y0.1473 Z-0.2082
N3550 X-5.1594 Y0.1455 Z-0.2084
N3555 X-5.1638 Y0.1438 Z-0.2085
N3560 X-5.1678 Y0.141 Z-0.2086
N3565 X-5.1883 Y0.1177 Z-0.2091
N3570 G2 X-5.1925 Y0.1133 Z-0.2092 I-0.074 J0.0653
N3575 G1 X-5.1982 Y0.1076 Z-0.2093
N3580 G2 X-5.2039 Y0.1024 Z-0.2094 I-0.0698 J0.0698
N3585 G1 X-5.2095 Y0.0975 Z-0.2095
N3590 G2 X-5.2151 Y0.0931 Z-0.2096 I-0.0642 J0.0751
N3595 G1 X-5.2207 Y0.089 Z-0.2098
N3600 G2 X-5.2281 Y0.084 Z-0.2099 I-0.0586 J0.0795
N3605 G1 X-5.2376 Y0.0783 Z-0.2101
N3610 G2 X-5.2483 Y0.0727 Z-0.2103 I-0.0511 J0.0845
N3615 G1 X-5.2602 Y0.0673 Z-0.2105
N3620 G2 X-5.2701 Y0.0635 Z-0.2106 I-0.0404 J0.0901
N3625 G1 X-5.278 Y0.0609 Z-0.2108
N3630 G2 X-5.2859 Y0.0587 Z-0.2109 I-0.0305 J0.0939
N3635 G1 X-5.2939 Y0.0569 Z-0.211
N3640 G2 X-5.3018 Y0.0554 Z-0.2112 I-0.0226 J0.0961
N3645 G1 X-5.3097 Y0.0542 Z-0.2113
N3650 G2 X-5.3176 Y0.0533 Z-0.2114 I-0.0146 J0.0977
N3655 G1 X-5.3255 Y0.0528 Z-0.2115
N3660 G2 X-5.3323 Y0.0525 Z-0.2116 I-0.0067 J0.0985
N3665 G1 X-6.0743 Z-0.2234
N3670 X-6.0781 Y0.052
N3675 X-6.0785 Y0.0487 Z-0.2235
N3680 Y-0.0487 Z-0.225
N3685 X-6.0781 Y-0.052 Z-0.2251
N3690 X-6.0743 Y-0.0525
N3695 X-6.0573 Z-0.2254
N3700 X-6.0434 Y-0.0512 Z-0.2256
N3705 X-6.0392 Y-0.05 Z-0.2257
N3710 X-6.0161 Y-0.039 Z-0.2261
N3715 G2 X-6.0081 Y-0.0356 Z-0.2262 I0.0426 J-0.0891
N3720 G1 X-6.0002 Y-0.0326 Z-0.2264
N3725 G2 X-5.9923 Y-0.03 Z-0.2265 I0.0346 J-0.0925
N3730 G1 X-5.9844 Y-0.0278 Z-0.2266
N3735 G2 X-5.9765 Y-0.0259 Z-0.2268 I0.0267 J-0.0951
N3740 G1 X-5.9685 Y-0.0244 Z-0.2269
N3745 G2 X-5.9606 Y-0.0232 Z-0.227 I0.0188 J-0.097
N3750 G1 X-5.9527 Y-0.0223 Z-0.2271
N3755 G2 X-5.9429 Y-0.0217 Z-0.2273 I0.0108 J-0.0982
N3760 G1 X-5.9191 Y-0.0215 Z-0.2277
N3765 G2 X-5.9181 I0.001 J-0.0987
N3770 G1 X-5.3322 Z-0.237
N3775 G2 X-5.3255 Y-0.0218 Z-0.2371 I0. J-0.0988
N3780 G1 X-5.3176 Y-0.0223 Z-0.2372
N3785 G2 X-5.3097 Y-0.0232 Z-0.2373 I-0.0067 J-0.0985
N3790 G1 X-5.3018 Y-0.0244 Z-0.2374
N3795 G2 X-5.2939 Y-0.0259 Z-0.2376 I-0.0146 J-0.0977
N3800 G1 X-5.2859 Y-0.0277 Z-0.2377
N3805 G2 X-5.278 Y-0.0299 Z-0.2378 I-0.0226 J-0.0961
N3810 G1 X-5.2701 Y-0.0325 Z-0.238
N3815 G2 X-5.2602 Y-0.0363 Z-0.2381 I-0.0305 J-0.0939
N3820 G1 X-5.2483 Y-0.0417 Z-0.2383
N3825 G2 X-5.2377 Y-0.0472 Z-0.2385 I-0.0404 J-0.0901
N3830 G1 X-5.2285 Y-0.0528 Z-0.2387
N3835 G2 X-5.2213 Y-0.0576 Z-0.2388 I-0.051 J-0.0846
N3840 G1 X-5.216 Y-0.0614 Z-0.2389
N3845 G2 X-5.2086 Y-0.0674 Z-0.2391 I-0.0582 J-0.0798
N3850 G1 X-5.1993 Y-0.0756 Z-0.2393
N3855 G2 X-5.1908 Y-0.0842 Z-0.2395 I-0.0656 J-0.0738
N3860 G1 X-5.1831 Y-0.0929 Z-0.2397
N3865 G2 X-5.1773 Y-0.1002 Z-0.2398 I-0.0741 J-0.0653
N3870 G1 X-5.1732 Y-0.1058 Z-0.2399
N3875 G2 X-5.1691 Y-0.1119 Z-0.24 I-0.0799 J-0.058
N3880 G1 X-5.1526 Y-0.1386 Z-0.2405
N3885 X-5.1494 Y-0.1418 Z-0.2406
N3890 X-5.146 Y-0.144 Z-0.2407
N3895 X-5.1416 Y-0.1455
N3900 X-5.1262 Y-0.1474 Z-0.241
N3905 X-5.1243 Y-0.1475
N3910 X-3.4978 Z-0.2667
N3915 X-3.4785 Y-0.1451 Z-0.267
N3920 X-3.4742 Y-0.1433 Z-0.2671
N3925 X-3.4698 Y-0.1399 Z-0.2672
N3930 X-3.4669 Y-0.1361 Z-0.2673
N3935 X-3.4661 Y-0.1342
N3940 X-3.4649 Y-0.1313 Z-0.2674
N3945 X-3.4626 Y-0.1141 Z-0.2676
N3950 X-3.4625 Y-0.1088 Z-0.2677
N3955 Y0.0356 Z-0.27
N3960 Y0.1129 F15.
N3965 X-3.4626 Y0.1143
N3970 X-3.4649 Y0.1312
N3975 X-3.4669 Y0.1361
N3980 X-3.4699 Y0.14
N3985 X-3.4742 Y0.1433
N3990 X-3.4786 Y0.1451
N3995 X-3.4977 Y0.1475
N4000 X-5.1442 Y0.1473
N4005 X-5.1594 Y0.1455
N4010 X-5.1638 Y0.1438
N4015 X-5.1678 Y0.141
N4020 X-5.1883 Y0.1177
N4025 G2 X-5.1925 Y0.1133 I-0.074 J0.0653
N4030 G1 X-5.1982 Y0.1076
N4035 G2 X-5.2039 Y0.1024 I-0.0698 J0.0698
N4040 G1 X-5.2095 Y0.0975
N4045 G2 X-5.2151 Y0.0931 I-0.0642 J0.0751
N4050 G1 X-5.2207 Y0.089
N4055 G2 X-5.2281 Y0.084 I-0.0586 J0.0795
N4060 G1 X-5.2376 Y0.0783
N4065 G2 X-5.2483 Y0.0727 I-0.0511 J0.0845
N4070 G1 X-5.2602 Y0.0673
N4075 G2 X-5.2701 Y0.0635 I-0.0404 J0.0901
N4080 G1 X-5.278 Y0.0609
N4085 G2 X-5.2859 Y0.0587 I-0.0305 J0.0939
N4090 G1 X-5.2939 Y0.0569
N4095 G2 X-5.3018 Y0.0554 I-0.0226 J0.0961
N4100 G1 X-5.3097 Y0.0542
N4105 G2 X-5.3176 Y0.0533 I-0.0146 J0.0977
N4110 G1 X-5.3255 Y0.0528
N4115 G2 X-5.3323 Y0.0525 I-0.0067 J0.0985
N4120 G1 X-6.0743
N4125 X-6.0781 Y0.052
N4130 X-6.0785 Y0.0487
N4135 Y-0.0487
N4140 X-6.0781 Y-0.052
N4145 X-6.0743 Y-0.0525
N4150 X-6.0573
N4155 X-6.0434 Y-0.0512
N4160 X-6.0392 Y-0.05
N4165 X-6.0161 Y-0.039
N4170 G2 X-6.0081 Y-0.0356 I0.0426 J-0.0891
N4175 G1 X-6.0002 Y-0.0326
N4180 G2 X-5.9923 Y-0.03 I0.0346 J-0.0925
N4185 G1 X-5.9844 Y-0.0278
N4190 G2 X-5.9765 Y-0.0259 I0.0267 J-0.0951
N4195 G1 X-5.9685 Y-0.0244
N4200 G2 X-5.9606 Y-0.0232 I0.0188 J-0.097
N4205 G1 X-5.9527 Y-0.0223
N4210 G2 X-5.9429 Y-0.0217 I0.0108 J-0.0982
N4215 G1 X-5.9191 Y-0.0215
N4220 G2 X-5.9181 I0.001 J-0.0987
N4225 G1 X-5.3322
N4230 G2 X-5.3255 Y-0.0218 I0. J-0.0988
N4235 G1 X-5.3176 Y-0.0223
N4240 G2 X-5.3097 Y-0.0232 I-0.0067 J-0.0985
N4245 G1 X-5.3018 Y-0.0244
N4250 G2 X-5.2939 Y-0.0259 I-0.0146 J-0.0977
N4255 G1 X-5.2859 Y-0.0277
N4260 G2 X-5.278 Y-0.0299 I-0.0226 J-0.0961
N4265 G1 X-5.2701 Y-0.0325
N4270 G2 X-5.2602 Y-0.0363 I-0.0305 J-0.0939
N4275 G1 X-5.2483 Y-0.0417
N4280 G2 X-5.2377 Y-0.0472 I-0.0404 J-0.0901
N4285 G1 X-5.2285 Y-0.0528
N4290 G2 X-5.2213 Y-0.0576 I-0.051 J-0.0846
N4295 G1 X-5.216 Y-0.0614
N4300 G2 X-5.2086 Y-0.0674 I-0.0582 J-0.0798
N4305 G1 X-5.1993 Y-0.0756
N4310 G2 X-5.1908 Y-0.0842 I-0.0656 J-0.0738
N4315 G1 X-5.1831 Y-0.0929
N4320 G2 X-5.1773 Y-0.1002 I-0.0741 J-0.0653
N4325 G1 X-5.1732 Y-0.1058
N4330 G2 X-5.1691 Y-0.1119 I-0.0799 J-0.058
N4335 G1 X-5.1526 Y-0.1386
N4340 X-5.1494 Y-0.1418
N4345 X-5.146 Y-0.144
N4350 X-5.1416 Y-0.1455
N4355 X-5.1262 Y-0.1474
N4360 X-5.1243 Y-0.1475
N4365 X-3.4978
N4370 X-3.4785 Y-0.1451
N4375 X-3.4742 Y-0.1433
N4380 X-3.4698 Y-0.1399
N4385 X-3.4669 Y-0.1361
N4390 X-3.4661 Y-0.1342
N4395 X-3.4649 Y-0.1313
N4400 X-3.4626 Y-0.1141
N4405 X-3.4625 Y-0.1088
N4410 Y0.0356
N4415 G3 X-3.4632 Y0.0429 Z-0.2693 I-0.0375 J0. F2.
N4420 X-3.4652 Y0.0496 Z-0.2671 I-0.0368 J-0.0073
N4425 X-3.4681 Y0.0554 Z-0.2637 I-0.0348 J-0.014
N4430 X-3.4715 Y0.06 Z-0.259 I-0.0319 J-0.0198
N4435 X-3.4747 Y0.0633 Z-0.2533 I-0.0285 J-0.0244
N4440 X-3.4774 Y0.0655 Z-0.2469 I-0.0253 J-0.0277
N4445 X-3.4791 Y0.0668 Z-0.2398 I-0.0226 J-0.0299
N4450 X-3.4797 Y0.0672 Z-0.2325 I-0.0209 J-0.0312
N4455 G0 Z0.2
N4460 X-3.6125 Y-0.1475
N4465 G1 Z-0.138 F1.
N4470 G18 G2 X-3.5756 Z-0.1755 I0.0375 K0. F3.
N4475 G1 X-3.4978 Z-0.1767
N4480 X-3.4785 Y-0.1451 Z-0.177
N4485 X-3.4742 Y-0.1433 Z-0.1771
N4490 X-3.4698 Y-0.1399 Z-0.1772
N4495 X-3.4669 Y-0.1361 Z-0.1773
N4500 X-3.4661 Y-0.1342
N4505 X-3.4649 Y-0.1313 Z-0.1774
N4510 X-3.4626 Y-0.1141 Z-0.1776
N4515 X-3.4625 Y-0.1088 Z-0.1777
N4520 Y0.1129 Z-0.1812
N4525 X-3.4626 Y0.1143
N4530 X-3.4649 Y0.1312 Z-0.1815
N4535 X-3.4669 Y0.1361 Z-0.1816
N4540 X-3.4699 Y0.14 Z-0.1817
N4545 X-3.4742 Y0.1433 Z-0.1818
N4550 X-3.4786 Y0.1451
N4555 X-3.4977 Y0.1475 Z-0.1821
N4560 X-5.1442 Y0.1473 Z-0.2082
N4565 X-5.1594 Y0.1455 Z-0.2084
N4570 X-5.1638 Y0.1438 Z-0.2085
N4575 X-5.1678 Y0.141 Z-0.2086
N4580 X-5.1883 Y0.1177 Z-0.2091
N4585 G17 G2 X-5.1925 Y0.1133 Z-0.2092 I-0.074 J0.0653
N4590 G1 X-5.1982 Y0.1076 Z-0.2093
N4595 G2 X-5.2039 Y0.1024 Z-0.2094 I-0.0698 J0.0698
N4600 G1 X-5.2095 Y0.0975 Z-0.2095
N4605 G2 X-5.2151 Y0.0931 Z-0.2096 I-0.0642 J0.0751
N4610 G1 X-5.2207 Y0.089 Z-0.2098
N4615 G2 X-5.2281 Y0.084 Z-0.2099 I-0.0586 J0.0795
N4620 G1 X-5.2376 Y0.0783 Z-0.2101
N4625 G2 X-5.2483 Y0.0727 Z-0.2103 I-0.0511 J0.0845
N4630 G1 X-5.2602 Y0.0673 Z-0.2105
N4635 G2 X-5.2701 Y0.0635 Z-0.2106 I-0.0404 J0.0901
N4640 G1 X-5.278 Y0.0609 Z-0.2108
N4645 G2 X-5.2859 Y0.0587 Z-0.2109 I-0.0305 J0.0939
N4650 G1 X-5.2939 Y0.0569 Z-0.211
N4655 G2 X-5.3018 Y0.0554 Z-0.2112 I-0.0226 J0.0961
N4660 G1 X-5.3097 Y0.0542 Z-0.2113
N4665 G2 X-5.3176 Y0.0533 Z-0.2114 I-0.0146 J0.0977
N4670 G1 X-5.3255 Y0.0528 Z-0.2115
N4675 G2 X-5.3323 Y0.0525 Z-0.2116 I-0.0067 J0.0985
N4680 G1 X-6.0743 Z-0.2234
N4685 X-6.0781 Y0.052
N4690 X-6.0785 Y0.0487 Z-0.2235
N4695 Y-0.0487 Z-0.225
N4700 X-6.0781 Y-0.052 Z-0.2251
N4705 X-6.0743 Y-0.0525
N4710 X-6.0573 Z-0.2254
N4715 X-6.0434 Y-0.0512 Z-0.2256
N4720 X-6.0392 Y-0.05 Z-0.2257
N4725 X-6.0161 Y-0.039 Z-0.2261
N4730 G2 X-6.0081 Y-0.0356 Z-0.2262 I0.0426 J-0.0891
N4735 G1 X-6.0002 Y-0.0326 Z-0.2264
N4740 G2 X-5.9923 Y-0.03 Z-0.2265 I0.0346 J-0.0925
N4745 G1 X-5.9844 Y-0.0278 Z-0.2266
N4750 G2 X-5.9765 Y-0.0259 Z-0.2268 I0.0267 J-0.0951
N4755 G1 X-5.9685 Y-0.0244 Z-0.2269
N4760 G2 X-5.9606 Y-0.0232 Z-0.227 I0.0188 J-0.097
N4765 G1 X-5.9527 Y-0.0223 Z-0.2271
N4770 G2 X-5.9429 Y-0.0217 Z-0.2273 I0.0108 J-0.0982
N4775 G1 X-5.9191 Y-0.0215 Z-0.2277
N4780 G2 X-5.9181 I0.001 J-0.0987
N4785 G1 X-5.3322 Z-0.237
N4790 G2 X-5.3255 Y-0.0218 Z-0.2371 I0. J-0.0988
N4795 G1 X-5.3176 Y-0.0223 Z-0.2372
N4800 G2 X-5.3097 Y-0.0232 Z-0.2373 I-0.0067 J-0.0985
N4805 G1 X-5.3018 Y-0.0244 Z-0.2374
N4810 G2 X-5.2939 Y-0.0259 Z-0.2376 I-0.0146 J-0.0977
N4815 G1 X-5.2859 Y-0.0277 Z-0.2377
N4820 G2 X-5.278 Y-0.0299 Z-0.2378 I-0.0226 J-0.0961
N4825 G1 X-5.2701 Y-0.0325 Z-0.238
N4830 G2 X-5.2602 Y-0.0363 Z-0.2381 I-0.0305 J-0.0939
N4835 G1 X-5.2483 Y-0.0417 Z-0.2383
N4840 G2 X-5.2377 Y-0.0472 Z-0.2385 I-0.0404 J-0.0901
N4845 G1 X-5.2285 Y-0.0528 Z-0.2387
N4850 G2 X-5.2213 Y-0.0576 Z-0.2388 I-0.051 J-0.0846
N4855 G1 X-5.216 Y-0.0614 Z-0.2389
N4860 G2 X-5.2086 Y-0.0674 Z-0.2391 I-0.0582 J-0.0798
N4865 G1 X-5.1993 Y-0.0756 Z-0.2393
N4870 G2 X-5.1908 Y-0.0842 Z-0.2395 I-0.0656 J-0.0738
N4875 G1 X-5.1831 Y-0.0929 Z-0.2397
N4880 G2 X-5.1773 Y-0.1002 Z-0.2398 I-0.0741 J-0.0653
N4885 G1 X-5.1732 Y-0.1058 Z-0.2399
N4890 G2 X-5.1691 Y-0.1119 Z-0.24 I-0.0799 J-0.058
N4895 G1 X-5.1526 Y-0.1386 Z-0.2405
N4900 X-5.1494 Y-0.1418 Z-0.2406
N4905 X-5.146 Y-0.144 Z-0.2407
N4910 X-5.1416 Y-0.1455
N4915 X-5.1262 Y-0.1474 Z-0.241
N4920 X-5.1243 Y-0.1475
N4925 X-3.4978 Z-0.2667
N4930 X-3.4785 Y-0.1451 Z-0.267
N4935 X-3.4742 Y-0.1433 Z-0.2671
N4940 X-3.4698 Y-0.1399 Z-0.2672
N4945 X-3.4669 Y-0.1361 Z-0.2673
N4950 X-3.4661 Y-0.1342
N4955 X-3.4649 Y-0.1313 Z-0.2674
N4960 X-3.4626 Y-0.1141 Z-0.2676
N4965 X-3.4625 Y-0.1088 Z-0.2677
N4970 Y0.1129 Z-0.2712
N4975 X-3.4626 Y0.1143
N4980 X-3.4649 Y0.1312 Z-0.2715
N4985 X-3.4669 Y0.1361 Z-0.2716
N4990 X-3.4699 Y0.14 Z-0.2717
N4995 X-3.4742 Y0.1433 Z-0.2718
N5000 X-3.4786 Y0.1451
N5005 X-3.4977 Y0.1475 Z-0.2721
N5010 X-5.1442 Y0.1473 Z-0.2982
N5015 X-5.1594 Y0.1455 Z-0.2984
N5020 X-5.1638 Y0.1438 Z-0.2985
N5025 X-5.1678 Y0.141 Z-0.2986
N5030 X-5.1883 Y0.1177 Z-0.2991
N5035 G2 X-5.1925 Y0.1133 Z-0.2992 I-0.074 J0.0653
N5040 G1 X-5.1982 Y0.1076 Z-0.2993
N5045 G2 X-5.2039 Y0.1024 Z-0.2994 I-0.0698 J0.0698
N5050 G1 X-5.2095 Y0.0975 Z-0.2995
N5055 G2 X-5.2151 Y0.0931 Z-0.2996 I-0.0642 J0.0751
N5060 G1 X-5.2207 Y0.089 Z-0.2998
N5065 G2 X-5.2281 Y0.084 Z-0.2999 I-0.0586 J0.0795
N5070 G1 X-5.2376 Y0.0783 Z-0.3001
N5075 G2 X-5.2483 Y0.0727 Z-0.3003 I-0.0511 J0.0845
N5080 G1 X-5.2602 Y0.0673 Z-0.3005
N5085 G2 X-5.2701 Y0.0635 Z-0.3006 I-0.0404 J0.0901
N5090 G1 X-5.278 Y0.0609 Z-0.3008
N5095 G2 X-5.2859 Y0.0587 Z-0.3009 I-0.0305 J0.0939
N5100 G1 X-5.2939 Y0.0569 Z-0.301
N5105 G2 X-5.3018 Y0.0554 Z-0.3012 I-0.0226 J0.0961
N5110 G1 X-5.3097 Y0.0542 Z-0.3013
N5115 G2 X-5.3176 Y0.0533 Z-0.3014 I-0.0146 J0.0977
N5120 G1 X-5.3255 Y0.0528 Z-0.3015
N5125 G2 X-5.3323 Y0.0525 Z-0.3016 I-0.0067 J0.0985
N5130 G1 X-6.0743 Z-0.3134
N5135 X-6.0781 Y0.052
N5140 X-6.0785 Y0.0487 Z-0.3135
N5145 Y-0.0487 Z-0.315
N5150 X-6.0781 Y-0.052 Z-0.3151
N5155 X-6.0743 Y-0.0525
N5160 X-6.0573 Z-0.3154
N5165 X-6.0434 Y-0.0512 Z-0.3156
N5170 X-6.0392 Y-0.05 Z-0.3157
N5175 X-6.0161 Y-0.039 Z-0.3161
N5180 G2 X-6.0081 Y-0.0356 Z-0.3162 I0.0426 J-0.0891
N5185 G1 X-6.0002 Y-0.0326 Z-0.3164
N5190 G2 X-5.9923 Y-0.03 Z-0.3165 I0.0346 J-0.0925
N5195 G1 X-5.9844 Y-0.0278 Z-0.3166
N5200 G2 X-5.9765 Y-0.0259 Z-0.3168 I0.0267 J-0.0951
N5205 G1 X-5.9685 Y-0.0244 Z-0.3169
N5210 G2 X-5.9606 Y-0.0232 Z-0.317 I0.0188 J-0.097
N5215 G1 X-5.9527 Y-0.0223 Z-0.3171
N5220 G2 X-5.9429 Y-0.0217 Z-0.3173 I0.0108 J-0.0982
N5225 G1 X-5.9191 Y-0.0215 Z-0.3177
N5230 G2 X-5.9181 I0.001 J-0.0987
N5235 G1 X-5.3322 Z-0.327
N5240 G2 X-5.3255 Y-0.0218 Z-0.3271 I0. J-0.0988
N5245 G1 X-5.3176 Y-0.0223 Z-0.3272
N5250 G2 X-5.3097 Y-0.0232 Z-0.3273 I-0.0067 J-0.0985
N5255 G1 X-5.3018 Y-0.0244 Z-0.3274
N5260 G2 X-5.2939 Y-0.0259 Z-0.3276 I-0.0146 J-0.0977
N5265 G1 X-5.2859 Y-0.0277 Z-0.3277
N5270 G2 X-5.278 Y-0.0299 Z-0.3278 I-0.0226 J-0.0961
N5275 G1 X-5.2701 Y-0.0325 Z-0.328
N5280 G2 X-5.2602 Y-0.0363 Z-0.3281 I-0.0305 J-0.0939
N5285 G1 X-5.2483 Y-0.0417 Z-0.3283
N5290 G2 X-5.2377 Y-0.0472 Z-0.3285 I-0.0404 J-0.0901
N5295 G1 X-5.2285 Y-0.0528 Z-0.3287
N5300 G2 X-5.2213 Y-0.0576 Z-0.3288 I-0.051 J-0.0846
N5305 G1 X-5.216 Y-0.0614 Z-0.3289
N5310 G2 X-5.2086 Y-0.0674 Z-0.3291 I-0.0582 J-0.0798
N5315 G1 X-5.1993 Y-0.0756 Z-0.3293
N5320 G2 X-5.1908 Y-0.0842 Z-0.3295 I-0.0656 J-0.0738
N5325 G1 X-5.1831 Y-0.0929 Z-0.3297
N5330 G2 X-5.1773 Y-0.1002 Z-0.3298 I-0.0741 J-0.0653
N5335 G1 X-5.1732 Y-0.1058 Z-0.3299
N5340 G2 X-5.1691 Y-0.1119 Z-0.33 I-0.0799 J-0.058
N5345 G1 X-5.1526 Y-0.1386 Z-0.3305
N5350 X-5.1494 Y-0.1418 Z-0.3306
N5355 X-5.146 Y-0.144 Z-0.3307
N5360 X-5.1416 Y-0.1455
N5365 X-5.1262 Y-0.1474 Z-0.331
N5370 X-5.1243 Y-0.1475
N5375 X-3.4978 Z-0.3567
N5380 X-3.4785 Y-0.1451 Z-0.357
N5385 X-3.4742 Y-0.1433 Z-0.3571
N5390 X-3.4698 Y-0.1399 Z-0.3572
N5395 X-3.4669 Y-0.1361 Z-0.3573
N5400 X-3.4661 Y-0.1342
N5405 X-3.4649 Y-0.1313 Z-0.3574
N5410 X-3.4626 Y-0.1141 Z-0.3576
N5415 X-3.4625 Y-0.1088 Z-0.3577
N5420 Y0.0356 Z-0.36
N5425 Y0.1129 F15.
N5430 X-3.4626 Y0.1143
N5435 X-3.4649 Y0.1312
N5440 X-3.4669 Y0.1361
N5445 X-3.4699 Y0.14
N5450 X-3.4742 Y0.1433
N5455 X-3.4786 Y0.1451
N5460 X-3.4977 Y0.1475
N5465 X-5.1442 Y0.1473
N5470 X-5.1594 Y0.1455
N5475 X-5.1638 Y0.1438
N5480 X-5.1678 Y0.141
N5485 X-5.1883 Y0.1177
N5490 G2 X-5.1925 Y0.1133 I-0.074 J0.0653
N5495 G1 X-5.1982 Y0.1076
N5500 G2 X-5.2039 Y0.1024 I-0.0698 J0.0698
N5505 G1 X-5.2095 Y0.0975
N5510 G2 X-5.2151 Y0.0931 I-0.0642 J0.0751
N5515 G1 X-5.2207 Y0.089
N5520 G2 X-5.2281 Y0.084 I-0.0586 J0.0795
N5525 G1 X-5.2376 Y0.0783
N5530 G2 X-5.2483 Y0.0727 I-0.0511 J0.0845
N5535 G1 X-5.2602 Y0.0673
N5540 G2 X-5.2701 Y0.0635 I-0.0404 J0.0901
N5545 G1 X-5.278 Y0.0609
N5550 G2 X-5.2859 Y0.0587 I-0.0305 J0.0939
N5555 G1 X-5.2939 Y0.0569
N5560 G2 X-5.3018 Y0.0554 I-0.0226 J0.0961
N5565 G1 X-5.3097 Y0.0542
N5570 G2 X-5.3176 Y0.0533 I-0.0146 J0.0977
N5575 G1 X-5.3255 Y0.0528
N5580 G2 X-5.3323 Y0.0525 I-0.0067 J0.0985
N5585 G1 X-6.0743
N5590 X-6.0781 Y0.052
N5595 X-6.0785 Y0.0487
N5600 Y-0.0487
N5605 X-6.0781 Y-0.052
N5610 X-6.0743 Y-0.0525
N5615 X-6.0573
N5620 X-6.0434 Y-0.0512
N5625 X-6.0392 Y-0.05
N5630 X-6.0161 Y-0.039
N5635 G2 X-6.0081 Y-0.0356 I0.0426 J-0.0891
N5640 G1 X-6.0002 Y-0.0326
N5645 G2 X-5.9923 Y-0.03 I0.0346 J-0.0925
N5650 G1 X-5.9844 Y-0.0278
N5655 G2 X-5.9765 Y-0.0259 I0.0267 J-0.0951
N5660 G1 X-5.9685 Y-0.0244
N5665 G2 X-5.9606 Y-0.0232 I0.0188 J-0.097
N5670 G1 X-5.9527 Y-0.0223
N5675 G2 X-5.9429 Y-0.0217 I0.0108 J-0.0982
N5680 G1 X-5.9191 Y-0.0215
N5685 G2 X-5.9181 I0.001 J-0.0987
N5690 G1 X-5.3322
N5695 G2 X-5.3255 Y-0.0218 I0. J-0.0988
N5700 G1 X-5.3176 Y-0.0223
N5705 G2 X-5.3097 Y-0.0232 I-0.0067 J-0.0985
N5710 G1 X-5.3018 Y-0.0244
N5715 G2 X-5.2939 Y-0.0259 I-0.0146 J-0.0977
N5720 G1 X-5.2859 Y-0.0277
N5725 G2 X-5.278 Y-0.0299 I-0.0226 J-0.0961
N5730 G1 X-5.2701 Y-0.0325
N5735 G2 X-5.2602 Y-0.0363 I-0.0305 J-0.0939
N5740 G1 X-5.2483 Y-0.0417
N5745 G2 X-5.2377 Y-0.0472 I-0.0404 J-0.0901
N5750 G1 X-5.2285 Y-0.0528
N5755 G2 X-5.2213 Y-0.0576 I-0.051 J-0.0846
N5760 G1 X-5.216 Y-0.0614
N5765 G2 X-5.2086 Y-0.0674 I-0.0582 J-0.0798
N5770 G1 X-5.1993 Y-0.0756
N5775 G2 X-5.1908 Y-0.0842 I-0.0656 J-0.0738
N5780 G1 X-5.1831 Y-0.0929
N5785 G2 X-5.1773 Y-0.1002 I-0.0741 J-0.0653
N5790 G1 X-5.1732 Y-0.1058
N5795 G2 X-5.1691 Y-0.1119 I-0.0799 J-0.058
N5800 G1 X-5.1526 Y-0.1386
N5805 X-5.1494 Y-0.1418
N5810 X-5.146 Y-0.144
N5815 X-5.1416 Y-0.1455
N5820 X-5.1262 Y-0.1474
N5825 X-5.1243 Y-0.1475
N5830 X-3.4978
N5835 X-3.4785 Y-0.1451
N5840 X-3.4742 Y-0.1433
N5845 X-3.4698 Y-0.1399
N5850 X-3.4669 Y-0.1361
N5855 X-3.4661 Y-0.1342
N5860 X-3.4649 Y-0.1313
N5865 X-3.4626 Y-0.1141
N5870 X-3.4625 Y-0.1088
N5875 Y0.0356
N5880 G3 X-3.4632 Y0.0429 Z-0.3593 I-0.0375 J0. F2.
N5885 X-3.4652 Y0.0496 Z-0.3571 I-0.0368 J-0.0073
N5890 X-3.4681 Y0.0554 Z-0.3537 I-0.0348 J-0.014
N5895 X-3.4715 Y0.06 Z-0.349 I-0.0319 J-0.0198
N5900 X-3.4747 Y0.0633 Z-0.3433 I-0.0285 J-0.0244
N5905 X-3.4774 Y0.0655 Z-0.3369 I-0.0253 J-0.0277
N5910 X-3.4791 Y0.0668 Z-0.3298 I-0.0226 J-0.0299
N5915 X-3.4797 Y0.0672 Z-0.3225 I-0.0209 J-0.0312
N5920 G0 Z0.2
N5925 X-3.6125 Y-0.1475
N5930 G1 Z-0.228 F1.
N5935 G18 G2 X-3.5756 Z-0.2655 I0.0375 K0. F3.
N5940 G1 X-3.4978 Z-0.2667
N5945 X-3.4785 Y-0.1451 Z-0.267
N5950 X-3.4742 Y-0.1433 Z-0.2671
N5955 X-3.4698 Y-0.1399 Z-0.2672
N5960 X-3.4669 Y-0.1361 Z-0.2673
N5965 X-3.4661 Y-0.1342
N5970 X-3.4649 Y-0.1313 Z-0.2674
N5975 X-3.4626 Y-0.1141 Z-0.2676
N5980 X-3.4625 Y-0.1088 Z-0.2677
N5985 Y0.1129 Z-0.2712
N5990 X-3.4626 Y0.1143
N5995 X-3.4649 Y0.1312 Z-0.2715
N6000 X-3.4669 Y0.1361 Z-0.2716
N6005 X-3.4699 Y0.14 Z-0.2717
N6010 X-3.4742 Y0.1433 Z-0.2718
N6015 X-3.4786 Y0.1451
N6020 X-3.4977 Y0.1475 Z-0.2721
N6025 X-5.1442 Y0.1473 Z-0.2982
N6030 X-5.1594 Y0.1455 Z-0.2984
N6035 X-5.1638 Y0.1438 Z-0.2985
N6040 X-5.1678 Y0.141 Z-0.2986
N6045 X-5.1883 Y0.1177 Z-0.2991
N6050 G17 G2 X-5.1925 Y0.1133 Z-0.2992 I-0.074 J0.0653
N6055 G1 X-5.1982 Y0.1076 Z-0.2993
N6060 G2 X-5.2039 Y0.1024 Z-0.2994 I-0.0698 J0.0698
N6065 G1 X-5.2095 Y0.0975 Z-0.2995
N6070 G2 X-5.2151 Y0.0931 Z-0.2996 I-0.0642 J0.0751
N6075 G1 X-5.2207 Y0.089 Z-0.2998
N6080 G2 X-5.2281 Y0.084 Z-0.2999 I-0.0586 J0.0795
N6085 G1 X-5.2376 Y0.0783 Z-0.3001
N6090 G2 X-5.2483 Y0.0727 Z-0.3003 I-0.0511 J0.0845
N6095 G1 X-5.2602 Y0.0673 Z-0.3005
N6100 G2 X-5.2701 Y0.0635 Z-0.3006 I-0.0404 J0.0901
N6105 G1 X-5.278 Y0.0609 Z-0.3008
N6110 G2 X-5.2859 Y0.0587 Z-0.3009 I-0.0305 J0.0939
N6115 G1 X-5.2939 Y0.0569 Z-0.301
N6120 G2 X-5.3018 Y0.0554 Z-0.3012 I-0.0226 J0.0961
N6125 G1 X-5.3097 Y0.0542 Z-0.3013
N6130 G2 X-5.3176 Y0.0533 Z-0.3014 I-0.0146 J0.0977
N6135 G1 X-5.3255 Y0.0528 Z-0.3015
N6140 G2 X-5.3323 Y0.0525 Z-0.3016 I-0.0067 J0.0985
N6145 G1 X-6.0743 Z-0.3134
N6150 X-6.0781 Y0.052
N6155 X-6.0785 Y0.0487 Z-0.3135
N6160 Y-0.0487 Z-0.315
N6165 X-6.0781 Y-0.052 Z-0.3151
N6170 X-6.0743 Y-0.0525
N6175 X-6.0573 Z-0.3154
N6180 X-6.0434 Y-0.0512 Z-0.3156
N6185 X-6.0392 Y-0.05 Z-0.3157
N6190 X-6.0161 Y-0.039 Z-0.3161
N6195 G2 X-6.0081 Y-0.0356 Z-0.3162 I0.0426 J-0.0891
N6200 G1 X-6.0002 Y-0.0326 Z-0.3164
N6205 G2 X-5.9923 Y-0.03 Z-0.3165 I0.0346 J-0.0925
N6210 G1 X-5.9844 Y-0.0278 Z-0.3166
N6215 G2 X-5.9765 Y-0.0259 Z-0.3168 I0.0267 J-0.0951
N6220 G1 X-5.9685 Y-0.0244 Z-0.3169
N6225 G2 X-5.9606 Y-0.0232 Z-0.317 I0.0188 J-0.097
N6230 G1 X-5.9527 Y-0.0223 Z-0.3171
N6235 G2 X-5.9429 Y-0.0217 Z-0.3173 I0.0108 J-0.0982
N6240 G1 X-5.9191 Y-0.0215 Z-0.3177
N6245 G2 X-5.9181 I0.001 J-0.0987
N6250 G1 X-5.3322 Z-0.327
N6255 G2 X-5.3255 Y-0.0218 Z-0.3271 I0. J-0.0988
N6260 G1 X-5.3176 Y-0.0223 Z-0.3272
N6265 G2 X-5.3097 Y-0.0232 Z-0.3273 I-0.0067 J-0.0985
N6270 G1 X-5.3018 Y-0.0244 Z-0.3274
N6275 G2 X-5.2939 Y-0.0259 Z-0.3276 I-0.0146 J-0.0977
N6280 G1 X-5.2859 Y-0.0277 Z-0.3277
N6285 G2 X-5.278 Y-0.0299 Z-0.3278 I-0.0226 J-0.0961
N6290 G1 X-5.2701 Y-0.0325 Z-0.328
N6295 G2 X-5.2602 Y-0.0363 Z-0.3281 I-0.0305 J-0.0939
N6300 G1 X-5.2483 Y-0.0417 Z-0.3283
N6305 G2 X-5.2377 Y-0.0472 Z-0.3285 I-0.0404 J-0.0901
N6310 G1 X-5.2285 Y-0.0528 Z-0.3287
N6315 G2 X-5.2213 Y-0.0576 Z-0.3288 I-0.051 J-0.0846
N6320 G1 X-5.216 Y-0.0614 Z-0.3289
N6325 G2 X-5.2086 Y-0.0674 Z-0.3291 I-0.0582 J-0.0798
N6330 G1 X-5.1993 Y-0.0756 Z-0.3293
N6335 G2 X-5.1908 Y-0.0842 Z-0.3295 I-0.0656 J-0.0738
N6340 G1 X-5.1831 Y-0.0929 Z-0.3297
N6345 G2 X-5.1773 Y-0.1002 Z-0.3298 I-0.0741 J-0.0653
N6350 G1 X-5.1732 Y-0.1058 Z-0.3299
N6355 G2 X-5.1691 Y-0.1119 Z-0.33 I-0.0799 J-0.058
N6360 G1 X-5.1526 Y-0.1386 Z-0.3305
N6365 X-5.1494 Y-0.1418 Z-0.3306
N6370 X-5.146 Y-0.144 Z-0.3307
N6375 X-5.1416 Y-0.1455
N6380 X-5.1262 Y-0.1474 Z-0.331
N6385 X-5.1243 Y-0.1475
N6390 X-3.4978 Z-0.3567
N6395 X-3.4785 Y-0.1451 Z-0.357
N6400 X-3.4742 Y-0.1433 Z-0.3571
N6405 X-3.4698 Y-0.1399 Z-0.3572
N6410 X-3.4669 Y-0.1361 Z-0.3573
N6415 X-3.4661 Y-0.1342
N6420 X-3.4649 Y-0.1313 Z-0.3574
N6425 X-3.4626 Y-0.1141 Z-0.3576
N6430 X-3.4625 Y-0.1088 Z-0.3577
N6435 Y0.1129 Z-0.3612
N6440 X-3.4626 Y0.1143
N6445 X-3.4649 Y0.1312 Z-0.3615
N6450 X-3.4669 Y0.1361 Z-0.3616
N6455 X-3.4699 Y0.14 Z-0.3617
N6460 X-3.4742 Y0.1433 Z-0.3618
N6465 X-3.4786 Y0.1451
N6470 X-3.4977 Y0.1475 Z-0.3621
N6475 X-5.1442 Y0.1473 Z-0.3882
N6480 X-5.1594 Y0.1455 Z-0.3884
N6485 X-5.1638 Y0.1438 Z-0.3885
N6490 X-5.1678 Y0.141 Z-0.3886
N6495 X-5.1883 Y0.1177 Z-0.3891
N6500 G2 X-5.1925 Y0.1133 Z-0.3892 I-0.074 J0.0653
N6505 G1 X-5.1982 Y0.1076 Z-0.3893
N6510 G2 X-5.2039 Y0.1024 Z-0.3894 I-0.0698 J0.0698
N6515 G1 X-5.2095 Y0.0975 Z-0.3895
N6520 G2 X-5.2151 Y0.0931 Z-0.3896 I-0.0642 J0.0751
N6525 G1 X-5.2207 Y0.089 Z-0.3898
N6530 G2 X-5.2281 Y0.084 Z-0.3899 I-0.0586 J0.0795
N6535 G1 X-5.2376 Y0.0783 Z-0.3901
N6540 G2 X-5.2483 Y0.0727 Z-0.3903 I-0.0511 J0.0845
N6545 G1 X-5.2602 Y0.0673 Z-0.3905
N6550 G2 X-5.2701 Y0.0635 Z-0.3906 I-0.0404 J0.0901
N6555 G1 X-5.278 Y0.0609 Z-0.3908
N6560 G2 X-5.2859 Y0.0587 Z-0.3909 I-0.0305 J0.0939
N6565 G1 X-5.2939 Y0.0569 Z-0.391
N6570 G2 X-5.3018 Y0.0554 Z-0.3912 I-0.0226 J0.0961
N6575 G1 X-5.3097 Y0.0542 Z-0.3913
N6580 G2 X-5.3176 Y0.0533 Z-0.3914 I-0.0146 J0.0977
N6585 G1 X-5.3255 Y0.0528 Z-0.3915
N6590 G2 X-5.3323 Y0.0525 Z-0.3916 I-0.0067 J0.0985
N6595 G1 X-6.0743 Z-0.4034
N6600 X-6.0781 Y0.052
N6605 X-6.0785 Y0.0487 Z-0.4035
N6610 Y-0.0487 Z-0.405
N6615 X-6.0781 Y-0.052 Z-0.4051
N6620 X-6.0743 Y-0.0525
N6625 X-6.0573 Z-0.4054
N6630 X-6.0434 Y-0.0512 Z-0.4056
N6635 X-6.0392 Y-0.05 Z-0.4057
N6640 X-6.0161 Y-0.039 Z-0.4061
N6645 G2 X-6.0081 Y-0.0356 Z-0.4062 I0.0426 J-0.0891
N6650 G1 X-6.0002 Y-0.0326 Z-0.4064
N6655 G2 X-5.9923 Y-0.03 Z-0.4065 I0.0346 J-0.0925
N6660 G1 X-5.9844 Y-0.0278 Z-0.4066
N6665 G2 X-5.9765 Y-0.0259 Z-0.4068 I0.0267 J-0.0951
N6670 G1 X-5.9685 Y-0.0244 Z-0.4069
N6675 G2 X-5.9606 Y-0.0232 Z-0.407 I0.0188 J-0.097
N6680 G1 X-5.9527 Y-0.0223 Z-0.4071
N6685 G2 X-5.9429 Y-0.0217 Z-0.4073 I0.0108 J-0.0982
N6690 G1 X-5.9191 Y-0.0215 Z-0.4077
N6695 G2 X-5.9181 I0.001 J-0.0987
N6700 G1 X-5.3322 Z-0.417
N6705 G2 X-5.3255 Y-0.0218 Z-0.4171 I0. J-0.0988
N6710 G1 X-5.3176 Y-0.0223 Z-0.4172
N6715 G2 X-5.3097 Y-0.0232 Z-0.4173 I-0.0067 J-0.0985
N6720 G1 X-5.3018 Y-0.0244 Z-0.4174
N6725 G2 X-5.2939 Y-0.0259 Z-0.4176 I-0.0146 J-0.0977
N6730 G1 X-5.2859 Y-0.0277 Z-0.4177
N6735 G2 X-5.278 Y-0.0299 Z-0.4178 I-0.0226 J-0.0961
N6740 G1 X-5.2701 Y-0.0325 Z-0.418
N6745 G2 X-5.2602 Y-0.0363 Z-0.4181 I-0.0305 J-0.0939
N6750 G1 X-5.2483 Y-0.0417 Z-0.4183
N6755 G2 X-5.2377 Y-0.0472 Z-0.4185 I-0.0404 J-0.0901
N6760 G1 X-5.2285 Y-0.0528 Z-0.4187
N6765 G2 X-5.2213 Y-0.0576 Z-0.4188 I-0.051 J-0.0846
N6770 G1 X-5.216 Y-0.0614 Z-0.4189
N6775 G2 X-5.2086 Y-0.0674 Z-0.4191 I-0.0582 J-0.0798
N6780 G1 X-5.1993 Y-0.0756 Z-0.4193
N6785 G2 X-5.1908 Y-0.0842 Z-0.4195 I-0.0656 J-0.0738
N6790 G1 X-5.1831 Y-0.0929 Z-0.4197
N6795 G2 X-5.1773 Y-0.1002 Z-0.4198 I-0.0741 J-0.0653
N6800 G1 X-5.1732 Y-0.1058 Z-0.4199
N6805 G2 X-5.1691 Y-0.1119 Z-0.42 I-0.0799 J-0.058
N6810 G1 X-5.1526 Y-0.1386 Z-0.4205
N6815 X-5.1494 Y-0.1418 Z-0.4206
N6820 X-5.146 Y-0.144 Z-0.4207
N6825 X-5.1416 Y-0.1455
N6830 X-5.1262 Y-0.1474 Z-0.421
N6835 X-5.1243 Y-0.1475
N6840 X-3.4978 Z-0.4467
N6845 X-3.4785 Y-0.1451 Z-0.447
N6850 X-3.4742 Y-0.1433 Z-0.4471
N6855 X-3.4698 Y-0.1399 Z-0.4472
N6860 X-3.4669 Y-0.1361 Z-0.4473
N6865 X-3.4661 Y-0.1342
N6870 X-3.4649 Y-0.1313 Z-0.4474
N6875 X-3.4626 Y-0.1141 Z-0.4476
N6880 X-3.4625 Y-0.1088 Z-0.4477
N6885 Y0.0356 Z-0.45
N6890 Y0.1129 F15.
N6895 X-3.4626 Y0.1143
N6900 X-3.4649 Y0.1312
N6905 X-3.4669 Y0.1361
N6910 X-3.4699 Y0.14
N6915 X-3.4742 Y0.1433
N6920 X-3.4786 Y0.1451
N6925 X-3.4977 Y0.1475
N6930 X-5.1442 Y0.1473
N6935 X-5.1594 Y0.1455
N6940 X-5.1638 Y0.1438
N6945 X-5.1678 Y0.141
N6950 X-5.1883 Y0.1177
N6955 G2 X-5.1925 Y0.1133 I-0.074 J0.0653
N6960 G1 X-5.1982 Y0.1076
N6965 G2 X-5.2039 Y0.1024 I-0.0698 J0.0698
N6970 G1 X-5.2095 Y0.0975
N6975 G2 X-5.2151 Y0.0931 I-0.0642 J0.0751
N6980 G1 X-5.2207 Y0.089
N6985 G2 X-5.2281 Y0.084 I-0.0586 J0.0795
N6990 G1 X-5.2376 Y0.0783
N6995 G2 X-5.2483 Y0.0727 I-0.0511 J0.0845
N7000 G1 X-5.2602 Y0.0673
N7005 G2 X-5.2701 Y0.0635 I-0.0404 J0.0901
N7010 G1 X-5.278 Y0.0609
N7015 G2 X-5.2859 Y0.0587 I-0.0305 J0.0939
N7020 G1 X-5.2939 Y0.0569
N7025 G2 X-5.3018 Y0.0554 I-0.0226 J0.0961
N7030 G1 X-5.3097 Y0.0542
N7035 G2 X-5.3176 Y0.0533 I-0.0146 J0.0977
N7040 G1 X-5.3255 Y0.0528
N7045 G2 X-5.3323 Y0.0525 I-0.0067 J0.0985
N7050 G1 X-6.0743
N7055 X-6.0781 Y0.052
N7060 X-6.0785 Y0.0487
N7065 Y-0.0487
N7070 X-6.0781 Y-0.052
N7075 X-6.0743 Y-0.0525
N7080 X-6.0573
N7085 X-6.0434 Y-0.0512
N7090 X-6.0392 Y-0.05
N7095 X-6.0161 Y-0.039
N7100 G2 X-6.0081 Y-0.0356 I0.0426 J-0.0891
N7105 G1 X-6.0002 Y-0.0326
N7110 G2 X-5.9923 Y-0.03 I0.0346 J-0.0925
N7115 G1 X-5.9844 Y-0.0278
N7120 G2 X-5.9765 Y-0.0259 I0.0267 J-0.0951
N7125 G1 X-5.9685 Y-0.0244
N7130 G2 X-5.9606 Y-0.0232 I0.0188 J-0.097
N7135 G1 X-5.9527 Y-0.0223
N7140 G2 X-5.9429 Y-0.0217 I0.0108 J-0.0982
N7145 G1 X-5.9191 Y-0.0215
N7150 G2 X-5.9181 I0.001 J-0.0987
N7155 G1 X-5.3322
N7160 G2 X-5.3255 Y-0.0218 I0. J-0.0988
N7165 G1 X-5.3176 Y-0.0223
N7170 G2 X-5.3097 Y-0.0232 I-0.0067 J-0.0985
N7175 G1 X-5.3018 Y-0.0244
N7180 G2 X-5.2939 Y-0.0259 I-0.0146 J-0.0977
N7185 G1 X-5.2859 Y-0.0277
N7190 G2 X-5.278 Y-0.0299 I-0.0226 J-0.0961
N7195 G1 X-5.2701 Y-0.0325
N7200 G2 X-5.2602 Y-0.0363 I-0.0305 J-0.0939
N7205 G1 X-5.2483 Y-0.0417
N7210 G2 X-5.2377 Y-0.0472 I-0.0404 J-0.0901
N7215 G1 X-5.2285 Y-0.0528
N7220 G2 X-5.2213 Y-0.0576 I-0.051 J-0.0846
N7225 G1 X-5.216 Y-0.0614
N7230 G2 X-5.2086 Y-0.0674 I-0.0582 J-0.0798
N7235 G1 X-5.1993 Y-0.0756
N7240 G2 X-5.1908 Y-0.0842 I-0.0656 J-0.0738
N7245 G1 X-5.1831 Y-0.0929
N7250 G2 X-5.1773 Y-0.1002 I-0.0741 J-0.0653
N7255 G1 X-5.1732 Y-0.1058
N7260 G2 X-5.1691 Y-0.1119 I-0.0799 J-0.058
N7265 G1 X-5.1526 Y-0.1386
N7270 X-5.1494 Y-0.1418
N7275 X-5.146 Y-0.144
N7280 X-5.1416 Y-0.1455
N7285 X-5.1262 Y-0.1474
N7290 X-5.1243 Y-0.1475
N7295 X-3.4978
N7300 X-3.4785 Y-0.1451
N7305 X-3.4742 Y-0.1433
N7310 X-3.4698 Y-0.1399
N7315 X-3.4669 Y-0.1361
N7320 X-3.4661 Y-0.1342
N7325 X-3.4649 Y-0.1313
N7330 X-3.4626 Y-0.1141
N7335 X-3.4625 Y-0.1088
N7340 Y0.0356
N7345 G3 X-3.4632 Y0.0429 Z-0.4493 I-0.0375 J0. F2.
N7350 X-3.4652 Y0.0496 Z-0.4471 I-0.0368 J-0.0073
N7355 X-3.4681 Y0.0554 Z-0.4437 I-0.0348 J-0.014
N7360 X-3.4715 Y0.06 Z-0.439 I-0.0319 J-0.0198
N7365 X-3.4747 Y0.0633 Z-0.4333 I-0.0285 J-0.0244
N7370 X-3.4774 Y0.0655 Z-0.4269 I-0.0253 J-0.0277
N7375 X-3.4791 Y0.0668 Z-0.4198 I-0.0226 J-0.0299
N7380 X-3.4797 Y0.0672 Z-0.4125 I-0.0209 J-0.0312
N7385 G0 Z0.2
N7390 X-3.6125 Y-0.1475
N7395 G1 Z-0.318 F1.
N7400 G18 G2 X-3.5756 Z-0.3555 I0.0375 K0. F3.
N7405 G1 X-3.4978 Z-0.3567
N7410 X-3.4785 Y-0.1451 Z-0.357
N7415 X-3.4742 Y-0.1433 Z-0.3571
N7420 X-3.4698 Y-0.1399 Z-0.3572
N7425 X-3.4669 Y-0.1361 Z-0.3573
N7430 X-3.4661 Y-0.1342
N7435 X-3.4649 Y-0.1313 Z-0.3574
N7440 X-3.4626 Y-0.1141 Z-0.3576
N7445 X-3.4625 Y-0.1088 Z-0.3577
N7450 Y0.1129 Z-0.3612
N7455 X-3.4626 Y0.1143
N7460 X-3.4649 Y0.1312 Z-0.3615
N7465 X-3.4669 Y0.1361 Z-0.3616
N7470 X-3.4699 Y0.14 Z-0.3617
N7475 X-3.4742 Y0.1433 Z-0.3618
N7480 X-3.4786 Y0.1451
N7485 X-3.4977 Y0.1475 Z-0.3621
N7490 X-5.1442 Y0.1473 Z-0.3882
N7495 X-5.1594 Y0.1455 Z-0.3884
N7500 X-5.1638 Y0.1438 Z-0.3885
N7505 X-5.1678 Y0.141 Z-0.3886
N7510 X-5.1883 Y0.1177 Z-0.3891
N7515 G17 G2 X-5.1925 Y0.1133 Z-0.3892 I-0.074 J0.0653
N7520 G1 X-5.1982 Y0.1076 Z-0.3893
N7525 G2 X-5.2039 Y0.1024 Z-0.3894 I-0.0698 J0.0698
N7530 G1 X-5.2095 Y0.0975 Z-0.3895
N7535 G2 X-5.2151 Y0.0931 Z-0.3896 I-0.0642 J0.0751
N7540 G1 X-5.2207 Y0.089 Z-0.3898
N7545 G2 X-5.2281 Y0.084 Z-0.3899 I-0.0586 J0.0795
N7550 G1 X-5.2376 Y0.0783 Z-0.3901
N7555 G2 X-5.2483 Y0.0727 Z-0.3903 I-0.0511 J0.0845
N7560 G1 X-5.2602 Y0.0673 Z-0.3905
N7565 G2 X-5.2701 Y0.0635 Z-0.3906 I-0.0404 J0.0901
N7570 G1 X-5.278 Y0.0609 Z-0.3908
N7575 G2 X-5.2859 Y0.0587 Z-0.3909 I-0.0305 J0.0939
N7580 G1 X-5.2939 Y0.0569 Z-0.391
N7585 G2 X-5.3018 Y0.0554 Z-0.3912 I-0.0226 J0.0961
N7590 G1 X-5.3097 Y0.0542 Z-0.3913
N7595 G2 X-5.3176 Y0.0533 Z-0.3914 I-0.0146 J0.0977
N7600 G1 X-5.3255 Y0.0528 Z-0.3915
N7605 G2 X-5.3323 Y0.0525 Z-0.3916 I-0.0067 J0.0985
N7610 G1 X-6.0743 Z-0.4034
N7615 X-6.0781 Y0.052
N7620 X-6.0785 Y0.0487 Z-0.4035
N7625 Y-0.0487 Z-0.405
N7630 X-6.0781 Y-0.052 Z-0.4051
N7635 X-6.0743 Y-0.0525
N7640 X-6.0573 Z-0.4054
N7645 X-6.0434 Y-0.0512 Z-0.4056
N7650 X-6.0392 Y-0.05 Z-0.4057
N7655 X-6.0161 Y-0.039 Z-0.4061
N7660 G2 X-6.0081 Y-0.0356 Z-0.4062 I0.0426 J-0.0891
N7665 G1 X-6.0002 Y-0.0326 Z-0.4064
N7670 G2 X-5.9923 Y-0.03 Z-0.4065 I0.0346 J-0.0925
N7675 G1 X-5.9844 Y-0.0278 Z-0.4066
N7680 G2 X-5.9765 Y-0.0259 Z-0.4068 I0.0267 J-0.0951
N7685 G1 X-5.9685 Y-0.0244 Z-0.4069
N7690 G2 X-5.9606 Y-0.0232 Z-0.407 I0.0188 J-0.097
N7695 G1 X-5.9527 Y-0.0223 Z-0.4071
N7700 G2 X-5.9429 Y-0.0217 Z-0.4073 I0.0108 J-0.0982
N7705 G1 X-5.9191 Y-0.0215 Z-0.4077
N7710 G2 X-5.9181 I0.001 J-0.0987
N7715 G1 X-5.3322 Z-0.417
N7720 G2 X-5.3255 Y-0.0218 Z-0.4171 I0. J-0.0988
N7725 G1 X-5.3176 Y-0.0223 Z-0.4172
N7730 G2 X-5.3097 Y-0.0232 Z-0.4173 I-0.0067 J-0.0985
N7735 G1 X-5.3018 Y-0.0244 Z-0.4174
N7740 G2 X-5.2939 Y-0.0259 Z-0.4176 I-0.0146 J-0.0977
N7745 G1 X-5.2859 Y-0.0277 Z-0.4177
N7750 G2 X-5.278 Y-0.0299 Z-0.4178 I-0.0226 J-0.0961
N7755 G1 X-5.2701 Y-0.0325 Z-0.418
N7760 G2 X-5.2602 Y-0.0363 Z-0.4181 I-0.0305 J-0.0939
N7765 G1 X-5.2483 Y-0.0417 Z-0.4183
N7770 G2 X-5.2377 Y-0.0472 Z-0.4185 I-0.0404 J-0.0901
N7775 G1 X-5.2285 Y-0.0528 Z-0.4187
N7780 G2 X-5.2213 Y-0.0576 Z-0.4188 I-0.051 J-0.0846
N7785 G1 X-5.216 Y-0.0614 Z-0.4189
N7790 G2 X-5.2086 Y-0.0674 Z-0.4191 I-0.0582 J-0.0798
N7795 G1 X-5.1993 Y-0.0756 Z-0.4193
N7800 G2 X-5.1908 Y-0.0842 Z-0.4195 I-0.0656 J-0.0738
N7805 G1 X-5.1831 Y-0.0929 Z-0.4197
N7810 G2 X-5.1773 Y-0.1002 Z-0.4198 I-0.0741 J-0.0653
N7815 G1 X-5.1732 Y-0.1058 Z-0.4199
N7820 G2 X-5.1691 Y-0.1119 Z-0.42 I-0.0799 J-0.058
N7825 G1 X-5.1526 Y-0.1386 Z-0.4205
N7830 X-5.1494 Y-0.1418 Z-0.4206
N7835 X-5.146 Y-0.144 Z-0.4207
N7840 X-5.1416 Y-0.1455
N7845 X-5.1262 Y-0.1474 Z-0.421
N7850 X-5.1243 Y-0.1475
N7855 X-3.4978 Z-0.4467
N7860 X-3.4785 Y-0.1451 Z-0.447
N7865 X-3.4742 Y-0.1433 Z-0.4471
N7870 X-3.4698 Y-0.1399 Z-0.4472
N7875 X-3.4669 Y-0.1361 Z-0.4473
N7880 X-3.4661 Y-0.1342
N7885 X-3.4649 Y-0.1313 Z-0.4474
N7890 X-3.4626 Y-0.1141 Z-0.4476
N7895 X-3.4625 Y-0.1088 Z-0.4477
N7900 Y0.1129 Z-0.4512
N7905 X-3.4626 Y0.1143
N7910 X-3.4649 Y0.1312 Z-0.4515
N7915 X-3.4669 Y0.1361 Z-0.4516
N7920 X-3.4699 Y0.14 Z-0.4517
N7925 X-3.4742 Y0.1433 Z-0.4518
N7930 X-3.4786 Y0.1451
N7935 X-3.4977 Y0.1475 Z-0.4521
N7940 X-5.1442 Y0.1473 Z-0.4782
N7945 X-5.1594 Y0.1455 Z-0.4784
N7950 X-5.1638 Y0.1438 Z-0.4785
N7955 X-5.1678 Y0.141 Z-0.4786
N7960 X-5.1883 Y0.1177 Z-0.4791
N7965 G2 X-5.1925 Y0.1133 Z-0.4792 I-0.074 J0.0653
N7970 G1 X-5.1982 Y0.1076 Z-0.4793
N7975 G2 X-5.2039 Y0.1024 Z-0.4794 I-0.0698 J0.0698
N7980 G1 X-5.2095 Y0.0975 Z-0.4795
N7985 G2 X-5.2151 Y0.0931 Z-0.4796 I-0.0642 J0.0751
N7990 G1 X-5.2207 Y0.089 Z-0.4798
N7995 G2 X-5.2281 Y0.084 Z-0.4799 I-0.0586 J0.0795
N8000 G1 X-5.2376 Y0.0783 Z-0.4801
N8005 G2 X-5.2483 Y0.0727 Z-0.4803 I-0.0511 J0.0845
N8010 G1 X-5.2602 Y0.0673 Z-0.4805
N8015 G2 X-5.2701 Y0.0635 Z-0.4806 I-0.0404 J0.0901
N8020 G1 X-5.278 Y0.0609 Z-0.4808
N8025 G2 X-5.2859 Y0.0587 Z-0.4809 I-0.0305 J0.0939
N8030 G1 X-5.2939 Y0.0569 Z-0.481
N8035 G2 X-5.3018 Y0.0554 Z-0.4812 I-0.0226 J0.0961
N8040 G1 X-5.3097 Y0.0542 Z-0.4813
N8045 G2 X-5.3176 Y0.0533 Z-0.4814 I-0.0146 J0.0977
N8050 G1 X-5.3255 Y0.0528 Z-0.4815
N8055 G2 X-5.3323 Y0.0525 Z-0.4816 I-0.0067 J0.0985
N8060 G1 X-6.0743 Z-0.4934
N8065 X-6.0781 Y0.052
N8070 X-6.0785 Y0.0487 Z-0.4935
N8075 Y-0.0487 Z-0.495
N8080 X-6.0781 Y-0.052 Z-0.4951
N8085 X-6.0743 Y-0.0525
N8090 X-6.0573 Z-0.4954
N8095 X-6.0434 Y-0.0512 Z-0.4956
N8100 X-6.0392 Y-0.05 Z-0.4957
N8105 X-6.0161 Y-0.039 Z-0.4961
N8110 G2 X-6.0081 Y-0.0356 Z-0.4962 I0.0426 J-0.0891
N8115 G1 X-6.0002 Y-0.0326 Z-0.4964
N8120 G2 X-5.9923 Y-0.03 Z-0.4965 I0.0346 J-0.0925
N8125 G1 X-5.9844 Y-0.0278 Z-0.4966
N8130 G2 X-5.9765 Y-0.0259 Z-0.4968 I0.0267 J-0.0951
N8135 G1 X-5.9685 Y-0.0244 Z-0.4969
N8140 G2 X-5.9606 Y-0.0232 Z-0.497 I0.0188 J-0.097
N8145 G1 X-5.9527 Y-0.0223 Z-0.4971
N8150 G2 X-5.9429 Y-0.0217 Z-0.4973 I0.0108 J-0.0982
N8155 G1 X-5.9191 Y-0.0215 Z-0.4977
N8160 G2 X-5.9181 I0.001 J-0.0987
N8165 G1 X-5.3322 Z-0.507
N8170 G2 X-5.3255 Y-0.0218 Z-0.5071 I0. J-0.0988
N8175 G1 X-5.3176 Y-0.0223 Z-0.5072
N8180 G2 X-5.3097 Y-0.0232 Z-0.5073 I-0.0067 J-0.0985
N8185 G1 X-5.3018 Y-0.0244 Z-0.5074
N8190 G2 X-5.2939 Y-0.0259 Z-0.5076 I-0.0146 J-0.0977
N8195 G1 X-5.2859 Y-0.0277 Z-0.5077
N8200 G2 X-5.278 Y-0.0299 Z-0.5078 I-0.0226 J-0.0961
N8205 G1 X-5.2701 Y-0.0325 Z-0.508
N8210 G2 X-5.2602 Y-0.0363 Z-0.5081 I-0.0305 J-0.0939
N8215 G1 X-5.2483 Y-0.0417 Z-0.5083
N8220 G2 X-5.2377 Y-0.0472 Z-0.5085 I-0.0404 J-0.0901
N8225 G1 X-5.2285 Y-0.0528 Z-0.5087
N8230 G2 X-5.2213 Y-0.0576 Z-0.5088 I-0.051 J-0.0846
N8235 G1 X-5.216 Y-0.0614 Z-0.5089
N8240 G2 X-5.2086 Y-0.0674 Z-0.5091 I-0.0582 J-0.0798
N8245 G1 X-5.1993 Y-0.0756 Z-0.5093
N8250 G2 X-5.1908 Y-0.0842 Z-0.5095 I-0.0656 J-0.0738
N8255 G1 X-5.1831 Y-0.0929 Z-0.5097
N8260 G2 X-5.1773 Y-0.1002 Z-0.5098 I-0.0741 J-0.0653
N8265 G1 X-5.1732 Y-0.1058 Z-0.5099
N8270 G2 X-5.1691 Y-0.1119 Z-0.51 I-0.0799 J-0.058
N8275 G1 X-5.1526 Y-0.1386 Z-0.5105
N8280 X-5.1494 Y-0.1418 Z-0.5106
N8285 X-5.146 Y-0.144 Z-0.5107
N8290 X-5.1416 Y-0.1455
N8295 X-5.1262 Y-0.1474 Z-0.511
N8300 X-5.1243 Y-0.1475
N8305 X-3.4978 Z-0.5367
N8310 X-3.4785 Y-0.1451 Z-0.537
N8315 X-3.4742 Y-0.1433 Z-0.5371
N8320 X-3.4698 Y-0.1399 Z-0.5372
N8325 X-3.4669 Y-0.1361 Z-0.5373
N8330 X-3.4661 Y-0.1342
N8335 X-3.4649 Y-0.1313 Z-0.5374
N8340 X-3.4626 Y-0.1141 Z-0.5376
N8345 X-3.4625 Y-0.1088 Z-0.5377
N8350 Y0.0356 Z-0.54
N8355 Y0.1129 F15.
N8360 X-3.4626 Y0.1143
N8365 X-3.4649 Y0.1312
N8370 X-3.4669 Y0.1361
N8375 X-3.4699 Y0.14
N8380 X-3.4742 Y0.1433
N8385 X-3.4786 Y0.1451
N8390 X-3.4977 Y0.1475
N8395 X-5.1442 Y0.1473
N8400 X-5.1594 Y0.1455
N8405 X-5.1638 Y0.1438
N8410 X-5.1678 Y0.141
N8415 X-5.1883 Y0.1177
N8420 G2 X-5.1925 Y0.1133 I-0.074 J0.0653
N8425 G1 X-5.1982 Y0.1076
N8430 G2 X-5.2039 Y0.1024 I-0.0698 J0.0698
N8435 G1 X-5.2095 Y0.0975
N8440 G2 X-5.2151 Y0.0931 I-0.0642 J0.0751
N8445 G1 X-5.2207 Y0.089
N8450 G2 X-5.2281 Y0.084 I-0.0586 J0.0795
N8455 G1 X-5.2376 Y0.0783
N8460 G2 X-5.2483 Y0.0727 I-0.0511 J0.0845
N8465 G1 X-5.2602 Y0.0673
N8470 G2 X-5.2701 Y0.0635 I-0.0404 J0.0901
N8475 G1 X-5.278 Y0.0609
N8480 G2 X-5.2859 Y0.0587 I-0.0305 J0.0939
N8485 G1 X-5.2939 Y0.0569
N8490 G2 X-5.3018 Y0.0554 I-0.0226 J0.0961
N8495 G1 X-5.3097 Y0.0542
N8500 G2 X-5.3176 Y0.0533 I-0.0146 J0.0977
N8505 G1 X-5.3255 Y0.0528
N8510 G2 X-5.3323 Y0.0525 I-0.0067 J0.0985
N8515 G1 X-6.0743
N8520 X-6.0781 Y0.052
N8525 X-6.0785 Y0.0487
N8530 Y-0.0487
N8535 X-6.0781 Y-0.052
N8540 X-6.0743 Y-0.0525
N8545 X-6.0573
N8550 X-6.0434 Y-0.0512
N8555 X-6.0392 Y-0.05
N8560 X-6.0161 Y-0.039
N8565 G2 X-6.0081 Y-0.0356 I0.0426 J-0.0891
N8570 G1 X-6.0002 Y-0.0326
N8575 G2 X-5.9923 Y-0.03 I0.0346 J-0.0925
N8580 G1 X-5.9844 Y-0.0278
N8585 G2 X-5.9765 Y-0.0259 I0.0267 J-0.0951
N8590 G1 X-5.9685 Y-0.0244
N8595 G2 X-5.9606 Y-0.0232 I0.0188 J-0.097
N8600 G1 X-5.9527 Y-0.0223
N8605 G2 X-5.9429 Y-0.0217 I0.0108 J-0.0982
N8610 G1 X-5.9191 Y-0.0215
N8615 G2 X-5.9181 I0.001 J-0.0987
N8620 G1 X-5.3322
N8625 G2 X-5.3255 Y-0.0218 I0. J-0.0988
N8630 G1 X-5.3176 Y-0.0223
N8635 G2 X-5.3097 Y-0.0232 I-0.0067 J-0.0985
N8640 G1 X-5.3018 Y-0.0244
N8645 G2 X-5.2939 Y-0.0259 I-0.0146 J-0.0977
N8650 G1 X-5.2859 Y-0.0277
N8655 G2 X-5.278 Y-0.0299 I-0.0226 J-0.0961
N8660 G1 X-5.2701 Y-0.0325
N8665 G2 X-5.2602 Y-0.0363 I-0.0305 J-0.0939
N8670 G1 X-5.2483 Y-0.0417
N8675 G2 X-5.2377 Y-0.0472 I-0.0404 J-0.0901
N8680 G1 X-5.2285 Y-0.0528
N8685 G2 X-5.2213 Y-0.0576 I-0.051 J-0.0846
N8690 G1 X-5.216 Y-0.0614
N8695 G2 X-5.2086 Y-0.0674 I-0.0582 J-0.0798
N8700 G1 X-5.1993 Y-0.0756
N8705 G2 X-5.1908 Y-0.0842 I-0.0656 J-0.0738
N8710 G1 X-5.1831 Y-0.0929
N8715 G2 X-5.1773 Y-0.1002 I-0.0741 J-0.0653
N8720 G1 X-5.1732 Y-0.1058
N8725 G2 X-5.1691 Y-0.1119 I-0.0799 J-0.058
N8730 G1 X-5.1526 Y-0.1386
N8735 X-5.1494 Y-0.1418
N8740 X-5.146 Y-0.144
N8745 X-5.1416 Y-0.1455
N8750 X-5.1262 Y-0.1474
N8755 X-5.1243 Y-0.1475
N8760 X-3.4978
N8765 X-3.4785 Y-0.1451
N8770 X-3.4742 Y-0.1433
N8775 X-3.4698 Y-0.1399
N8780 X-3.4669 Y-0.1361
N8785 X-3.4661 Y-0.1342
N8790 X-3.4649 Y-0.1313
N8795 X-3.4626 Y-0.1141
N8800 X-3.4625 Y-0.1088
N8805 Y0.0356
N8810 G3 X-3.4632 Y0.0429 Z-0.5393 I-0.0375 J0. F2.
N8815 X-3.4652 Y0.0496 Z-0.5371 I-0.0368 J-0.0073
N8820 X-3.4681 Y0.0554 Z-0.5337 I-0.0348 J-0.014
N8825 X-3.4715 Y0.06 Z-0.529 I-0.0319 J-0.0198
N8830 X-3.4747 Y0.0633 Z-0.5233 I-0.0285 J-0.0244
N8835 X-3.4774 Y0.0655 Z-0.5169 I-0.0253 J-0.0277
N8840 X-3.4791 Y0.0668 Z-0.5098 I-0.0226 J-0.0299
N8845 X-3.4797 Y0.0672 Z-0.5025 I-0.0209 J-0.0312
N8850 G0 Z0.2
N8855 X-3.6125 Y-0.1475
N8860 G1 Z-0.408 F1.
N8865 G18 G2 X-3.5756 Z-0.4455 I0.0375 K0. F3.
N8870 G1 X-3.4978 Z-0.4467
N8875 X-3.4785 Y-0.1451 Z-0.447
N8880 X-3.4742 Y-0.1433 Z-0.4471
N8885 X-3.4698 Y-0.1399 Z-0.4472
N8890 X-3.4669 Y-0.1361 Z-0.4473
N8895 X-3.4661 Y-0.1342
N8900 X-3.4649 Y-0.1313 Z-0.4474
N8905 X-3.4626 Y-0.1141 Z-0.4476
N8910 X-3.4625 Y-0.1088 Z-0.4477
N8915 Y0.1129 Z-0.4512
N8920 X-3.4626 Y0.1143
N8925 X-3.4649 Y0.1312 Z-0.4515
N8930 X-3.4669 Y0.1361 Z-0.4516
N8935 X-3.4699 Y0.14 Z-0.4517
N8940 X-3.4742 Y0.1433 Z-0.4518
N8945 X-3.4786 Y0.1451
N8950 X-3.4977 Y0.1475 Z-0.4521
N8955 X-5.1442 Y0.1473 Z-0.4782
N8960 X-5.1594 Y0.1455 Z-0.4784
N8965 X-5.1638 Y0.1438 Z-0.4785
N8970 X-5.1678 Y0.141 Z-0.4786
N8975 X-5.1883 Y0.1177 Z-0.4791
N8980 G17 G2 X-5.1925 Y0.1133 Z-0.4792 I-0.074 J0.0653
N8985 G1 X-5.1982 Y0.1076 Z-0.4793
N8990 G2 X-5.2039 Y0.1024 Z-0.4794 I-0.0698 J0.0698
N8995 G1 X-5.2095 Y0.0975 Z-0.4795
N9000 G2 X-5.2151 Y0.0931 Z-0.4796 I-0.0642 J0.0751
N9005 G1 X-5.2207 Y0.089 Z-0.4798
N9010 G2 X-5.2281 Y0.084 Z-0.4799 I-0.0586 J0.0795
N9015 G1 X-5.2376 Y0.0783 Z-0.4801
N9020 G2 X-5.2483 Y0.0727 Z-0.4803 I-0.0511 J0.0845
N9025 G1 X-5.2602 Y0.0673 Z-0.4805
N9030 G2 X-5.2701 Y0.0635 Z-0.4806 I-0.0404 J0.0901
N9035 G1 X-5.278 Y0.0609 Z-0.4808
N9040 G2 X-5.2859 Y0.0587 Z-0.4809 I-0.0305 J0.0939
N9045 G1 X-5.2939 Y0.0569 Z-0.481
N9050 G2 X-5.3018 Y0.0554 Z-0.4812 I-0.0226 J0.0961
N9055 G1 X-5.3097 Y0.0542 Z-0.4813
N9060 G2 X-5.3176 Y0.0533 Z-0.4814 I-0.0146 J0.0977
N9065 G1 X-5.3255 Y0.0528 Z-0.4815
N9070 G2 X-5.3323 Y0.0525 Z-0.4816 I-0.0067 J0.0985
N9075 G1 X-6.0743 Z-0.4934
N9080 X-6.0781 Y0.052
N9085 X-6.0785 Y0.0487 Z-0.4935
N9090 Y-0.0487 Z-0.495
N9095 X-6.0781 Y-0.052 Z-0.4951
N9100 X-6.0743 Y-0.0525
N9105 X-6.0573 Z-0.4954
N9110 X-6.0434 Y-0.0512 Z-0.4956
N9115 X-6.0392 Y-0.05 Z-0.4957
N9120 X-6.0161 Y-0.039 Z-0.4961
N9125 G2 X-6.0081 Y-0.0356 Z-0.4962 I0.0426 J-0.0891
N9130 G1 X-6.0002 Y-0.0326 Z-0.4964
N9135 G2 X-5.9923 Y-0.03 Z-0.4965 I0.0346 J-0.0925
N9140 G1 X-5.9844 Y-0.0278 Z-0.4966
N9145 G2 X-5.9765 Y-0.0259 Z-0.4968 I0.0267 J-0.0951
N9150 G1 X-5.9685 Y-0.0244 Z-0.4969
N9155 G2 X-5.9606 Y-0.0232 Z-0.497 I0.0188 J-0.097
N9160 G1 X-5.9527 Y-0.0223 Z-0.4971
N9165 G2 X-5.9429 Y-0.0217 Z-0.4973 I0.0108 J-0.0982
N9170 G1 X-5.9191 Y-0.0215 Z-0.4977
N9175 G2 X-5.9181 I0.001 J-0.0987
N9180 G1 X-5.3322 Z-0.507
N9185 G2 X-5.3255 Y-0.0218 Z-0.5071 I0. J-0.0988
N9190 G1 X-5.3176 Y-0.0223 Z-0.5072
N9195 G2 X-5.3097 Y-0.0232 Z-0.5073 I-0.0067 J-0.0985
N9200 G1 X-5.3018 Y-0.0244 Z-0.5074
N9205 G2 X-5.2939 Y-0.0259 Z-0.5076 I-0.0146 J-0.0977
N9210 G1 X-5.2859 Y-0.0277 Z-0.5077
N9215 G2 X-5.278 Y-0.0299 Z-0.5078 I-0.0226 J-0.0961
N9220 G1 X-5.2701 Y-0.0325 Z-0.508
N9225 G2 X-5.2602 Y-0.0363 Z-0.5081 I-0.0305 J-0.0939
N9230 G1 X-5.2483 Y-0.0417 Z-0.5083
N9235 G2 X-5.2377 Y-0.0472 Z-0.5085 I-0.0404 J-0.0901
N9240 G1 X-5.2285 Y-0.0528 Z-0.5087
N9245 G2 X-5.2213 Y-0.0576 Z-0.5088 I-0.051 J-0.0846
N9250 G1 X-5.216 Y-0.0614 Z-0.5089
N9255 G2 X-5.2086 Y-0.0674 Z-0.5091 I-0.0582 J-0.0798
N9260 G1 X-5.1993 Y-0.0756 Z-0.5093
N9265 G2 X-5.1908 Y-0.0842 Z-0.5095 I-0.0656 J-0.0738
N9270 G1 X-5.1831 Y-0.0929 Z-0.5097
N9275 G2 X-5.1773 Y-0.1002 Z-0.5098 I-0.0741 J-0.0653
N9280 G1 X-5.1732 Y-0.1058 Z-0.5099
N9285 G2 X-5.1691 Y-0.1119 Z-0.51 I-0.0799 J-0.058
N9290 G1 X-5.1526 Y-0.1386 Z-0.5105
N9295 X-5.1494 Y-0.1418 Z-0.5106
N9300 X-5.146 Y-0.144 Z-0.5107
N9305 X-5.1416 Y-0.1455
N9310 X-5.1262 Y-0.1474 Z-0.511
N9315 X-5.1243 Y-0.1475
N9320 X-3.4978 Z-0.5367
N9325 X-3.4785 Y-0.1451 Z-0.537
N9330 X-3.4742 Y-0.1433 Z-0.5371
N9335 X-3.4698 Y-0.1399 Z-0.5372
N9340 X-3.4669 Y-0.1361 Z-0.5373
N9345 X-3.4661 Y-0.1342
N9350 X-3.4649 Y-0.1313 Z-0.5374
N9355 X-3.4626 Y-0.1141 Z-0.5376
N9360 X-3.4625 Y-0.1088 Z-0.5377
N9365 Y0.1129 Z-0.5412
N9370 X-3.4626 Y0.1143
N9375 X-3.4649 Y0.1312 Z-0.5415
N9380 X-3.4669 Y0.1361 Z-0.5416
N9385 X-3.4699 Y0.14 Z-0.5417
N9390 X-3.4742 Y0.1433 Z-0.5418
N9395 X-3.4786 Y0.1451
N9400 X-3.4977 Y0.1475 Z-0.5421
N9405 X-5.1442 Y0.1473 Z-0.5682
N9410 X-5.1594 Y0.1455 Z-0.5684
N9415 X-5.1638 Y0.1438 Z-0.5685
N9420 X-5.1678 Y0.141 Z-0.5686
N9425 X-5.1883 Y0.1177 Z-0.5691
N9430 G2 X-5.1925 Y0.1133 Z-0.5692 I-0.074 J0.0653
N9435 G1 X-5.1982 Y0.1076 Z-0.5693
N9440 G2 X-5.2039 Y0.1024 Z-0.5694 I-0.0698 J0.0698
N9445 G1 X-5.2095 Y0.0975 Z-0.5695
N9450 G2 X-5.2151 Y0.0931 Z-0.5696 I-0.0642 J0.0751
N9455 G1 X-5.2207 Y0.089 Z-0.5698
N9460 G2 X-5.2281 Y0.084 Z-0.5699 I-0.0586 J0.0795
N9465 G1 X-5.2376 Y0.0783 Z-0.5701
N9470 G2 X-5.2483 Y0.0727 Z-0.5703 I-0.0511 J0.0845
N9475 G1 X-5.2602 Y0.0673 Z-0.5705
N9480 G2 X-5.2701 Y0.0635 Z-0.5706 I-0.0404 J0.0901
N9485 G1 X-5.278 Y0.0609 Z-0.5708
N9490 G2 X-5.2859 Y0.0587 Z-0.5709 I-0.0305 J0.0939
N9495 G1 X-5.2939 Y0.0569 Z-0.571
N9500 G2 X-5.3018 Y0.0554 Z-0.5712 I-0.0226 J0.0961
N9505 G1 X-5.3097 Y0.0542 Z-0.5713
N9510 G2 X-5.3176 Y0.0533 Z-0.5714 I-0.0146 J0.0977
N9515 G1 X-5.3255 Y0.0528 Z-0.5715
N9520 G2 X-5.3323 Y0.0525 Z-0.5716 I-0.0067 J0.0985
N9525 G1 X-6.0743 Z-0.5834
N9530 X-6.0781 Y0.052
N9535 X-6.0785 Y0.0487 Z-0.5835
N9540 Y-0.0487 Z-0.585
N9545 X-6.0781 Y-0.052 Z-0.5851
N9550 X-6.0743 Y-0.0525
N9555 X-6.0573 Z-0.5854
N9560 X-6.0434 Y-0.0512 Z-0.5856
N9565 X-6.0392 Y-0.05 Z-0.5857
N9570 X-6.0161 Y-0.039 Z-0.5861
N9575 G2 X-6.0081 Y-0.0356 Z-0.5862 I0.0426 J-0.0891
N9580 G1 X-6.0002 Y-0.0326 Z-0.5864
N9585 G2 X-5.9923 Y-0.03 Z-0.5865 I0.0346 J-0.0925
N9590 G1 X-5.9844 Y-0.0278 Z-0.5866
N9595 G2 X-5.9765 Y-0.0259 Z-0.5868 I0.0267 J-0.0951
N9600 G1 X-5.9685 Y-0.0244 Z-0.5869
N9605 G2 X-5.9606 Y-0.0232 Z-0.587 I0.0188 J-0.097
N9610 G1 X-5.9527 Y-0.0223 Z-0.5871
N9615 G2 X-5.9429 Y-0.0217 Z-0.5873 I0.0108 J-0.0982
N9620 G1 X-5.9191 Y-0.0215 Z-0.5877
N9625 G2 X-5.9181 I0.001 J-0.0987
N9630 G1 X-5.3322 Z-0.597
N9635 G2 X-5.3255 Y-0.0218 Z-0.5971 I0. J-0.0988
N9640 G1 X-5.3176 Y-0.0223 Z-0.5972
N9645 G2 X-5.3097 Y-0.0232 Z-0.5973 I-0.0067 J-0.0985
N9650 G1 X-5.3018 Y-0.0244 Z-0.5974
N9655 G2 X-5.2939 Y-0.0259 Z-0.5976 I-0.0146 J-0.0977
N9660 G1 X-5.2859 Y-0.0277 Z-0.5977
N9665 G2 X-5.278 Y-0.0299 Z-0.5978 I-0.0226 J-0.0961
N9670 G1 X-5.2701 Y-0.0325 Z-0.598
N9675 G2 X-5.2602 Y-0.0363 Z-0.5981 I-0.0305 J-0.0939
N9680 G1 X-5.2483 Y-0.0417 Z-0.5983
N9685 G2 X-5.2377 Y-0.0472 Z-0.5985 I-0.0404 J-0.0901
N9690 G1 X-5.2285 Y-0.0528 Z-0.5987
N9695 G2 X-5.2213 Y-0.0576 Z-0.5988 I-0.051 J-0.0846
N9700 G1 X-5.216 Y-0.0614 Z-0.5989
N9705 G2 X-5.2086 Y-0.0674 Z-0.5991 I-0.0582 J-0.0798
N9710 G1 X-5.1993 Y-0.0756 Z-0.5993
N9715 G2 X-5.1908 Y-0.0842 Z-0.5995 I-0.0656 J-0.0738
N9720 G1 X-5.1831 Y-0.0929 Z-0.5997
N9725 G2 X-5.1773 Y-0.1002 Z-0.5998 I-0.0741 J-0.0653
N9730 G1 X-5.1732 Y-0.1058 Z-0.5999
N9735 G2 X-5.1691 Y-0.1119 Z-0.6 I-0.0799 J-0.058
N9740 G1 X-5.1526 Y-0.1386 Z-0.6005
N9745 X-5.1494 Y-0.1418 Z-0.6006
N9750 X-5.146 Y-0.144 Z-0.6007
N9755 X-5.1416 Y-0.1455
N9760 X-5.1262 Y-0.1474 Z-0.601
N9765 X-5.1243 Y-0.1475
N9770 X-3.4978 Z-0.6267
N9775 X-3.4785 Y-0.1451 Z-0.627
N9780 X-3.4742 Y-0.1433 Z-0.6271
N9785 X-3.4698 Y-0.1399 Z-0.6272
N9790 X-3.4669 Y-0.1361 Z-0.6273
N9795 X-3.4661 Y-0.1342
N9800 X-3.4649 Y-0.1313 Z-0.6274
N9805 X-3.4626 Y-0.1141 Z-0.6276
N9810 X-3.4625 Y-0.1088 Z-0.6277
N9815 Y0.0356 Z-0.63
N9820 Y0.1129 F15.
N9825 X-3.4626 Y0.1143
N9830 X-3.4649 Y0.1312
N9835 X-3.4669 Y0.1361
N9840 X-3.4699 Y0.14
N9845 X-3.4742 Y0.1433
N9850 X-3.4786 Y0.1451
N9855 X-3.4977 Y0.1475
N9860 X-5.1442 Y0.1473
N9865 X-5.1594 Y0.1455
N9870 X-5.1638 Y0.1438
N9875 X-5.1678 Y0.141
N9880 X-5.1883 Y0.1177
N9885 G2 X-5.1925 Y0.1133 I-0.074 J0.0653
N9890 G1 X-5.1982 Y0.1076
N9895 G2 X-5.2039 Y0.1024 I-0.0698 J0.0698
N9900 G1 X-5.2095 Y0.0975
N9905 G2 X-5.2151 Y0.0931 I-0.0642 J0.0751
N9910 G1 X-5.2207 Y0.089
N9915 G2 X-5.2281 Y0.084 I-0.0586 J0.0795
N9920 G1 X-5.2376 Y0.0783
N9925 G2 X-5.2483 Y0.0727 I-0.0511 J0.0845
N9930 G1 X-5.2602 Y0.0673
N9935 G2 X-5.2701 Y0.0635 I-0.0404 J0.0901
N9940 G1 X-5.278 Y0.0609
N9945 G2 X-5.2859 Y0.0587 I-0.0305 J0.0939
N9950 G1 X-5.2939 Y0.0569
N9955 G2 X-5.3018 Y0.0554 I-0.0226 J0.0961
N9960 G1 X-5.3097 Y0.0542
N9965 G2 X-5.3176 Y0.0533 I-0.0146 J0.0977
N9970 G1 X-5.3255 Y0.0528
N9975 G2 X-5.3323 Y0.0525 I-0.0067 J0.0985
N9980 G1 X-6.0743
N9985 X-6.0781 Y0.052
N9990 X-6.0785 Y0.0487
N9995 Y-0.0487
N10000 X-6.0781 Y-0.052
N10005 X-6.0743 Y-0.0525
N10010 X-6.0573
N10015 X-6.0434 Y-0.0512
N10020 X-6.0392 Y-0.05
N10025 X-6.0161 Y-0.039
N10030 G2 X-6.0081 Y-0.0356 I0.0426 J-0.0891
N10035 G1 X-6.0002 Y-0.0326
N10040 G2 X-5.9923 Y-0.03 I0.0346 J-0.0925
N10045 G1 X-5.9844 Y-0.0278
N10050 G2 X-5.9765 Y-0.0259 I0.0267 J-0.0951
N10055 G1 X-5.9685 Y-0.0244
N10060 G2 X-5.9606 Y-0.0232 I0.0188 J-0.097
N10065 G1 X-5.9527 Y-0.0223
N10070 G2 X-5.9429 Y-0.0217 I0.0108 J-0.0982
N10075 G1 X-5.9191 Y-0.0215
N10080 G2 X-5.9181 I0.001 J-0.0987
N10085 G1 X-5.3322
N10090 G2 X-5.3255 Y-0.0218 I0. J-0.0988
N10095 G1 X-5.3176 Y-0.0223
N10100 G2 X-5.3097 Y-0.0232 I-0.0067 J-0.0985
N10105 G1 X-5.3018 Y-0.0244
N10110 G2 X-5.2939 Y-0.0259 I-0.0146 J-0.0977
N10115 G1 X-5.2859 Y-0.0277
N10120 G2 X-5.278 Y-0.0299 I-0.0226 J-0.0961
N10125 G1 X-5.2701 Y-0.0325
N10130 G2 X-5.2602 Y-0.0363 I-0.0305 J-0.0939
N10135 G1 X-5.2483 Y-0.0417
N10140 G2 X-5.2377 Y-0.0472 I-0.0404 J-0.0901
N10145 G1 X-5.2285 Y-0.0528
N10150 G2 X-5.2213 Y-0.0576 I-0.051 J-0.0846
N10155 G1 X-5.216 Y-0.0614
N10160 G2 X-5.2086 Y-0.0674 I-0.0582 J-0.0798
N10165 G1 X-5.1993 Y-0.0756
N10170 G2 X-5.1908 Y-0.0842 I-0.0656 J-0.0738
N10175 G1 X-5.1831 Y-0.0929
N10180 G2 X-5.1773 Y-0.1002 I-0.0741 J-0.0653
N10185 G1 X-5.1732 Y-0.1058
N10190 G2 X-5.1691 Y-0.1119 I-0.0799 J-0.058
N10195 G1 X-5.1526 Y-0.1386
N10200 X-5.1494 Y-0.1418
N10205 X-5.146 Y-0.144
N10210 X-5.1416 Y-0.1455
N10215 X-5.1262 Y-0.1474
N10220 X-5.1243 Y-0.1475
N10225 X-3.4978
N10230 X-3.4785 Y-0.1451
N10235 X-3.4742 Y-0.1433
N10240 X-3.4698 Y-0.1399
N10245 X-3.4669 Y-0.1361
N10250 X-3.4661 Y-0.1342
N10255 X-3.4649 Y-0.1313
N10260 X-3.4626 Y-0.1141
N10265 X-3.4625 Y-0.1088
N10270 Y0.0356
N10275 G3 X-3.4632 Y0.0429 Z-0.6293 I-0.0375 J0. F2.
N10280 X-3.4652 Y0.0496 Z-0.6271 I-0.0368 J-0.0073
N10285 X-3.4681 Y0.0554 Z-0.6237 I-0.0348 J-0.014
N10290 X-3.4715 Y0.06 Z-0.619 I-0.0319 J-0.0198
N10295 X-3.4747 Y0.0633 Z-0.6133 I-0.0285 J-0.0244
N10300 X-3.4774 Y0.0655 Z-0.6069 I-0.0253 J-0.0277
N10305 X-3.4791 Y0.0668 Z-0.5998 I-0.0226 J-0.0299
N10310 X-3.4797 Y0.0672 Z-0.5925 I-0.0209 J-0.0312
N10315 G0 Z0.2
N10320 X-3.5755 Y-0.1475
N10325 G1 Z-0.498 F1.
N10330 G18 G2 X-3.5387 Z-0.5355 I0.0375 K0. F3.
N10335 G1 X-3.4978 Z-0.5362
N10340 X-3.4785 Y-0.1451 Z-0.5366
N10345 X-3.4742 Y-0.1433 Z-0.5367
N10350 X-3.4698 Y-0.1399 Z-0.5368
N10355 X-3.4669 Y-0.1361 Z-0.5369
N10360 X-3.4661 Y-0.1342
N10365 X-3.4649 Y-0.1313 Z-0.537
N10370 X-3.4626 Y-0.1141 Z-0.5373
N10375 X-3.4625 Y-0.1088 Z-0.5374
N10380 Y0.1129 Z-0.5414
N10385 X-3.4626 Y0.1143
N10390 X-3.4649 Y0.1312 Z-0.5417
N10395 X-3.4669 Y0.1361 Z-0.5418
N10400 X-3.4699 Y0.14 Z-0.5419
N10405 X-3.4742 Y0.1433 Z-0.542
N10410 X-3.4786 Y0.1451 Z-0.5421
N10415 X-3.4977 Y0.1475 Z-0.5425
N10420 X-5.1442 Y0.1473 Z-0.5724
N10425 X-5.1594 Y0.1455 Z-0.5727
N10430 X-5.1638 Y0.1438 Z-0.5728
N10435 X-5.1678 Y0.141
N10440 X-5.1883 Y0.1177 Z-0.5734
N10445 G17 G2 X-5.1925 Y0.1133 Z-0.5735 I-0.074 J0.0653
N10450 G1 X-5.1982 Y0.1076 Z-0.5737
N10455 G2 X-5.2039 Y0.1024 Z-0.5738 I-0.0698 J0.0698
N10460 G1 X-5.2095 Y0.0975 Z-0.5739
N10465 G2 X-5.2151 Y0.0931 Z-0.5741 I-0.0642 J0.0751
N10470 G1 X-5.2207 Y0.089 Z-0.5742
N10475 G2 X-5.2281 Y0.084 Z-0.5744 I-0.0586 J0.0795
N10480 G1 X-5.2376 Y0.0783 Z-0.5746
N10485 G2 X-5.2483 Y0.0727 Z-0.5748 I-0.0511 J0.0845
N10490 G1 X-5.2602 Y0.0673 Z-0.575
N10495 G2 X-5.2701 Y0.0635 Z-0.5752 I-0.0404 J0.0901
N10500 G1 X-5.278 Y0.0609 Z-0.5754
N10505 G2 X-5.2859 Y0.0587 Z-0.5755 I-0.0305 J0.0939
N10510 G1 X-5.2939 Y0.0569 Z-0.5757
N10515 G2 X-5.3018 Y0.0554 Z-0.5758 I-0.0226 J0.0961
N10520 G1 X-5.3097 Y0.0542 Z-0.5759
N10525 G2 X-5.3176 Y0.0533 Z-0.5761 I-0.0146 J0.0977
N10530 G1 X-5.3255 Y0.0528 Z-0.5762
N10535 G2 X-5.3322 Y0.0525 Z-0.5764 I-0.0067 J0.0985
N10540 G1 X-5.7115 Z-0.5833
N10545 X-5.723 Y0.0498 Z-0.5835
N10550 X-5.7273 Y0.0476 Z-0.5836
N10555 X-5.7308 Y0.0446
N10560 X-5.7339 Y0.0402 Z-0.5837
N10565 X-5.7353 Y0.0363 Z-0.5838
N10570 X-5.7374 Y0.0184 Z-0.5841
N10575 X-5.7373 Y0.0105 Z-0.5843
N10580 X-5.7354 Y-0.005 Z-0.5846
N10585 X-5.7339 Y-0.0091
N10590 X-5.7308 Y-0.0136 Z-0.5847
N10595 X-5.7273 Y-0.0166 Z-0.5848
N10600 X-5.723 Y-0.0188 Z-0.5849
N10605 X-5.7116 Y-0.0215 Z-0.5851
N10610 X-5.7111
N10615 X-5.3322 Z-0.592
N10620 G2 X-5.3255 Y-0.0218 Z-0.5921 I0. J-0.0988
N10625 G1 X-5.3176 Y-0.0223 Z-0.5923
N10630 G2 X-5.3097 Y-0.0232 Z-0.5924 I-0.0067 J-0.0985
N10635 G1 X-5.3018 Y-0.0244 Z-0.5926
N10640 G2 X-5.2939 Y-0.0259 Z-0.5927 I-0.0146 J-0.0977
N10645 G1 X-5.2859 Y-0.0277 Z-0.5929
N10650 G2 X-5.278 Y-0.0299 Z-0.593 I-0.0226 J-0.0961
N10655 G1 X-5.2701 Y-0.0325 Z-0.5932
N10660 G2 X-5.2602 Y-0.0363 Z-0.5934 I-0.0305 J-0.0939
N10665 G1 X-5.2483 Y-0.0417 Z-0.5936
N10670 G2 X-5.2377 Y-0.0472 Z-0.5938 I-0.0404 J-0.0901
N10675 G1 X-5.2285 Y-0.0528 Z-0.594
N10680 G2 X-5.2213 Y-0.0576 Z-0.5942 I-0.051 J-0.0846
N10685 G1 X-5.216 Y-0.0614 Z-0.5943
N10690 G2 X-5.2086 Y-0.0674 Z-0.5945 I-0.0582 J-0.0798
N10695 G1 X-5.1993 Y-0.0756 Z-0.5947
N10700 G2 X-5.1908 Y-0.0842 Z-0.5949 I-0.0656 J-0.0738
N10705 G1 X-5.1831 Y-0.0929 Z-0.5951
N10710 G2 X-5.1773 Y-0.1002 Z-0.5953 I-0.0741 J-0.0653
N10715 G1 X-5.1732 Y-0.1058 Z-0.5954
N10720 G2 X-5.1691 Y-0.1119 Z-0.5956 I-0.0799 J-0.058
N10725 G1 X-5.1526 Y-0.1386 Z-0.5961
N10730 X-5.1494 Y-0.1418 Z-0.5962
N10735 X-5.146 Y-0.144 Z-0.5963
N10740 X-5.1416 Y-0.1455 Z-0.5964
N10745 X-5.1262 Y-0.1474 Z-0.5966
N10750 X-5.1243 Y-0.1475 Z-0.5967
N10755 X-3.4978 Z-0.6262
N10760 X-3.4785 Y-0.1451 Z-0.6266
N10765 X-3.4742 Y-0.1433 Z-0.6267
N10770 X-3.4698 Y-0.1399 Z-0.6268
N10775 X-3.4669 Y-0.1361 Z-0.6269
N10780 X-3.4661 Y-0.1342
N10785 X-3.4649 Y-0.1313 Z-0.627
N10790 X-3.4626 Y-0.1141 Z-0.6273
N10795 X-3.4625 Y-0.1088 Z-0.6274
N10800 Y0.1129 Z-0.6314
N10805 X-3.4626 Y0.1143
N10810 X-3.4649 Y0.1312 Z-0.6317
N10815 X-3.4669 Y0.1361 Z-0.6318
N10820 X-3.4699 Y0.14 Z-0.6319
N10825 X-3.4742 Y0.1433 Z-0.632
N10830 X-3.4786 Y0.1451 Z-0.6321
N10835 X-3.4977 Y0.1475 Z-0.6325
N10840 X-5.1442 Y0.1473 Z-0.6624
N10845 X-5.1594 Y0.1455 Z-0.6627
N10850 X-5.1638 Y0.1438 Z-0.6628
N10855 X-5.1678 Y0.141
N10860 X-5.1883 Y0.1177 Z-0.6634
N10865 G2 X-5.1925 Y0.1133 Z-0.6635 I-0.074 J0.0653
N10870 G1 X-5.1982 Y0.1076 Z-0.6637
N10875 G2 X-5.2039 Y0.1024 Z-0.6638 I-0.0698 J0.0698
N10880 G1 X-5.2095 Y0.0975 Z-0.6639
N10885 G2 X-5.2151 Y0.0931 Z-0.6641 I-0.0642 J0.0751
N10890 G1 X-5.2207 Y0.089 Z-0.6642
N10895 G2 X-5.2281 Y0.084 Z-0.6644 I-0.0586 J0.0795
N10900 G1 X-5.2376 Y0.0783 Z-0.6646
N10905 G2 X-5.2483 Y0.0727 Z-0.6648 I-0.0511 J0.0845
N10910 G1 X-5.2602 Y0.0673 Z-0.665
N10915 G2 X-5.2701 Y0.0635 Z-0.6652 I-0.0404 J0.0901
N10920 G1 X-5.278 Y0.0609 Z-0.6654
N10925 G2 X-5.2859 Y0.0587 Z-0.6655 I-0.0305 J0.0939
N10930 G1 X-5.2939 Y0.0569 Z-0.6657
N10935 G2 X-5.3018 Y0.0554 Z-0.6658 I-0.0226 J0.0961
N10940 G1 X-5.3097 Y0.0542 Z-0.6659
N10945 G2 X-5.3176 Y0.0533 Z-0.6661 I-0.0146 J0.0977
N10950 G1 X-5.3255 Y0.0528 Z-0.6662
N10955 G2 X-5.3322 Y0.0525 Z-0.6664 I-0.0067 J0.0985
N10960 G1 X-5.7115 Z-0.6733
N10965 X-5.723 Y0.0498 Z-0.6735
N10970 X-5.7273 Y0.0476 Z-0.6736
N10975 X-5.7308 Y0.0446
N10980 X-5.7339 Y0.0402 Z-0.6737
N10985 X-5.7353 Y0.0363 Z-0.6738
N10990 X-5.7374 Y0.0184 Z-0.6741
N10995 X-5.7373 Y0.0105 Z-0.6743
N11000 X-5.7354 Y-0.005 Z-0.6746
N11005 X-5.7339 Y-0.0091
N11010 X-5.7308 Y-0.0136 Z-0.6747
N11015 X-5.7273 Y-0.0166 Z-0.6748
N11020 X-5.723 Y-0.0188 Z-0.6749
N11025 X-5.7116 Y-0.0215 Z-0.6751
N11030 X-5.7111
N11035 X-5.3322 Z-0.682
N11040 G2 X-5.3255 Y-0.0218 Z-0.6821 I0. J-0.0988
N11045 G1 X-5.3176 Y-0.0223 Z-0.6823
N11050 G2 X-5.3097 Y-0.0232 Z-0.6824 I-0.0067 J-0.0985
N11055 G1 X-5.3018 Y-0.0244 Z-0.6826
N11060 G2 X-5.2939 Y-0.0259 Z-0.6827 I-0.0146 J-0.0977
N11065 G1 X-5.2859 Y-0.0277 Z-0.6829
N11070 G2 X-5.278 Y-0.0299 Z-0.683 I-0.0226 J-0.0961
N11075 G1 X-5.2701 Y-0.0325 Z-0.6832
N11080 G2 X-5.2602 Y-0.0363 Z-0.6834 I-0.0305 J-0.0939
N11085 G1 X-5.2483 Y-0.0417 Z-0.6836
N11090 G2 X-5.2377 Y-0.0472 Z-0.6838 I-0.0404 J-0.0901
N11095 G1 X-5.2285 Y-0.0528 Z-0.684
N11100 G2 X-5.2213 Y-0.0576 Z-0.6842 I-0.051 J-0.0846
N11105 G1 X-5.216 Y-0.0614 Z-0.6843
N11110 G2 X-5.2086 Y-0.0674 Z-0.6845 I-0.0582 J-0.0798
N11115 G1 X-5.1993 Y-0.0756 Z-0.6847
N11120 G2 X-5.1908 Y-0.0842 Z-0.6849 I-0.0656 J-0.0738
N11125 G1 X-5.1831 Y-0.0929 Z-0.6851
N11130 G2 X-5.1773 Y-0.1002 Z-0.6853 I-0.0741 J-0.0653
N11135 G1 X-5.1732 Y-0.1058 Z-0.6854
N11140 G2 X-5.1691 Y-0.1119 Z-0.6856 I-0.0799 J-0.058
N11145 G1 X-5.1526 Y-0.1386 Z-0.6861
N11150 X-5.1494 Y-0.1418 Z-0.6862
N11155 X-5.146 Y-0.144 Z-0.6863
N11160 X-5.1416 Y-0.1455 Z-0.6864
N11165 X-5.1262 Y-0.1474 Z-0.6866
N11170 X-5.1243 Y-0.1475 Z-0.6867
N11175 X-3.4978 Z-0.7162
N11180 X-3.4785 Y-0.1451 Z-0.7166
N11185 X-3.4742 Y-0.1433 Z-0.7167
N11190 X-3.4698 Y-0.1399 Z-0.7168
N11195 X-3.4669 Y-0.1361 Z-0.7169
N11200 X-3.4661 Y-0.1342
N11205 X-3.4649 Y-0.1313 Z-0.717
N11210 X-3.4626 Y-0.1141 Z-0.7173
N11215 X-3.4625 Y-0.1088 Z-0.7174
N11220 Y0.0356 Z-0.72
N11225 Y0.1129 F15.
N11230 X-3.4626 Y0.1143
N11235 X-3.4649 Y0.1312
N11240 X-3.4669 Y0.1361
N11245 X-3.4699 Y0.14
N11250 X-3.4742 Y0.1433
N11255 X-3.4786 Y0.1451
N11260 X-3.4977 Y0.1475
N11265 X-5.1442 Y0.1473
N11270 X-5.1594 Y0.1455
N11275 X-5.1638 Y0.1438
N11280 X-5.1678 Y0.141
N11285 X-5.1883 Y0.1177
N11290 G2 X-5.1925 Y0.1133 I-0.074 J0.0653
N11295 G1 X-5.1982 Y0.1076
N11300 G2 X-5.2039 Y0.1024 I-0.0698 J0.0698
N11305 G1 X-5.2095 Y0.0975
N11310 G2 X-5.2151 Y0.0931 I-0.0642 J0.0751
N11315 G1 X-5.2207 Y0.089
N11320 G2 X-5.2281 Y0.084 I-0.0586 J0.0795
N11325 G1 X-5.2376 Y0.0783
N11330 G2 X-5.2483 Y0.0727 I-0.0511 J0.0845
N11335 G1 X-5.2602 Y0.0673
N11340 G2 X-5.2701 Y0.0635 I-0.0404 J0.0901
N11345 G1 X-5.278 Y0.0609
N11350 G2 X-5.2859 Y0.0587 I-0.0305 J0.0939
N11355 G1 X-5.2939 Y0.0569
N11360 G2 X-5.3018 Y0.0554 I-0.0226 J0.0961
N11365 G1 X-5.3097 Y0.0542
N11370 G2 X-5.3176 Y0.0533 I-0.0146 J0.0977
N11375 G1 X-5.3255 Y0.0528
N11380 G2 X-5.3322 Y0.0525 I-0.0067 J0.0985
N11385 G1 X-5.7115
N11390 X-5.723 Y0.0498
N11395 X-5.7273 Y0.0476
N11400 X-5.7308 Y0.0446
N11405 X-5.7339 Y0.0402
N11410 X-5.7353 Y0.0363
N11415 X-5.7374 Y0.0184
N11420 X-5.7373 Y0.0105
N11425 X-5.7354 Y-0.005
N11430 X-5.7339 Y-0.0091
N11435 X-5.7308 Y-0.0136
N11440 X-5.7273 Y-0.0166
N11445 X-5.723 Y-0.0188
N11450 X-5.7116 Y-0.0215
N11455 X-5.7111
N11460 X-5.3322
N11465 G2 X-5.3255 Y-0.0218 I0. J-0.0988
N11470 G1 X-5.3176 Y-0.0223
N11475 G2 X-5.3097 Y-0.0232 I-0.0067 J-0.0985
N11480 G1 X-5.3018 Y-0.0244
N11485 G2 X-5.2939 Y-0.0259 I-0.0146 J-0.0977
N11490 G1 X-5.2859 Y-0.0277
N11495 G2 X-5.278 Y-0.0299 I-0.0226 J-0.0961
N11500 G1 X-5.2701 Y-0.0325
N11505 G2 X-5.2602 Y-0.0363 I-0.0305 J-0.0939
N11510 G1 X-5.2483 Y-0.0417
N11515 G2 X-5.2377 Y-0.0472 I-0.0404 J-0.0901
N11520 G1 X-5.2285 Y-0.0528
N11525 G2 X-5.2213 Y-0.0576 I-0.051 J-0.0846
N11530 G1 X-5.216 Y-0.0614
N11535 G2 X-5.2086 Y-0.0674 I-0.0582 J-0.0798
N11540 G1 X-5.1993 Y-0.0756
N11545 G2 X-5.1908 Y-0.0842 I-0.0656 J-0.0738
N11550 G1 X-5.1831 Y-0.0929
N11555 G2 X-5.1773 Y-0.1002 I-0.0741 J-0.0653
N11560 G1 X-5.1732 Y-0.1058
N11565 G2 X-5.1691 Y-0.1119 I-0.0799 J-0.058
N11570 G1 X-5.1526 Y-0.1386
N11575 X-5.1494 Y-0.1418
N11580 X-5.146 Y-0.144
N11585 X-5.1416 Y-0.1455
N11590 X-5.1262 Y-0.1474
N11595 X-5.1243 Y-0.1475
N11600 X-3.4978
N11605 X-3.4785 Y-0.1451
N11610 X-3.4742 Y-0.1433
N11615 X-3.4698 Y-0.1399
N11620 X-3.4669 Y-0.1361
N11625 X-3.4661 Y-0.1342
N11630 X-3.4649 Y-0.1313
N11635 X-3.4626 Y-0.1141
N11640 X-3.4625 Y-0.1088
N11645 Y0.0356
N11650 G3 X-3.4632 Y0.0429 Z-0.7193 I-0.0375 J0. F2.
N11655 X-3.4652 Y0.0496 Z-0.7171 I-0.0368 J-0.0073
N11660 X-3.4681 Y0.0554 Z-0.7137 I-0.0348 J-0.014
N11665 X-3.4715 Y0.06 Z-0.709 I-0.0319 J-0.0198
N11670 X-3.4747 Y0.0633 Z-0.7033 I-0.0285 J-0.0244
N11675 X-3.4774 Y0.0655 Z-0.6969 I-0.0253 J-0.0277
N11680 X-3.4791 Y0.0668 Z-0.6898 I-0.0226 J-0.0299
N11685 X-3.4797 Y0.0672 Z-0.6825 I-0.0209 J-0.0312
N11690 G0 Z0.2
N11695 X-3.4625 Y0.0345
N11700 G1 Z-0.588 F1.
N11705 G19 G3 Y0.0714 Z-0.6255 J0.0375 K0. F3.
N11710 G1 Y0.1129 Z-0.6263
N11715 X-3.4626 Y0.1143
N11720 X-3.4649 Y0.1312 Z-0.6266
N11725 X-3.4669 Y0.1361 Z-0.6267
N11730 X-3.4699 Y0.14 Z-0.6268
N11735 X-3.4742 Y0.1433 Z-0.6269
N11740 X-3.4786 Y0.1451 Z-0.627
N11745 X-3.4977 Y0.1475 Z-0.6273
N11750 X-5.1442 Y0.1473 Z-0.6572
N11755 X-5.1594 Y0.1455 Z-0.6575
N11760 X-5.1638 Y0.1438 Z-0.6576
N11765 X-5.1678 Y0.141 Z-0.6577
N11770 X-5.1883 Y0.1177 Z-0.6583
N11775 G17 G2 X-5.1925 Y0.1133 Z-0.6584 I-0.074 J0.0653
N11780 G1 X-5.1982 Y0.1076 Z-0.6585
N11785 G2 X-5.2039 Y0.1024 Z-0.6587 I-0.0698 J0.0698
N11790 G1 X-5.2095 Y0.0975 Z-0.6588
N11795 G2 X-5.2151 Y0.0931 Z-0.6589 I-0.0642 J0.0751
N11800 G1 X-5.2207 Y0.089 Z-0.659
N11805 G2 X-5.2281 Y0.084 Z-0.6592 I-0.0586 J0.0795
N11810 G1 X-5.2376 Y0.0783 Z-0.6594
N11815 G2 X-5.2483 Y0.0727 Z-0.6596 I-0.0511 J0.0845
N11820 G1 X-5.2602 Y0.0673 Z-0.6599
N11825 G2 X-5.2701 Y0.0635 Z-0.6601 I-0.0404 J0.0901
N11830 G1 X-5.278 Y0.0609 Z-0.6602
N11835 G2 X-5.2859 Y0.0587 Z-0.6604 I-0.0305 J0.0939
N11840 G1 X-5.2939 Y0.0569 Z-0.6605
N11845 G2 X-5.3018 Y0.0554 Z-0.6607 I-0.0226 J0.0961
N11850 G1 X-5.3097 Y0.0542 Z-0.6608
N11855 G2 X-5.3176 Y0.0533 Z-0.6609 I-0.0146 J0.0977
N11860 G1 X-5.3255 Y0.0528 Z-0.6611
N11865 G2 X-5.3322 Y0.0525 Z-0.6612 I-0.0067 J0.0985
N11870 G1 X-5.7115 Z-0.6681
N11875 X-5.723 Y0.0498 Z-0.6683
N11880 X-5.7273 Y0.0476 Z-0.6684
N11885 X-5.7308 Y0.0446 Z-0.6685
N11890 X-5.7339 Y0.0402 Z-0.6686
N11895 X-5.7353 Y0.0363 Z-0.6687
N11900 X-5.7374 Y0.0183 Z-0.669
N11905 X-5.7373 Y0.0106 Z-0.6691
N11910 X-5.7354 Y-0.0051 Z-0.6694
N11915 X-5.7339 Y-0.0091 Z-0.6695
N11920 X-5.7308 Y-0.0136 Z-0.6696
N11925 X-5.7273 Y-0.0166 Z-0.6697
N11930 X-5.723 Y-0.0188 Z-0.6698
N11935 X-5.7116 Y-0.0215 Z-0.67
N11940 X-5.7111
N11945 X-5.3322 Z-0.6769
N11950 G2 X-5.3255 Y-0.0218 Z-0.677 I0. J-0.0988
N11955 G1 X-5.3176 Y-0.0223 Z-0.6771
N11960 G2 X-5.3097 Y-0.0232 Z-0.6773 I-0.0067 J-0.0985
N11965 G1 X-5.3018 Y-0.0244 Z-0.6774
N11970 G2 X-5.2939 Y-0.0259 Z-0.6776 I-0.0146 J-0.0977
N11975 G1 X-5.2859 Y-0.0277 Z-0.6777
N11980 G2 X-5.278 Y-0.0299 Z-0.6779 I-0.0226 J-0.0961
N11985 G1 X-5.2701 Y-0.0325 Z-0.678
N11990 G2 X-5.2602 Y-0.0363 Z-0.6782 I-0.0305 J-0.0939
N11995 G1 X-5.2483 Y-0.0417 Z-0.6785
N12000 G2 X-5.2377 Y-0.0472 Z-0.6787 I-0.0404 J-0.0901
N12005 G1 X-5.2285 Y-0.0528 Z-0.6789
N12010 G2 X-5.2213 Y-0.0576 Z-0.679 I-0.051 J-0.0846
N12015 G1 X-5.216 Y-0.0614 Z-0.6791
N12020 G2 X-5.2086 Y-0.0674 Z-0.6793 I-0.0582 J-0.0798
N12025 G1 X-5.1993 Y-0.0756 Z-0.6795
N12030 G2 X-5.1908 Y-0.0842 Z-0.6798 I-0.0656 J-0.0738
N12035 G1 X-5.1831 Y-0.0929 Z-0.68
N12040 G2 X-5.1773 Y-0.1002 Z-0.6801 I-0.0741 J-0.0653
N12045 G1 X-5.1732 Y-0.1058 Z-0.6803
N12050 G2 X-5.1691 Y-0.1119 Z-0.6804 I-0.0799 J-0.058
N12055 G1 X-5.1526 Y-0.1386 Z-0.681
N12060 X-5.1494 Y-0.1418 Z-0.6811
N12065 X-5.146 Y-0.144
N12070 X-5.1416 Y-0.1455 Z-0.6812
N12075 X-5.1262 Y-0.1474 Z-0.6815
N12080 X-5.1243 Y-0.1475
N12085 X-3.4978 Z-0.7111
N12090 X-3.4785 Y-0.1451 Z-0.7114
N12095 X-3.4742 Y-0.1433 Z-0.7115
N12100 X-3.4698 Y-0.1399 Z-0.7116
N12105 X-3.4669 Y-0.1361 Z-0.7117
N12110 X-3.4661 Y-0.1342 Z-0.7118
N12115 X-3.4649 Y-0.1313
N12120 X-3.4626 Y-0.1141 Z-0.7121
N12125 X-3.4625 Y-0.1088 Z-0.7122
N12130 Y0.1129 Z-0.7163
N12135 X-3.4626 Y0.1143
N12140 X-3.4649 Y0.1312 Z-0.7166
N12145 X-3.4669 Y0.1361 Z-0.7167
N12150 X-3.4699 Y0.14 Z-0.7168
N12155 X-3.4742 Y0.1433 Z-0.7169
N12160 X-3.4786 Y0.1451 Z-0.717
N12165 X-3.4977 Y0.1475 Z-0.7173
N12170 X-5.1442 Y0.1473 Z-0.7472
N12175 X-5.1594 Y0.1455 Z-0.7475
N12180 X-5.1638 Y0.1438 Z-0.7476
N12185 X-5.1678 Y0.141 Z-0.7477
N12190 X-5.1883 Y0.1177 Z-0.7483
N12195 G2 X-5.1925 Y0.1133 Z-0.7484 I-0.074 J0.0653
N12200 G1 X-5.1982 Y0.1076 Z-0.7485
N12205 G2 X-5.2039 Y0.1024 Z-0.7487 I-0.0698 J0.0698
N12210 G1 X-5.2095 Y0.0975 Z-0.7488
N12215 G2 X-5.2151 Y0.0931 Z-0.7489 I-0.0642 J0.0751
N12220 G1 X-5.2207 Y0.089 Z-0.749
N12225 G2 X-5.2281 Y0.084 Z-0.7492 I-0.0586 J0.0795
N12230 G1 X-5.2376 Y0.0783 Z-0.7494
N12235 G2 X-5.2483 Y0.0727 Z-0.7496 I-0.0511 J0.0845
N12240 G1 X-5.2602 Y0.0673 Z-0.7499
N12245 G2 X-5.2701 Y0.0635 Z-0.7501 I-0.0404 J0.0901
N12250 G1 X-5.278 Y0.0609 Z-0.7502
N12255 G2 X-5.2859 Y0.0587 Z-0.7504 I-0.0305 J0.0939
N12260 G1 X-5.2939 Y0.0569 Z-0.7505
N12265 G2 X-5.3018 Y0.0554 Z-0.7507 I-0.0226 J0.0961
N12270 G1 X-5.3097 Y0.0542 Z-0.7508
N12275 G2 X-5.3176 Y0.0533 Z-0.7509 I-0.0146 J0.0977
N12280 G1 X-5.3255 Y0.0528 Z-0.7511
N12285 G2 X-5.3322 Y0.0525 Z-0.7512 I-0.0067 J0.0985
N12290 G1 X-5.7115 Z-0.7581
N12295 X-5.723 Y0.0498 Z-0.7583
N12300 X-5.7273 Y0.0476 Z-0.7584
N12305 X-5.7308 Y0.0446 Z-0.7585
N12310 X-5.7339 Y0.0402 Z-0.7586
N12315 X-5.7353 Y0.0363 Z-0.7587
N12320 X-5.7374 Y0.0183 Z-0.759
N12325 X-5.7373 Y0.0106 Z-0.7591
N12330 X-5.7354 Y-0.0051 Z-0.7594
N12335 X-5.7339 Y-0.0091 Z-0.7595
N12340 X-5.7308 Y-0.0136 Z-0.7596
N12345 X-5.7273 Y-0.0166 Z-0.7597
N12350 X-5.723 Y-0.0188 Z-0.7598
N12355 X-5.7116 Y-0.0215 Z-0.76
N12360 X-5.7111
N12365 X-5.3322 Z-0.7669
N12370 G2 X-5.3255 Y-0.0218 Z-0.767 I0. J-0.0988
N12375 G1 X-5.3176 Y-0.0223 Z-0.7671
N12380 G2 X-5.3097 Y-0.0232 Z-0.7673 I-0.0067 J-0.0985
N12385 G1 X-5.3018 Y-0.0244 Z-0.7674
N12390 G2 X-5.2939 Y-0.0259 Z-0.7676 I-0.0146 J-0.0977
N12395 G1 X-5.2859 Y-0.0277 Z-0.7677
N12400 G2 X-5.278 Y-0.0299 Z-0.7679 I-0.0226 J-0.0961
N12405 G1 X-5.2701 Y-0.0325 Z-0.768
N12410 G2 X-5.2602 Y-0.0363 Z-0.7682 I-0.0305 J-0.0939
N12415 G1 X-5.2483 Y-0.0417 Z-0.7685
N12420 G2 X-5.2377 Y-0.0472 Z-0.7687 I-0.0404 J-0.0901
N12425 G1 X-5.2285 Y-0.0528 Z-0.7689
N12430 G2 X-5.2213 Y-0.0576 Z-0.769 I-0.051 J-0.0846
N12435 G1 X-5.216 Y-0.0614 Z-0.7691
N12440 G2 X-5.2086 Y-0.0674 Z-0.7693 I-0.0582 J-0.0798
N12445 G1 X-5.1993 Y-0.0756 Z-0.7695
N12450 G2 X-5.1908 Y-0.0842 Z-0.7698 I-0.0656 J-0.0738
N12455 G1 X-5.1831 Y-0.0929 Z-0.77
N12460 G2 X-5.1773 Y-0.1002 Z-0.7701 I-0.0741 J-0.0653
N12465 G1 X-5.1732 Y-0.1058 Z-0.7703
N12470 G2 X-5.1691 Y-0.1119 Z-0.7704 I-0.0799 J-0.058
N12475 G1 X-5.1526 Y-0.1386 Z-0.771
N12480 X-5.1494 Y-0.1418 Z-0.7711
N12485 X-5.146 Y-0.144
N12490 X-5.1416 Y-0.1455 Z-0.7712
N12495 X-5.1262 Y-0.1474 Z-0.7715
N12500 X-5.1243 Y-0.1475
N12505 X-3.4978 Z-0.8011
N12510 X-3.4785 Y-0.1451 Z-0.8014
N12515 X-3.4742 Y-0.1433 Z-0.8015
N12520 X-3.4698 Y-0.1399 Z-0.8016
N12525 X-3.4669 Y-0.1361 Z-0.8017
N12530 X-3.4661 Y-0.1342 Z-0.8018
N12535 X-3.4649 Y-0.1313
N12540 X-3.4626 Y-0.1141 Z-0.8021
N12545 X-3.4625 Y-0.1088 Z-0.8022
N12550 Y0.1129 Z-0.8063
N12555 X-3.4626 Y0.1143
N12560 X-3.4649 Y0.1312 Z-0.8066
N12565 X-3.4669 Y0.1361 Z-0.8067
N12570 X-3.4699 Y0.14 Z-0.8068
N12575 X-3.4742 Y0.1433 Z-0.8069
N12580 X-3.4786 Y0.1451 Z-0.807
N12585 X-3.4977 Y0.1475 Z-0.8073
N12590 X-3.6456 Z-0.81
N12595 X-5.1442 Y0.1473 F15.
N12600 X-5.1594 Y0.1455
N12605 X-5.1638 Y0.1438
N12610 X-5.1678 Y0.141
N12615 X-5.1883 Y0.1177
N12620 G2 X-5.1925 Y0.1133 I-0.074 J0.0653
N12625 G1 X-5.1982 Y0.1076
N12630 G2 X-5.2039 Y0.1024 I-0.0698 J0.0698
N12635 G1 X-5.2095 Y0.0975
N12640 G2 X-5.2151 Y0.0931 I-0.0642 J0.0751
N12645 G1 X-5.2207 Y0.089
N12650 G2 X-5.2281 Y0.084 I-0.0586 J0.0795
N12655 G1 X-5.2376 Y0.0783
N12660 G2 X-5.2483 Y0.0727 I-0.0511 J0.0845
N12665 G1 X-5.2602 Y0.0673
N12670 G2 X-5.2701 Y0.0635 I-0.0404 J0.0901
N12675 G1 X-5.278 Y0.0609
N12680 G2 X-5.2859 Y0.0587 I-0.0305 J0.0939
N12685 G1 X-5.2939 Y0.0569
N12690 G2 X-5.3018 Y0.0554 I-0.0226 J0.0961
N12695 G1 X-5.3097 Y0.0542
N12700 G2 X-5.3176 Y0.0533 I-0.0146 J0.0977
N12705 G1 X-5.3255 Y0.0528
N12710 G2 X-5.3322 Y0.0525 I-0.0067 J0.0985
N12715 G1 X-5.7115
N12720 X-5.723 Y0.0498
N12725 X-5.7273 Y0.0476
N12730 X-5.7308 Y0.0446
N12735 X-5.7339 Y0.0402
N12740 X-5.7353 Y0.0363
N12745 X-5.7374 Y0.0183
N12750 X-5.7373 Y0.0106
N12755 X-5.7354 Y-0.0051
N12760 X-5.7339 Y-0.0091
N12765 X-5.7308 Y-0.0136
N12770 X-5.7273 Y-0.0166
N12775 X-5.723 Y-0.0188
N12780 X-5.7116 Y-0.0215
N12785 X-5.7111
N12790 X-5.3322
N12795 G2 X-5.3255 Y-0.0218 I0. J-0.0988
N12800 G1 X-5.3176 Y-0.0223
N12805 G2 X-5.3097 Y-0.0232 I-0.0067 J-0.0985
N12810 G1 X-5.3018 Y-0.0244
N12815 G2 X-5.2939 Y-0.0259 I-0.0146 J-0.0977
N12820 G1 X-5.2859 Y-0.0277
N12825 G2 X-5.278 Y-0.0299 I-0.0226 J-0.0961
N12830 G1 X-5.2701 Y-0.0325
N12835 G2 X-5.2602 Y-0.0363 I-0.0305 J-0.0939
N12840 G1 X-5.2483 Y-0.0417
N12845 G2 X-5.2377 Y-0.0472 I-0.0404 J-0.0901
N12850 G1 X-5.2285 Y-0.0528
N12855 G2 X-5.2213 Y-0.0576 I-0.051 J-0.0846
N12860 G1 X-5.216 Y-0.0614
N12865 G2 X-5.2086 Y-0.0674 I-0.0582 J-0.0798
N12870 G1 X-5.1993 Y-0.0756
N12875 G2 X-5.1908 Y-0.0842 I-0.0656 J-0.0738
N12880 G1 X-5.1831 Y-0.0929
N12885 G2 X-5.1773 Y-0.1002 I-0.0741 J-0.0653
N12890 G1 X-5.1732 Y-0.1058
N12895 G2 X-5.1691 Y-0.1119 I-0.0799 J-0.058
N12900 G1 X-5.1526 Y-0.1386
N12905 X-5.1494 Y-0.1418
N12910 X-5.146 Y-0.144
N12915 X-5.1416 Y-0.1455
N12920 X-5.1262 Y-0.1474
N12925 X-5.1243 Y-0.1475
N12930 X-3.4978
N12935 X-3.4785 Y-0.1451
N12940 X-3.4742 Y-0.1433
N12945 X-3.4698 Y-0.1399
N12950 X-3.4669 Y-0.1361
N12955 X-3.4661 Y-0.1342
N12960 X-3.4649 Y-0.1313
N12965 X-3.4626 Y-0.1141
N12970 X-3.4625 Y-0.1088
N12975 Y0.1129
N12980 X-3.4626 Y0.1143
N12985 X-3.4649 Y0.1312
N12990 X-3.4669 Y0.1361
N12995 X-3.4699 Y0.14
N13000 X-3.4742 Y0.1433
N13005 X-3.4786 Y0.1451
N13010 X-3.4977 Y0.1475
N13015 X-3.6456
N13020 G3 X-3.6529 Y0.1468 Z-0.8093 I0. J-0.0375 F2.
N13025 X-3.6596 Y0.1448 Z-0.8071 I0.0073 J-0.0368
N13030 X-3.6654 Y0.1418 Z-0.8037 I0.014 J-0.0348
N13035 X-3.67 Y0.1385 Z-0.799 I0.0198 J-0.0319
N13040 X-3.6733 Y0.1352 Z-0.7933 I0.0244 J-0.0285
N13045 X-3.6756 Y0.1326 Z-0.7869 I0.0277 J-0.0253
N13050 X-3.6768 Y0.1308 Z-0.7798 I0.0299 J-0.0226
N13055 X-3.6772 Y0.1302 Z-0.7725 I0.0312 J-0.0209
N13060 G0 Z0.2
N13065 X-3.4625 Y0.0345
N13070 G1 Z-0.678 F1.
N13075 G19 G3 Y0.0714 Z-0.7155 J0.0375 K0. F3.
N13080 G1 Y0.1129 Z-0.7163
N13085 X-3.4626 Y0.1143
N13090 X-3.4649 Y0.1312 Z-0.7166
N13095 X-3.4669 Y0.1361 Z-0.7167
N13100 X-3.4699 Y0.14 Z-0.7168
N13105 X-3.4742 Y0.1433 Z-0.7169
N13110 X-3.4786 Y0.1451 Z-0.717
N13115 X-3.4977 Y0.1475 Z-0.7173
N13120 X-5.1442 Y0.1473 Z-0.7472
N13125 X-5.1594 Y0.1455 Z-0.7475
N13130 X-5.1638 Y0.1438 Z-0.7476
N13135 X-5.1678 Y0.141 Z-0.7477
N13140 X-5.1883 Y0.1177 Z-0.7483
N13145 G17 G2 X-5.1925 Y0.1133 Z-0.7484 I-0.074 J0.0653
N13150 G1 X-5.1982 Y0.1076 Z-0.7485
N13155 G2 X-5.2039 Y0.1024 Z-0.7487 I-0.0698 J0.0698
N13160 G1 X-5.2095 Y0.0975 Z-0.7488
N13165 G2 X-5.2151 Y0.0931 Z-0.7489 I-0.0642 J0.0751
N13170 G1 X-5.2207 Y0.089 Z-0.749
N13175 G2 X-5.2281 Y0.084 Z-0.7492 I-0.0586 J0.0795
N13180 G1 X-5.2376 Y0.0783 Z-0.7494
N13185 G2 X-5.2483 Y0.0727 Z-0.7496 I-0.0511 J0.0845
N13190 G1 X-5.2602 Y0.0673 Z-0.7499
N13195 G2 X-5.2701 Y0.0635 Z-0.7501 I-0.0404 J0.0901
N13200 G1 X-5.278 Y0.0609 Z-0.7502
N13205 G2 X-5.2859 Y0.0587 Z-0.7504 I-0.0305 J0.0939
N13210 G1 X-5.2939 Y0.0569 Z-0.7505
N13215 G2 X-5.3018 Y0.0554 Z-0.7507 I-0.0226 J0.0961
N13220 G1 X-5.3097 Y0.0542 Z-0.7508
N13225 G2 X-5.3176 Y0.0533 Z-0.7509 I-0.0146 J0.0977
N13230 G1 X-5.3255 Y0.0528 Z-0.7511
N13235 G2 X-5.3322 Y0.0525 Z-0.7512 I-0.0067 J0.0985
N13240 G1 X-5.7102 Z-0.7581
N13245 X-5.7111
N13250 X-5.7233 Y0.0497 Z-0.7583
N13255 X-5.7273 Y0.0476 Z-0.7584
N13260 X-5.7309 Y0.0445 Z-0.7585
N13265 X-5.7336 Y0.0406 Z-0.7586
N13270 X-5.7353 Y0.0364 Z-0.7587
N13275 X-5.7374 Y0.0182 Z-0.759
N13280 X-5.7373 Y0.0107 Z-0.7591
N13285 X-5.7353 Y-0.0053 Z-0.7594
N13290 X-5.7337 Y-0.0095 Z-0.7595
N13295 X-5.731 Y-0.0135 Z-0.7596
N13300 X-5.7273 Y-0.0166 Z-0.7597
N13305 X-5.7233 Y-0.0187 Z-0.7598
N13310 X-5.7111 Y-0.0215 Z-0.76
N13315 X-5.7102
N13320 X-5.3322 Z-0.7669
N13325 G2 X-5.3255 Y-0.0218 Z-0.767 I0. J-0.0988
N13330 G1 X-5.3176 Y-0.0223 Z-0.7671
N13335 G2 X-5.3097 Y-0.0232 Z-0.7673 I-0.0067 J-0.0985
N13340 G1 X-5.3018 Y-0.0244 Z-0.7674
N13345 G2 X-5.2939 Y-0.0259 Z-0.7676 I-0.0146 J-0.0977
N13350 G1 X-5.2859 Y-0.0277 Z-0.7677
N13355 G2 X-5.278 Y-0.0299 Z-0.7679 I-0.0226 J-0.0961
N13360 G1 X-5.2701 Y-0.0325 Z-0.768
N13365 G2 X-5.2602 Y-0.0363 Z-0.7682 I-0.0305 J-0.0939
N13370 G1 X-5.2483 Y-0.0417 Z-0.7685
N13375 G2 X-5.2377 Y-0.0472 Z-0.7687 I-0.0404 J-0.0901
N13380 G1 X-5.2285 Y-0.0528 Z-0.7689
N13385 G2 X-5.2213 Y-0.0576 Z-0.769 I-0.051 J-0.0846
N13390 G1 X-5.216 Y-0.0614 Z-0.7691
N13395 G2 X-5.2086 Y-0.0674 Z-0.7693 I-0.0582 J-0.0798
N13400 G1 X-5.1993 Y-0.0756 Z-0.7695
N13405 G2 X-5.1908 Y-0.0842 Z-0.7698 I-0.0656 J-0.0738
N13410 G1 X-5.1831 Y-0.0929 Z-0.77
N13415 G2 X-5.1773 Y-0.1002 Z-0.7701 I-0.0741 J-0.0653
N13420 G1 X-5.1732 Y-0.1058 Z-0.7703
N13425 G2 X-5.1691 Y-0.1119 Z-0.7704 I-0.0799 J-0.058
N13430 G1 X-5.1526 Y-0.1386 Z-0.771
N13435 X-5.1494 Y-0.1418 Z-0.7711
N13440 X-5.146 Y-0.144
N13445 X-5.1416 Y-0.1455 Z-0.7712
N13450 X-5.1262 Y-0.1474 Z-0.7715
N13455 X-5.1243 Y-0.1475
N13460 X-3.4978 Z-0.8011
N13465 X-3.4785 Y-0.1451 Z-0.8014
N13470 X-3.4742 Y-0.1433 Z-0.8015
N13475 X-3.4698 Y-0.1399 Z-0.8016
N13480 X-3.4669 Y-0.1361 Z-0.8017
N13485 X-3.4661 Y-0.1342 Z-0.8018
N13490 X-3.4649 Y-0.1313
N13495 X-3.4626 Y-0.1141 Z-0.8021
N13500 X-3.4625 Y-0.1088 Z-0.8022
N13505 Y0.1129 Z-0.8063
N13510 X-3.4626 Y0.1143
N13515 X-3.4649 Y0.1312 Z-0.8066
N13520 X-3.4669 Y0.1361 Z-0.8067
N13525 X-3.4699 Y0.14 Z-0.8068
N13530 X-3.4742 Y0.1433 Z-0.8069
N13535 X-3.4786 Y0.1451 Z-0.807
N13540 X-3.4977 Y0.1475 Z-0.8073
N13545 X-5.1442 Y0.1473 Z-0.8372
N13550 X-5.1594 Y0.1455 Z-0.8375
N13555 X-5.1638 Y0.1438 Z-0.8376
N13560 X-5.1678 Y0.141 Z-0.8377
N13565 X-5.1883 Y0.1177 Z-0.8383
N13570 G2 X-5.1925 Y0.1133 Z-0.8384 I-0.074 J0.0653
N13575 G1 X-5.1982 Y0.1076 Z-0.8385
N13580 G2 X-5.2039 Y0.1024 Z-0.8387 I-0.0698 J0.0698
N13585 G1 X-5.2095 Y0.0975 Z-0.8388
N13590 G2 X-5.2151 Y0.0931 Z-0.8389 I-0.0642 J0.0751
N13595 G1 X-5.2207 Y0.089 Z-0.839
N13600 G2 X-5.2281 Y0.084 Z-0.8392 I-0.0586 J0.0795
N13605 G1 X-5.2376 Y0.0783 Z-0.8394
N13610 G2 X-5.2483 Y0.0727 Z-0.8396 I-0.0511 J0.0845
N13615 G1 X-5.2602 Y0.0673 Z-0.8399
N13620 G2 X-5.2701 Y0.0635 Z-0.8401 I-0.0404 J0.0901
N13625 G1 X-5.278 Y0.0609 Z-0.8402
N13630 G2 X-5.2859 Y0.0587 Z-0.8404 I-0.0305 J0.0939
N13635 G1 X-5.2939 Y0.0569 Z-0.8405
N13640 G2 X-5.3018 Y0.0554 Z-0.8407 I-0.0226 J0.0961
N13645 G1 X-5.3097 Y0.0542 Z-0.8408
N13650 G2 X-5.3176 Y0.0533 Z-0.8409 I-0.0146 J0.0977
N13655 G1 X-5.3255 Y0.0528 Z-0.8411
N13660 G2 X-5.3322 Y0.0525 Z-0.8412 I-0.0067 J0.0985
N13665 G1 X-5.7102 Z-0.8481
N13670 X-5.7111
N13675 X-5.7233 Y0.0497 Z-0.8483
N13680 X-5.7273 Y0.0476 Z-0.8484
N13685 X-5.7309 Y0.0445 Z-0.8485
N13690 X-5.7336 Y0.0406 Z-0.8486
N13695 X-5.7353 Y0.0364 Z-0.8487
N13700 X-5.7374 Y0.0182 Z-0.849
N13705 X-5.7373 Y0.0107 Z-0.8491
N13710 X-5.7353 Y-0.0053 Z-0.8494
N13715 X-5.7337 Y-0.0095 Z-0.8495
N13720 X-5.731 Y-0.0135 Z-0.8496
N13725 X-5.7273 Y-0.0166 Z-0.8497
N13730 X-5.7233 Y-0.0187 Z-0.8498
N13735 X-5.7111 Y-0.0215 Z-0.85
N13740 X-5.7102
N13745 X-5.3322 Z-0.8569
N13750 G2 X-5.3255 Y-0.0218 Z-0.857 I0. J-0.0988
N13755 G1 X-5.3176 Y-0.0223 Z-0.8571
N13760 G2 X-5.3097 Y-0.0232 Z-0.8573 I-0.0067 J-0.0985
N13765 G1 X-5.3018 Y-0.0244 Z-0.8574
N13770 G2 X-5.2939 Y-0.0259 Z-0.8576 I-0.0146 J-0.0977
N13775 G1 X-5.2859 Y-0.0277 Z-0.8577
N13780 G2 X-5.278 Y-0.0299 Z-0.8579 I-0.0226 J-0.0961
N13785 G1 X-5.2701 Y-0.0325 Z-0.858
N13790 G2 X-5.2602 Y-0.0363 Z-0.8582 I-0.0305 J-0.0939
N13795 G1 X-5.2483 Y-0.0417 Z-0.8585
N13800 G2 X-5.2377 Y-0.0472 Z-0.8587 I-0.0404 J-0.0901
N13805 G1 X-5.2285 Y-0.0528 Z-0.8589
N13810 G2 X-5.2213 Y-0.0576 Z-0.859 I-0.051 J-0.0846
N13815 G1 X-5.216 Y-0.0614 Z-0.8591
N13820 G2 X-5.2086 Y-0.0674 Z-0.8593 I-0.0582 J-0.0798
N13825 G1 X-5.1993 Y-0.0756 Z-0.8595
N13830 G2 X-5.1908 Y-0.0842 Z-0.8598 I-0.0656 J-0.0738
N13835 G1 X-5.1831 Y-0.0929 Z-0.86
N13840 G2 X-5.1773 Y-0.1002 Z-0.8601 I-0.0741 J-0.0653
N13845 G1 X-5.1732 Y-0.1058 Z-0.8603
N13850 G2 X-5.1691 Y-0.1119 Z-0.8604 I-0.0799 J-0.058
N13855 G1 X-5.1526 Y-0.1386 Z-0.861
N13860 X-5.1494 Y-0.1418 Z-0.8611
N13865 X-5.146 Y-0.144
N13870 X-5.1416 Y-0.1455 Z-0.8612
N13875 X-5.1262 Y-0.1474 Z-0.8615
N13880 X-5.1243 Y-0.1475
N13885 X-3.4978 Z-0.8911
N13890 X-3.4785 Y-0.1451 Z-0.8914
N13895 X-3.4742 Y-0.1433 Z-0.8915
N13900 X-3.4698 Y-0.1399 Z-0.8916
N13905 X-3.4669 Y-0.1361 Z-0.8917
N13910 X-3.4661 Y-0.1342 Z-0.8918
N13915 X-3.4649 Y-0.1313
N13920 X-3.4626 Y-0.1141 Z-0.8921
N13925 X-3.4625 Y-0.1088 Z-0.8922
N13930 Y0.1129 Z-0.8963
N13935 X-3.4626 Y0.1143
N13940 X-3.4649 Y0.1312 Z-0.8966
N13945 X-3.4669 Y0.1361 Z-0.8967
N13950 X-3.4699 Y0.14 Z-0.8968
N13955 X-3.4742 Y0.1433 Z-0.8969
N13960 X-3.4786 Y0.1451 Z-0.897
N13965 X-3.4977 Y0.1475 Z-0.8973
N13970 X-3.6456 Z-0.9
N13975 X-5.1442 Y0.1473 F15.
N13980 X-5.1594 Y0.1455
N13985 X-5.1638 Y0.1438
N13990 X-5.1678 Y0.141
N13995 X-5.1883 Y0.1177
N14000 G2 X-5.1925 Y0.1133 I-0.074 J0.0653
N14005 G1 X-5.1982 Y0.1076
N14010 G2 X-5.2039 Y0.1024 I-0.0698 J0.0698
N14015 G1 X-5.2095 Y0.0975
N14020 G2 X-5.2151 Y0.0931 I-0.0642 J0.0751
N14025 G1 X-5.2207 Y0.089
N14030 G2 X-5.2281 Y0.084 I-0.0586 J0.0795
N14035 G1 X-5.2376 Y0.0783
N14040 G2 X-5.2483 Y0.0727 I-0.0511 J0.0845
N14045 G1 X-5.2602 Y0.0673
N14050 G2 X-5.2701 Y0.0635 I-0.0404 J0.0901
N14055 G1 X-5.278 Y0.0609
N14060 G2 X-5.2859 Y0.0587 I-0.0305 J0.0939
N14065 G1 X-5.2939 Y0.0569
N14070 G2 X-5.3018 Y0.0554 I-0.0226 J0.0961
N14075 G1 X-5.3097 Y0.0542
N14080 G2 X-5.3176 Y0.0533 I-0.0146 J0.0977
N14085 G1 X-5.3255 Y0.0528
N14090 G2 X-5.3322 Y0.0525 I-0.0067 J0.0985
N14095 G1 X-5.7102
N14100 X-5.7111
N14105 X-5.7233 Y0.0497
N14110 X-5.7273 Y0.0476
N14115 X-5.7309 Y0.0445
N14120 X-5.7336 Y0.0406
N14125 X-5.7353 Y0.0364
N14130 X-5.7374 Y0.0182
N14135 X-5.7373 Y0.0107
N14140 X-5.7353 Y-0.0053
N14145 X-5.7337 Y-0.0095
N14150 X-5.731 Y-0.0135
N14155 X-5.7273 Y-0.0166
N14160 X-5.7233 Y-0.0187
N14165 X-5.7111 Y-0.0215
N14170 X-5.7102
N14175 X-5.3322
N14180 G2 X-5.3255 Y-0.0218 I0. J-0.0988
N14185 G1 X-5.3176 Y-0.0223
N14190 G2 X-5.3097 Y-0.0232 I-0.0067 J-0.0985
N14195 G1 X-5.3018 Y-0.0244
N14200 G2 X-5.2939 Y-0.0259 I-0.0146 J-0.0977
N14205 G1 X-5.2859 Y-0.0277
N14210 G2 X-5.278 Y-0.0299 I-0.0226 J-0.0961
N14215 G1 X-5.2701 Y-0.0325
N14220 G2 X-5.2602 Y-0.0363 I-0.0305 J-0.0939
N14225 G1 X-5.2483 Y-0.0417
N14230 G2 X-5.2377 Y-0.0472 I-0.0404 J-0.0901
N14235 G1 X-5.2285 Y-0.0528
N14240 G2 X-5.2213 Y-0.0576 I-0.051 J-0.0846
N14245 G1 X-5.216 Y-0.0614
N14250 G2 X-5.2086 Y-0.0674 I-0.0582 J-0.0798
N14255 G1 X-5.1993 Y-0.0756
N14260 G2 X-5.1908 Y-0.0842 I-0.0656 J-0.0738
