%
(FCG_TRIGGER_SLOT)
(.375 END MILL 30 MINUTES)
(T1  D=0.375 CR=0. - ZMIN=-1.25 - FLAT END MILL)
N10 G90 G94 G17 G91.1
N15 G20
N20 G53 G0 Z0.
(FCG_POCKET)
N25 M9
N30 T1 M6
N35 S2000 M3
N40 G54
N45 M9
N55 G0 X-5.5251 Y-0.425
N60 G43 Z0.6 H1
N65 G0 Z0.2
N70 G1 Z-0.0525 F15.
N75 G18 G3 X-5.5626 Z-0.09 I-0.0375 K0.
N80 G1 X-5.7511
N85 X-6.051
N90 Y-0.475
N95 X-6.049
N100 G17 G2 X-5.935 Y-0.444 I0.114 J-0.194
N105 G1 X-5.7513
N110 G3 X-5.739 Y-0.4394 I0. J0.0188
N115 G1 X-5.7171 Y-0.4204
N120 G3 X-5.7293 Y-0.3875 I-0.0123 J0.0142
N125 G1 X-6.0885 F10.
N130 Y-0.5125
N135 X-6.0472
N140 G3 X-6.0312 Y-0.5081 I0. J0.0312
N145 G2 X-5.935 Y-0.4815 I0.0962 J-0.1609
N150 G1 X-5.7396
N155 X-5.7294
N160 G3 X-5.7107 Y-0.4628 I0. J0.0187 F15.
N165 G1 X-5.7106 Y-0.4063
N170 G3 X-5.7293 Y-0.3875 I-0.0188 J0.
N175 G1 X-6.0885 F10.
N180 Y-0.5125
N185 X-6.0472
N190 G3 X-6.0312 Y-0.5081 I0. J0.0312
N195 G2 X-5.935 Y-0.4815 I0.0962 J-0.1609
N200 G1 X-5.7396
N205 X-5.7294
N210 G3 X-5.7233 Y-0.4805 I0. J0.0187 F15.
N215 G1 X-5.6685 Y-0.4615
N220 G3 X-5.6746 Y-0.425 I-0.0061 J0.0177
N225 G18 G2 X-5.7121 Z-0.1275 I0. K-0.0375
N230 G1 Z-0.1425
N235 G3 X-5.7496 Z-0.18 I-0.0375 K0.
N240 G1 X-5.7511
N245 X-6.051
N250 Y-0.475
N255 X-6.049
N260 G17 G2 X-5.935 Y-0.444 I0.114 J-0.194
N265 G1 X-5.7513
N270 G3 X-5.739 Y-0.4394 I0. J0.0188
N275 G1 X-5.7171 Y-0.4204
N280 G3 X-5.7293 Y-0.3875 I-0.0123 J0.0142
N285 G1 X-6.0885 F10.
N290 Y-0.5125
N295 X-6.0472
N300 G3 X-6.0312 Y-0.5081 I0. J0.0312
N305 G2 X-5.935 Y-0.4815 I0.0962 J-0.1609
N310 G1 X-5.7396
N315 X-5.7294
N320 G3 X-5.7107 Y-0.4628 I0. J0.0187 F15.
N325 G1 X-5.7106 Y-0.4063
N330 G3 X-5.7293 Y-0.3875 I-0.0188 J0.
N335 G1 X-6.0885 F10.
N340 Y-0.5125
N345 X-6.0472
N350 G3 X-6.0312 Y-0.5081 I0. J0.0312
N355 G2 X-5.935 Y-0.4815 I0.0962 J-0.1609
N360 G1 X-5.7396
N365 X-5.7294
N370 G3 X-5.7233 Y-0.4805 I0. J0.0187 F15.
N375 G1 X-5.6685 Y-0.4615
N380 G3 X-5.6746 Y-0.425 I-0.0061 J0.0177
N385 G18 G2 X-5.7121 Z-0.2175 I0. K-0.0375
N390 G1 Z-0.2325
N395 G3 X-5.7496 Z-0.27 I-0.0375 K0.
N400 G1 X-5.7511
N405 X-6.051
N410 Y-0.475
N415 X-6.049
N420 G17 G2 X-5.935 Y-0.444 I0.114 J-0.194
N425 G1 X-5.7513
N430 G3 X-5.739 Y-0.4394 I0. J0.0188
N435 G1 X-5.7171 Y-0.4204
N440 G3 X-5.7293 Y-0.3875 I-0.0123 J0.0142
N445 G1 X-6.0885 F10.
N450 Y-0.5125
N455 X-6.0472
N460 G3 X-6.0312 Y-0.5081 I0. J0.0312
N465 G2 X-5.935 Y-0.4815 I0.0962 J-0.1609
N470 G1 X-5.7396
N475 X-5.7294
N480 G3 X-5.7107 Y-0.4628 I0. J0.0187 F15.
N485 G1 X-5.7106 Y-0.4063
N490 G3 X-5.7293 Y-0.3875 I-0.0188 J0.
N495 G1 X-6.0885 F10.
N500 Y-0.5125
N505 X-6.0472
N510 G3 X-6.0312 Y-0.5081 I0. J0.0312
N515 G2 X-5.935 Y-0.4815 I0.0962 J-0.1609
N520 G1 X-5.7396
N525 X-5.7294
N530 G3 X-5.7233 Y-0.4805 I0. J0.0187 F15.
N535 G1 X-5.6685 Y-0.4615
N540 G3 X-5.6746 Y-0.425 I-0.0061 J0.0177
N545 G18 G2 X-5.7121 Z-0.3075 I0. K-0.0375
N550 G1 Z-0.3225
N555 G3 X-5.7496 Z-0.36 I-0.0375 K0.
N560 G1 X-5.7511
N565 X-6.051
N570 Y-0.475
N575 X-6.049
N580 G17 G2 X-5.935 Y-0.444 I0.114 J-0.194
N585 G1 X-5.7513
N590 G3 X-5.739 Y-0.4394 I0. J0.0188
N595 G1 X-5.7171 Y-0.4204
N600 G3 X-5.7293 Y-0.3875 I-0.0123 J0.0142
N605 G1 X-6.0885 F10.
N610 Y-0.5125
N615 X-6.0472
N620 G3 X-6.0312 Y-0.5081 I0. J0.0312
N625 G2 X-5.935 Y-0.4815 I0.0962 J-0.1609
N630 G1 X-5.7396
N635 X-5.7294
N640 G3 X-5.7107 Y-0.4628 I0. J0.0187 F15.
N645 G1 X-5.7106 Y-0.4063
N650 G3 X-5.7293 Y-0.3875 I-0.0188 J0.
N655 G1 X-6.0885 F10.
N660 Y-0.5125
N665 X-6.0472
N670 G3 X-6.0312 Y-0.5081 I0. J0.0312
N675 G2 X-5.935 Y-0.4815 I0.0962 J-0.1609
N680 G1 X-5.7396
N685 X-5.7294
N690 G3 X-5.7233 Y-0.4805 I0. J0.0187 F15.
N695 G1 X-5.6685 Y-0.4615
N700 G3 X-5.6746 Y-0.425 I-0.0061 J0.0177
N705 G18 G2 X-5.7121 Z-0.3975 I0. K-0.0375
N710 G1 Z-0.4125
N715 G3 X-5.7496 Z-0.45 I-0.0375 K0.
N720 G1 X-5.7511
N725 X-6.051
N730 Y-0.475
N735 X-6.049
N740 G17 G2 X-5.935 Y-0.444 I0.114 J-0.194
N745 G1 X-5.7513
N750 G3 X-5.739 Y-0.4394 I0. J0.0188
N755 G1 X-5.7171 Y-0.4204
N760 G3 X-5.7293 Y-0.3875 I-0.0123 J0.0142
N765 G1 X-6.0885 F10.
N770 Y-0.5125
N775 X-6.0472
N780 G3 X-6.0312 Y-0.5081 I0. J0.0312
N785 G2 X-5.935 Y-0.4815 I0.0962 J-0.1609
N790 G1 X-5.7396
N795 X-5.7294
N800 G3 X-5.7107 Y-0.4628 I0. J0.0187 F15.
N805 G1 X-5.7106 Y-0.4063
N810 G3 X-5.7293 Y-0.3875 I-0.0188 J0.
N815 G1 X-6.0885 F10.
N820 Y-0.5125
N825 X-6.0472
N830 G3 X-6.0312 Y-0.5081 I0. J0.0312
N835 G2 X-5.935 Y-0.4815 I0.0962 J-0.1609
N840 G1 X-5.7396
N845 X-5.7294
N850 G3 X-5.7233 Y-0.4805 I0. J0.0187 F15.
N855 G1 X-5.6685 Y-0.4615
N860 G3 X-5.6746 Y-0.425 I-0.0061 J0.0177
N865 G18 G2 X-5.7121 Z-0.4875 I0. K-0.0375
N870 G1 Z-0.5025
N875 G3 X-5.7496 Z-0.54 I-0.0375 K0.
N880 G1 X-5.7511
N885 X-6.051
N890 Y-0.475
N895 X-6.049
N900 G17 G2 X-5.935 Y-0.444 I0.114 J-0.194
N905 G1 X-5.7513
N910 G3 X-5.739 Y-0.4394 I0. J0.0188
N915 G1 X-5.7171 Y-0.4204
N920 G3 X-5.7293 Y-0.3875 I-0.0123 J0.0142
N925 G1 X-6.0885 F10.
N930 Y-0.5125
N935 X-6.0472
N940 G3 X-6.0312 Y-0.5081 I0. J0.0312
N945 G2 X-5.935 Y-0.4815 I0.0962 J-0.1609
N950 G1 X-5.7396
N955 X-5.7294
N960 G3 X-5.7107 Y-0.4628 I0. J0.0187 F15.
N965 G1 X-5.7106 Y-0.4063
N970 G3 X-5.7293 Y-0.3875 I-0.0188 J0.
N975 G1 X-6.0885 F10.
N980 Y-0.5125
N985 X-6.0472
N990 G3 X-6.0312 Y-0.5081 I0. J0.0312
N995 G2 X-5.935 Y-0.4815 I0.0962 J-0.1609
N1000 G1 X-5.7396
N1005 X-5.7294
N1010 G3 X-5.7233 Y-0.4805 I0. J0.0187 F15.
N1015 G1 X-5.6685 Y-0.4615
N1020 G3 X-5.6746 Y-0.425 I-0.0061 J0.0177
N1025 G18 G2 X-5.7121 Z-0.5775 I0. K-0.0375
N1030 G1 Z-0.5845
N1035 G3 X-5.7496 Z-0.622 I-0.0375 K0.
N1040 G1 X-5.7511
N1045 X-6.051
N1050 Y-0.475
N1055 X-6.049
N1060 G17 G2 X-5.935 Y-0.444 I0.114 J-0.194
N1065 G1 X-5.7513
N1070 G3 X-5.739 Y-0.4394 I0. J0.0188
N1075 G1 X-5.7171 Y-0.4204
N1080 G3 X-5.7293 Y-0.3875 I-0.0123 J0.0142
N1085 G1 X-6.0885 F10.
N1090 Y-0.5125
N1095 X-6.0472
N1100 G3 X-6.0312 Y-0.5081 I0. J0.0312
N1105 G2 X-5.935 Y-0.4815 I0.0962 J-0.1609
N1110 G1 X-5.7396
N1115 X-5.7294
N1120 G3 X-5.7107 Y-0.4628 I0. J0.0187 F15.
N1125 G1 X-5.7106 Y-0.4063
N1130 G3 X-5.7293 Y-0.3875 I-0.0188 J0.
N1135 G1 X-6.0885 F10.
N1140 Y-0.5125
N1145 X-6.0472
N1150 G3 X-6.0312 Y-0.5081 I0. J0.0312
N1155 G2 X-5.935 Y-0.4815 I0.0962 J-0.1609
N1160 G1 X-5.7396
N1165 X-5.7294
N1170 X-5.935 Z-0.6239 F5.
N1175 G3 X-6.0312 Y-0.5081 Z-0.6249 I0. J-0.1875
N1180 G2 X-6.0472 Y-0.5125 Z-0.625 I-0.016 J0.0268
N1185 G1 X-6.0885 Z-0.6254
N1190 Y-0.3875 Z-0.6266
N1195 X-5.7293 Z-0.63
N1200 X-6.0885 F10.
N1205 Y-0.5125
N1210 X-6.0472
N1215 G3 X-6.0312 Y-0.5081 I0. J0.0312
N1220 G2 X-5.935 Y-0.4815 I0.0962 J-0.1609
N1225 G1 X-5.7396
N1230 X-5.7294
N1235 G3 X-5.7107 Y-0.4628 I0. J0.0187 F15.
N1240 G1 X-5.7106 Y-0.4063
N1245 G3 X-5.7293 Y-0.3875 I-0.0188 J0.
N1250 G1 X-6.0885 F10.
N1255 Y-0.5125
N1260 X-6.0472
N1265 G3 X-6.0312 Y-0.5081 I0. J0.0312
N1270 G2 X-5.935 Y-0.4815 I0.0962 J-0.1609
N1275 G1 X-5.7396
N1280 X-5.7294
N1285 G3 X-5.7235 Y-0.481 I0. J0.0375 F15.
N1290 G1 X-5.6382 Y-0.4675
N1295 X-5.6337 Y-0.4668 Z-0.6297
N1300 X-5.6293 Y-0.4661 Z-0.6289
N1305 X-5.6251 Y-0.4654 Z-0.6276
N1310 X-5.621 Y-0.4648 Z-0.6257
N1315 X-5.6171 Y-0.4642 Z-0.6234
N1320 X-5.6136 Y-0.4636 Z-0.6206
N1325 X-5.6105 Y-0.4631 Z-0.6174
N1330 X-5.6077 Y-0.4627 Z-0.6138
N1335 X-5.6054 Y-0.4623 Z-0.6099
N1340 X-5.6036 Y-0.462 Z-0.6058
N1345 X-5.6022 Y-0.4618 Z-0.6015
N1350 X-5.6014 Y-0.4617 Z-0.597
N1355 X-5.6011 Z-0.5925
N1360 G0 Z0.6
N1365 X-4.5038 Y-0.4062
N1370 Z0.2
N1375 G1 Z0.1375 F15.
N1380 G18 G3 X-4.54 Z0.1 I-0.0375 K0. F5.
N1385 G1 X-5.1061 Z0.0802
N1390 G17 G3 X-5.1217 Y-0.4127 Z0.0796 I0. J-0.0221
N1395 G2 X-5.1376 Y-0.4275 Z0.0789 I-0.2133 J0.2127
N1400 G3 Y-0.4415 Z0.0783 I0.006 J-0.007
N1405 G2 X-5.1001 Y-0.4804 Z0.0764 I-0.1974 J-0.2275
N1410 G3 X-5.0722 Y-0.4938 Z0.0753 I0.0279 J0.0224
N1415 G1 X-3.5788 Z0.0232
N1420 G3 X-3.5662 Y-0.4812 Z0.0225 I0. J0.0125
N1425 G1 Y-0.4188 Z0.0203
N1430 G3 X-3.5788 Y-0.4062 Z0.0196 I-0.0125 J0.
N1435 G1 X-5.1061 Z-0.0337
N1440 G3 X-5.1217 Y-0.4127 Z-0.0343 I0. J-0.0221
N1445 G2 X-5.1376 Y-0.4275 Z-0.0351 I-0.2133 J0.2127
N1450 G3 Y-0.4415 Z-0.0357 I0.006 J-0.007
N1455 G2 X-5.1001 Y-0.4804 Z-0.0375 I-0.1974 J-0.2275
N1460 G3 X-5.0722 Y-0.4938 Z-0.0387 I0.0279 J0.0224
N1465 G1 X-3.602 Z-0.09
N1470 X-3.5788 F15.
N1475 G3 X-3.5662 Y-0.4812 I0. J0.0125
N1480 G1 Y-0.4188
N1485 G3 X-3.5788 Y-0.4062 I-0.0125 J0.
N1490 G1 X-5.1061
N1495 G3 X-5.1217 Y-0.4127 I0. J-0.0221
N1500 G2 X-5.1376 Y-0.4275 I-0.2133 J0.2127
N1505 G3 Y-0.4415 I0.006 J-0.007
N1510 G2 X-5.1001 Y-0.4804 I-0.1974 J-0.2275
N1515 G3 X-5.0722 Y-0.4938 I0.0279 J0.0224
N1520 G1 X-3.602
N1525 G2 X-3.5495 Y-0.5253 I0. J-0.0595
N1530 G3 X-3.49 Y-0.5105 I0.0279 J0.0148
N1535 G1 Y-0.33
N1540 X-5.1514
N1545 G2 X-5.335 Y-0.425 I-0.1836 J0.13
N1550 G1 X-5.71
N1555 Y-0.444
N1560 X-5.335
N1565 G2 X-5.133 Y-0.57 I0. J-0.225
N1570 G1 X-3.49
N1575 Y-0.5105
N1580 G2 X-3.4712 Y-0.4823 I0.0305 J0.
N1585 G3 X-3.4525 Y-0.4542 I-0.0117 J0.0281
N1590 G1 Y-0.3238 F10.
N1595 G3 X-3.4837 Y-0.2925 I-0.0312 J0.
N1600 G1 X-5.1546
N1605 G3 X-5.1804 Y-0.3061 I0. J-0.0313
N1610 G2 X-5.335 Y-0.3875 I-0.1546 J0.1061
N1615 G1 X-5.7163
N1620 G3 X-5.7475 Y-0.4187 I0. J-0.0312
N1625 G1 Y-0.4503
N1630 G3 X-5.7163 Y-0.4815 I0.0312 J0.
N1635 G1 X-5.335
N1640 G2 X-5.1652 Y-0.5895 I0. J-0.1875
N1645 G3 X-5.1369 Y-0.6075 I0.0283 J0.0132
N1650 G1 X-3.4837
N1655 G3 X-3.4525 Y-0.5763 I0. J0.0312
N1660 G1 Y-0.3238
N1665 G3 X-3.4837 Y-0.2925 I-0.0312 J0.
N1670 G1 X-5.1546
N1675 G3 X-5.1804 Y-0.3061 I0. J-0.0313
N1680 G2 X-5.335 Y-0.3875 I-0.1546 J0.1061
N1685 G1 X-5.7163
N1690 G3 X-5.7475 Y-0.4187 I0. J-0.0312
N1695 G1 Y-0.4503
N1700 G3 X-5.7163 Y-0.4815 I0.0312 J0.
N1705 G1 X-5.335
N1710 G2 X-5.1652 Y-0.5895 I0. J-0.1875
N1715 G3 X-5.1369 Y-0.6075 I0.0283 J0.0132
N1720 G1 X-3.4837
N1725 G3 X-3.4525 Y-0.5763 I0. J0.0312
N1730 G1 Y-0.4542
N1735 G3 X-3.4704 Y-0.4355 I-0.0187 J0. F15.
N1740 G1 X-4.14 Y-0.4062
N1745 X-5.1061 Z-0.1237 F5.
N1750 G3 X-5.1217 Y-0.4127 Z-0.1243 I0. J-0.0221
N1755 G2 X-5.1376 Y-0.4275 Z-0.1251 I-0.2133 J0.2127
N1760 G3 Y-0.4415 Z-0.1257 I0.006 J-0.007
N1765 G2 X-5.1001 Y-0.4804 Z-0.1275 I-0.1974 J-0.2275
N1770 G3 X-5.0722 Y-0.4938 Z-0.1287 I0.0279 J0.0224
N1775 G1 X-3.602 Z-0.18
N1780 X-3.5788 F15.
N1785 G3 X-3.5662 Y-0.4812 I0. J0.0125
N1790 G1 Y-0.4188
N1795 G3 X-3.5788 Y-0.4062 I-0.0125 J0.
N1800 G1 X-5.1061
N1805 G3 X-5.1217 Y-0.4127 I0. J-0.0221
N1810 G2 X-5.1376 Y-0.4275 I-0.2133 J0.2127
N1815 G3 Y-0.4415 I0.006 J-0.007
N1820 G2 X-5.1001 Y-0.4804 I-0.1974 J-0.2275
N1825 G3 X-5.0722 Y-0.4938 I0.0279 J0.0224
N1830 G1 X-3.602
N1835 G2 X-3.5495 Y-0.5253 I0. J-0.0595
N1840 G3 X-3.49 Y-0.5105 I0.0279 J0.0148
N1845 G1 Y-0.33
N1850 X-5.1514
N1855 G2 X-5.335 Y-0.425 I-0.1836 J0.13
N1860 G1 X-5.71
N1865 Y-0.444
N1870 X-5.335
N1875 G2 X-5.133 Y-0.57 I0. J-0.225
N1880 G1 X-3.49
N1885 Y-0.5105
N1890 G2 X-3.4712 Y-0.4823 I0.0305 J0.
N1895 G3 X-3.4525 Y-0.4542 I-0.0117 J0.0281
N1900 G1 Y-0.3238 F10.
N1905 G3 X-3.4837 Y-0.2925 I-0.0312 J0.
N1910 G1 X-5.1546
N1915 G3 X-5.1804 Y-0.3061 I0. J-0.0313
N1920 G2 X-5.335 Y-0.3875 I-0.1546 J0.1061
N1925 G1 X-5.7163
N1930 G3 X-5.7475 Y-0.4187 I0. J-0.0312
N1935 G1 Y-0.4503
N1940 G3 X-5.7163 Y-0.4815 I0.0312 J0.
N1945 G1 X-5.335
N1950 G2 X-5.1652 Y-0.5895 I0. J-0.1875
N1955 G3 X-5.1369 Y-0.6075 I0.0283 J0.0132
N1960 G1 X-3.4837
N1965 G3 X-3.4525 Y-0.5763 I0. J0.0312
N1970 G1 Y-0.3238
N1975 G3 X-3.4837 Y-0.2925 I-0.0312 J0.
N1980 G1 X-5.1546
N1985 G3 X-5.1804 Y-0.3061 I0. J-0.0313
N1990 G2 X-5.335 Y-0.3875 I-0.1546 J0.1061
N1995 G1 X-5.7163
N2000 G3 X-5.7475 Y-0.4187 I0. J-0.0312
N2005 G1 Y-0.4503
N2010 G3 X-5.7163 Y-0.4815 I0.0312 J0.
N2015 G1 X-5.335
N2020 G2 X-5.1652 Y-0.5895 I0. J-0.1875
N2025 G3 X-5.1369 Y-0.6075 I0.0283 J0.0132
N2030 G1 X-3.4837
N2035 G3 X-3.4525 Y-0.5763 I0. J0.0312
N2040 G1 Y-0.4542
N2045 G3 X-3.4704 Y-0.4355 I-0.0187 J0. F15.
N2050 G1 X-4.14 Y-0.4062
N2055 X-5.1061 Z-0.2137 F5.
N2060 G3 X-5.1217 Y-0.4127 Z-0.2143 I0. J-0.0221
N2065 G2 X-5.1376 Y-0.4275 Z-0.2151 I-0.2133 J0.2127
N2070 G3 Y-0.4415 Z-0.2157 I0.006 J-0.007
N2075 G2 X-5.1001 Y-0.4804 Z-0.2175 I-0.1974 J-0.2275
N2080 G3 X-5.0722 Y-0.4938 Z-0.2187 I0.0279 J0.0224
N2085 G1 X-3.602 Z-0.27
N2090 X-3.5788 F15.
N2095 G3 X-3.5662 Y-0.4812 I0. J0.0125
N2100 G1 Y-0.4188
N2105 G3 X-3.5788 Y-0.4062 I-0.0125 J0.
N2110 G1 X-5.1061
N2115 G3 X-5.1217 Y-0.4127 I0. J-0.0221
N2120 G2 X-5.1376 Y-0.4275 I-0.2133 J0.2127
N2125 G3 Y-0.4415 I0.006 J-0.007
N2130 G2 X-5.1001 Y-0.4804 I-0.1974 J-0.2275
N2135 G3 X-5.0722 Y-0.4938 I0.0279 J0.0224
N2140 G1 X-3.602
N2145 G2 X-3.5495 Y-0.5253 I0. J-0.0595
N2150 G3 X-3.49 Y-0.5105 I0.0279 J0.0148
N2155 G1 Y-0.33
N2160 X-5.1514
N2165 G2 X-5.335 Y-0.425 I-0.1836 J0.13
N2170 G1 X-5.71
N2175 Y-0.444
N2180 X-5.335
N2185 G2 X-5.133 Y-0.57 I0. J-0.225
N2190 G1 X-3.49
N2195 Y-0.5105
N2200 G2 X-3.4712 Y-0.4823 I0.0305 J0.
N2205 G3 X-3.4525 Y-0.4542 I-0.0117 J0.0281
N2210 G1 Y-0.3238 F10.
N2215 G3 X-3.4837 Y-0.2925 I-0.0312 J0.
N2220 G1 X-5.1546
N2225 G3 X-5.1804 Y-0.3061 I0. J-0.0313
N2230 G2 X-5.335 Y-0.3875 I-0.1546 J0.1061
N2235 G1 X-5.7163
N2240 G3 X-5.7475 Y-0.4187 I0. J-0.0312
N2245 G1 Y-0.4503
N2250 G3 X-5.7163 Y-0.4815 I0.0312 J0.
N2255 G1 X-5.335
N2260 G2 X-5.1652 Y-0.5895 I0. J-0.1875
N2265 G3 X-5.1369 Y-0.6075 I0.0283 J0.0132
N2270 G1 X-3.4837
N2275 G3 X-3.4525 Y-0.5763 I0. J0.0312
N2280 G1 Y-0.3238
N2285 G3 X-3.4837 Y-0.2925 I-0.0312 J0.
N2290 G1 X-5.1546
N2295 G3 X-5.1804 Y-0.3061 I0. J-0.0313
N2300 G2 X-5.335 Y-0.3875 I-0.1546 J0.1061
N2305 G1 X-5.7163
N2310 G3 X-5.7475 Y-0.4187 I0. J-0.0312
N2315 G1 Y-0.4503
N2320 G3 X-5.7163 Y-0.4815 I0.0312 J0.
N2325 G1 X-5.335
N2330 G2 X-5.1652 Y-0.5895 I0. J-0.1875
N2335 G3 X-5.1369 Y-0.6075 I0.0283 J0.0132
N2340 G1 X-3.4837
N2345 G3 X-3.4525 Y-0.5763 I0. J0.0312
N2350 G1 Y-0.4542
N2355 G3 X-3.4704 Y-0.4355 I-0.0187 J0. F15.
N2360 G1 X-4.14 Y-0.4062
N2365 X-5.1061 Z-0.3037 F5.
N2370 G3 X-5.1217 Y-0.4127 Z-0.3043 I0. J-0.0221
N2375 G2 X-5.1376 Y-0.4275 Z-0.3051 I-0.2133 J0.2127
N2380 G3 Y-0.4415 Z-0.3057 I0.006 J-0.007
N2385 G2 X-5.1001 Y-0.4804 Z-0.3075 I-0.1974 J-0.2275
N2390 G3 X-5.0722 Y-0.4938 Z-0.3087 I0.0279 J0.0224
N2395 G1 X-3.602 Z-0.36
N2400 X-3.5788 F15.
N2405 G3 X-3.5662 Y-0.4812 I0. J0.0125
N2410 G1 Y-0.4188
N2415 G3 X-3.5788 Y-0.4062 I-0.0125 J0.
N2420 G1 X-5.1061
N2425 G3 X-5.1217 Y-0.4127 I0. J-0.0221
N2430 G2 X-5.1376 Y-0.4275 I-0.2133 J0.2127
N2435 G3 Y-0.4415 I0.006 J-0.007
N2440 G2 X-5.1001 Y-0.4804 I-0.1974 J-0.2275
N2445 G3 X-5.0722 Y-0.4938 I0.0279 J0.0224
N2450 G1 X-3.602
N2455 G2 X-3.5495 Y-0.5253 I0. J-0.0595
N2460 G3 X-3.49 Y-0.5105 I0.0279 J0.0148
N2465 G1 Y-0.33
N2470 X-5.1514
N2475 G2 X-5.335 Y-0.425 I-0.1836 J0.13
N2480 G1 X-5.71
N2485 Y-0.444
N2490 X-5.335
N2495 G2 X-5.133 Y-0.57 I0. J-0.225
N2500 G1 X-3.49
N2505 Y-0.5105
N2510 G2 X-3.4712 Y-0.4823 I0.0305 J0.
N2515 G3 X-3.4525 Y-0.4542 I-0.0117 J0.0281
N2520 G1 Y-0.3238 F10.
N2525 G3 X-3.4837 Y-0.2925 I-0.0312 J0.
N2530 G1 X-5.1546
N2535 G3 X-5.1804 Y-0.3061 I0. J-0.0313
N2540 G2 X-5.335 Y-0.3875 I-0.1546 J0.1061
N2545 G1 X-5.7163
N2550 G3 X-5.7475 Y-0.4187 I0. J-0.0312
N2555 G1 Y-0.4503
N2560 G3 X-5.7163 Y-0.4815 I0.0312 J0.
N2565 G1 X-5.335
N2570 G2 X-5.1652 Y-0.5895 I0. J-0.1875
N2575 G3 X-5.1369 Y-0.6075 I0.0283 J0.0132
N2580 G1 X-3.4837
N2585 G3 X-3.4525 Y-0.5763 I0. J0.0312
N2590 G1 Y-0.3238
N2595 G3 X-3.4837 Y-0.2925 I-0.0312 J0.
N2600 G1 X-5.1546
N2605 G3 X-5.1804 Y-0.3061 I0. J-0.0313
N2610 G2 X-5.335 Y-0.3875 I-0.1546 J0.1061
N2615 G1 X-5.7163
N2620 G3 X-5.7475 Y-0.4187 I0. J-0.0312
N2625 G1 Y-0.4503
N2630 G3 X-5.7163 Y-0.4815 I0.0312 J0.
N2635 G1 X-5.335
N2640 G2 X-5.1652 Y-0.5895 I0. J-0.1875
N2645 G3 X-5.1369 Y-0.6075 I0.0283 J0.0132
N2650 G1 X-3.4837
N2655 G3 X-3.4525 Y-0.5763 I0. J0.0312
N2660 G1 Y-0.4542
N2665 G3 X-3.4704 Y-0.4355 I-0.0187 J0. F15.
N2670 G1 X-4.14 Y-0.4062
N2675 X-5.1061 Z-0.3937 F5.
N2680 G3 X-5.1217 Y-0.4127 Z-0.3943 I0. J-0.0221
N2685 G2 X-5.1376 Y-0.4275 Z-0.3951 I-0.2133 J0.2127
N2690 G3 Y-0.4415 Z-0.3957 I0.006 J-0.007
N2695 G2 X-5.1001 Y-0.4804 Z-0.3975 I-0.1974 J-0.2275
N2700 G3 X-5.0722 Y-0.4938 Z-0.3987 I0.0279 J0.0224
N2705 G1 X-3.602 Z-0.45
N2710 X-3.5788 F15.
N2715 G3 X-3.5662 Y-0.4812 I0. J0.0125
N2720 G1 Y-0.4188
N2725 G3 X-3.5788 Y-0.4062 I-0.0125 J0.
N2730 G1 X-5.1061
N2735 G3 X-5.1217 Y-0.4127 I0. J-0.0221
N2740 G2 X-5.1376 Y-0.4275 I-0.2133 J0.2127
N2745 G3 Y-0.4415 I0.006 J-0.007
N2750 G2 X-5.1001 Y-0.4804 I-0.1974 J-0.2275
N2755 G3 X-5.0722 Y-0.4938 I0.0279 J0.0224
N2760 G1 X-3.602
N2765 G2 X-3.5495 Y-0.5253 I0. J-0.0595
N2770 G3 X-3.49 Y-0.5105 I0.0279 J0.0148
N2775 G1 Y-0.33
N2780 X-5.1514
N2785 G2 X-5.335 Y-0.425 I-0.1836 J0.13
N2790 G1 X-5.71
N2795 Y-0.444
N2800 X-5.335
N2805 G2 X-5.133 Y-0.57 I0. J-0.225
N2810 G1 X-3.49
N2815 Y-0.5105
N2820 G2 X-3.4712 Y-0.4823 I0.0305 J0.
N2825 G3 X-3.4525 Y-0.4542 I-0.0117 J0.0281
N2830 G1 Y-0.3238 F10.
N2835 G3 X-3.4837 Y-0.2925 I-0.0312 J0.
N2840 G1 X-5.1546
N2845 G3 X-5.1804 Y-0.3061 I0. J-0.0313
N2850 G2 X-5.335 Y-0.3875 I-0.1546 J0.1061
N2855 G1 X-5.7163
N2860 G3 X-5.7475 Y-0.4187 I0. J-0.0312
N2865 G1 Y-0.4503
N2870 G3 X-5.7163 Y-0.4815 I0.0312 J0.
N2875 G1 X-5.335
N2880 G2 X-5.1652 Y-0.5895 I0. J-0.1875
N2885 G3 X-5.1369 Y-0.6075 I0.0283 J0.0132
N2890 G1 X-3.4837
N2895 G3 X-3.4525 Y-0.5763 I0. J0.0312
N2900 G1 Y-0.3238
N2905 G3 X-3.4837 Y-0.2925 I-0.0312 J0.
N2910 G1 X-5.1546
N2915 G3 X-5.1804 Y-0.3061 I0. J-0.0313
N2920 G2 X-5.335 Y-0.3875 I-0.1546 J0.1061
N2925 G1 X-5.7163
N2930 G3 X-5.7475 Y-0.4187 I0. J-0.0312
N2935 G1 Y-0.4503
N2940 G3 X-5.7163 Y-0.4815 I0.0312 J0.
N2945 G1 X-5.335
N2950 G2 X-5.1652 Y-0.5895 I0. J-0.1875
N2955 G3 X-5.1369 Y-0.6075 I0.0283 J0.0132
N2960 G1 X-3.4837
N2965 G3 X-3.4525 Y-0.5763 I0. J0.0312
N2970 G1 Y-0.4542
N2975 G3 X-3.4704 Y-0.4355 I-0.0187 J0. F15.
N2980 G1 X-4.14 Y-0.4062
N2985 X-5.1061 Z-0.4837 F5.
N2990 G3 X-5.1217 Y-0.4127 Z-0.4843 I0. J-0.0221
N2995 G2 X-5.1376 Y-0.4275 Z-0.4851 I-0.2133 J0.2127
N3000 G3 Y-0.4415 Z-0.4857 I0.006 J-0.007
N3005 G2 X-5.1001 Y-0.4804 Z-0.4875 I-0.1974 J-0.2275
N3010 G3 X-5.0722 Y-0.4938 Z-0.4887 I0.0279 J0.0224
N3015 G1 X-3.602 Z-0.54
N3020 X-3.5788 F15.
N3025 G3 X-3.5662 Y-0.4812 I0. J0.0125
N3030 G1 Y-0.4188
N3035 G3 X-3.5788 Y-0.4062 I-0.0125 J0.
N3040 G1 X-5.1061
N3045 G3 X-5.1217 Y-0.4127 I0. J-0.0221
N3050 G2 X-5.1376 Y-0.4275 I-0.2133 J0.2127
N3055 G3 Y-0.4415 I0.006 J-0.007
N3060 G2 X-5.1001 Y-0.4804 I-0.1974 J-0.2275
N3065 G3 X-5.0722 Y-0.4938 I0.0279 J0.0224
N3070 G1 X-3.602
N3075 G2 X-3.5495 Y-0.5253 I0. J-0.0595
N3080 G3 X-3.49 Y-0.5105 I0.0279 J0.0148
N3085 G1 Y-0.33
N3090 X-5.1514
N3095 G2 X-5.335 Y-0.425 I-0.1836 J0.13
N3100 G1 X-5.71
N3105 Y-0.444
N3110 X-5.335
N3115 G2 X-5.133 Y-0.57 I0. J-0.225
N3120 G1 X-3.49
N3125 Y-0.5105
N3130 G2 X-3.4712 Y-0.4823 I0.0305 J0.
N3135 G3 X-3.4525 Y-0.4542 I-0.0117 J0.0281
N3140 G1 Y-0.3238 F10.
N3145 G3 X-3.4837 Y-0.2925 I-0.0312 J0.
N3150 G1 X-5.1546
N3155 G3 X-5.1804 Y-0.3061 I0. J-0.0313
N3160 G2 X-5.335 Y-0.3875 I-0.1546 J0.1061
N3165 G1 X-5.7163
N3170 G3 X-5.7475 Y-0.4187 I0. J-0.0312
N3175 G1 Y-0.4503
N3180 G3 X-5.7163 Y-0.4815 I0.0312 J0.
N3185 G1 X-5.335
N3190 G2 X-5.1652 Y-0.5895 I0. J-0.1875
N3195 G3 X-5.1369 Y-0.6075 I0.0283 J0.0132
N3200 G1 X-3.4837
N3205 G3 X-3.4525 Y-0.5763 I0. J0.0312
N3210 G1 Y-0.3238
N3215 G3 X-3.4837 Y-0.2925 I-0.0312 J0.
N3220 G1 X-5.1546
N3225 G3 X-5.1804 Y-0.3061 I0. J-0.0313
N3230 G2 X-5.335 Y-0.3875 I-0.1546 J0.1061
N3235 G1 X-5.7163
N3240 G3 X-5.7475 Y-0.4187 I0. J-0.0312
N3245 G1 Y-0.4503
N3250 G3 X-5.7163 Y-0.4815 I0.0312 J0.
N3255 G1 X-5.335
N3260 G2 X-5.1652 Y-0.5895 I0. J-0.1875
N3265 G3 X-5.1369 Y-0.6075 I0.0283 J0.0132
N3270 G1 X-3.4837
N3275 G3 X-3.4525 Y-0.5763 I0. J0.0312
N3280 G1 Y-0.4542
N3285 G3 X-3.4704 Y-0.4355 I-0.0187 J0. F15.
N3290 G1 X-4.14 Y-0.4062
N3295 X-5.1061 Z-0.5737 F5.
N3300 G3 X-5.1217 Y-0.4127 Z-0.5743 I0. J-0.0221
N3305 G2 X-5.1376 Y-0.4275 Z-0.5751 I-0.2133 J0.2127
N3310 G3 Y-0.4415 Z-0.5757 I0.006 J-0.007
N3315 G2 X-5.1001 Y-0.4804 Z-0.5775 I-0.1974 J-0.2275
N3320 G3 X-5.0722 Y-0.4938 Z-0.5787 I0.0279 J0.0224
N3325 G1 X-3.602 Z-0.63
N3330 X-3.5788 F15.
N3335 G3 X-3.5662 Y-0.4812 I0. J0.0125
N3340 G1 Y-0.4188
N3345 G3 X-3.5788 Y-0.4062 I-0.0125 J0.
N3350 G1 X-5.1061
N3355 G3 X-5.1217 Y-0.4127 I0. J-0.0221
N3360 G2 X-5.1376 Y-0.4275 I-0.2133 J0.2127
N3365 G3 Y-0.4415 I0.006 J-0.007
N3370 G2 X-5.1001 Y-0.4804 I-0.1974 J-0.2275
N3375 G3 X-5.0722 Y-0.4938 I0.0279 J0.0224
N3380 G1 X-3.602
N3385 G2 X-3.5495 Y-0.5253 I0. J-0.0595
N3390 G3 X-3.49 Y-0.5105 I0.0279 J0.0148
N3395 G1 Y-0.33
N3400 X-5.1514
N3405 G2 X-5.335 Y-0.425 I-0.1836 J0.13
N3410 G1 X-5.71
N3415 Y-0.444
N3420 X-5.335
N3425 G2 X-5.133 Y-0.57 I0. J-0.225
N3430 G1 X-3.49
N3435 Y-0.5105
N3440 G2 X-3.4712 Y-0.4823 I0.0305 J0.
N3445 G3 X-3.4525 Y-0.4542 I-0.0117 J0.0281
N3450 G1 Y-0.3238 F10.
N3455 G3 X-3.4837 Y-0.2925 I-0.0312 J0.
N3460 G1 X-5.1546
N3465 G3 X-5.1804 Y-0.3061 I0. J-0.0313
N3470 G2 X-5.335 Y-0.3875 I-0.1546 J0.1061
N3475 G1 X-5.7163
N3480 G3 X-5.7475 Y-0.4187 I0. J-0.0312
N3485 G1 Y-0.4503
N3490 G3 X-5.7163 Y-0.4815 I0.0312 J0.
N3495 G1 X-5.335
N3500 G2 X-5.1652 Y-0.5895 I0. J-0.1875
N3505 G3 X-5.1369 Y-0.6075 I0.0283 J0.0132
N3510 G1 X-3.4837
N3515 G3 X-3.4525 Y-0.5763 I0. J0.0312
N3520 G1 Y-0.3238
N3525 G3 X-3.4837 Y-0.2925 I-0.0312 J0.
N3530 G1 X-5.1546
N3535 G3 X-5.1804 Y-0.3061 I0. J-0.0313
N3540 G2 X-5.335 Y-0.3875 I-0.1546 J0.1061
N3545 G1 X-5.7163
N3550 G3 X-5.7475 Y-0.4187 I0. J-0.0312
N3555 G1 Y-0.4503
N3560 G3 X-5.7163 Y-0.4815 I0.0312 J0.
N3565 G1 X-5.335
N3570 G2 X-5.1652 Y-0.5895 I0. J-0.1875
N3575 G3 X-5.1369 Y-0.6075 I0.0283 J0.0132
N3580 G1 X-3.4837
N3585 G3 X-3.4525 Y-0.5763 I0. J0.0312
N3590 G1 Y-0.4542
N3595 G3 X-3.4704 Y-0.4355 I-0.0187 J0. F15.
N3600 G1 X-4.14 Y-0.4062
N3605 X-5.1061 Z-0.6637 F5.
N3610 G3 X-5.1217 Y-0.4127 Z-0.6643 I0. J-0.0221
N3615 G2 X-5.1376 Y-0.4275 Z-0.6651 I-0.2133 J0.2127
N3620 G3 Y-0.4415 Z-0.6657 I0.006 J-0.007
N3625 G2 X-5.1001 Y-0.4804 Z-0.6675 I-0.1974 J-0.2275
N3630 G3 X-5.0722 Y-0.4938 Z-0.6687 I0.0279 J0.0224
N3635 G1 X-3.602 Z-0.72
N3640 X-3.5788 F15.
N3645 G3 X-3.5662 Y-0.4812 I0. J0.0125
N3650 G1 Y-0.4188
N3655 G3 X-3.5788 Y-0.4062 I-0.0125 J0.
N3660 G1 X-5.1061
N3665 G3 X-5.1217 Y-0.4127 I0. J-0.0221
N3670 G2 X-5.1376 Y-0.4275 I-0.2133 J0.2127
N3675 G3 Y-0.4415 I0.006 J-0.007
N3680 G2 X-5.1001 Y-0.4804 I-0.1974 J-0.2275
N3685 G3 X-5.0722 Y-0.4938 I0.0279 J0.0224
N3690 G1 X-3.602
N3695 G2 X-3.5495 Y-0.5253 I0. J-0.0595
N3700 G3 X-3.49 Y-0.5105 I0.0279 J0.0148
N3705 G1 Y-0.33
N3710 X-5.1514
N3715 G2 X-5.335 Y-0.425 I-0.1836 J0.13
N3720 G1 X-5.71
N3725 Y-0.444
N3730 X-5.335
N3735 G2 X-5.133 Y-0.57 I0. J-0.225
N3740 G1 X-3.49
N3745 Y-0.5105
N3750 G2 X-3.4712 Y-0.4823 I0.0305 J0.
N3755 G3 X-3.4525 Y-0.4542 I-0.0117 J0.0281
N3760 G1 Y-0.3238 F10.
N3765 G3 X-3.4837 Y-0.2925 I-0.0312 J0.
N3770 G1 X-5.1546
N3775 G3 X-5.1804 Y-0.3061 I0. J-0.0313
N3780 G2 X-5.335 Y-0.3875 I-0.1546 J0.1061
N3785 G1 X-5.7163
N3790 G3 X-5.7475 Y-0.4187 I0. J-0.0312
N3795 G1 Y-0.4503
N3800 G3 X-5.7163 Y-0.4815 I0.0312 J0.
N3805 G1 X-5.335
N3810 G2 X-5.1652 Y-0.5895 I0. J-0.1875
N3815 G3 X-5.1369 Y-0.6075 I0.0283 J0.0132
N3820 G1 X-3.4837
N3825 G3 X-3.4525 Y-0.5763 I0. J0.0312
N3830 G1 Y-0.3238
N3835 G3 X-3.4837 Y-0.2925 I-0.0312 J0.
N3840 G1 X-5.1546
N3845 G3 X-5.1804 Y-0.3061 I0. J-0.0313
N3850 G2 X-5.335 Y-0.3875 I-0.1546 J0.1061
N3855 G1 X-5.7163
N3860 G3 X-5.7475 Y-0.4187 I0. J-0.0312
N3865 G1 Y-0.4503
N3870 G3 X-5.7163 Y-0.4815 I0.0312 J0.
N3875 G1 X-5.335
N3880 G2 X-5.1652 Y-0.5895 I0. J-0.1875
N3885 G3 X-5.1369 Y-0.6075 I0.0283 J0.0132
N3890 G1 X-3.4837
N3895 G3 X-3.4525 Y-0.5763 I0. J0.0312
N3900 G1 Y-0.4542
N3905 G3 X-3.4704 Y-0.4355 I-0.0187 J0. F15.
N3910 G1 X-4.14 Y-0.4062
N3915 X-5.1061 Z-0.7537 F5.
N3920 G3 X-5.1217 Y-0.4127 Z-0.7543 I0. J-0.0221
N3925 G2 X-5.1376 Y-0.4275 Z-0.7551 I-0.2133 J0.2127
N3930 G3 Y-0.4415 Z-0.7557 I0.006 J-0.007
N3935 G2 X-5.1001 Y-0.4804 Z-0.7575 I-0.1974 J-0.2275
N3940 G3 X-5.0722 Y-0.4938 Z-0.7587 I0.0279 J0.0224
N3945 G1 X-3.602 Z-0.81
N3950 X-3.5788 F15.
N3955 G3 X-3.5662 Y-0.4812 I0. J0.0125
N3960 G1 Y-0.4188
N3965 G3 X-3.5788 Y-0.4062 I-0.0125 J0.
N3970 G1 X-5.1061
N3975 G3 X-5.1217 Y-0.4127 I0. J-0.0221
N3980 G2 X-5.1376 Y-0.4275 I-0.2133 J0.2127
N3985 G3 Y-0.4415 I0.006 J-0.007
N3990 G2 X-5.1001 Y-0.4804 I-0.1974 J-0.2275
N3995 G3 X-5.0722 Y-0.4938 I0.0279 J0.0224
N4000 G1 X-3.602
N4005 G2 X-3.5495 Y-0.5253 I0. J-0.0595
N4010 G3 X-3.49 Y-0.5105 I0.0279 J0.0148
N4015 G1 Y-0.33
N4020 X-5.1514
N4025 G2 X-5.335 Y-0.425 I-0.1836 J0.13
N4030 G1 X-5.71
N4035 Y-0.444
N4040 X-5.335
N4045 G2 X-5.133 Y-0.57 I0. J-0.225
N4050 G1 X-3.49
N4055 Y-0.5105
N4060 G2 X-3.4712 Y-0.4823 I0.0305 J0.
N4065 G3 X-3.4525 Y-0.4542 I-0.0117 J0.0281
N4070 G1 Y-0.3238 F10.
N4075 G3 X-3.4837 Y-0.2925 I-0.0312 J0.
N4080 G1 X-5.1546
N4085 G3 X-5.1804 Y-0.3061 I0. J-0.0313
N4090 G2 X-5.335 Y-0.3875 I-0.1546 J0.1061
N4095 G1 X-5.7163
N4100 G3 X-5.7475 Y-0.4187 I0. J-0.0312
N4105 G1 Y-0.4503
N4110 G3 X-5.7163 Y-0.4815 I0.0312 J0.
N4115 G1 X-5.335
N4120 G2 X-5.1652 Y-0.5895 I0. J-0.1875
N4125 G3 X-5.1369 Y-0.6075 I0.0283 J0.0132
N4130 G1 X-3.4837
N4135 G3 X-3.4525 Y-0.5763 I0. J0.0312
N4140 G1 Y-0.3238
N4145 G3 X-3.4837 Y-0.2925 I-0.0312 J0.
N4150 G1 X-5.1546
N4155 G3 X-5.1804 Y-0.3061 I0. J-0.0313
N4160 G2 X-5.335 Y-0.3875 I-0.1546 J0.1061
N4165 G1 X-5.7163
N4170 G3 X-5.7475 Y-0.4187 I0. J-0.0312
N4175 G1 Y-0.4503
N4180 G3 X-5.7163 Y-0.4815 I0.0312 J0.
N4185 G1 X-5.335
N4190 G2 X-5.1652 Y-0.5895 I0. J-0.1875
N4195 G3 X-5.1369 Y-0.6075 I0.0283 J0.0132
N4200 G1 X-3.4837
N4205 G3 X-3.4525 Y-0.5763 I0. J0.0312
N4210 G1 Y-0.4542
N4215 G3 X-3.4704 Y-0.4355 I-0.0187 J0. F15.
N4220 G1 X-4.14 Y-0.4062
N4225 X-5.1061 Z-0.8437 F5.
N4230 G3 X-5.1217 Y-0.4127 Z-0.8443 I0. J-0.0221
N4235 G2 X-5.1376 Y-0.4275 Z-0.8451 I-0.2133 J0.2127
N4240 G3 Y-0.4415 Z-0.8457 I0.006 J-0.007
N4245 G2 X-5.1001 Y-0.4804 Z-0.8475 I-0.1974 J-0.2275
N4250 G3 X-5.0722 Y-0.4938 Z-0.8487 I0.0279 J0.0224
N4255 G1 X-3.602 Z-0.9
N4260 X-3.5788 F15.
N4265 G3 X-3.5662 Y-0.4812 I0. J0.0125
N4270 G1 Y-0.4188
N4275 G3 X-3.5788 Y-0.4062 I-0.0125 J0.
N4280 G1 X-5.1061
N4285 G3 X-5.1217 Y-0.4127 I0. J-0.0221
N4290 G2 X-5.1376 Y-0.4275 I-0.2133 J0.2127
N4295 G3 Y-0.4415 I0.006 J-0.007
N4300 G2 X-5.1001 Y-0.4804 I-0.1974 J-0.2275
N4305 G3 X-5.0722 Y-0.4938 I0.0279 J0.0224
N4310 G1 X-3.602
N4315 G2 X-3.5495 Y-0.5253 I0. J-0.0595
N4320 G3 X-3.49 Y-0.5105 I0.0279 J0.0148
N4325 G1 Y-0.33
N4330 X-5.1514
N4335 G2 X-5.335 Y-0.425 I-0.1836 J0.13
N4340 G1 X-5.71
N4345 Y-0.444
N4350 X-5.335
N4355 G2 X-5.133 Y-0.57 I0. J-0.225
N4360 G1 X-3.49
N4365 Y-0.5105
N4370 G2 X-3.4712 Y-0.4823 I0.0305 J0.
N4375 G3 X-3.4525 Y-0.4542 I-0.0117 J0.0281
N4380 G1 Y-0.3238 F10.
N4385 G3 X-3.4837 Y-0.2925 I-0.0312 J0.
N4390 G1 X-5.1546
N4395 G3 X-5.1804 Y-0.3061 I0. J-0.0313
N4400 G2 X-5.335 Y-0.3875 I-0.1546 J0.1061
N4405 G1 X-5.7163
N4410 G3 X-5.7475 Y-0.4187 I0. J-0.0312
N4415 G1 Y-0.4503
N4420 G3 X-5.7163 Y-0.4815 I0.0312 J0.
N4425 G1 X-5.335
N4430 G2 X-5.1652 Y-0.5895 I0. J-0.1875
N4435 G3 X-5.1369 Y-0.6075 I0.0283 J0.0132
N4440 G1 X-3.4837
N4445 G3 X-3.4525 Y-0.5763 I0. J0.0312
N4450 G1 Y-0.3238
N4455 G3 X-3.4837 Y-0.2925 I-0.0312 J0.
N4460 G1 X-5.1546
N4465 G3 X-5.1804 Y-0.3061 I0. J-0.0313
N4470 G2 X-5.335 Y-0.3875 I-0.1546 J0.1061
N4475 G1 X-5.7163
N4480 G3 X-5.7475 Y-0.4187 I0. J-0.0312
N4485 G1 Y-0.4503
N4490 G3 X-5.7163 Y-0.4815 I0.0312 J0.
N4495 G1 X-5.335
N4500 G2 X-5.1652 Y-0.5895 I0. J-0.1875
N4505 G3 X-5.1369 Y-0.6075 I0.0283 J0.0132
N4510 G1 X-3.4837
N4515 G3 X-3.4525 Y-0.5763 I0. J0.0312
N4520 G1 Y-0.4542
N4525 G3 X-3.4704 Y-0.4355 I-0.0187 J0. F15.
N4530 G1 X-4.14 Y-0.4062
N4535 X-5.1061 Z-0.9337 F5.
N4540 G3 X-5.1217 Y-0.4127 Z-0.9343 I0. J-0.0221
N4545 G2 X-5.1376 Y-0.4275 Z-0.9351 I-0.2133 J0.2127
N4550 G3 Y-0.4415 Z-0.9357 I0.006 J-0.007
N4555 G2 X-5.1001 Y-0.4804 Z-0.9375 I-0.1974 J-0.2275
N4560 G3 X-5.0722 Y-0.4938 Z-0.9387 I0.0279 J0.0224
N4565 G1 X-3.602 Z-0.99
N4570 X-3.5788 F15.
N4575 G3 X-3.5662 Y-0.4812 I0. J0.0125
N4580 G1 Y-0.4188
N4585 G3 X-3.5788 Y-0.4062 I-0.0125 J0.
N4590 G1 X-5.1061
N4595 G3 X-5.1217 Y-0.4127 I0. J-0.0221
N4600 G2 X-5.1376 Y-0.4275 I-0.2133 J0.2127
N4605 G3 Y-0.4415 I0.006 J-0.007
N4610 G2 X-5.1001 Y-0.4804 I-0.1974 J-0.2275
N4615 G3 X-5.0722 Y-0.4938 I0.0279 J0.0224
N4620 G1 X-3.602
N4625 G2 X-3.5495 Y-0.5253 I0. J-0.0595
N4630 G3 X-3.49 Y-0.5105 I0.0279 J0.0148
N4635 G1 Y-0.33
N4640 X-5.1514
N4645 G2 X-5.335 Y-0.425 I-0.1836 J0.13
N4650 G1 X-5.71
N4655 Y-0.444
N4660 X-5.335
N4665 G2 X-5.133 Y-0.57 I0. J-0.225
N4670 G1 X-3.49
N4675 Y-0.5105
N4680 G2 X-3.4712 Y-0.4823 I0.0305 J0.
N4685 G3 X-3.4525 Y-0.4542 I-0.0117 J0.0281
N4690 G1 Y-0.3238 F10.
N4695 G3 X-3.4837 Y-0.2925 I-0.0312 J0.
N4700 G1 X-5.1546
N4705 G3 X-5.1804 Y-0.3061 I0. J-0.0313
N4710 G2 X-5.335 Y-0.3875 I-0.1546 J0.1061
N4715 G1 X-5.7163
N4720 G3 X-5.7475 Y-0.4187 I0. J-0.0312
N4725 G1 Y-0.4503
N4730 G3 X-5.7163 Y-0.4815 I0.0312 J0.
N4735 G1 X-5.335
N4740 G2 X-5.1652 Y-0.5895 I0. J-0.1875
N4745 G3 X-5.1369 Y-0.6075 I0.0283 J0.0132
N4750 G1 X-3.4837
N4755 G3 X-3.4525 Y-0.5763 I0. J0.0312
N4760 G1 Y-0.3238
N4765 G3 X-3.4837 Y-0.2925 I-0.0312 J0.
N4770 G1 X-5.1546
N4775 G3 X-5.1804 Y-0.3061 I0. J-0.0313
N4780 G2 X-5.335 Y-0.3875 I-0.1546 J0.1061
N4785 G1 X-5.7163
N4790 G3 X-5.7475 Y-0.4187 I0. J-0.0312
N4795 G1 Y-0.4503
N4800 G3 X-5.7163 Y-0.4815 I0.0312 J0.
N4805 G1 X-5.335
N4810 G2 X-5.1652 Y-0.5895 I0. J-0.1875
N4815 G3 X-5.1369 Y-0.6075 I0.0283 J0.0132
N4820 G1 X-3.4837
N4825 G3 X-3.4525 Y-0.5763 I0. J0.0312
N4830 G1 Y-0.4542
N4835 G3 X-3.4704 Y-0.4355 I-0.0187 J0. F15.
N4840 G1 X-4.14 Y-0.4062
N4845 X-5.1061 Z-1.0237 F5.
N4850 G3 X-5.1217 Y-0.4127 Z-1.0243 I0. J-0.0221
N4855 G2 X-5.1376 Y-0.4275 Z-1.0251 I-0.2133 J0.2127
N4860 G3 Y-0.4415 Z-1.0257 I0.006 J-0.007
N4865 G2 X-5.1001 Y-0.4804 Z-1.0275 I-0.1974 J-0.2275
N4870 G3 X-5.0722 Y-0.4938 Z-1.0287 I0.0279 J0.0224
N4875 G1 X-3.602 Z-1.08
N4880 X-3.5788 F15.
N4885 G3 X-3.5662 Y-0.4812 I0. J0.0125
N4890 G1 Y-0.4188
N4895 G3 X-3.5788 Y-0.4062 I-0.0125 J0.
N4900 G1 X-5.1061
N4905 G3 X-5.1217 Y-0.4127 I0. J-0.0221
N4910 G2 X-5.1376 Y-0.4275 I-0.2133 J0.2127
N4915 G3 Y-0.4415 I0.006 J-0.007
N4920 G2 X-5.1001 Y-0.4804 I-0.1974 J-0.2275
N4925 G3 X-5.0722 Y-0.4938 I0.0279 J0.0224
N4930 G1 X-3.602
N4935 G2 X-3.5495 Y-0.5253 I0. J-0.0595
N4940 G3 X-3.49 Y-0.5105 I0.0279 J0.0148
N4945 G1 Y-0.33
N4950 X-5.1514
N4955 G2 X-5.335 Y-0.425 I-0.1836 J0.13
N4960 G1 X-5.71
N4965 Y-0.444
N4970 X-5.335
N4975 G2 X-5.133 Y-0.57 I0. J-0.225
N4980 G1 X-3.49
N4985 Y-0.5105
N4990 G2 X-3.4712 Y-0.4823 I0.0305 J0.
N4995 G3 X-3.4525 Y-0.4542 I-0.0117 J0.0281
N5000 G1 Y-0.3238 F10.
N5005 G3 X-3.4837 Y-0.2925 I-0.0312 J0.
N5010 G1 X-5.1546
N5015 G3 X-5.1804 Y-0.3061 I0. J-0.0313
N5020 G2 X-5.335 Y-0.3875 I-0.1546 J0.1061
N5025 G1 X-5.7163
N5030 G3 X-5.7475 Y-0.4187 I0. J-0.0312
N5035 G1 Y-0.4503
N5040 G3 X-5.7163 Y-0.4815 I0.0312 J0.
N5045 G1 X-5.335
N5050 G2 X-5.1652 Y-0.5895 I0. J-0.1875
N5055 G3 X-5.1369 Y-0.6075 I0.0283 J0.0132
N5060 G1 X-3.4837
N5065 G3 X-3.4525 Y-0.5763 I0. J0.0312
N5070 G1 Y-0.3238
N5075 G3 X-3.4837 Y-0.2925 I-0.0312 J0.
N5080 G1 X-5.1546
N5085 G3 X-5.1804 Y-0.3061 I0. J-0.0313
N5090 G2 X-5.335 Y-0.3875 I-0.1546 J0.1061
N5095 G1 X-5.7163
N5100 G3 X-5.7475 Y-0.4187 I0. J-0.0312
N5105 G1 Y-0.4503
N5110 G3 X-5.7163 Y-0.4815 I0.0312 J0.
N5115 G1 X-5.335
N5120 G2 X-5.1652 Y-0.5895 I0. J-0.1875
N5125 G3 X-5.1369 Y-0.6075 I0.0283 J0.0132
N5130 G1 X-3.4837
N5135 G3 X-3.4525 Y-0.5763 I0. J0.0312
N5140 G1 Y-0.4542
N5145 G3 X-3.4704 Y-0.4355 I-0.0187 J0. F15.
N5150 G1 X-4.14 Y-0.4062
N5155 X-5.1061 Z-1.1137 F5.
N5160 G3 X-5.1217 Y-0.4127 Z-1.1143 I0. J-0.0221
N5165 G2 X-5.1376 Y-0.4275 Z-1.1151 I-0.2133 J0.2127
N5170 G3 Y-0.4415 Z-1.1157 I0.006 J-0.007
N5175 G2 X-5.1001 Y-0.4804 Z-1.1175 I-0.1974 J-0.2275
N5180 G3 X-5.0722 Y-0.4938 Z-1.1187 I0.0279 J0.0224
N5185 G1 X-3.602 Z-1.17
N5190 X-3.5788 F15.
N5195 G3 X-3.5662 Y-0.4812 I0. J0.0125
N5200 G1 Y-0.4188
N5205 G3 X-3.5788 Y-0.4062 I-0.0125 J0.
N5210 G1 X-5.1061
N5215 G3 X-5.1217 Y-0.4127 I0. J-0.0221
N5220 G2 X-5.1376 Y-0.4275 I-0.2133 J0.2127
N5225 G3 Y-0.4415 I0.006 J-0.007
N5230 G2 X-5.1001 Y-0.4804 I-0.1974 J-0.2275
N5235 G3 X-5.0722 Y-0.4938 I0.0279 J0.0224
N5240 G1 X-3.602
N5245 G2 X-3.5495 Y-0.5253 I0. J-0.0595
N5250 G3 X-3.49 Y-0.5105 I0.0279 J0.0148
N5255 G1 Y-0.33
N5260 X-5.1514
N5265 G2 X-5.335 Y-0.425 I-0.1836 J0.13
N5270 G1 X-5.71
N5275 Y-0.444
N5280 X-5.335
N5285 G2 X-5.133 Y-0.57 I0. J-0.225
N5290 G1 X-3.49
N5295 Y-0.5105
N5300 G2 X-3.4712 Y-0.4823 I0.0305 J0.
N5305 G3 X-3.4525 Y-0.4542 I-0.0117 J0.0281
N5310 G1 Y-0.3238 F10.
N5315 G3 X-3.4837 Y-0.2925 I-0.0312 J0.
N5320 G1 X-5.1546
N5325 G3 X-5.1804 Y-0.3061 I0. J-0.0313
N5330 G2 X-5.335 Y-0.3875 I-0.1546 J0.1061
N5335 G1 X-5.7163
N5340 G3 X-5.7475 Y-0.4187 I0. J-0.0312
N5345 G1 Y-0.4503
N5350 G3 X-5.7163 Y-0.4815 I0.0312 J0.
N5355 G1 X-5.335
N5360 G2 X-5.1652 Y-0.5895 I0. J-0.1875
N5365 G3 X-5.1369 Y-0.6075 I0.0283 J0.0132
N5370 G1 X-3.4837
N5375 G3 X-3.4525 Y-0.5763 I0. J0.0312
N5380 G1 Y-0.3238
N5385 G3 X-3.4837 Y-0.2925 I-0.0312 J0.
N5390 G1 X-5.1546
N5395 G3 X-5.1804 Y-0.3061 I0. J-0.0313
N5400 G2 X-5.335 Y-0.3875 I-0.1546 J0.1061
N5405 G1 X-5.7163
N5410 G3 X-5.7475 Y-0.4187 I0. J-0.0312
N5415 G1 Y-0.4503
N5420 G3 X-5.7163 Y-0.4815 I0.0312 J0.
N5425 G1 X-5.335
N5430 G2 X-5.1652 Y-0.5895 I0. J-0.1875
N5435 G3 X-5.1369 Y-0.6075 I0.0283 J0.0132
N5440 G1 X-3.4837
N5445 G3 X-3.4525 Y-0.5763 I0. J0.0312
N5450 G1 Y-0.4542
N5455 G3 X-3.4708 Y-0.4355 I-0.0187 J0. F15.
N5460 G1 X-4.6555 Y-0.4062
N5465 X-5.1061 Z-1.1857 F5.
N5470 G3 X-5.1217 Y-0.4127 Z-1.1863 I0. J-0.0221
N5475 G2 X-5.1376 Y-0.4275 Z-1.1871 I-0.2133 J0.2127
N5480 G3 Y-0.4415 Z-1.1877 I0.006 J-0.007
N5485 G2 X-5.1001 Y-0.4804 Z-1.1895 I-0.1974 J-0.2275
N5490 G3 X-5.0722 Y-0.4938 Z-1.1907 I0.0279 J0.0224
N5495 G1 X-3.602 Z-1.242
N5500 X-3.5788 F15.
N5505 G3 X-3.5662 Y-0.4812 I0. J0.0125
N5510 G1 Y-0.4188
N5515 G3 X-3.5788 Y-0.4062 I-0.0125 J0.
N5520 G1 X-5.1061
N5525 G3 X-5.1217 Y-0.4127 I0. J-0.0221
N5530 G2 X-5.1376 Y-0.4275 I-0.2133 J0.2127
N5535 G3 Y-0.4415 I0.006 J-0.007
N5540 G2 X-5.1001 Y-0.4804 I-0.1974 J-0.2275
N5545 G3 X-5.0722 Y-0.4938 I0.0279 J0.0224
N5550 G1 X-3.602
N5555 G2 X-3.5495 Y-0.5253 I0. J-0.0595
N5560 G3 X-3.49 Y-0.5105 I0.0279 J0.0148
N5565 G1 Y-0.33
N5570 X-5.1514
N5575 G2 X-5.335 Y-0.425 I-0.1836 J0.13
N5580 G1 X-5.71
N5585 Y-0.444
N5590 X-5.335
N5595 G2 X-5.133 Y-0.57 I0. J-0.225
N5600 G1 X-3.49
N5605 Y-0.5105
N5610 G2 X-3.4712 Y-0.4823 I0.0305 J0.
N5615 G3 X-3.4525 Y-0.4542 I-0.0117 J0.0281
N5620 G1 Y-0.3238 F10.
N5625 G3 X-3.4837 Y-0.2925 I-0.0312 J0.
N5630 G1 X-5.1546
N5635 G3 X-5.1804 Y-0.3061 I0. J-0.0313
N5640 G2 X-5.335 Y-0.3875 I-0.1546 J0.1061
N5645 G1 X-5.7163
N5650 G3 X-5.7475 Y-0.4187 I0. J-0.0312
N5655 G1 Y-0.4503
N5660 G3 X-5.7163 Y-0.4815 I0.0312 J0.
N5665 G1 X-5.335
N5670 G2 X-5.1652 Y-0.5895 I0. J-0.1875
N5675 G3 X-5.1369 Y-0.6075 I0.0283 J0.0132
N5680 G1 X-3.4837
N5685 G3 X-3.4525 Y-0.5763 I0. J0.0312
N5690 G1 Y-0.3238
N5695 G3 X-3.4837 Y-0.2925 I-0.0312 J0.
N5700 G1 X-5.1546
N5705 G3 X-5.1804 Y-0.3061 I0. J-0.0313
N5710 G2 X-5.335 Y-0.3875 I-0.1546 J0.1061
N5715 G1 X-5.7163
N5720 G3 X-5.7475 Y-0.4187 I0. J-0.0312
N5725 G1 Y-0.4503
N5730 G3 X-5.7163 Y-0.4815 I0.0312 J0.
N5735 G1 X-5.335
N5740 G2 X-5.1652 Y-0.5895 I0. J-0.1875
N5745 G3 X-5.1369 Y-0.6075 I0.0283 J0.0132
N5750 G1 X-3.4837
N5755 G3 X-3.4525 Y-0.5763 I0. J0.0312
N5760 G1 Y-0.4542
N5765 G3 X-3.4843 Y-0.3674 Z-1.2451 I-0.1345 J0. F5.
N5770 G1 X-3.5072 Y-0.3402 Z-1.2462
N5775 G3 X-3.61 Y-0.2925 Z-1.25 I-0.1028 J-0.0868
N5780 G1 X-5.1546 F10.
N5785 G3 X-5.1804 Y-0.3061 I0. J-0.0313
N5790 G2 X-5.335 Y-0.3875 I-0.1546 J0.1061
N5795 G1 X-5.7163
N5800 G3 X-5.7475 Y-0.4187 I0. J-0.0312
N5805 G1 Y-0.4503
N5810 G3 X-5.7163 Y-0.4815 I0.0312 J0.
N5815 G1 X-5.335
N5820 G2 X-5.1652 Y-0.5895 I0. J-0.1875
N5825 G3 X-5.1369 Y-0.6075 I0.0283 J0.0132
N5830 G1 X-3.4837
N5835 G3 X-3.4525 Y-0.5763 I0. J0.0312
N5840 G1 Y-0.3238
N5845 G3 X-3.4837 Y-0.2925 I-0.0312 J0.
N5850 G1 X-5.1546
N5855 G3 X-5.1804 Y-0.3061 I0. J-0.0313
N5860 G2 X-5.335 Y-0.3875 I-0.1546 J0.1061
N5865 G1 X-5.7163
N5870 G3 X-5.7475 Y-0.4187 I0. J-0.0312
N5875 G1 Y-0.4503
N5880 G3 X-5.7163 Y-0.4815 I0.0312 J0.
N5885 G1 X-5.335
N5890 G2 X-5.1652 Y-0.5895 I0. J-0.1875
N5895 G3 X-5.1369 Y-0.6075 I0.0283 J0.0132
N5900 G1 X-3.4837
N5905 G3 X-3.4525 Y-0.5763 I0. J0.0312
N5910 G1 Y-0.3238
N5915 G3 X-3.4837 Y-0.2925 I-0.0312 J0.
N5920 G1 X-3.61
N5925 G3 X-3.6196 Y-0.2937 Z-1.2487 I0. J-0.0375 F15.
N5930 X-3.628 Y-0.2971 Z-1.245 I0.0096 J-0.0363
N5935 X-3.6344 Y-0.3015 Z-1.239 I0.018 J-0.0329
N5940 X-3.6386 Y-0.3057 Z-1.2313 I0.0244 J-0.0285
N5945 X-3.6408 Y-0.3087 Z-1.2222 I0.0286 J-0.0243
N5950 X-3.6416 Y-0.3097 Z-1.2125 I0.0308 J-0.0213
N5955 G0 Z0.6
N5965 M9
N5970 G53 Z0.
N5975 M30
%
