%
(FCG_POCKET_CLEARING)
(.375 END MILL 20 MINUTES)
(T1  D=0.375 CR=0. - ZMIN=-1.25 - FLAT END MILL)
N10 G90 G94 G17 G91.1
N15 G20
N20 G53 G0 Z0.
(3D POCKET CLEARING)
N25 M9
N30 T1 M6
N35 S2000 M3
N40 G54
N45 M8
N55 G0 X-3.6123 Y-0.5975
N60 G43 Z0.6 H1
N65 G0 Z0.1687
N70 G18 G2 X-3.5756 Z0.1313 I0.0375 K0. F4.
N75 G1 X-3.4978 Z0.1295
N80 X-3.4785 Y-0.5951 Z0.1291
N85 X-3.4742 Y-0.5933 Z0.129
N90 X-3.4698 Y-0.5899 Z0.1289
N95 X-3.4669 Y-0.5861 Z0.1288
N100 X-3.4661 Y-0.5842 Z0.1287
N105 X-3.4649 Y-0.5813
N110 X-3.4626 Y-0.5641 Z0.1283
N115 X-3.4625 Y-0.5588 Z0.1282
N120 Y-0.3371 Z0.1233
N125 X-3.4626 Y-0.3357
N130 X-3.4649 Y-0.3188 Z0.1229
N135 X-3.4669 Y-0.3139 Z0.1228
N140 X-3.4699 Y-0.31 Z0.1227
N145 X-3.4742 Y-0.3067 Z0.1226
N150 X-3.4786 Y-0.3049 Z0.1224
N155 X-3.4977 Y-0.3025 Z0.122
N160 X-5.1442 Y-0.3027 Z0.0859
N165 X-5.1594 Y-0.3045 Z0.0855
N170 X-5.1638 Y-0.3062 Z0.0854
N175 X-5.1678 Y-0.309 Z0.0853
N180 X-5.1883 Y-0.3323 Z0.0846
N185 G17 G2 X-5.1925 Y-0.3367 Z0.0845 I-0.074 J0.0653
N190 G1 X-5.1982 Y-0.3424 Z0.0843
N195 G2 X-5.2039 Y-0.3476 Z0.0842 I-0.0698 J0.0698
N200 G1 X-5.2095 Y-0.3525 Z0.084
N205 G2 X-5.2151 Y-0.3569 Z0.0838 I-0.0642 J0.0751
N210 G1 X-5.2207 Y-0.361 Z0.0837
N215 G2 X-5.2281 Y-0.366 Z0.0835 I-0.0586 J0.0795
N220 G1 X-5.2376 Y-0.3717 Z0.0832
N225 G2 X-5.2483 Y-0.3773 Z0.083 I-0.0511 J0.0845
N230 G1 X-5.2602 Y-0.3827 Z0.0827
N235 G2 X-5.2701 Y-0.3865 Z0.0825 I-0.0404 J0.0901
N240 G1 X-5.278 Y-0.3891 Z0.0823
N245 G2 X-5.2859 Y-0.3913 Z0.0821 I-0.0305 J0.0939
N250 G1 X-5.2939 Y-0.3931 Z0.0819
N255 G2 X-5.3018 Y-0.3946 Z0.0817 I-0.0226 J0.0961
N260 G1 X-5.3097 Y-0.3958 Z0.0816
N265 G2 X-5.3176 Y-0.3967 Z0.0814 I-0.0146 J0.0977
N270 G1 X-5.3255 Y-0.3972 Z0.0812
N275 G2 X-5.3323 Y-0.3975 Z0.0811 I-0.0067 J0.0985
N280 G1 X-6.0743 Z0.0648
N285 X-6.0781 Y-0.398 Z0.0647
N290 X-6.0785 Y-0.4013 Z0.0646
N295 Y-0.4987 Z0.0625
N300 X-6.0781 Y-0.502 Z0.0624
N305 X-6.0743 Y-0.5025 Z0.0623
N310 X-6.0573 Z0.0619
N315 X-6.0434 Y-0.5012 Z0.0616
N320 X-6.0392 Y-0.5 Z0.0615
N325 X-6.0161 Y-0.489 Z0.061
N330 G2 X-6.0081 Y-0.4856 Z0.0608 I0.0426 J-0.0891
N335 G1 X-6.0002 Y-0.4826 Z0.0606
N340 G2 X-5.9923 Y-0.48 Z0.0604 I0.0346 J-0.0925
N345 G1 X-5.9844 Y-0.4778 Z0.0602
N350 G2 X-5.9765 Y-0.4759 Z0.0601 I0.0267 J-0.0951
N355 G1 X-5.9685 Y-0.4744 Z0.0599
N360 G2 X-5.9606 Y-0.4732 Z0.0597 I0.0188 J-0.097
N365 G1 X-5.9527 Y-0.4723 Z0.0595
N370 G2 X-5.9429 Y-0.4717 Z0.0593 I0.0108 J-0.0982
N375 G1 X-5.9191 Y-0.4715 Z0.0588
N380 G2 X-5.9181 I0.001 J-0.0987
N385 G1 X-5.3322 Z0.0459
N390 G2 X-5.3255 Y-0.4718 Z0.0457 I0. J-0.0987
N395 G1 X-5.3176 Y-0.4723 Z0.0456
N400 G2 X-5.3097 Y-0.4732 Z0.0454 I-0.0067 J-0.0985
N405 G1 X-5.3018 Y-0.4744 Z0.0452
N410 G2 X-5.2939 Y-0.4759 Z0.045 I-0.0146 J-0.0977
N415 G1 X-5.2859 Y-0.4777 Z0.0449
N420 G2 X-5.278 Y-0.4799 Z0.0447 I-0.0226 J-0.0961
N425 G1 X-5.2701 Y-0.4825 Z0.0445
N430 G2 X-5.2602 Y-0.4863 Z0.0443 I-0.0305 J-0.0939
N435 G1 X-5.2483 Y-0.4917 Z0.044
N440 G2 X-5.2377 Y-0.4972 Z0.0437 I-0.0404 J-0.0901
N445 G1 X-5.2285 Y-0.5028 Z0.0435
N450 G2 X-5.2213 Y-0.5076 Z0.0433 I-0.051 J-0.0846
N455 G1 X-5.216 Y-0.5114 Z0.0432
N460 G2 X-5.2086 Y-0.5174 Z0.0429 I-0.0582 J-0.0798
N465 G1 X-5.1993 Y-0.5256 Z0.0427
N470 G2 X-5.1908 Y-0.5342 Z0.0424 I-0.0656 J-0.0738
N475 G1 X-5.1831 Y-0.5429 Z0.0421
N480 G2 X-5.1773 Y-0.5502 Z0.0419 I-0.0741 J-0.0653
N485 G1 X-5.1732 Y-0.5558 Z0.0418
N490 G2 X-5.1691 Y-0.5619 Z0.0416 I-0.0799 J-0.058
N495 G1 X-5.1526 Y-0.5886 Z0.0409
N500 X-5.1494 Y-0.5918 Z0.0408
N505 X-5.146 Y-0.594
N510 X-5.1416 Y-0.5955 Z0.0407
N515 X-5.1262 Y-0.5974 Z0.0403
N520 X-5.1243 Y-0.5975
N525 X-3.4978 Z0.0045
N530 X-3.4785 Y-0.5951 Z0.0041
N535 X-3.4742 Y-0.5933 Z0.004
N540 X-3.4698 Y-0.5899 Z0.0039
N545 X-3.4669 Y-0.5861 Z0.0038
N550 X-3.4661 Y-0.5842 Z0.0037
N555 X-3.4649 Y-0.5813
N560 X-3.4626 Y-0.5641 Z0.0033
N565 X-3.4625 Y-0.5588 Z0.0032
N570 Y-0.3371 Z-0.0017
N575 X-3.4626 Y-0.3357
N580 X-3.4649 Y-0.3188 Z-0.0021
N585 X-3.4669 Y-0.3139 Z-0.0022
N590 X-3.4699 Y-0.31 Z-0.0023
N595 X-3.4742 Y-0.3067 Z-0.0024
N600 X-3.4786 Y-0.3049 Z-0.0026
N605 X-3.4977 Y-0.3025 Z-0.003
N610 X-5.1442 Y-0.3027 Z-0.0391
N615 X-5.1594 Y-0.3045 Z-0.0395
N620 X-5.1638 Y-0.3062 Z-0.0396
N625 X-5.1678 Y-0.309 Z-0.0397
N630 X-5.1883 Y-0.3323 Z-0.0404
N635 G2 X-5.1925 Y-0.3367 Z-0.0405 I-0.074 J0.0653
N640 G1 X-5.1982 Y-0.3424 Z-0.0407
N645 G2 X-5.2039 Y-0.3476 Z-0.0408 I-0.0698 J0.0698
N650 G1 X-5.2095 Y-0.3525 Z-0.041
N655 G2 X-5.2151 Y-0.3569 Z-0.0412 I-0.0642 J0.0751
N660 G1 X-5.2207 Y-0.361 Z-0.0413
N665 G2 X-5.2281 Y-0.366 Z-0.0415 I-0.0586 J0.0795
N670 G1 X-5.2376 Y-0.3717 Z-0.0418
N675 G2 X-5.2483 Y-0.3773 Z-0.042 I-0.0511 J0.0845
N680 G1 X-5.2602 Y-0.3827 Z-0.0423
N685 G2 X-5.2701 Y-0.3865 Z-0.0425 I-0.0404 J0.0901
N690 G1 X-5.278 Y-0.3891 Z-0.0427
N695 G2 X-5.2859 Y-0.3913 Z-0.0429 I-0.0305 J0.0939
N700 G1 X-5.2939 Y-0.3931 Z-0.0431
N705 G2 X-5.3018 Y-0.3946 Z-0.0433 I-0.0226 J0.0961
N710 G1 X-5.3097 Y-0.3958 Z-0.0434
N715 G2 X-5.3176 Y-0.3967 Z-0.0436 I-0.0146 J0.0977
N720 G1 X-5.3255 Y-0.3972 Z-0.0438
N725 G2 X-5.3323 Y-0.3975 Z-0.0439 I-0.0067 J0.0985
N730 G1 X-6.0743 Z-0.0602
N735 X-6.0781 Y-0.398 Z-0.0603
N740 X-6.0785 Y-0.4013 Z-0.0604
N745 Y-0.4987 Z-0.0625
N750 X-6.0781 Y-0.502 Z-0.0626
N755 X-6.0743 Y-0.5025 Z-0.0627
N760 X-6.0573 Z-0.0631
N765 X-6.0434 Y-0.5012 Z-0.0634
N770 X-6.0392 Y-0.5 Z-0.0635
N775 X-6.0161 Y-0.489 Z-0.064
N780 G2 X-6.0081 Y-0.4856 Z-0.0642 I0.0426 J-0.0891
N785 G1 X-6.0002 Y-0.4826 Z-0.0644
N790 G2 X-5.9923 Y-0.48 Z-0.0646 I0.0346 J-0.0925
N795 G1 X-5.9844 Y-0.4778 Z-0.0648
N800 G2 X-5.9765 Y-0.4759 Z-0.0649 I0.0267 J-0.0951
N805 G1 X-5.9685 Y-0.4744 Z-0.0651
N810 G2 X-5.9606 Y-0.4732 Z-0.0653 I0.0188 J-0.097
N815 G1 X-5.9527 Y-0.4723 Z-0.0655
N820 G2 X-5.9429 Y-0.4717 Z-0.0657 I0.0108 J-0.0982
N825 G1 X-5.9191 Y-0.4715 Z-0.0662
N830 G2 X-5.9181 I0.001 J-0.0987
N835 G1 X-5.3322 Z-0.0791
N840 G2 X-5.3255 Y-0.4718 Z-0.0793 I0. J-0.0987
N845 G1 X-5.3176 Y-0.4723 Z-0.0794
N850 G2 X-5.3097 Y-0.4732 Z-0.0796 I-0.0067 J-0.0985
N855 G1 X-5.3018 Y-0.4744 Z-0.0798
N860 G2 X-5.2939 Y-0.4759 Z-0.08 I-0.0146 J-0.0977
N865 G1 X-5.2859 Y-0.4777 Z-0.0801
N870 G2 X-5.278 Y-0.4799 Z-0.0803 I-0.0226 J-0.0961
N875 G1 X-5.2701 Y-0.4825 Z-0.0805
N880 G2 X-5.2602 Y-0.4863 Z-0.0807 I-0.0305 J-0.0939
N885 G1 X-5.2483 Y-0.4917 Z-0.081
N890 G2 X-5.2377 Y-0.4972 Z-0.0813 I-0.0404 J-0.0901
N895 G1 X-5.2285 Y-0.5028 Z-0.0815
N900 G2 X-5.2213 Y-0.5076 Z-0.0817 I-0.051 J-0.0846
N905 G1 X-5.216 Y-0.5114 Z-0.0818
N910 G2 X-5.2086 Y-0.5174 Z-0.0821 I-0.0582 J-0.0798
N915 G1 X-5.1993 Y-0.5256 Z-0.0823
N920 G2 X-5.1908 Y-0.5342 Z-0.0826 I-0.0656 J-0.0738
N925 G1 X-5.1831 Y-0.5429 Z-0.0829
N930 G2 X-5.1773 Y-0.5502 Z-0.0831 I-0.0741 J-0.0653
N935 G1 X-5.1732 Y-0.5558 Z-0.0832
N940 G2 X-5.1691 Y-0.5619 Z-0.0834 I-0.0799 J-0.058
N945 G1 X-5.1526 Y-0.5886 Z-0.0841
N950 X-5.1494 Y-0.5918 Z-0.0842
N955 X-5.146 Y-0.594
N960 X-5.1416 Y-0.5955 Z-0.0843
N965 X-5.1262 Y-0.5974 Z-0.0847
N970 X-5.1243 Y-0.5975
N975 X-3.4978 Z-0.1205
N980 X-3.4785 Y-0.5951 Z-0.1209
N985 X-3.4742 Y-0.5933 Z-0.121
N990 X-3.4698 Y-0.5899 Z-0.1211
N995 X-3.4669 Y-0.5861 Z-0.1212
N1000 X-3.4661 Y-0.5842 Z-0.1213
N1005 X-3.4649 Y-0.5813
N1010 X-3.4626 Y-0.5641 Z-0.1217
N1015 X-3.4625 Y-0.5588 Z-0.1218
N1020 Y-0.4144 Z-0.125
N1025 Y-0.3371 F20.
N1030 X-3.4626 Y-0.3357
N1035 X-3.4649 Y-0.3188
N1040 X-3.4669 Y-0.3139
N1045 X-3.4699 Y-0.31
N1050 X-3.4742 Y-0.3067
N1055 X-3.4786 Y-0.3049
N1060 X-3.4977 Y-0.3025
N1065 X-5.1442 Y-0.3027
N1070 X-5.1594 Y-0.3045
N1075 X-5.1638 Y-0.3062
N1080 X-5.1678 Y-0.309
N1085 X-5.1883 Y-0.3323
N1090 G2 X-5.1925 Y-0.3367 I-0.074 J0.0653
N1095 G1 X-5.1982 Y-0.3424
N1100 G2 X-5.2039 Y-0.3476 I-0.0698 J0.0698
N1105 G1 X-5.2095 Y-0.3525
N1110 G2 X-5.2151 Y-0.3569 I-0.0642 J0.0751
N1115 G1 X-5.2207 Y-0.361
N1120 G2 X-5.2281 Y-0.366 I-0.0586 J0.0795
N1125 G1 X-5.2376 Y-0.3717
N1130 G2 X-5.2483 Y-0.3773 I-0.0511 J0.0845
N1135 G1 X-5.2602 Y-0.3827
N1140 G2 X-5.2701 Y-0.3865 I-0.0404 J0.0901
N1145 G1 X-5.278 Y-0.3891
N1150 G2 X-5.2859 Y-0.3913 I-0.0305 J0.0939
N1155 G1 X-5.2939 Y-0.3931
N1160 G2 X-5.3018 Y-0.3946 I-0.0226 J0.0961
N1165 G1 X-5.3097 Y-0.3958
N1170 G2 X-5.3176 Y-0.3967 I-0.0146 J0.0977
N1175 G1 X-5.3255 Y-0.3972
N1180 G2 X-5.3323 Y-0.3975 I-0.0067 J0.0985
N1185 G1 X-6.0743
N1190 X-6.0781 Y-0.398
N1195 X-6.0785 Y-0.4013
N1200 Y-0.4987
N1205 X-6.0781 Y-0.502
N1210 X-6.0743 Y-0.5025
N1215 X-6.0573
N1220 X-6.0434 Y-0.5012
N1225 X-6.0392 Y-0.5
N1230 X-6.0161 Y-0.489
N1235 G2 X-6.0081 Y-0.4856 I0.0426 J-0.0891
N1240 G1 X-6.0002 Y-0.4826
N1245 G2 X-5.9923 Y-0.48 I0.0346 J-0.0925
N1250 G1 X-5.9844 Y-0.4778
N1255 G2 X-5.9765 Y-0.4759 I0.0267 J-0.0951
N1260 G1 X-5.9685 Y-0.4744
N1265 G2 X-5.9606 Y-0.4732 I0.0188 J-0.097
N1270 G1 X-5.9527 Y-0.4723
N1275 G2 X-5.9429 Y-0.4717 I0.0108 J-0.0982
N1280 G1 X-5.9191 Y-0.4715
N1285 G2 X-5.9181 I0.001 J-0.0987
N1290 G1 X-5.3322
N1295 G2 X-5.3255 Y-0.4718 I0. J-0.0987
N1300 G1 X-5.3176 Y-0.4723
N1305 G2 X-5.3097 Y-0.4732 I-0.0067 J-0.0985
N1310 G1 X-5.3018 Y-0.4744
N1315 G2 X-5.2939 Y-0.4759 I-0.0146 J-0.0977
N1320 G1 X-5.2859 Y-0.4777
N1325 G2 X-5.278 Y-0.4799 I-0.0226 J-0.0961
N1330 G1 X-5.2701 Y-0.4825
N1335 G2 X-5.2602 Y-0.4863 I-0.0305 J-0.0939
N1340 G1 X-5.2483 Y-0.4917
N1345 G2 X-5.2377 Y-0.4972 I-0.0404 J-0.0901
N1350 G1 X-5.2285 Y-0.5028
N1355 G2 X-5.2213 Y-0.5076 I-0.051 J-0.0846
N1360 G1 X-5.216 Y-0.5114
N1365 G2 X-5.2086 Y-0.5174 I-0.0582 J-0.0798
N1370 G1 X-5.1993 Y-0.5256
N1375 G2 X-5.1908 Y-0.5342 I-0.0656 J-0.0738
N1380 G1 X-5.1831 Y-0.5429
N1385 G2 X-5.1773 Y-0.5502 I-0.0741 J-0.0653
N1390 G1 X-5.1732 Y-0.5558
N1395 G2 X-5.1691 Y-0.5619 I-0.0799 J-0.058
N1400 G1 X-5.1526 Y-0.5886
N1405 X-5.1494 Y-0.5918
N1410 X-5.146 Y-0.594
N1415 X-5.1416 Y-0.5955
N1420 X-5.1262 Y-0.5974
N1425 X-5.1243 Y-0.5975
N1430 X-3.4978
N1435 X-3.4785 Y-0.5951
N1440 X-3.4742 Y-0.5933
N1445 X-3.4698 Y-0.5899
N1450 X-3.4669 Y-0.5861
N1455 X-3.4661 Y-0.5842
N1460 X-3.4649 Y-0.5813
N1465 X-3.4626 Y-0.5641
N1470 X-3.4625 Y-0.5588
N1475 Y-0.4144
N1480 G3 X-3.4632 Y-0.4071 Z-0.1243 I-0.0375 J0. F2.
N1485 X-3.4652 Y-0.4004 Z-0.1221 I-0.0368 J-0.0073
N1490 X-3.4681 Y-0.3946 Z-0.1187 I-0.0348 J-0.014
N1495 X-3.4715 Y-0.39 Z-0.114 I-0.0319 J-0.0198
N1500 X-3.4747 Y-0.3867 Z-0.1083 I-0.0285 J-0.0244
N1505 X-3.4774 Y-0.3845 Z-0.1019 I-0.0253 J-0.0277
N1510 X-3.4791 Y-0.3832 Z-0.0948 I-0.0226 J-0.0299
N1515 X-3.4797 Y-0.3828 Z-0.0875 I-0.0209 J-0.0312
N1520 G0 Z0.2
N1525 X-3.6123 Y-0.5975
N1530 Z0.0437
N1535 G18 G2 X-3.5756 Z0.0062 I0.0375 K0. F4.
N1540 G1 X-3.4978 Z0.0045
N1545 X-3.4785 Y-0.5951 Z0.0041
N1550 X-3.4742 Y-0.5933 Z0.004
N1555 X-3.4698 Y-0.5899 Z0.0039
N1560 X-3.4669 Y-0.5861 Z0.0038
N1565 X-3.4661 Y-0.5842 Z0.0037
N1570 X-3.4649 Y-0.5813
N1575 X-3.4626 Y-0.5641 Z0.0033
N1580 X-3.4625 Y-0.5588 Z0.0032
N1585 Y-0.3371 Z-0.0017
N1590 X-3.4626 Y-0.3357
N1595 X-3.4649 Y-0.3188 Z-0.0021
N1600 X-3.4669 Y-0.3139 Z-0.0022
N1605 X-3.4699 Y-0.31 Z-0.0023
N1610 X-3.4742 Y-0.3067 Z-0.0024
N1615 X-3.4786 Y-0.3049 Z-0.0026
N1620 X-3.4977 Y-0.3025 Z-0.003
N1625 X-5.1442 Y-0.3027 Z-0.0391
N1630 X-5.1594 Y-0.3045 Z-0.0395
N1635 X-5.1638 Y-0.3062 Z-0.0396
N1640 X-5.1678 Y-0.309 Z-0.0397
N1645 X-5.1883 Y-0.3323 Z-0.0404
N1650 G17 G2 X-5.1925 Y-0.3367 Z-0.0405 I-0.074 J0.0653
N1655 G1 X-5.1982 Y-0.3424 Z-0.0407
N1660 G2 X-5.2039 Y-0.3476 Z-0.0408 I-0.0698 J0.0698
N1665 G1 X-5.2095 Y-0.3525 Z-0.041
N1670 G2 X-5.2151 Y-0.3569 Z-0.0412 I-0.0642 J0.0751
N1675 G1 X-5.2207 Y-0.361 Z-0.0413
N1680 G2 X-5.2281 Y-0.366 Z-0.0415 I-0.0586 J0.0795
N1685 G1 X-5.2376 Y-0.3717 Z-0.0418
N1690 G2 X-5.2483 Y-0.3773 Z-0.042 I-0.0511 J0.0845
N1695 G1 X-5.2602 Y-0.3827 Z-0.0423
N1700 G2 X-5.2701 Y-0.3865 Z-0.0425 I-0.0404 J0.0901
N1705 G1 X-5.278 Y-0.3891 Z-0.0427
N1710 G2 X-5.2859 Y-0.3913 Z-0.0429 I-0.0305 J0.0939
N1715 G1 X-5.2939 Y-0.3931 Z-0.0431
N1720 G2 X-5.3018 Y-0.3946 Z-0.0433 I-0.0226 J0.0961
N1725 G1 X-5.3097 Y-0.3958 Z-0.0434
N1730 G2 X-5.3176 Y-0.3967 Z-0.0436 I-0.0146 J0.0977
N1735 G1 X-5.3255 Y-0.3972 Z-0.0438
N1740 G2 X-5.3323 Y-0.3975 Z-0.0439 I-0.0067 J0.0985
N1745 G1 X-6.0743 Z-0.0602
N1750 X-6.0781 Y-0.398 Z-0.0603
N1755 X-6.0785 Y-0.4013 Z-0.0604
N1760 Y-0.4987 Z-0.0625
N1765 X-6.0781 Y-0.502 Z-0.0626
N1770 X-6.0743 Y-0.5025 Z-0.0627
N1775 X-6.0573 Z-0.0631
N1780 X-6.0434 Y-0.5012 Z-0.0634
N1785 X-6.0392 Y-0.5 Z-0.0635
N1790 X-6.0161 Y-0.489 Z-0.064
N1795 G2 X-6.0081 Y-0.4856 Z-0.0642 I0.0426 J-0.0891
N1800 G1 X-6.0002 Y-0.4826 Z-0.0644
N1805 G2 X-5.9923 Y-0.48 Z-0.0646 I0.0346 J-0.0925
N1810 G1 X-5.9844 Y-0.4778 Z-0.0648
N1815 G2 X-5.9765 Y-0.4759 Z-0.0649 I0.0267 J-0.0951
N1820 G1 X-5.9685 Y-0.4744 Z-0.0651
N1825 G2 X-5.9606 Y-0.4732 Z-0.0653 I0.0188 J-0.097
N1830 G1 X-5.9527 Y-0.4723 Z-0.0655
N1835 G2 X-5.9429 Y-0.4717 Z-0.0657 I0.0108 J-0.0982
N1840 G1 X-5.9191 Y-0.4715 Z-0.0662
N1845 G2 X-5.9181 I0.001 J-0.0987
N1850 G1 X-5.3322 Z-0.0791
N1855 G2 X-5.3255 Y-0.4718 Z-0.0793 I0. J-0.0987
N1860 G1 X-5.3176 Y-0.4723 Z-0.0794
N1865 G2 X-5.3097 Y-0.4732 Z-0.0796 I-0.0067 J-0.0985
N1870 G1 X-5.3018 Y-0.4744 Z-0.0798
N1875 G2 X-5.2939 Y-0.4759 Z-0.08 I-0.0146 J-0.0977
N1880 G1 X-5.2859 Y-0.4777 Z-0.0801
N1885 G2 X-5.278 Y-0.4799 Z-0.0803 I-0.0226 J-0.0961
N1890 G1 X-5.2701 Y-0.4825 Z-0.0805
N1895 G2 X-5.2602 Y-0.4863 Z-0.0807 I-0.0305 J-0.0939
N1900 G1 X-5.2483 Y-0.4917 Z-0.081
N1905 G2 X-5.2377 Y-0.4972 Z-0.0813 I-0.0404 J-0.0901
N1910 G1 X-5.2285 Y-0.5028 Z-0.0815
N1915 G2 X-5.2213 Y-0.5076 Z-0.0817 I-0.051 J-0.0846
N1920 G1 X-5.216 Y-0.5114 Z-0.0818
N1925 G2 X-5.2086 Y-0.5174 Z-0.0821 I-0.0582 J-0.0798
N1930 G1 X-5.1993 Y-0.5256 Z-0.0823
N1935 G2 X-5.1908 Y-0.5342 Z-0.0826 I-0.0656 J-0.0738
N1940 G1 X-5.1831 Y-0.5429 Z-0.0829
N1945 G2 X-5.1773 Y-0.5502 Z-0.0831 I-0.0741 J-0.0653
N1950 G1 X-5.1732 Y-0.5558 Z-0.0832
N1955 G2 X-5.1691 Y-0.5619 Z-0.0834 I-0.0799 J-0.058
N1960 G1 X-5.1526 Y-0.5886 Z-0.0841
N1965 X-5.1494 Y-0.5918 Z-0.0842
N1970 X-5.146 Y-0.594
N1975 X-5.1416 Y-0.5955 Z-0.0843
N1980 X-5.1262 Y-0.5974 Z-0.0847
N1985 X-5.1243 Y-0.5975
N1990 X-3.4978 Z-0.1205
N1995 X-3.4785 Y-0.5951 Z-0.1209
N2000 X-3.4742 Y-0.5933 Z-0.121
N2005 X-3.4698 Y-0.5899 Z-0.1211
N2010 X-3.4669 Y-0.5861 Z-0.1212
N2015 X-3.4661 Y-0.5842 Z-0.1213
N2020 X-3.4649 Y-0.5813
N2025 X-3.4626 Y-0.5641 Z-0.1217
N2030 X-3.4625 Y-0.5588 Z-0.1218
N2035 Y-0.3371 Z-0.1267
N2040 X-3.4626 Y-0.3357
N2045 X-3.4649 Y-0.3188 Z-0.1271
N2050 X-3.4669 Y-0.3139 Z-0.1272
N2055 X-3.4699 Y-0.31 Z-0.1273
N2060 X-3.4742 Y-0.3067 Z-0.1274
N2065 X-3.4786 Y-0.3049 Z-0.1276
N2070 X-3.4977 Y-0.3025 Z-0.128
N2075 X-5.1442 Y-0.3027 Z-0.1641
N2080 X-5.1594 Y-0.3045 Z-0.1645
N2085 X-5.1638 Y-0.3062 Z-0.1646
N2090 X-5.1678 Y-0.309 Z-0.1647
N2095 X-5.1883 Y-0.3323 Z-0.1654
N2100 G2 X-5.1925 Y-0.3367 Z-0.1655 I-0.074 J0.0653
N2105 G1 X-5.1982 Y-0.3424 Z-0.1657
N2110 G2 X-5.2039 Y-0.3476 Z-0.1658 I-0.0698 J0.0698
N2115 G1 X-5.2095 Y-0.3525 Z-0.166
N2120 G2 X-5.2151 Y-0.3569 Z-0.1662 I-0.0642 J0.0751
N2125 G1 X-5.2207 Y-0.361 Z-0.1663
N2130 G2 X-5.2281 Y-0.366 Z-0.1665 I-0.0586 J0.0795
N2135 G1 X-5.2376 Y-0.3717 Z-0.1668
N2140 G2 X-5.2483 Y-0.3773 Z-0.167 I-0.0511 J0.0845
N2145 G1 X-5.2602 Y-0.3827 Z-0.1673
N2150 G2 X-5.2701 Y-0.3865 Z-0.1675 I-0.0404 J0.0901
N2155 G1 X-5.278 Y-0.3891 Z-0.1677
N2160 G2 X-5.2859 Y-0.3913 Z-0.1679 I-0.0305 J0.0939
N2165 G1 X-5.2939 Y-0.3931 Z-0.1681
N2170 G2 X-5.3018 Y-0.3946 Z-0.1683 I-0.0226 J0.0961
N2175 G1 X-5.3097 Y-0.3958 Z-0.1684
N2180 G2 X-5.3176 Y-0.3967 Z-0.1686 I-0.0146 J0.0977
N2185 G1 X-5.3255 Y-0.3972 Z-0.1688
N2190 G2 X-5.3323 Y-0.3975 Z-0.1689 I-0.0067 J0.0985
N2195 G1 X-6.0743 Z-0.1852
N2200 X-6.0781 Y-0.398 Z-0.1853
N2205 X-6.0785 Y-0.4013 Z-0.1854
N2210 Y-0.4987 Z-0.1875
N2215 X-6.0781 Y-0.502 Z-0.1876
N2220 X-6.0743 Y-0.5025 Z-0.1877
N2225 X-6.0573 Z-0.1881
N2230 X-6.0434 Y-0.5012 Z-0.1884
N2235 X-6.0392 Y-0.5 Z-0.1885
N2240 X-6.0161 Y-0.489 Z-0.189
N2245 G2 X-6.0081 Y-0.4856 Z-0.1892 I0.0426 J-0.0891
N2250 G1 X-6.0002 Y-0.4826 Z-0.1894
N2255 G2 X-5.9923 Y-0.48 Z-0.1896 I0.0346 J-0.0925
N2260 G1 X-5.9844 Y-0.4778 Z-0.1898
N2265 G2 X-5.9765 Y-0.4759 Z-0.1899 I0.0267 J-0.0951
N2270 G1 X-5.9685 Y-0.4744 Z-0.1901
N2275 G2 X-5.9606 Y-0.4732 Z-0.1903 I0.0188 J-0.097
N2280 G1 X-5.9527 Y-0.4723 Z-0.1905
N2285 G2 X-5.9429 Y-0.4717 Z-0.1907 I0.0108 J-0.0982
N2290 G1 X-5.9191 Y-0.4715 Z-0.1912
N2295 G2 X-5.9181 I0.001 J-0.0987
N2300 G1 X-5.3322 Z-0.2041
N2305 G2 X-5.3255 Y-0.4718 Z-0.2043 I0. J-0.0987
N2310 G1 X-5.3176 Y-0.4723 Z-0.2044
N2315 G2 X-5.3097 Y-0.4732 Z-0.2046 I-0.0067 J-0.0985
N2320 G1 X-5.3018 Y-0.4744 Z-0.2048
N2325 G2 X-5.2939 Y-0.4759 Z-0.205 I-0.0146 J-0.0977
N2330 G1 X-5.2859 Y-0.4777 Z-0.2051
N2335 G2 X-5.278 Y-0.4799 Z-0.2053 I-0.0226 J-0.0961
N2340 G1 X-5.2701 Y-0.4825 Z-0.2055
N2345 G2 X-5.2602 Y-0.4863 Z-0.2057 I-0.0305 J-0.0939
N2350 G1 X-5.2483 Y-0.4917 Z-0.206
N2355 G2 X-5.2377 Y-0.4972 Z-0.2063 I-0.0404 J-0.0901
N2360 G1 X-5.2285 Y-0.5028 Z-0.2065
N2365 G2 X-5.2213 Y-0.5076 Z-0.2067 I-0.051 J-0.0846
N2370 G1 X-5.216 Y-0.5114 Z-0.2068
N2375 G2 X-5.2086 Y-0.5174 Z-0.2071 I-0.0582 J-0.0798
N2380 G1 X-5.1993 Y-0.5256 Z-0.2073
N2385 G2 X-5.1908 Y-0.5342 Z-0.2076 I-0.0656 J-0.0738
N2390 G1 X-5.1831 Y-0.5429 Z-0.2079
N2395 G2 X-5.1773 Y-0.5502 Z-0.2081 I-0.0741 J-0.0653
N2400 G1 X-5.1732 Y-0.5558 Z-0.2082
N2405 G2 X-5.1691 Y-0.5619 Z-0.2084 I-0.0799 J-0.058
N2410 G1 X-5.1526 Y-0.5886 Z-0.2091
N2415 X-5.1494 Y-0.5918 Z-0.2092
N2420 X-5.146 Y-0.594
N2425 X-5.1416 Y-0.5955 Z-0.2093
N2430 X-5.1262 Y-0.5974 Z-0.2097
N2435 X-5.1243 Y-0.5975
N2440 X-3.4978 Z-0.2455
N2445 X-3.4785 Y-0.5951 Z-0.2459
N2450 X-3.4742 Y-0.5933 Z-0.246
N2455 X-3.4698 Y-0.5899 Z-0.2461
N2460 X-3.4669 Y-0.5861 Z-0.2462
N2465 X-3.4661 Y-0.5842 Z-0.2463
N2470 X-3.4649 Y-0.5813
N2475 X-3.4626 Y-0.5641 Z-0.2467
N2480 X-3.4625 Y-0.5588 Z-0.2468
N2485 Y-0.4144 Z-0.25
N2490 Y-0.3371 F20.
N2495 X-3.4626 Y-0.3357
N2500 X-3.4649 Y-0.3188
N2505 X-3.4669 Y-0.3139
N2510 X-3.4699 Y-0.31
N2515 X-3.4742 Y-0.3067
N2520 X-3.4786 Y-0.3049
N2525 X-3.4977 Y-0.3025
N2530 X-5.1442 Y-0.3027
N2535 X-5.1594 Y-0.3045
N2540 X-5.1638 Y-0.3062
N2545 X-5.1678 Y-0.309
N2550 X-5.1883 Y-0.3323
N2555 G2 X-5.1925 Y-0.3367 I-0.074 J0.0653
N2560 G1 X-5.1982 Y-0.3424
N2565 G2 X-5.2039 Y-0.3476 I-0.0698 J0.0698
N2570 G1 X-5.2095 Y-0.3525
N2575 G2 X-5.2151 Y-0.3569 I-0.0642 J0.0751
N2580 G1 X-5.2207 Y-0.361
N2585 G2 X-5.2281 Y-0.366 I-0.0586 J0.0795
N2590 G1 X-5.2376 Y-0.3717
N2595 G2 X-5.2483 Y-0.3773 I-0.0511 J0.0845
N2600 G1 X-5.2602 Y-0.3827
N2605 G2 X-5.2701 Y-0.3865 I-0.0404 J0.0901
N2610 G1 X-5.278 Y-0.3891
N2615 G2 X-5.2859 Y-0.3913 I-0.0305 J0.0939
N2620 G1 X-5.2939 Y-0.3931
N2625 G2 X-5.3018 Y-0.3946 I-0.0226 J0.0961
N2630 G1 X-5.3097 Y-0.3958
N2635 G2 X-5.3176 Y-0.3967 I-0.0146 J0.0977
N2640 G1 X-5.3255 Y-0.3972
N2645 G2 X-5.3323 Y-0.3975 I-0.0067 J0.0985
N2650 G1 X-6.0743
N2655 X-6.0781 Y-0.398
N2660 X-6.0785 Y-0.4013
N2665 Y-0.4987
N2670 X-6.0781 Y-0.502
N2675 X-6.0743 Y-0.5025
N2680 X-6.0573
N2685 X-6.0434 Y-0.5012
N2690 X-6.0392 Y-0.5
N2695 X-6.0161 Y-0.489
N2700 G2 X-6.0081 Y-0.4856 I0.0426 J-0.0891
N2705 G1 X-6.0002 Y-0.4826
N2710 G2 X-5.9923 Y-0.48 I0.0346 J-0.0925
N2715 G1 X-5.9844 Y-0.4778
N2720 G2 X-5.9765 Y-0.4759 I0.0267 J-0.0951
N2725 G1 X-5.9685 Y-0.4744
N2730 G2 X-5.9606 Y-0.4732 I0.0188 J-0.097
N2735 G1 X-5.9527 Y-0.4723
N2740 G2 X-5.9429 Y-0.4717 I0.0108 J-0.0982
N2745 G1 X-5.9191 Y-0.4715
N2750 G2 X-5.9181 I0.001 J-0.0987
N2755 G1 X-5.3322
N2760 G2 X-5.3255 Y-0.4718 I0. J-0.0987
N2765 G1 X-5.3176 Y-0.4723
N2770 G2 X-5.3097 Y-0.4732 I-0.0067 J-0.0985
N2775 G1 X-5.3018 Y-0.4744
N2780 G2 X-5.2939 Y-0.4759 I-0.0146 J-0.0977
N2785 G1 X-5.2859 Y-0.4777
N2790 G2 X-5.278 Y-0.4799 I-0.0226 J-0.0961
N2795 G1 X-5.2701 Y-0.4825
N2800 G2 X-5.2602 Y-0.4863 I-0.0305 J-0.0939
N2805 G1 X-5.2483 Y-0.4917
N2810 G2 X-5.2377 Y-0.4972 I-0.0404 J-0.0901
N2815 G1 X-5.2285 Y-0.5028
N2820 G2 X-5.2213 Y-0.5076 I-0.051 J-0.0846
N2825 G1 X-5.216 Y-0.5114
N2830 G2 X-5.2086 Y-0.5174 I-0.0582 J-0.0798
N2835 G1 X-5.1993 Y-0.5256
N2840 G2 X-5.1908 Y-0.5342 I-0.0656 J-0.0738
N2845 G1 X-5.1831 Y-0.5429
N2850 G2 X-5.1773 Y-0.5502 I-0.0741 J-0.0653
N2855 G1 X-5.1732 Y-0.5558
N2860 G2 X-5.1691 Y-0.5619 I-0.0799 J-0.058
N2865 G1 X-5.1526 Y-0.5886
N2870 X-5.1494 Y-0.5918
N2875 X-5.146 Y-0.594
N2880 X-5.1416 Y-0.5955
N2885 X-5.1262 Y-0.5974
N2890 X-5.1243 Y-0.5975
N2895 X-3.4978
N2900 X-3.4785 Y-0.5951
N2905 X-3.4742 Y-0.5933
N2910 X-3.4698 Y-0.5899
N2915 X-3.4669 Y-0.5861
N2920 X-3.4661 Y-0.5842
N2925 X-3.4649 Y-0.5813
N2930 X-3.4626 Y-0.5641
N2935 X-3.4625 Y-0.5588
N2940 Y-0.4144
N2945 G3 X-3.4632 Y-0.4071 Z-0.2493 I-0.0375 J0. F2.
N2950 X-3.4652 Y-0.4004 Z-0.2471 I-0.0368 J-0.0073
N2955 X-3.4681 Y-0.3946 Z-0.2437 I-0.0348 J-0.014
N2960 X-3.4715 Y-0.39 Z-0.239 I-0.0319 J-0.0198
N2965 X-3.4747 Y-0.3867 Z-0.2333 I-0.0285 J-0.0244
N2970 X-3.4774 Y-0.3845 Z-0.2269 I-0.0253 J-0.0277
N2975 X-3.4791 Y-0.3832 Z-0.2198 I-0.0226 J-0.0299
N2980 X-3.4797 Y-0.3828 Z-0.2125 I-0.0209 J-0.0312
N2985 G0 Z0.2
N2990 X-3.6123 Y-0.5975
N2995 Z0.1644
N3000 G1 Z-0.0813 F1.
N3005 G18 G2 X-3.5756 Z-0.1187 I0.0375 K0. F4.
N3010 G1 X-3.4978 Z-0.1205
N3015 X-3.4785 Y-0.5951 Z-0.1209
N3020 X-3.4742 Y-0.5933 Z-0.121
N3025 X-3.4698 Y-0.5899 Z-0.1211
N3030 X-3.4669 Y-0.5861 Z-0.1212
N3035 X-3.4661 Y-0.5842 Z-0.1213
N3040 X-3.4649 Y-0.5813
N3045 X-3.4626 Y-0.5641 Z-0.1217
N3050 X-3.4625 Y-0.5588 Z-0.1218
N3055 Y-0.3371 Z-0.1267
N3060 X-3.4626 Y-0.3357
N3065 X-3.4649 Y-0.3188 Z-0.1271
N3070 X-3.4669 Y-0.3139 Z-0.1272
N3075 X-3.4699 Y-0.31 Z-0.1273
N3080 X-3.4742 Y-0.3067 Z-0.1274
N3085 X-3.4786 Y-0.3049 Z-0.1276
N3090 X-3.4977 Y-0.3025 Z-0.128
N3095 X-5.1442 Y-0.3027 Z-0.1641
N3100 X-5.1594 Y-0.3045 Z-0.1645
N3105 X-5.1638 Y-0.3062 Z-0.1646
N3110 X-5.1678 Y-0.309 Z-0.1647
N3115 X-5.1883 Y-0.3323 Z-0.1654
N3120 G17 G2 X-5.1925 Y-0.3367 Z-0.1655 I-0.074 J0.0653
N3125 G1 X-5.1982 Y-0.3424 Z-0.1657
N3130 G2 X-5.2039 Y-0.3476 Z-0.1658 I-0.0698 J0.0698
N3135 G1 X-5.2095 Y-0.3525 Z-0.166
N3140 G2 X-5.2151 Y-0.3569 Z-0.1662 I-0.0642 J0.0751
N3145 G1 X-5.2207 Y-0.361 Z-0.1663
N3150 G2 X-5.2281 Y-0.366 Z-0.1665 I-0.0586 J0.0795
N3155 G1 X-5.2376 Y-0.3717 Z-0.1668
N3160 G2 X-5.2483 Y-0.3773 Z-0.167 I-0.0511 J0.0845
N3165 G1 X-5.2602 Y-0.3827 Z-0.1673
N3170 G2 X-5.2701 Y-0.3865 Z-0.1675 I-0.0404 J0.0901
N3175 G1 X-5.278 Y-0.3891 Z-0.1677
N3180 G2 X-5.2859 Y-0.3913 Z-0.1679 I-0.0305 J0.0939
N3185 G1 X-5.2939 Y-0.3931 Z-0.1681
N3190 G2 X-5.3018 Y-0.3946 Z-0.1683 I-0.0226 J0.0961
N3195 G1 X-5.3097 Y-0.3958 Z-0.1684
N3200 G2 X-5.3176 Y-0.3967 Z-0.1686 I-0.0146 J0.0977
N3205 G1 X-5.3255 Y-0.3972 Z-0.1688
N3210 G2 X-5.3323 Y-0.3975 Z-0.1689 I-0.0067 J0.0985
N3215 G1 X-6.0743 Z-0.1852
N3220 X-6.0781 Y-0.398 Z-0.1853
N3225 X-6.0785 Y-0.4013 Z-0.1854
N3230 Y-0.4987 Z-0.1875
N3235 X-6.0781 Y-0.502 Z-0.1876
N3240 X-6.0743 Y-0.5025 Z-0.1877
N3245 X-6.0573 Z-0.1881
N3250 X-6.0434 Y-0.5012 Z-0.1884
N3255 X-6.0392 Y-0.5 Z-0.1885
N3260 X-6.0161 Y-0.489 Z-0.189
N3265 G2 X-6.0081 Y-0.4856 Z-0.1892 I0.0426 J-0.0891
N3270 G1 X-6.0002 Y-0.4826 Z-0.1894
N3275 G2 X-5.9923 Y-0.48 Z-0.1896 I0.0346 J-0.0925
N3280 G1 X-5.9844 Y-0.4778 Z-0.1898
N3285 G2 X-5.9765 Y-0.4759 Z-0.1899 I0.0267 J-0.0951
N3290 G1 X-5.9685 Y-0.4744 Z-0.1901
N3295 G2 X-5.9606 Y-0.4732 Z-0.1903 I0.0188 J-0.097
N3300 G1 X-5.9527 Y-0.4723 Z-0.1905
N3305 G2 X-5.9429 Y-0.4717 Z-0.1907 I0.0108 J-0.0982
N3310 G1 X-5.9191 Y-0.4715 Z-0.1912
N3315 G2 X-5.9181 I0.001 J-0.0987
N3320 G1 X-5.3322 Z-0.2041
N3325 G2 X-5.3255 Y-0.4718 Z-0.2043 I0. J-0.0987
N3330 G1 X-5.3176 Y-0.4723 Z-0.2044
N3335 G2 X-5.3097 Y-0.4732 Z-0.2046 I-0.0067 J-0.0985
N3340 G1 X-5.3018 Y-0.4744 Z-0.2048
N3345 G2 X-5.2939 Y-0.4759 Z-0.205 I-0.0146 J-0.0977
N3350 G1 X-5.2859 Y-0.4777 Z-0.2051
N3355 G2 X-5.278 Y-0.4799 Z-0.2053 I-0.0226 J-0.0961
N3360 G1 X-5.2701 Y-0.4825 Z-0.2055
N3365 G2 X-5.2602 Y-0.4863 Z-0.2057 I-0.0305 J-0.0939
N3370 G1 X-5.2483 Y-0.4917 Z-0.206
N3375 G2 X-5.2377 Y-0.4972 Z-0.2063 I-0.0404 J-0.0901
N3380 G1 X-5.2285 Y-0.5028 Z-0.2065
N3385 G2 X-5.2213 Y-0.5076 Z-0.2067 I-0.051 J-0.0846
N3390 G1 X-5.216 Y-0.5114 Z-0.2068
N3395 G2 X-5.2086 Y-0.5174 Z-0.2071 I-0.0582 J-0.0798
N3400 G1 X-5.1993 Y-0.5256 Z-0.2073
N3405 G2 X-5.1908 Y-0.5342 Z-0.2076 I-0.0656 J-0.0738
N3410 G1 X-5.1831 Y-0.5429 Z-0.2079
N3415 G2 X-5.1773 Y-0.5502 Z-0.2081 I-0.0741 J-0.0653
N3420 G1 X-5.1732 Y-0.5558 Z-0.2082
N3425 G2 X-5.1691 Y-0.5619 Z-0.2084 I-0.0799 J-0.058
N3430 G1 X-5.1526 Y-0.5886 Z-0.2091
N3435 X-5.1494 Y-0.5918 Z-0.2092
N3440 X-5.146 Y-0.594
N3445 X-5.1416 Y-0.5955 Z-0.2093
N3450 X-5.1262 Y-0.5974 Z-0.2097
N3455 X-5.1243 Y-0.5975
N3460 X-3.4978 Z-0.2455
N3465 X-3.4785 Y-0.5951 Z-0.2459
N3470 X-3.4742 Y-0.5933 Z-0.246
N3475 X-3.4698 Y-0.5899 Z-0.2461
N3480 X-3.4669 Y-0.5861 Z-0.2462
N3485 X-3.4661 Y-0.5842 Z-0.2463
N3490 X-3.4649 Y-0.5813
N3495 X-3.4626 Y-0.5641 Z-0.2467
N3500 X-3.4625 Y-0.5588 Z-0.2468
N3505 Y-0.3371 Z-0.2517
N3510 X-3.4626 Y-0.3357
N3515 X-3.4649 Y-0.3188 Z-0.2521
N3520 X-3.4669 Y-0.3139 Z-0.2522
N3525 X-3.4699 Y-0.31 Z-0.2523
N3530 X-3.4742 Y-0.3067 Z-0.2524
N3535 X-3.4786 Y-0.3049 Z-0.2526
N3540 X-3.4977 Y-0.3025 Z-0.253
N3545 X-5.1442 Y-0.3027 Z-0.2891
N3550 X-5.1594 Y-0.3045 Z-0.2895
N3555 X-5.1638 Y-0.3062 Z-0.2896
N3560 X-5.1678 Y-0.309 Z-0.2897
N3565 X-5.1883 Y-0.3323 Z-0.2904
N3570 G2 X-5.1925 Y-0.3367 Z-0.2905 I-0.074 J0.0653
N3575 G1 X-5.1982 Y-0.3424 Z-0.2907
N3580 G2 X-5.2039 Y-0.3476 Z-0.2908 I-0.0698 J0.0698
N3585 G1 X-5.2095 Y-0.3525 Z-0.291
N3590 G2 X-5.2151 Y-0.3569 Z-0.2912 I-0.0642 J0.0751
N3595 G1 X-5.2207 Y-0.361 Z-0.2913
N3600 G2 X-5.2281 Y-0.366 Z-0.2915 I-0.0586 J0.0795
N3605 G1 X-5.2376 Y-0.3717 Z-0.2918
N3610 G2 X-5.2483 Y-0.3773 Z-0.292 I-0.0511 J0.0845
N3615 G1 X-5.2602 Y-0.3827 Z-0.2923
N3620 G2 X-5.2701 Y-0.3865 Z-0.2925 I-0.0404 J0.0901
N3625 G1 X-5.278 Y-0.3891 Z-0.2927
N3630 G2 X-5.2859 Y-0.3913 Z-0.2929 I-0.0305 J0.0939
N3635 G1 X-5.2939 Y-0.3931 Z-0.2931
N3640 G2 X-5.3018 Y-0.3946 Z-0.2933 I-0.0226 J0.0961
N3645 G1 X-5.3097 Y-0.3958 Z-0.2934
N3650 G2 X-5.3176 Y-0.3967 Z-0.2936 I-0.0146 J0.0977
N3655 G1 X-5.3255 Y-0.3972 Z-0.2938
N3660 G2 X-5.3323 Y-0.3975 Z-0.2939 I-0.0067 J0.0985
N3665 G1 X-6.0743 Z-0.3102
N3670 X-6.0781 Y-0.398 Z-0.3103
N3675 X-6.0785 Y-0.4013 Z-0.3104
N3680 Y-0.4987 Z-0.3125
N3685 X-6.0781 Y-0.502 Z-0.3126
N3690 X-6.0743 Y-0.5025 Z-0.3127
N3695 X-6.0573 Z-0.3131
N3700 X-6.0434 Y-0.5012 Z-0.3134
N3705 X-6.0392 Y-0.5 Z-0.3135
N3710 X-6.0161 Y-0.489 Z-0.314
N3715 G2 X-6.0081 Y-0.4856 Z-0.3142 I0.0426 J-0.0891
N3720 G1 X-6.0002 Y-0.4826 Z-0.3144
N3725 G2 X-5.9923 Y-0.48 Z-0.3146 I0.0346 J-0.0925
N3730 G1 X-5.9844 Y-0.4778 Z-0.3148
N3735 G2 X-5.9765 Y-0.4759 Z-0.3149 I0.0267 J-0.0951
N3740 G1 X-5.9685 Y-0.4744 Z-0.3151
N3745 G2 X-5.9606 Y-0.4732 Z-0.3153 I0.0188 J-0.097
N3750 G1 X-5.9527 Y-0.4723 Z-0.3155
N3755 G2 X-5.9429 Y-0.4717 Z-0.3157 I0.0108 J-0.0982
N3760 G1 X-5.9191 Y-0.4715 Z-0.3162
N3765 G2 X-5.9181 I0.001 J-0.0987
N3770 G1 X-5.3322 Z-0.3291
N3775 G2 X-5.3255 Y-0.4718 Z-0.3293 I0. J-0.0987
N3780 G1 X-5.3176 Y-0.4723 Z-0.3294
N3785 G2 X-5.3097 Y-0.4732 Z-0.3296 I-0.0067 J-0.0985
N3790 G1 X-5.3018 Y-0.4744 Z-0.3298
N3795 G2 X-5.2939 Y-0.4759 Z-0.33 I-0.0146 J-0.0977
N3800 G1 X-5.2859 Y-0.4777 Z-0.3301
N3805 G2 X-5.278 Y-0.4799 Z-0.3303 I-0.0226 J-0.0961
N3810 G1 X-5.2701 Y-0.4825 Z-0.3305
N3815 G2 X-5.2602 Y-0.4863 Z-0.3307 I-0.0305 J-0.0939
N3820 G1 X-5.2483 Y-0.4917 Z-0.331
N3825 G2 X-5.2377 Y-0.4972 Z-0.3313 I-0.0404 J-0.0901
N3830 G1 X-5.2285 Y-0.5028 Z-0.3315
N3835 G2 X-5.2213 Y-0.5076 Z-0.3317 I-0.051 J-0.0846
N3840 G1 X-5.216 Y-0.5114 Z-0.3318
N3845 G2 X-5.2086 Y-0.5174 Z-0.3321 I-0.0582 J-0.0798
N3850 G1 X-5.1993 Y-0.5256 Z-0.3323
N3855 G2 X-5.1908 Y-0.5342 Z-0.3326 I-0.0656 J-0.0738
N3860 G1 X-5.1831 Y-0.5429 Z-0.3329
N3865 G2 X-5.1773 Y-0.5502 Z-0.3331 I-0.0741 J-0.0653
N3870 G1 X-5.1732 Y-0.5558 Z-0.3332
N3875 G2 X-5.1691 Y-0.5619 Z-0.3334 I-0.0799 J-0.058
N3880 G1 X-5.1526 Y-0.5886 Z-0.3341
N3885 X-5.1494 Y-0.5918 Z-0.3342
N3890 X-5.146 Y-0.594
N3895 X-5.1416 Y-0.5955 Z-0.3343
N3900 X-5.1262 Y-0.5974 Z-0.3347
N3905 X-5.1243 Y-0.5975
N3910 X-3.4978 Z-0.3705
N3915 X-3.4785 Y-0.5951 Z-0.3709
N3920 X-3.4742 Y-0.5933 Z-0.371
N3925 X-3.4698 Y-0.5899 Z-0.3711
N3930 X-3.4669 Y-0.5861 Z-0.3712
N3935 X-3.4661 Y-0.5842 Z-0.3713
N3940 X-3.4649 Y-0.5813
N3945 X-3.4626 Y-0.5641 Z-0.3717
N3950 X-3.4625 Y-0.5588 Z-0.3718
N3955 Y-0.4144 Z-0.375
N3960 Y-0.3371 F20.
N3965 X-3.4626 Y-0.3357
N3970 X-3.4649 Y-0.3188
N3975 X-3.4669 Y-0.3139
N3980 X-3.4699 Y-0.31
N3985 X-3.4742 Y-0.3067
N3990 X-3.4786 Y-0.3049
N3995 X-3.4977 Y-0.3025
N4000 X-5.1442 Y-0.3027
N4005 X-5.1594 Y-0.3045
N4010 X-5.1638 Y-0.3062
N4015 X-5.1678 Y-0.309
N4020 X-5.1883 Y-0.3323
N4025 G2 X-5.1925 Y-0.3367 I-0.074 J0.0653
N4030 G1 X-5.1982 Y-0.3424
N4035 G2 X-5.2039 Y-0.3476 I-0.0698 J0.0698
N4040 G1 X-5.2095 Y-0.3525
N4045 G2 X-5.2151 Y-0.3569 I-0.0642 J0.0751
N4050 G1 X-5.2207 Y-0.361
N4055 G2 X-5.2281 Y-0.366 I-0.0586 J0.0795
N4060 G1 X-5.2376 Y-0.3717
N4065 G2 X-5.2483 Y-0.3773 I-0.0511 J0.0845
N4070 G1 X-5.2602 Y-0.3827
N4075 G2 X-5.2701 Y-0.3865 I-0.0404 J0.0901
N4080 G1 X-5.278 Y-0.3891
N4085 G2 X-5.2859 Y-0.3913 I-0.0305 J0.0939
N4090 G1 X-5.2939 Y-0.3931
N4095 G2 X-5.3018 Y-0.3946 I-0.0226 J0.0961
N4100 G1 X-5.3097 Y-0.3958
N4105 G2 X-5.3176 Y-0.3967 I-0.0146 J0.0977
N4110 G1 X-5.3255 Y-0.3972
N4115 G2 X-5.3323 Y-0.3975 I-0.0067 J0.0985
N4120 G1 X-6.0743
N4125 X-6.0781 Y-0.398
N4130 X-6.0785 Y-0.4013
N4135 Y-0.4987
N4140 X-6.0781 Y-0.502
N4145 X-6.0743 Y-0.5025
N4150 X-6.0573
N4155 X-6.0434 Y-0.5012
N4160 X-6.0392 Y-0.5
N4165 X-6.0161 Y-0.489
N4170 G2 X-6.0081 Y-0.4856 I0.0426 J-0.0891
N4175 G1 X-6.0002 Y-0.4826
N4180 G2 X-5.9923 Y-0.48 I0.0346 J-0.0925
N4185 G1 X-5.9844 Y-0.4778
N4190 G2 X-5.9765 Y-0.4759 I0.0267 J-0.0951
N4195 G1 X-5.9685 Y-0.4744
N4200 G2 X-5.9606 Y-0.4732 I0.0188 J-0.097
N4205 G1 X-5.9527 Y-0.4723
N4210 G2 X-5.9429 Y-0.4717 I0.0108 J-0.0982
N4215 G1 X-5.9191 Y-0.4715
N4220 G2 X-5.9181 I0.001 J-0.0987
N4225 G1 X-5.3322
N4230 G2 X-5.3255 Y-0.4718 I0. J-0.0987
N4235 G1 X-5.3176 Y-0.4723
N4240 G2 X-5.3097 Y-0.4732 I-0.0067 J-0.0985
N4245 G1 X-5.3018 Y-0.4744
N4250 G2 X-5.2939 Y-0.4759 I-0.0146 J-0.0977
N4255 G1 X-5.2859 Y-0.4777
N4260 G2 X-5.278 Y-0.4799 I-0.0226 J-0.0961
N4265 G1 X-5.2701 Y-0.4825
N4270 G2 X-5.2602 Y-0.4863 I-0.0305 J-0.0939
N4275 G1 X-5.2483 Y-0.4917
N4280 G2 X-5.2377 Y-0.4972 I-0.0404 J-0.0901
N4285 G1 X-5.2285 Y-0.5028
N4290 G2 X-5.2213 Y-0.5076 I-0.051 J-0.0846
N4295 G1 X-5.216 Y-0.5114
N4300 G2 X-5.2086 Y-0.5174 I-0.0582 J-0.0798
N4305 G1 X-5.1993 Y-0.5256
N4310 G2 X-5.1908 Y-0.5342 I-0.0656 J-0.0738
N4315 G1 X-5.1831 Y-0.5429
N4320 G2 X-5.1773 Y-0.5502 I-0.0741 J-0.0653
N4325 G1 X-5.1732 Y-0.5558
N4330 G2 X-5.1691 Y-0.5619 I-0.0799 J-0.058
N4335 G1 X-5.1526 Y-0.5886
N4340 X-5.1494 Y-0.5918
N4345 X-5.146 Y-0.594
N4350 X-5.1416 Y-0.5955
N4355 X-5.1262 Y-0.5974
N4360 X-5.1243 Y-0.5975
N4365 X-3.4978
N4370 X-3.4785 Y-0.5951
N4375 X-3.4742 Y-0.5933
N4380 X-3.4698 Y-0.5899
N4385 X-3.4669 Y-0.5861
N4390 X-3.4661 Y-0.5842
N4395 X-3.4649 Y-0.5813
N4400 X-3.4626 Y-0.5641
N4405 X-3.4625 Y-0.5588
N4410 Y-0.4144
N4415 G3 X-3.4632 Y-0.4071 Z-0.3743 I-0.0375 J0. F2.
N4420 X-3.4652 Y-0.4004 Z-0.3721 I-0.0368 J-0.0073
N4425 X-3.4681 Y-0.3946 Z-0.3687 I-0.0348 J-0.014
N4430 X-3.4715 Y-0.39 Z-0.364 I-0.0319 J-0.0198
N4435 X-3.4747 Y-0.3867 Z-0.3583 I-0.0285 J-0.0244
N4440 X-3.4774 Y-0.3845 Z-0.3519 I-0.0253 J-0.0277
N4445 X-3.4791 Y-0.3832 Z-0.3448 I-0.0226 J-0.0299
N4450 X-3.4797 Y-0.3828 Z-0.3375 I-0.0209 J-0.0312
N4455 G0 Z0.2
N4460 X-3.6123 Y-0.5975
N4465 G1 Z-0.2063 F1.
N4470 G18 G2 X-3.5756 Z-0.2437 I0.0375 K0. F4.
N4475 G1 X-3.4978 Z-0.2455
N4480 X-3.4785 Y-0.5951 Z-0.2459
N4485 X-3.4742 Y-0.5933 Z-0.246
N4490 X-3.4698 Y-0.5899 Z-0.2461
N4495 X-3.4669 Y-0.5861 Z-0.2462
N4500 X-3.4661 Y-0.5842 Z-0.2463
N4505 X-3.4649 Y-0.5813
N4510 X-3.4626 Y-0.5641 Z-0.2467
N4515 X-3.4625 Y-0.5588 Z-0.2468
N4520 Y-0.3371 Z-0.2517
N4525 X-3.4626 Y-0.3357
N4530 X-3.4649 Y-0.3188 Z-0.2521
N4535 X-3.4669 Y-0.3139 Z-0.2522
N4540 X-3.4699 Y-0.31 Z-0.2523
N4545 X-3.4742 Y-0.3067 Z-0.2524
N4550 X-3.4786 Y-0.3049 Z-0.2526
N4555 X-3.4977 Y-0.3025 Z-0.253
N4560 X-5.1442 Y-0.3027 Z-0.2891
N4565 X-5.1594 Y-0.3045 Z-0.2895
N4570 X-5.1638 Y-0.3062 Z-0.2896
N4575 X-5.1678 Y-0.309 Z-0.2897
N4580 X-5.1883 Y-0.3323 Z-0.2904
N4585 G17 G2 X-5.1925 Y-0.3367 Z-0.2905 I-0.074 J0.0653
N4590 G1 X-5.1982 Y-0.3424 Z-0.2907
N4595 G2 X-5.2039 Y-0.3476 Z-0.2908 I-0.0698 J0.0698
N4600 G1 X-5.2095 Y-0.3525 Z-0.291
N4605 G2 X-5.2151 Y-0.3569 Z-0.2912 I-0.0642 J0.0751
N4610 G1 X-5.2207 Y-0.361 Z-0.2913
N4615 G2 X-5.2281 Y-0.366 Z-0.2915 I-0.0586 J0.0795
N4620 G1 X-5.2376 Y-0.3717 Z-0.2918
N4625 G2 X-5.2483 Y-0.3773 Z-0.292 I-0.0511 J0.0845
N4630 G1 X-5.2602 Y-0.3827 Z-0.2923
N4635 G2 X-5.2701 Y-0.3865 Z-0.2925 I-0.0404 J0.0901
N4640 G1 X-5.278 Y-0.3891 Z-0.2927
N4645 G2 X-5.2859 Y-0.3913 Z-0.2929 I-0.0305 J0.0939
N4650 G1 X-5.2939 Y-0.3931 Z-0.2931
N4655 G2 X-5.3018 Y-0.3946 Z-0.2933 I-0.0226 J0.0961
N4660 G1 X-5.3097 Y-0.3958 Z-0.2934
N4665 G2 X-5.3176 Y-0.3967 Z-0.2936 I-0.0146 J0.0977
N4670 G1 X-5.3255 Y-0.3972 Z-0.2938
N4675 G2 X-5.3323 Y-0.3975 Z-0.2939 I-0.0067 J0.0985
N4680 G1 X-6.0743 Z-0.3102
N4685 X-6.0781 Y-0.398 Z-0.3103
N4690 X-6.0785 Y-0.4013 Z-0.3104
N4695 Y-0.4987 Z-0.3125
N4700 X-6.0781 Y-0.502 Z-0.3126
N4705 X-6.0743 Y-0.5025 Z-0.3127
N4710 X-6.0573 Z-0.3131
N4715 X-6.0434 Y-0.5012 Z-0.3134
N4720 X-6.0392 Y-0.5 Z-0.3135
N4725 X-6.0161 Y-0.489 Z-0.314
N4730 G2 X-6.0081 Y-0.4856 Z-0.3142 I0.0426 J-0.0891
N4735 G1 X-6.0002 Y-0.4826 Z-0.3144
N4740 G2 X-5.9923 Y-0.48 Z-0.3146 I0.0346 J-0.0925
N4745 G1 X-5.9844 Y-0.4778 Z-0.3148
N4750 G2 X-5.9765 Y-0.4759 Z-0.3149 I0.0267 J-0.0951
N4755 G1 X-5.9685 Y-0.4744 Z-0.3151
N4760 G2 X-5.9606 Y-0.4732 Z-0.3153 I0.0188 J-0.097
N4765 G1 X-5.9527 Y-0.4723 Z-0.3155
N4770 G2 X-5.9429 Y-0.4717 Z-0.3157 I0.0108 J-0.0982
N4775 G1 X-5.9191 Y-0.4715 Z-0.3162
N4780 G2 X-5.9181 I0.001 J-0.0987
N4785 G1 X-5.3322 Z-0.3291
N4790 G2 X-5.3255 Y-0.4718 Z-0.3293 I0. J-0.0987
N4795 G1 X-5.3176 Y-0.4723 Z-0.3294
N4800 G2 X-5.3097 Y-0.4732 Z-0.3296 I-0.0067 J-0.0985
N4805 G1 X-5.3018 Y-0.4744 Z-0.3298
N4810 G2 X-5.2939 Y-0.4759 Z-0.33 I-0.0146 J-0.0977
N4815 G1 X-5.2859 Y-0.4777 Z-0.3301
N4820 G2 X-5.278 Y-0.4799 Z-0.3303 I-0.0226 J-0.0961
N4825 G1 X-5.2701 Y-0.4825 Z-0.3305
N4830 G2 X-5.2602 Y-0.4863 Z-0.3307 I-0.0305 J-0.0939
N4835 G1 X-5.2483 Y-0.4917 Z-0.331
N4840 G2 X-5.2377 Y-0.4972 Z-0.3313 I-0.0404 J-0.0901
N4845 G1 X-5.2285 Y-0.5028 Z-0.3315
N4850 G2 X-5.2213 Y-0.5076 Z-0.3317 I-0.051 J-0.0846
N4855 G1 X-5.216 Y-0.5114 Z-0.3318
N4860 G2 X-5.2086 Y-0.5174 Z-0.3321 I-0.0582 J-0.0798
N4865 G1 X-5.1993 Y-0.5256 Z-0.3323
N4870 G2 X-5.1908 Y-0.5342 Z-0.3326 I-0.0656 J-0.0738
N4875 G1 X-5.1831 Y-0.5429 Z-0.3329
N4880 G2 X-5.1773 Y-0.5502 Z-0.3331 I-0.0741 J-0.0653
N4885 G1 X-5.1732 Y-0.5558 Z-0.3332
N4890 G2 X-5.1691 Y-0.5619 Z-0.3334 I-0.0799 J-0.058
N4895 G1 X-5.1526 Y-0.5886 Z-0.3341
N4900 X-5.1494 Y-0.5918 Z-0.3342
N4905 X-5.146 Y-0.594
N4910 X-5.1416 Y-0.5955 Z-0.3343
N4915 X-5.1262 Y-0.5974 Z-0.3347
N4920 X-5.1243 Y-0.5975
N4925 X-3.4978 Z-0.3705
N4930 X-3.4785 Y-0.5951 Z-0.3709
N4935 X-3.4742 Y-0.5933 Z-0.371
N4940 X-3.4698 Y-0.5899 Z-0.3711
N4945 X-3.4669 Y-0.5861 Z-0.3712
N4950 X-3.4661 Y-0.5842 Z-0.3713
N4955 X-3.4649 Y-0.5813
N4960 X-3.4626 Y-0.5641 Z-0.3717
N4965 X-3.4625 Y-0.5588 Z-0.3718
N4970 Y-0.3371 Z-0.3767
N4975 X-3.4626 Y-0.3357
N4980 X-3.4649 Y-0.3188 Z-0.3771
N4985 X-3.4669 Y-0.3139 Z-0.3772
N4990 X-3.4699 Y-0.31 Z-0.3773
N4995 X-3.4742 Y-0.3067 Z-0.3774
N5000 X-3.4786 Y-0.3049 Z-0.3776
N5005 X-3.4977 Y-0.3025 Z-0.378
N5010 X-5.1442 Y-0.3027 Z-0.4141
N5015 X-5.1594 Y-0.3045 Z-0.4145
N5020 X-5.1638 Y-0.3062 Z-0.4146
N5025 X-5.1678 Y-0.309 Z-0.4147
N5030 X-5.1883 Y-0.3323 Z-0.4154
N5035 G2 X-5.1925 Y-0.3367 Z-0.4155 I-0.074 J0.0653
N5040 G1 X-5.1982 Y-0.3424 Z-0.4157
N5045 G2 X-5.2039 Y-0.3476 Z-0.4158 I-0.0698 J0.0698
N5050 G1 X-5.2095 Y-0.3525 Z-0.416
N5055 G2 X-5.2151 Y-0.3569 Z-0.4162 I-0.0642 J0.0751
N5060 G1 X-5.2207 Y-0.361 Z-0.4163
N5065 G2 X-5.2281 Y-0.366 Z-0.4165 I-0.0586 J0.0795
N5070 G1 X-5.2376 Y-0.3717 Z-0.4168
N5075 G2 X-5.2483 Y-0.3773 Z-0.417 I-0.0511 J0.0845
N5080 G1 X-5.2602 Y-0.3827 Z-0.4173
N5085 G2 X-5.2701 Y-0.3865 Z-0.4175 I-0.0404 J0.0901
N5090 G1 X-5.278 Y-0.3891 Z-0.4177
N5095 G2 X-5.2859 Y-0.3913 Z-0.4179 I-0.0305 J0.0939
N5100 G1 X-5.2939 Y-0.3931 Z-0.4181
N5105 G2 X-5.3018 Y-0.3946 Z-0.4183 I-0.0226 J0.0961
N5110 G1 X-5.3097 Y-0.3958 Z-0.4184
N5115 G2 X-5.3176 Y-0.3967 Z-0.4186 I-0.0146 J0.0977
N5120 G1 X-5.3255 Y-0.3972 Z-0.4188
N5125 G2 X-5.3323 Y-0.3975 Z-0.4189 I-0.0067 J0.0985
N5130 G1 X-6.0743 Z-0.4352
N5135 X-6.0781 Y-0.398 Z-0.4353
N5140 X-6.0785 Y-0.4013 Z-0.4354
N5145 Y-0.4987 Z-0.4375
N5150 X-6.0781 Y-0.502 Z-0.4376
N5155 X-6.0743 Y-0.5025 Z-0.4377
N5160 X-6.0573 Z-0.4381
N5165 X-6.0434 Y-0.5012 Z-0.4384
N5170 X-6.0392 Y-0.5 Z-0.4385
N5175 X-6.0161 Y-0.489 Z-0.439
N5180 G2 X-6.0081 Y-0.4856 Z-0.4392 I0.0426 J-0.0891
N5185 G1 X-6.0002 Y-0.4826 Z-0.4394
N5190 G2 X-5.9923 Y-0.48 Z-0.4396 I0.0346 J-0.0925
N5195 G1 X-5.9844 Y-0.4778 Z-0.4398
N5200 G2 X-5.9765 Y-0.4759 Z-0.4399 I0.0267 J-0.0951
N5205 G1 X-5.9685 Y-0.4744 Z-0.4401
N5210 G2 X-5.9606 Y-0.4732 Z-0.4403 I0.0188 J-0.097
N5215 G1 X-5.9527 Y-0.4723 Z-0.4405
N5220 G2 X-5.9429 Y-0.4717 Z-0.4407 I0.0108 J-0.0982
N5225 G1 X-5.9191 Y-0.4715 Z-0.4412
N5230 G2 X-5.9181 I0.001 J-0.0987
N5235 G1 X-5.3322 Z-0.4541
N5240 G2 X-5.3255 Y-0.4718 Z-0.4543 I0. J-0.0987
N5245 G1 X-5.3176 Y-0.4723 Z-0.4544
N5250 G2 X-5.3097 Y-0.4732 Z-0.4546 I-0.0067 J-0.0985
N5255 G1 X-5.3018 Y-0.4744 Z-0.4548
N5260 G2 X-5.2939 Y-0.4759 Z-0.455 I-0.0146 J-0.0977
N5265 G1 X-5.2859 Y-0.4777 Z-0.4551
N5270 G2 X-5.278 Y-0.4799 Z-0.4553 I-0.0226 J-0.0961
N5275 G1 X-5.2701 Y-0.4825 Z-0.4555
N5280 G2 X-5.2602 Y-0.4863 Z-0.4557 I-0.0305 J-0.0939
N5285 G1 X-5.2483 Y-0.4917 Z-0.456
N5290 G2 X-5.2377 Y-0.4972 Z-0.4563 I-0.0404 J-0.0901
N5295 G1 X-5.2285 Y-0.5028 Z-0.4565
N5300 G2 X-5.2213 Y-0.5076 Z-0.4567 I-0.051 J-0.0846
N5305 G1 X-5.216 Y-0.5114 Z-0.4568
N5310 G2 X-5.2086 Y-0.5174 Z-0.4571 I-0.0582 J-0.0798
N5315 G1 X-5.1993 Y-0.5256 Z-0.4573
N5320 G2 X-5.1908 Y-0.5342 Z-0.4576 I-0.0656 J-0.0738
N5325 G1 X-5.1831 Y-0.5429 Z-0.4579
N5330 G2 X-5.1773 Y-0.5502 Z-0.4581 I-0.0741 J-0.0653
N5335 G1 X-5.1732 Y-0.5558 Z-0.4582
N5340 G2 X-5.1691 Y-0.5619 Z-0.4584 I-0.0799 J-0.058
N5345 G1 X-5.1526 Y-0.5886 Z-0.4591
N5350 X-5.1494 Y-0.5918 Z-0.4592
N5355 X-5.146 Y-0.594
N5360 X-5.1416 Y-0.5955 Z-0.4593
N5365 X-5.1262 Y-0.5974 Z-0.4597
N5370 X-5.1243 Y-0.5975
N5375 X-3.4978 Z-0.4955
N5380 X-3.4785 Y-0.5951 Z-0.4959
N5385 X-3.4742 Y-0.5933 Z-0.496
N5390 X-3.4698 Y-0.5899 Z-0.4961
N5395 X-3.4669 Y-0.5861 Z-0.4962
N5400 X-3.4661 Y-0.5842 Z-0.4963
N5405 X-3.4649 Y-0.5813
N5410 X-3.4626 Y-0.5641 Z-0.4967
N5415 X-3.4625 Y-0.5588 Z-0.4968
N5420 Y-0.4144 Z-0.5
N5425 Y-0.3371 F20.
N5430 X-3.4626 Y-0.3357
N5435 X-3.4649 Y-0.3188
N5440 X-3.4669 Y-0.3139
N5445 X-3.4699 Y-0.31
N5450 X-3.4742 Y-0.3067
N5455 X-3.4786 Y-0.3049
N5460 X-3.4977 Y-0.3025
N5465 X-5.1442 Y-0.3027
N5470 X-5.1594 Y-0.3045
N5475 X-5.1638 Y-0.3062
N5480 X-5.1678 Y-0.309
N5485 X-5.1883 Y-0.3323
N5490 G2 X-5.1925 Y-0.3367 I-0.074 J0.0653
N5495 G1 X-5.1982 Y-0.3424
N5500 G2 X-5.2039 Y-0.3476 I-0.0698 J0.0698
N5505 G1 X-5.2095 Y-0.3525
N5510 G2 X-5.2151 Y-0.3569 I-0.0642 J0.0751
N5515 G1 X-5.2207 Y-0.361
N5520 G2 X-5.2281 Y-0.366 I-0.0586 J0.0795
N5525 G1 X-5.2376 Y-0.3717
N5530 G2 X-5.2483 Y-0.3773 I-0.0511 J0.0845
N5535 G1 X-5.2602 Y-0.3827
N5540 G2 X-5.2701 Y-0.3865 I-0.0404 J0.0901
N5545 G1 X-5.278 Y-0.3891
N5550 G2 X-5.2859 Y-0.3913 I-0.0305 J0.0939
N5555 G1 X-5.2939 Y-0.3931
N5560 G2 X-5.3018 Y-0.3946 I-0.0226 J0.0961
N5565 G1 X-5.3097 Y-0.3958
N5570 G2 X-5.3176 Y-0.3967 I-0.0146 J0.0977
N5575 G1 X-5.3255 Y-0.3972
N5580 G2 X-5.3323 Y-0.3975 I-0.0067 J0.0985
N5585 G1 X-6.0743
N5590 X-6.0781 Y-0.398
N5595 X-6.0785 Y-0.4013
N5600 Y-0.4987
N5605 X-6.0781 Y-0.502
N5610 X-6.0743 Y-0.5025
N5615 X-6.0573
N5620 X-6.0434 Y-0.5012
N5625 X-6.0392 Y-0.5
N5630 X-6.0161 Y-0.489
N5635 G2 X-6.0081 Y-0.4856 I0.0426 J-0.0891
N5640 G1 X-6.0002 Y-0.4826
N5645 G2 X-5.9923 Y-0.48 I0.0346 J-0.0925
N5650 G1 X-5.9844 Y-0.4778
N5655 G2 X-5.9765 Y-0.4759 I0.0267 J-0.0951
N5660 G1 X-5.9685 Y-0.4744
N5665 G2 X-5.9606 Y-0.4732 I0.0188 J-0.097
N5670 G1 X-5.9527 Y-0.4723
N5675 G2 X-5.9429 Y-0.4717 I0.0108 J-0.0982
N5680 G1 X-5.9191 Y-0.4715
N5685 G2 X-5.9181 I0.001 J-0.0987
N5690 G1 X-5.3322
N5695 G2 X-5.3255 Y-0.4718 I0. J-0.0987
N5700 G1 X-5.3176 Y-0.4723
N5705 G2 X-5.3097 Y-0.4732 I-0.0067 J-0.0985
N5710 G1 X-5.3018 Y-0.4744
N5715 G2 X-5.2939 Y-0.4759 I-0.0146 J-0.0977
N5720 G1 X-5.2859 Y-0.4777
N5725 G2 X-5.278 Y-0.4799 I-0.0226 J-0.0961
N5730 G1 X-5.2701 Y-0.4825
N5735 G2 X-5.2602 Y-0.4863 I-0.0305 J-0.0939
N5740 G1 X-5.2483 Y-0.4917
N5745 G2 X-5.2377 Y-0.4972 I-0.0404 J-0.0901
N5750 G1 X-5.2285 Y-0.5028
N5755 G2 X-5.2213 Y-0.5076 I-0.051 J-0.0846
N5760 G1 X-5.216 Y-0.5114
N5765 G2 X-5.2086 Y-0.5174 I-0.0582 J-0.0798
N5770 G1 X-5.1993 Y-0.5256
N5775 G2 X-5.1908 Y-0.5342 I-0.0656 J-0.0738
N5780 G1 X-5.1831 Y-0.5429
N5785 G2 X-5.1773 Y-0.5502 I-0.0741 J-0.0653
N5790 G1 X-5.1732 Y-0.5558
N5795 G2 X-5.1691 Y-0.5619 I-0.0799 J-0.058
N5800 G1 X-5.1526 Y-0.5886
N5805 X-5.1494 Y-0.5918
N5810 X-5.146 Y-0.594
N5815 X-5.1416 Y-0.5955
N5820 X-5.1262 Y-0.5974
N5825 X-5.1243 Y-0.5975
N5830 X-3.4978
N5835 X-3.4785 Y-0.5951
N5840 X-3.4742 Y-0.5933
N5845 X-3.4698 Y-0.5899
N5850 X-3.4669 Y-0.5861
N5855 X-3.4661 Y-0.5842
N5860 X-3.4649 Y-0.5813
N5865 X-3.4626 Y-0.5641
N5870 X-3.4625 Y-0.5588
N5875 Y-0.4144
N5880 G3 X-3.4831 Y-0.3957 I-0.0187 J0.
N5885 G1 X-5.1393 Y-0.5586
N5890 G3 X-5.1508 Y-0.5904 I0.0018 J-0.0187
N5895 G1 X-5.1494 Y-0.5918 Z-0.5001 F4.
N5900 X-5.146 Y-0.594 Z-0.5002
N5905 X-5.1416 Y-0.5955 Z-0.5004
N5910 X-5.1262 Y-0.5974 Z-0.5009
N5915 X-5.1243 Y-0.5975 Z-0.501
N5920 X-3.4978 Z-0.5578
N5925 X-3.4785 Y-0.5951 Z-0.5585
N5930 X-3.4742 Y-0.5933 Z-0.5586
N5935 X-3.4698 Y-0.5899 Z-0.5588
N5940 X-3.4669 Y-0.5861 Z-0.559
N5945 X-3.4661 Y-0.5842 Z-0.5591
N5950 X-3.4649 Y-0.5813 Z-0.5592
N5955 X-3.4626 Y-0.5641 Z-0.5598
N5960 X-3.4625 Y-0.5588 Z-0.56
N5965 Y-0.4144 Z-0.565
N5970 Y-0.3371 F20.
N5975 X-3.4626 Y-0.3357
N5980 X-3.4649 Y-0.3188
N5985 X-3.4669 Y-0.3139
N5990 X-3.4699 Y-0.31
N5995 X-3.4742 Y-0.3067
N6000 X-3.4786 Y-0.3049
N6005 X-3.4977 Y-0.3025
N6010 X-5.1442 Y-0.3027
N6015 X-5.1594 Y-0.3045
N6020 X-5.1638 Y-0.3062
N6025 X-5.1678 Y-0.309
N6030 X-5.1883 Y-0.3323
N6035 G2 X-5.1925 Y-0.3367 I-0.074 J0.0653
N6040 G1 X-5.1982 Y-0.3424
N6045 G2 X-5.2039 Y-0.3476 I-0.0698 J0.0698
N6050 G1 X-5.2095 Y-0.3525
N6055 G2 X-5.2151 Y-0.3569 I-0.0642 J0.0751
N6060 G1 X-5.2207 Y-0.361
N6065 G2 X-5.2281 Y-0.366 I-0.0586 J0.0795
N6070 G1 X-5.2376 Y-0.3717
N6075 G2 X-5.2483 Y-0.3773 I-0.0511 J0.0845
N6080 G1 X-5.2602 Y-0.3827
N6085 G2 X-5.2701 Y-0.3865 I-0.0404 J0.0901
N6090 G1 X-5.278 Y-0.3891
N6095 G2 X-5.2859 Y-0.3913 I-0.0305 J0.0939
N6100 G1 X-5.2939 Y-0.3931
N6105 G2 X-5.3018 Y-0.3946 I-0.0226 J0.0961
N6110 G1 X-5.3097 Y-0.3958
N6115 G2 X-5.3176 Y-0.3967 I-0.0146 J0.0977
N6120 G1 X-5.3255 Y-0.3972
N6125 G2 X-5.3323 Y-0.3975 I-0.0067 J0.0985
N6130 G1 X-6.0743
N6135 X-6.0781 Y-0.398
N6140 X-6.0785 Y-0.4013
N6145 Y-0.4987
N6150 X-6.0781 Y-0.502
N6155 X-6.0743 Y-0.5025
N6160 X-6.0573
N6165 X-6.0434 Y-0.5012
N6170 X-6.0392 Y-0.5
N6175 X-6.0161 Y-0.489
N6180 G2 X-6.0081 Y-0.4856 I0.0426 J-0.0891
N6185 G1 X-6.0002 Y-0.4826
N6190 G2 X-5.9923 Y-0.48 I0.0346 J-0.0925
N6195 G1 X-5.9844 Y-0.4778
N6200 G2 X-5.9765 Y-0.4759 I0.0267 J-0.0951
N6205 G1 X-5.9685 Y-0.4744
N6210 G2 X-5.9606 Y-0.4732 I0.0188 J-0.097
N6215 G1 X-5.9527 Y-0.4723
N6220 G2 X-5.9429 Y-0.4717 I0.0108 J-0.0982
N6225 G1 X-5.9191 Y-0.4715
N6230 G2 X-5.9181 I0.001 J-0.0987
N6235 G1 X-5.3322
N6240 G2 X-5.3255 Y-0.4718 I0. J-0.0987
N6245 G1 X-5.3176 Y-0.4723
N6250 G2 X-5.3097 Y-0.4732 I-0.0067 J-0.0985
N6255 G1 X-5.3018 Y-0.4744
N6260 G2 X-5.2939 Y-0.4759 I-0.0146 J-0.0977
N6265 G1 X-5.2859 Y-0.4777
N6270 G2 X-5.278 Y-0.4799 I-0.0226 J-0.0961
N6275 G1 X-5.2701 Y-0.4825
N6280 G2 X-5.2602 Y-0.4863 I-0.0305 J-0.0939
N6285 G1 X-5.2483 Y-0.4917
N6290 G2 X-5.2377 Y-0.4972 I-0.0404 J-0.0901
N6295 G1 X-5.2285 Y-0.5028
N6300 G2 X-5.2213 Y-0.5076 I-0.051 J-0.0846
N6305 G1 X-5.216 Y-0.5114
N6310 G2 X-5.2086 Y-0.5174 I-0.0582 J-0.0798
N6315 G1 X-5.1993 Y-0.5256
N6320 G2 X-5.1908 Y-0.5342 I-0.0656 J-0.0738
N6325 G1 X-5.1831 Y-0.5429
N6330 G2 X-5.1773 Y-0.5502 I-0.0741 J-0.0653
N6335 G1 X-5.1732 Y-0.5558
N6340 G2 X-5.1691 Y-0.5619 I-0.0799 J-0.058
N6345 G1 X-5.1526 Y-0.5886
N6350 X-5.1494 Y-0.5918
N6355 X-5.146 Y-0.594
N6360 X-5.1416 Y-0.5955
N6365 X-5.1262 Y-0.5974
N6370 X-5.1243 Y-0.5975
N6375 X-3.4978
N6380 X-3.4785 Y-0.5951
N6385 X-3.4742 Y-0.5933
N6390 X-3.4698 Y-0.5899
N6395 X-3.4669 Y-0.5861
N6400 X-3.4661 Y-0.5842
N6405 X-3.4649 Y-0.5813
N6410 X-3.4626 Y-0.5641
N6415 X-3.4625 Y-0.5588
N6420 Y-0.4144
N6425 G3 X-3.4831 Y-0.3957 I-0.0187 J0.
N6430 G1 X-5.1393 Y-0.5586
N6435 G3 X-5.1508 Y-0.5904 I0.0018 J-0.0187
N6440 G1 X-5.1494 Y-0.5918 Z-0.5651 F4.
N6445 X-5.146 Y-0.594 Z-0.5652
N6450 X-5.1416 Y-0.5955 Z-0.5654
N6455 X-5.1262 Y-0.5974 Z-0.5659
N6460 X-5.1243 Y-0.5975 Z-0.566
N6465 X-3.4978 Z-0.6228
N6470 X-3.4785 Y-0.5951 Z-0.6235
N6475 X-3.4742 Y-0.5933 Z-0.6236
N6480 X-3.4698 Y-0.5899 Z-0.6238
N6485 X-3.4669 Y-0.5861 Z-0.624
N6490 X-3.4661 Y-0.5842 Z-0.6241
N6495 X-3.4649 Y-0.5813 Z-0.6242
N6500 X-3.4626 Y-0.5641 Z-0.6248
N6505 X-3.4625 Y-0.5588 Z-0.625
N6510 Y-0.4144 Z-0.63
N6515 Y-0.3371 F20.
N6520 X-3.4626 Y-0.3357
N6525 X-3.4649 Y-0.3188
N6530 X-3.4669 Y-0.3139
N6535 X-3.4699 Y-0.31
N6540 X-3.4742 Y-0.3067
N6545 X-3.4786 Y-0.3049
N6550 X-3.4977 Y-0.3025
N6555 X-5.1442 Y-0.3027
N6560 X-5.1594 Y-0.3045
N6565 X-5.1638 Y-0.3062
N6570 X-5.1678 Y-0.309
N6575 X-5.1883 Y-0.3323
N6580 G2 X-5.1925 Y-0.3367 I-0.074 J0.0653
N6585 G1 X-5.1982 Y-0.3424
N6590 G2 X-5.2039 Y-0.3476 I-0.0698 J0.0698
N6595 G1 X-5.2095 Y-0.3525
N6600 G2 X-5.2151 Y-0.3569 I-0.0642 J0.0751
N6605 G1 X-5.2207 Y-0.361
N6610 G2 X-5.2281 Y-0.366 I-0.0586 J0.0795
N6615 G1 X-5.2376 Y-0.3717
N6620 G2 X-5.2483 Y-0.3773 I-0.0511 J0.0845
N6625 G1 X-5.2602 Y-0.3827
N6630 G2 X-5.2701 Y-0.3865 I-0.0404 J0.0901
N6635 G1 X-5.278 Y-0.3891
N6640 G2 X-5.2859 Y-0.3913 I-0.0305 J0.0939
N6645 G1 X-5.2939 Y-0.3931
N6650 G2 X-5.3018 Y-0.3946 I-0.0226 J0.0961
N6655 G1 X-5.3097 Y-0.3958
N6660 G2 X-5.3176 Y-0.3967 I-0.0146 J0.0977
N6665 G1 X-5.3255 Y-0.3972
N6670 G2 X-5.3323 Y-0.3975 I-0.0067 J0.0985
N6675 G1 X-6.0743
N6680 X-6.0781 Y-0.398
N6685 X-6.0785 Y-0.4013
N6690 Y-0.4987
N6695 X-6.0781 Y-0.502
N6700 X-6.0743 Y-0.5025
N6705 X-6.0573
N6710 X-6.0434 Y-0.5012
N6715 X-6.0392 Y-0.5
N6720 X-6.0161 Y-0.489
N6725 G2 X-6.0081 Y-0.4856 I0.0426 J-0.0891
N6730 G1 X-6.0002 Y-0.4826
N6735 G2 X-5.9923 Y-0.48 I0.0346 J-0.0925
N6740 G1 X-5.9844 Y-0.4778
N6745 G2 X-5.9765 Y-0.4759 I0.0267 J-0.0951
N6750 G1 X-5.9685 Y-0.4744
N6755 G2 X-5.9606 Y-0.4732 I0.0188 J-0.097
N6760 G1 X-5.9527 Y-0.4723
N6765 G2 X-5.9429 Y-0.4717 I0.0108 J-0.0982
N6770 G1 X-5.9191 Y-0.4715
N6775 G2 X-5.9181 I0.001 J-0.0987
N6780 G1 X-5.3322
N6785 G2 X-5.3255 Y-0.4718 I0. J-0.0987
N6790 G1 X-5.3176 Y-0.4723
N6795 G2 X-5.3097 Y-0.4732 I-0.0067 J-0.0985
N6800 G1 X-5.3018 Y-0.4744
N6805 G2 X-5.2939 Y-0.4759 I-0.0146 J-0.0977
N6810 G1 X-5.2859 Y-0.4777
N6815 G2 X-5.278 Y-0.4799 I-0.0226 J-0.0961
N6820 G1 X-5.2701 Y-0.4825
N6825 G2 X-5.2602 Y-0.4863 I-0.0305 J-0.0939
N6830 G1 X-5.2483 Y-0.4917
N6835 G2 X-5.2377 Y-0.4972 I-0.0404 J-0.0901
N6840 G1 X-5.2285 Y-0.5028
N6845 G2 X-5.2213 Y-0.5076 I-0.051 J-0.0846
N6850 G1 X-5.216 Y-0.5114
N6855 G2 X-5.2086 Y-0.5174 I-0.0582 J-0.0798
N6860 G1 X-5.1993 Y-0.5256
N6865 G2 X-5.1908 Y-0.5342 I-0.0656 J-0.0738
N6870 G1 X-5.1831 Y-0.5429
N6875 G2 X-5.1773 Y-0.5502 I-0.0741 J-0.0653
N6880 G1 X-5.1732 Y-0.5558
N6885 G2 X-5.1691 Y-0.5619 I-0.0799 J-0.058
N6890 G1 X-5.1526 Y-0.5886
N6895 X-5.1494 Y-0.5918
N6900 X-5.146 Y-0.594
N6905 X-5.1416 Y-0.5955
N6910 X-5.1262 Y-0.5974
N6915 X-5.1243 Y-0.5975
N6920 X-3.4978
N6925 X-3.4785 Y-0.5951
N6930 X-3.4742 Y-0.5933
N6935 X-3.4698 Y-0.5899
N6940 X-3.4669 Y-0.5861
N6945 X-3.4661 Y-0.5842
N6950 X-3.4649 Y-0.5813
N6955 X-3.4626 Y-0.5641
N6960 X-3.4625 Y-0.5588
N6965 Y-0.4144
N6970 G3 X-3.4801 Y-0.3957 I-0.0187 J0.
N6975 G1 X-5.0167 Y-0.3027
N6980 G3 X-5.0179 I-0.0011 J-0.0187
N6985 G1 X-5.1442 Z-0.6344 F4.
N6990 X-5.1594 Y-0.3045 Z-0.6349
N6995 X-5.1638 Y-0.3062 Z-0.6351
N7000 X-5.1678 Y-0.309 Z-0.6353
N7005 X-5.1883 Y-0.3323 Z-0.6364
N7010 G2 X-5.1925 Y-0.3367 Z-0.6366 I-0.074 J0.0653
N7015 G1 X-5.1982 Y-0.3424 Z-0.6369
N7020 G2 X-5.2039 Y-0.3476 Z-0.6371 I-0.0698 J0.0698
N7025 G1 X-5.2095 Y-0.3525 Z-0.6374
N7030 G2 X-5.2151 Y-0.3569 Z-0.6376 I-0.0642 J0.0751
N7035 G1 X-5.2207 Y-0.361 Z-0.6379
N7040 G2 X-5.2281 Y-0.366 Z-0.6382 I-0.0586 J0.0795
N7045 G1 X-5.2376 Y-0.3717 Z-0.6386
N7050 G2 X-5.2483 Y-0.3773 Z-0.639 I-0.0511 J0.0845
N7055 G1 X-5.2602 Y-0.3827 Z-0.6395
N7060 G2 X-5.2701 Y-0.3865 Z-0.6398 I-0.0404 J0.0901
N7065 G1 X-5.278 Y-0.3891 Z-0.6401
N7070 G2 X-5.2859 Y-0.3913 Z-0.6404 I-0.0305 J0.0939
N7075 G1 X-5.2939 Y-0.3931 Z-0.6407
N7080 G2 X-5.3018 Y-0.3946 Z-0.641 I-0.0226 J0.0961
N7085 G1 X-5.3097 Y-0.3958 Z-0.6413
N7090 G2 X-5.3176 Y-0.3967 Z-0.6415 I-0.0146 J0.0977
N7095 G1 X-5.3255 Y-0.3972 Z-0.6418
N7100 G2 X-5.3322 Y-0.3975 Z-0.642 I-0.0067 J0.0985
N7105 G1 X-5.7115 Z-0.6553
N7110 X-5.723 Y-0.4002 Z-0.6557
N7115 X-5.7273 Y-0.4024 Z-0.6559
N7120 X-5.7308 Y-0.4054 Z-0.656
N7125 X-5.7339 Y-0.4098 Z-0.6562
N7130 X-5.7353 Y-0.4137 Z-0.6564
N7135 X-5.7374 Y-0.4316 Z-0.657
N7140 X-5.7373 Y-0.4395 Z-0.6573
N7145 X-5.7354 Y-0.455 Z-0.6578
N7150 X-5.7339 Y-0.4591 Z-0.658
N7155 X-5.7308 Y-0.4636 Z-0.6582
N7160 X-5.7273 Y-0.4666 Z-0.6583
N7165 X-5.723 Y-0.4688 Z-0.6585
N7170 X-5.7116 Y-0.4715 Z-0.6589
N7175 X-5.7111
N7180 X-5.3322 Z-0.6721
N7185 G2 X-5.3255 Y-0.4718 Z-0.6724 I0. J-0.0987
N7190 G1 X-5.3176 Y-0.4723 Z-0.6727
N7195 G2 X-5.3097 Y-0.4732 Z-0.6729 I-0.0067 J-0.0985
N7200 G1 X-5.3018 Y-0.4744 Z-0.6732
N7205 G2 X-5.2939 Y-0.4759 Z-0.6735 I-0.0146 J-0.0977
N7210 G1 X-5.2859 Y-0.4777 Z-0.6738
N7215 G2 X-5.278 Y-0.4799 Z-0.6741 I-0.0226 J-0.0961
N7220 G1 X-5.2701 Y-0.4825 Z-0.6744
N7225 G2 X-5.2602 Y-0.4863 Z-0.6747 I-0.0305 J-0.0939
N7230 G1 X-5.2483 Y-0.4917 Z-0.6752
N7235 G2 X-5.2377 Y-0.4972 Z-0.6756 I-0.0404 J-0.0901
N7240 G1 X-5.2285 Y-0.5028 Z-0.676
N7245 G2 X-5.2213 Y-0.5076 Z-0.6763 I-0.051 J-0.0846
N7250 G1 X-5.216 Y-0.5114 Z-0.6765
N7255 G2 X-5.2086 Y-0.5174 Z-0.6768 I-0.0582 J-0.0798
N7260 G1 X-5.1993 Y-0.5256 Z-0.6773
N7265 G2 X-5.1908 Y-0.5342 Z-0.6777 I-0.0656 J-0.0738
N7270 G1 X-5.1831 Y-0.5429 Z-0.6781
N7275 G2 X-5.1773 Y-0.5502 Z-0.6784 I-0.0741 J-0.0653
N7280 G1 X-5.1732 Y-0.5558 Z-0.6787
N7285 G2 X-5.1691 Y-0.5619 Z-0.6789 I-0.0799 J-0.058
N7290 G1 X-5.1526 Y-0.5886 Z-0.68
N7295 X-5.1494 Y-0.5918 Z-0.6802
N7300 X-5.146 Y-0.594 Z-0.6803
N7305 X-5.1416 Y-0.5955 Z-0.6805
N7310 X-5.1262 Y-0.5974 Z-0.681
N7315 X-5.1243 Y-0.5975 Z-0.6811
N7320 X-3.4978 Z-0.7379
N7325 X-3.4785 Y-0.5951 Z-0.7386
N7330 X-3.4742 Y-0.5933 Z-0.7387
N7335 X-3.4698 Y-0.5899 Z-0.7389
N7340 X-3.4669 Y-0.5861 Z-0.7391
N7345 X-3.4661 Y-0.5842 Z-0.7392
N7350 X-3.4649 Y-0.5813 Z-0.7393
N7355 X-3.4626 Y-0.5641 Z-0.7399
N7360 X-3.4625 Y-0.5588 Z-0.7401
N7365 Y-0.3371 Z-0.7478
N7370 X-3.4626 Y-0.3357 Z-0.7479
N7375 X-3.4649 Y-0.3188 Z-0.7484
N7380 X-3.4669 Y-0.3139 Z-0.7486
N7385 X-3.4699 Y-0.31 Z-0.7488
N7390 X-3.4742 Y-0.3067 Z-0.749
N7395 X-3.4786 Y-0.3049 Z-0.7492
N7400 X-3.4977 Y-0.3025 Z-0.7498
N7405 X-3.6456 Z-0.755
N7410 X-5.1442 Y-0.3027 F20.
N7415 X-5.1594 Y-0.3045
N7420 X-5.1638 Y-0.3062
N7425 X-5.1678 Y-0.309
N7430 X-5.1883 Y-0.3323
N7435 G2 X-5.1925 Y-0.3367 I-0.074 J0.0653
N7440 G1 X-5.1982 Y-0.3424
N7445 G2 X-5.2039 Y-0.3476 I-0.0698 J0.0698
N7450 G1 X-5.2095 Y-0.3525
N7455 G2 X-5.2151 Y-0.3569 I-0.0642 J0.0751
N7460 G1 X-5.2207 Y-0.361
N7465 G2 X-5.2281 Y-0.366 I-0.0586 J0.0795
N7470 G1 X-5.2376 Y-0.3717
N7475 G2 X-5.2483 Y-0.3773 I-0.0511 J0.0845
N7480 G1 X-5.2602 Y-0.3827
N7485 G2 X-5.2701 Y-0.3865 I-0.0404 J0.0901
N7490 G1 X-5.278 Y-0.3891
N7495 G2 X-5.2859 Y-0.3913 I-0.0305 J0.0939
N7500 G1 X-5.2939 Y-0.3931
N7505 G2 X-5.3018 Y-0.3946 I-0.0226 J0.0961
N7510 G1 X-5.3097 Y-0.3958
N7515 G2 X-5.3176 Y-0.3967 I-0.0146 J0.0977
N7520 G1 X-5.3255 Y-0.3972
N7525 G2 X-5.3322 Y-0.3975 I-0.0067 J0.0985
N7530 G1 X-5.7115
N7535 X-5.723 Y-0.4002
N7540 X-5.7273 Y-0.4024
N7545 X-5.7308 Y-0.4054
N7550 X-5.7339 Y-0.4098
N7555 X-5.7353 Y-0.4137
N7560 X-5.7374 Y-0.4316
N7565 X-5.7373 Y-0.4395
N7570 X-5.7354 Y-0.455
N7575 X-5.7339 Y-0.4591
N7580 X-5.7308 Y-0.4636
N7585 X-5.7273 Y-0.4666
N7590 X-5.723 Y-0.4688
N7595 X-5.7116 Y-0.4715
N7600 X-5.7111
N7605 X-5.3322
N7610 G2 X-5.3255 Y-0.4718 I0. J-0.0987
N7615 G1 X-5.3176 Y-0.4723
N7620 G2 X-5.3097 Y-0.4732 I-0.0067 J-0.0985
N7625 G1 X-5.3018 Y-0.4744
N7630 G2 X-5.2939 Y-0.4759 I-0.0146 J-0.0977
N7635 G1 X-5.2859 Y-0.4777
N7640 G2 X-5.278 Y-0.4799 I-0.0226 J-0.0961
N7645 G1 X-5.2701 Y-0.4825
N7650 G2 X-5.2602 Y-0.4863 I-0.0305 J-0.0939
N7655 G1 X-5.2483 Y-0.4917
N7660 G2 X-5.2377 Y-0.4972 I-0.0404 J-0.0901
N7665 G1 X-5.2285 Y-0.5028
N7670 G2 X-5.2213 Y-0.5076 I-0.051 J-0.0846
N7675 G1 X-5.216 Y-0.5114
N7680 G2 X-5.2086 Y-0.5174 I-0.0582 J-0.0798
N7685 G1 X-5.1993 Y-0.5256
N7690 G2 X-5.1908 Y-0.5342 I-0.0656 J-0.0738
N7695 G1 X-5.1831 Y-0.5429
N7700 G2 X-5.1773 Y-0.5502 I-0.0741 J-0.0653
N7705 G1 X-5.1732 Y-0.5558
N7710 G2 X-5.1691 Y-0.5619 I-0.0799 J-0.058
N7715 G1 X-5.1526 Y-0.5886
N7720 X-5.1494 Y-0.5918
N7725 X-5.146 Y-0.594
N7730 X-5.1416 Y-0.5955
N7735 X-5.1262 Y-0.5974
N7740 X-5.1243 Y-0.5975
N7745 X-3.4978
N7750 X-3.4785 Y-0.5951
N7755 X-3.4742 Y-0.5933
N7760 X-3.4698 Y-0.5899
N7765 X-3.4669 Y-0.5861
N7770 X-3.4661 Y-0.5842
N7775 X-3.4649 Y-0.5813
N7780 X-3.4626 Y-0.5641
N7785 X-3.4625 Y-0.5588
N7790 Y-0.3371
N7795 X-3.4626 Y-0.3357
N7800 X-3.4649 Y-0.3188
N7805 X-3.4669 Y-0.3139
N7810 X-3.4699 Y-0.31
N7815 X-3.4742 Y-0.3067
N7820 X-3.4786 Y-0.3049
N7825 X-3.4977 Y-0.3025
N7830 X-3.6456
N7835 G3 X-3.6512 Y-0.3056 I0. J-0.0066
N7840 G1 X-3.6598 Y-0.3192
N7845 G2 X-3.6653 Y-0.3222 I-0.0055 J0.0035
N7850 G1 X-4.9981 Y-0.3223
N7855 G2 X-5.0036 Y-0.3193 I0. J0.0066
N7860 G1 X-5.0122 Y-0.3057
N7865 G3 X-5.0178 Y-0.3027 I-0.0055 J-0.0035
N7870 G1 X-5.1442 Z-0.7594 F4.
N7875 X-5.1594 Y-0.3045 Z-0.7599
N7880 X-5.1638 Y-0.3062 Z-0.7601
N7885 X-5.1678 Y-0.309 Z-0.7603
N7890 X-5.1883 Y-0.3323 Z-0.7614
N7895 G2 X-5.1925 Y-0.3367 Z-0.7616 I-0.074 J0.0653
N7900 G1 X-5.1982 Y-0.3424 Z-0.7619
N7905 G2 X-5.2039 Y-0.3476 Z-0.7621 I-0.0698 J0.0698
N7910 G1 X-5.2095 Y-0.3525 Z-0.7624
N7915 G2 X-5.2151 Y-0.3569 Z-0.7626 I-0.0642 J0.0751
N7920 G1 X-5.2207 Y-0.361 Z-0.7629
N7925 G2 X-5.2281 Y-0.366 Z-0.7632 I-0.0586 J0.0795
N7930 G1 X-5.2376 Y-0.3717 Z-0.7636
N7935 G2 X-5.2483 Y-0.3773 Z-0.764 I-0.0511 J0.0845
N7940 G1 X-5.2602 Y-0.3827 Z-0.7645
N7945 G2 X-5.2701 Y-0.3865 Z-0.7648 I-0.0404 J0.0901
N7950 G1 X-5.278 Y-0.3891 Z-0.7651
N7955 G2 X-5.2859 Y-0.3913 Z-0.7654 I-0.0305 J0.0939
N7960 G1 X-5.2939 Y-0.3931 Z-0.7657
N7965 G2 X-5.3018 Y-0.3946 Z-0.766 I-0.0226 J0.0961
N7970 G1 X-5.3097 Y-0.3958 Z-0.7663
N7975 G2 X-5.3176 Y-0.3967 Z-0.7665 I-0.0146 J0.0977
N7980 G1 X-5.3255 Y-0.3972 Z-0.7668
N7985 G2 X-5.3322 Y-0.3975 Z-0.767 I-0.0067 J0.0985
N7990 G1 X-5.7104 Z-0.7802
N7995 X-5.7112 Z-0.7803
N8000 X-5.7232 Y-0.4003 Z-0.7807
N8005 X-5.7273 Y-0.4024 Z-0.7809
N8010 X-5.7307 Y-0.4053 Z-0.781
N8015 X-5.7338 Y-0.4098 Z-0.7812
N8020 X-5.7353 Y-0.4136 Z-0.7814
N8025 X-5.7374 Y-0.4317 Z-0.782
N8030 X-5.7373 Y-0.4394 Z-0.7823
N8035 X-5.7354 Y-0.4552 Z-0.7828
N8040 X-5.7339 Y-0.459 Z-0.783
N8045 X-5.7307 Y-0.4637 Z-0.7832
N8050 X-5.7273 Y-0.4666 Z-0.7833
N8055 X-5.7232 Y-0.4687 Z-0.7835
N8060 X-5.7112 Y-0.4715 Z-0.7839
N8065 X-5.7104
N8070 X-5.3322 Z-0.7971
N8075 G2 X-5.3255 Y-0.4718 Z-0.7974 I0. J-0.0987
N8080 G1 X-5.3176 Y-0.4723 Z-0.7977
N8085 G2 X-5.3097 Y-0.4732 Z-0.7979 I-0.0067 J-0.0985
N8090 G1 X-5.3018 Y-0.4744 Z-0.7982
N8095 G2 X-5.2939 Y-0.4759 Z-0.7985 I-0.0146 J-0.0977
N8100 G1 X-5.2859 Y-0.4777 Z-0.7988
N8105 G2 X-5.278 Y-0.4799 Z-0.7991 I-0.0226 J-0.0961
N8110 G1 X-5.2701 Y-0.4825 Z-0.7994
N8115 G2 X-5.2602 Y-0.4863 Z-0.7997 I-0.0305 J-0.0939
N8120 G1 X-5.2483 Y-0.4917 Z-0.8002
N8125 G2 X-5.2377 Y-0.4972 Z-0.8006 I-0.0404 J-0.0901
N8130 G1 X-5.2285 Y-0.5028 Z-0.801
N8135 G2 X-5.2213 Y-0.5076 Z-0.8013 I-0.051 J-0.0846
N8140 G1 X-5.216 Y-0.5114 Z-0.8015
N8145 G2 X-5.2086 Y-0.5174 Z-0.8018 I-0.0582 J-0.0798
N8150 G1 X-5.1993 Y-0.5256 Z-0.8023
N8155 G2 X-5.1908 Y-0.5342 Z-0.8027 I-0.0656 J-0.0738
N8160 G1 X-5.1831 Y-0.5429 Z-0.8031
N8165 G2 X-5.1773 Y-0.5502 Z-0.8034 I-0.0741 J-0.0653
N8170 G1 X-5.1732 Y-0.5558 Z-0.8037
N8175 G2 X-5.1691 Y-0.5619 Z-0.8039 I-0.0799 J-0.058
N8180 G1 X-5.1526 Y-0.5886 Z-0.805
N8185 X-5.1494 Y-0.5918 Z-0.8052
N8190 X-5.146 Y-0.594 Z-0.8053
N8195 X-5.1416 Y-0.5955 Z-0.8055
N8200 X-5.1262 Y-0.5974 Z-0.806
N8205 X-5.1243 Y-0.5975 Z-0.8061
N8210 X-3.4978 Z-0.8629
N8215 X-3.4785 Y-0.5951 Z-0.8636
N8220 X-3.4742 Y-0.5933 Z-0.8637
N8225 X-3.4698 Y-0.5899 Z-0.8639
N8230 X-3.4669 Y-0.5861 Z-0.8641
N8235 X-3.4661 Y-0.5842 Z-0.8642
N8240 X-3.4649 Y-0.5813 Z-0.8643
N8245 X-3.4626 Y-0.5641 Z-0.8649
N8250 X-3.4625 Y-0.5588 Z-0.8651
N8255 Y-0.3371 Z-0.8728
N8260 X-3.4626 Y-0.3357 Z-0.8729
N8265 X-3.4649 Y-0.3188 Z-0.8734
N8270 X-3.4669 Y-0.3139 Z-0.8736
N8275 X-3.4699 Y-0.31 Z-0.8738
N8280 X-3.4742 Y-0.3067 Z-0.874
N8285 X-3.4786 Y-0.3049 Z-0.8742
N8290 X-3.4977 Y-0.3025 Z-0.8748
N8295 X-3.6456 Z-0.88
N8300 X-5.1442 Y-0.3027 F20.
N8305 X-5.1594 Y-0.3045
N8310 X-5.1638 Y-0.3062
N8315 X-5.1678 Y-0.309
N8320 X-5.1883 Y-0.3323
N8325 G2 X-5.1925 Y-0.3367 I-0.074 J0.0653
N8330 G1 X-5.1982 Y-0.3424
N8335 G2 X-5.2039 Y-0.3476 I-0.0698 J0.0698
N8340 G1 X-5.2095 Y-0.3525
N8345 G2 X-5.2151 Y-0.3569 I-0.0642 J0.0751
N8350 G1 X-5.2207 Y-0.361
N8355 G2 X-5.2281 Y-0.366 I-0.0586 J0.0795
N8360 G1 X-5.2376 Y-0.3717
N8365 G2 X-5.2483 Y-0.3773 I-0.0511 J0.0845
N8370 G1 X-5.2602 Y-0.3827
N8375 G2 X-5.2701 Y-0.3865 I-0.0404 J0.0901
N8380 G1 X-5.278 Y-0.3891
N8385 G2 X-5.2859 Y-0.3913 I-0.0305 J0.0939
N8390 G1 X-5.2939 Y-0.3931
N8395 G2 X-5.3018 Y-0.3946 I-0.0226 J0.0961
N8400 G1 X-5.3097 Y-0.3958
N8405 G2 X-5.3176 Y-0.3967 I-0.0146 J0.0977
N8410 G1 X-5.3255 Y-0.3972
N8415 G2 X-5.3322 Y-0.3975 I-0.0067 J0.0985
N8420 G1 X-5.7104
N8425 X-5.7112
N8430 X-5.7232 Y-0.4003
N8435 X-5.7273 Y-0.4024
N8440 X-5.7307 Y-0.4053
N8445 X-5.7338 Y-0.4098
N8450 X-5.7353 Y-0.4136
N8455 X-5.7374 Y-0.4317
N8460 X-5.7373 Y-0.4394
N8465 X-5.7354 Y-0.4552
N8470 X-5.7339 Y-0.459
N8475 X-5.7307 Y-0.4637
N8480 X-5.7273 Y-0.4666
N8485 X-5.7232 Y-0.4687
N8490 X-5.7112 Y-0.4715
N8495 X-5.7104
N8500 X-5.3322
N8505 G2 X-5.3255 Y-0.4718 I0. J-0.0987
N8510 G1 X-5.3176 Y-0.4723
N8515 G2 X-5.3097 Y-0.4732 I-0.0067 J-0.0985
N8520 G1 X-5.3018 Y-0.4744
N8525 G2 X-5.2939 Y-0.4759 I-0.0146 J-0.0977
N8530 G1 X-5.2859 Y-0.4777
N8535 G2 X-5.278 Y-0.4799 I-0.0226 J-0.0961
N8540 G1 X-5.2701 Y-0.4825
N8545 G2 X-5.2602 Y-0.4863 I-0.0305 J-0.0939
N8550 G1 X-5.2483 Y-0.4917
N8555 G2 X-5.2377 Y-0.4972 I-0.0404 J-0.0901
N8560 G1 X-5.2285 Y-0.5028
N8565 G2 X-5.2213 Y-0.5076 I-0.051 J-0.0846
N8570 G1 X-5.216 Y-0.5114
N8575 G2 X-5.2086 Y-0.5174 I-0.0582 J-0.0798
N8580 G1 X-5.1993 Y-0.5256
N8585 G2 X-5.1908 Y-0.5342 I-0.0656 J-0.0738
N8590 G1 X-5.1831 Y-0.5429
N8595 G2 X-5.1773 Y-0.5502 I-0.0741 J-0.0653
N8600 G1 X-5.1732 Y-0.5558
N8605 G2 X-5.1691 Y-0.5619 I-0.0799 J-0.058
N8610 G1 X-5.1526 Y-0.5886
N8615 X-5.1494 Y-0.5918
N8620 X-5.146 Y-0.594
N8625 X-5.1416 Y-0.5955
N8630 X-5.1262 Y-0.5974
N8635 X-5.1243 Y-0.5975
N8640 X-3.4978
N8645 X-3.4785 Y-0.5951
N8650 X-3.4742 Y-0.5933
N8655 X-3.4698 Y-0.5899
N8660 X-3.4669 Y-0.5861
N8665 X-3.4661 Y-0.5842
N8670 X-3.4649 Y-0.5813
N8675 X-3.4626 Y-0.5641
N8680 X-3.4625 Y-0.5588
N8685 Y-0.3371
N8690 X-3.4626 Y-0.3357
N8695 X-3.4649 Y-0.3188
N8700 X-3.4669 Y-0.3139
N8705 X-3.4699 Y-0.31
N8710 X-3.4742 Y-0.3067
N8715 X-3.4786 Y-0.3049
N8720 X-3.4977 Y-0.3025
N8725 X-3.6456
N8730 G3 X-3.6512 Y-0.3056 I0. J-0.0066
N8735 G1 X-3.6598 Y-0.3192
N8740 G2 X-3.6653 Y-0.3222 I-0.0055 J0.0035
N8745 G1 X-4.9979 Y-0.3223
N8750 G2 X-5.0035 Y-0.3193 I0. J0.0066
N8755 G1 X-5.0121 Y-0.3057
N8760 G3 X-5.0176 Y-0.3027 I-0.0055 J-0.0035
N8765 G1 X-5.1442 Z-0.8844 F4.
N8770 X-5.1594 Y-0.3045 Z-0.885
N8775 X-5.1638 Y-0.3062 Z-0.8851
N8780 X-5.1678 Y-0.309 Z-0.8853
N8785 X-5.1883 Y-0.3323 Z-0.8864
N8790 G2 X-5.1925 Y-0.3367 Z-0.8866 I-0.074 J0.0653
N8795 G1 X-5.1982 Y-0.3424 Z-0.8869
N8800 G2 X-5.2039 Y-0.3476 Z-0.8871 I-0.0698 J0.0698
N8805 G1 X-5.2095 Y-0.3525 Z-0.8874
N8810 G2 X-5.2151 Y-0.3569 Z-0.8876 I-0.0642 J0.0751
N8815 G1 X-5.2207 Y-0.361 Z-0.8879
N8820 G2 X-5.2281 Y-0.366 Z-0.8882 I-0.0586 J0.0795
N8825 G1 X-5.2376 Y-0.3717 Z-0.8886
N8830 G2 X-5.2483 Y-0.3773 Z-0.889 I-0.0511 J0.0845
N8835 G1 X-5.2602 Y-0.3827 Z-0.8895
N8840 G2 X-5.2701 Y-0.3865 Z-0.8898 I-0.0404 J0.0901
N8845 G1 X-5.278 Y-0.3891 Z-0.8901
N8850 G2 X-5.2859 Y-0.3913 Z-0.8904 I-0.0305 J0.0939
N8855 G1 X-5.2939 Y-0.3931 Z-0.8907
N8860 G2 X-5.3018 Y-0.3946 Z-0.891 I-0.0226 J0.0961
N8865 G1 X-5.3097 Y-0.3958 Z-0.8913
N8870 G2 X-5.3176 Y-0.3967 Z-0.8915 I-0.0146 J0.0977
N8875 G1 X-5.3255 Y-0.3972 Z-0.8918
N8880 G2 X-5.3322 Y-0.3975 Z-0.892 I-0.0067 J0.0985
N8885 G1 X-5.7107 Y-0.3976 Z-0.9053
N8890 X-5.7114
N8895 X-5.7236 Y-0.4005 Z-0.9057
N8900 X-5.7268 Y-0.4021 Z-0.9059
N8905 X-5.7307 Y-0.4055 Z-0.906
N8910 X-5.7337 Y-0.4096 Z-0.9062
N8915 X-5.7353 Y-0.4138 Z-0.9064
N8920 X-5.7374 Y-0.43 Z-0.9069
N8925 X-5.7375 Y-0.4345 Z-0.9071
N8930 X-5.7374 Y-0.4388 Z-0.9072
N8935 X-5.7353 Y-0.4552 Z-0.9078
N8940 X-5.7336 Y-0.4595 Z-0.908
N8945 X-5.7308 Y-0.4635 Z-0.9082
N8950 X-5.727 Y-0.4667 Z-0.9083
N8955 X-5.7233 Y-0.4686 Z-0.9085
N8960 X-5.7114 Y-0.4714 Z-0.9089
N8965 X-5.7107
N8970 X-5.3322 Y-0.4715 Z-0.9221
N8975 G2 X-5.3255 Y-0.4718 Z-0.9224 I0. J-0.0987
N8980 G1 X-5.3176 Y-0.4723 Z-0.9227
N8985 G2 X-5.3097 Y-0.4732 Z-0.9229 I-0.0067 J-0.0985
N8990 G1 X-5.3018 Y-0.4744 Z-0.9232
N8995 G2 X-5.2939 Y-0.4759 Z-0.9235 I-0.0146 J-0.0977
N9000 G1 X-5.2859 Y-0.4777 Z-0.9238
N9005 G2 X-5.278 Y-0.4799 Z-0.9241 I-0.0226 J-0.0961
N9010 G1 X-5.2701 Y-0.4825 Z-0.9244
N9015 G2 X-5.2602 Y-0.4863 Z-0.9247 I-0.0305 J-0.0939
N9020 G1 X-5.2483 Y-0.4917 Z-0.9252
N9025 G2 X-5.2377 Y-0.4972 Z-0.9256 I-0.0404 J-0.0901
N9030 G1 X-5.2285 Y-0.5028 Z-0.926
N9035 G2 X-5.2213 Y-0.5076 Z-0.9263 I-0.051 J-0.0846
N9040 G1 X-5.216 Y-0.5114 Z-0.9265
N9045 G2 X-5.2086 Y-0.5174 Z-0.9268 I-0.0582 J-0.0798
N9050 G1 X-5.1993 Y-0.5256 Z-0.9273
N9055 G2 X-5.1908 Y-0.5342 Z-0.9277 I-0.0656 J-0.0738
N9060 G1 X-5.1831 Y-0.5429 Z-0.9281
N9065 G2 X-5.1773 Y-0.5502 Z-0.9284 I-0.0741 J-0.0653
N9070 G1 X-5.1732 Y-0.5558 Z-0.9287
N9075 G2 X-5.1691 Y-0.5619 Z-0.9289 I-0.0799 J-0.058
N9080 G1 X-5.1526 Y-0.5886 Z-0.93
N9085 X-5.1494 Y-0.5918 Z-0.9302
N9090 X-5.146 Y-0.594 Z-0.9303
N9095 X-5.1416 Y-0.5955 Z-0.9305
N9100 X-5.1262 Y-0.5974 Z-0.931
N9105 X-5.1243 Y-0.5975 Z-0.9311
N9110 X-3.4978 Z-0.9879
N9115 X-3.4785 Y-0.5951 Z-0.9886
N9120 X-3.4742 Y-0.5933 Z-0.9887
N9125 X-3.4698 Y-0.5899 Z-0.9889
N9130 X-3.4669 Y-0.5861 Z-0.9891
N9135 X-3.4661 Y-0.5842 Z-0.9892
N9140 X-3.4649 Y-0.5813 Z-0.9893
N9145 X-3.4626 Y-0.5641 Z-0.9899
N9150 X-3.4625 Y-0.5588 Z-0.9901
N9155 Y-0.3371 Z-0.9978
N9160 X-3.4626 Y-0.3357 Z-0.9979
N9165 X-3.4649 Y-0.3188 Z-0.9984
N9170 X-3.4669 Y-0.3139 Z-0.9986
N9175 X-3.4699 Y-0.31 Z-0.9988
N9180 X-3.4742 Y-0.3067 Z-0.999
N9185 X-3.4786 Y-0.3049 Z-0.9992
N9190 X-3.4977 Y-0.3025 Z-0.9998
N9195 X-3.6456 Z-1.005
N9200 X-5.1442 Y-0.3027 F20.
N9205 X-5.1594 Y-0.3045
N9210 X-5.1638 Y-0.3062
N9215 X-5.1678 Y-0.309
N9220 X-5.1883 Y-0.3323
N9225 G2 X-5.1925 Y-0.3367 I-0.074 J0.0653
N9230 G1 X-5.1982 Y-0.3424
N9235 G2 X-5.2039 Y-0.3476 I-0.0698 J0.0698
N9240 G1 X-5.2095 Y-0.3525
N9245 G2 X-5.2151 Y-0.3569 I-0.0642 J0.0751
N9250 G1 X-5.2207 Y-0.361
N9255 G2 X-5.2281 Y-0.366 I-0.0586 J0.0795
N9260 G1 X-5.2376 Y-0.3717
N9265 G2 X-5.2483 Y-0.3773 I-0.0511 J0.0845
N9270 G1 X-5.2602 Y-0.3827
N9275 G2 X-5.2701 Y-0.3865 I-0.0404 J0.0901
N9280 G1 X-5.278 Y-0.3891
N9285 G2 X-5.2859 Y-0.3913 I-0.0305 J0.0939
N9290 G1 X-5.2939 Y-0.3931
N9295 G2 X-5.3018 Y-0.3946 I-0.0226 J0.0961
N9300 G1 X-5.3097 Y-0.3958
N9305 G2 X-5.3176 Y-0.3967 I-0.0146 J0.0977
N9310 G1 X-5.3255 Y-0.3972
N9315 G2 X-5.3322 Y-0.3975 I-0.0067 J0.0985
N9320 G1 X-5.7107 Y-0.3976
N9325 X-5.7114
N9330 X-5.7236 Y-0.4005
N9335 X-5.7268 Y-0.4021
N9340 X-5.7307 Y-0.4055
N9345 X-5.7337 Y-0.4096
N9350 X-5.7353 Y-0.4138
N9355 X-5.7374 Y-0.43
N9360 X-5.7375 Y-0.4345
N9365 X-5.7374 Y-0.4388
N9370 X-5.7353 Y-0.4552
N9375 X-5.7336 Y-0.4595
N9380 X-5.7308 Y-0.4635
N9385 X-5.727 Y-0.4667
N9390 X-5.7233 Y-0.4686
N9395 X-5.7114 Y-0.4714
N9400 X-5.7107
N9405 X-5.3322 Y-0.4715
N9410 G2 X-5.3255 Y-0.4718 I0. J-0.0987
N9415 G1 X-5.3176 Y-0.4723
N9420 G2 X-5.3097 Y-0.4732 I-0.0067 J-0.0985
N9425 G1 X-5.3018 Y-0.4744
N9430 G2 X-5.2939 Y-0.4759 I-0.0146 J-0.0977
N9435 G1 X-5.2859 Y-0.4777
N9440 G2 X-5.278 Y-0.4799 I-0.0226 J-0.0961
N9445 G1 X-5.2701 Y-0.4825
N9450 G2 X-5.2602 Y-0.4863 I-0.0305 J-0.0939
N9455 G1 X-5.2483 Y-0.4917
N9460 G2 X-5.2377 Y-0.4972 I-0.0404 J-0.0901
N9465 G1 X-5.2285 Y-0.5028
N9470 G2 X-5.2213 Y-0.5076 I-0.051 J-0.0846
N9475 G1 X-5.216 Y-0.5114
N9480 G2 X-5.2086 Y-0.5174 I-0.0582 J-0.0798
N9485 G1 X-5.1993 Y-0.5256
N9490 G2 X-5.1908 Y-0.5342 I-0.0656 J-0.0738
N9495 G1 X-5.1831 Y-0.5429
N9500 G2 X-5.1773 Y-0.5502 I-0.0741 J-0.0653
N9505 G1 X-5.1732 Y-0.5558
N9510 G2 X-5.1691 Y-0.5619 I-0.0799 J-0.058
N9515 G1 X-5.1526 Y-0.5886
N9520 X-5.1494 Y-0.5918
N9525 X-5.146 Y-0.594
N9530 X-5.1416 Y-0.5955
N9535 X-5.1262 Y-0.5974
N9540 X-5.1243 Y-0.5975
N9545 X-3.4978
N9550 X-3.4785 Y-0.5951
N9555 X-3.4742 Y-0.5933
N9560 X-3.4698 Y-0.5899
N9565 X-3.4669 Y-0.5861
N9570 X-3.4661 Y-0.5842
N9575 X-3.4649 Y-0.5813
N9580 X-3.4626 Y-0.5641
N9585 X-3.4625 Y-0.5588
N9590 Y-0.3371
N9595 X-3.4626 Y-0.3357
N9600 X-3.4649 Y-0.3188
N9605 X-3.4669 Y-0.3139
N9610 X-3.4699 Y-0.31
N9615 X-3.4742 Y-0.3067
N9620 X-3.4786 Y-0.3049
N9625 X-3.4977 Y-0.3025
N9630 X-3.6456
N9635 G3 X-3.6512 Y-0.3056 I0. J-0.0066
N9640 G1 X-3.6598 Y-0.3192
N9645 G2 X-3.6653 Y-0.3222 I-0.0055 J0.0035
N9650 G1 X-4.7143 Y-0.3223
N9655 G2 X-4.7199 Y-0.3193 I0. J0.0066
N9660 G1 X-4.7285 Y-0.3057
N9665 G3 X-4.734 Y-0.3026 I-0.0055 J-0.0035
N9670 G1 X-5.1442 Y-0.3027 Z-1.0193 F4.
N9675 X-5.1594 Y-0.3045 Z-1.0199
N9680 X-5.1638 Y-0.3062 Z-1.02
N9685 X-5.1678 Y-0.309 Z-1.0202
N9690 X-5.1883 Y-0.3323 Z-1.0213
N9695 G2 X-5.1925 Y-0.3367 Z-1.0215 I-0.074 J0.0653
N9700 G1 X-5.1982 Y-0.3424 Z-1.0218
N9705 G2 X-5.2039 Y-0.3476 Z-1.022 I-0.0698 J0.0698
N9710 G1 X-5.2095 Y-0.3525 Z-1.0223
N9715 G2 X-5.2151 Y-0.3569 Z-1.0226 I-0.0642 J0.0751
N9720 G1 X-5.2207 Y-0.361 Z-1.0228
N9725 G2 X-5.2281 Y-0.366 Z-1.0231 I-0.0586 J0.0795
N9730 G1 X-5.2376 Y-0.3717 Z-1.0235
N9735 G2 X-5.2483 Y-0.3773 Z-1.0239 I-0.0511 J0.0845
N9740 G1 X-5.2602 Y-0.3827 Z-1.0244
N9745 G2 X-5.2701 Y-0.3865 Z-1.0247 I-0.0404 J0.0901
N9750 G1 X-5.278 Y-0.3891 Z-1.025
N9755 G2 X-5.2859 Y-0.3913 Z-1.0253 I-0.0305 J0.0939
N9760 G1 X-5.2939 Y-0.3931 Z-1.0256
N9765 G2 X-5.3018 Y-0.3946 Z-1.0259 I-0.0226 J0.0961
N9770 G1 X-5.3097 Y-0.3958 Z-1.0262
N9775 G2 X-5.3176 Y-0.3967 Z-1.0264 I-0.0146 J0.0977
N9780 G1 X-5.3255 Y-0.3972 Z-1.0267
N9785 G2 X-5.3322 Y-0.3975 Z-1.027 I-0.0067 J0.0985
N9790 G1 X-5.7059 Z-1.04
N9795 X-5.7185 Y-0.3991 Z-1.0404
N9800 X-5.7219 Y-0.3999 Z-1.0406
N9805 X-5.7275 Y-0.4026 Z-1.0408
N9810 X-5.7288 Y-0.4037
N9815 X-5.7298 Y-0.4045 Z-1.0409
N9820 X-5.7331 Y-0.4089 Z-1.0411
N9825 X-5.7353 Y-0.4142 Z-1.0413
N9830 X-5.7374 Y-0.4301 Z-1.0418
N9835 X-5.7375 Y-0.4345 Z-1.042
N9840 X-5.7374 Y-0.4387 Z-1.0421
N9845 X-5.7352 Y-0.4552 Z-1.0427
N9850 X-5.7335 Y-0.4594 Z-1.0429
N9855 X-5.73 Y-0.4643 Z-1.0431
N9860 X-5.7287 Y-0.4654
N9865 X-5.7277 Y-0.4662 Z-1.0432
N9870 X-5.7217 Y-0.4691 Z-1.0434
N9875 X-5.7185 Y-0.4699 Z-1.0435
N9880 X-5.7059 Y-0.4715 Z-1.044
N9885 X-5.3322 Z-1.057
N9890 G2 X-5.3255 Y-0.4718 Z-1.0573 I0. J-0.0987
N9895 G1 X-5.3176 Y-0.4723 Z-1.0575
N9900 G2 X-5.3097 Y-0.4732 Z-1.0578 I-0.0067 J-0.0985
N9905 G1 X-5.3018 Y-0.4744 Z-1.0581
N9910 G2 X-5.2939 Y-0.4759 Z-1.0584 I-0.0146 J-0.0977
N9915 G1 X-5.2859 Y-0.4777 Z-1.0587
N9920 G2 X-5.278 Y-0.4799 Z-1.059 I-0.0226 J-0.0961
N9925 G1 X-5.2701 Y-0.4825 Z-1.0592
N9930 G2 X-5.2602 Y-0.4863 Z-1.0596 I-0.0305 J-0.0939
N9935 G1 X-5.2483 Y-0.4917 Z-1.0601
N9940 G2 X-5.2377 Y-0.4972 Z-1.0605 I-0.0404 J-0.0901
N9945 G1 X-5.2285 Y-0.5028 Z-1.0609
N9950 G2 X-5.2213 Y-0.5076 Z-1.0612 I-0.051 J-0.0846
N9955 G1 X-5.216 Y-0.5114 Z-1.0614
N9960 G2 X-5.2086 Y-0.5174 Z-1.0617 I-0.0582 J-0.0798
N9965 G1 X-5.1993 Y-0.5256 Z-1.0622
N9970 G2 X-5.1908 Y-0.5342 Z-1.0626 I-0.0656 J-0.0738
N9975 G1 X-5.1831 Y-0.5429 Z-1.063
N9980 G2 X-5.1773 Y-0.5502 Z-1.0633 I-0.0741 J-0.0653
N9985 G1 X-5.1732 Y-0.5558 Z-1.0636
N9990 G2 X-5.1691 Y-0.5619 Z-1.0638 I-0.0799 J-0.058
N9995 G1 X-5.1526 Y-0.5886 Z-1.0649
N10000 X-5.1494 Y-0.5918 Z-1.0651
N10005 X-5.146 Y-0.594 Z-1.0652
N10010 X-5.1416 Y-0.5955 Z-1.0654
N10015 X-5.1262 Y-0.5974 Z-1.0659
N10020 X-5.1243 Y-0.5975 Z-1.066
N10025 X-3.4978 Z-1.1228
N10030 X-3.4785 Y-0.5951 Z-1.1235
N10035 X-3.4742 Y-0.5933 Z-1.1236
N10040 X-3.4698 Y-0.5899 Z-1.1238
N10045 X-3.4669 Y-0.5861 Z-1.124
N10050 X-3.4661 Y-0.5842 Z-1.1241
N10055 X-3.4649 Y-0.5813 Z-1.1242
N10060 X-3.4626 Y-0.5641 Z-1.1248
N10065 X-3.4625 Y-0.5588 Z-1.125
N10070 Y-0.4144 Z-1.13
N10075 Y-0.3371 F20.
N10080 X-3.4626 Y-0.3357
N10085 X-3.4649 Y-0.3188
N10090 X-3.4669 Y-0.3139
N10095 X-3.4699 Y-0.31
N10100 X-3.4742 Y-0.3067
N10105 X-3.4786 Y-0.3049
N10110 X-3.4977 Y-0.3025
N10115 X-5.1442 Y-0.3027
N10120 X-5.1594 Y-0.3045
N10125 X-5.1638 Y-0.3062
N10130 X-5.1678 Y-0.309
N10135 X-5.1883 Y-0.3323
N10140 G2 X-5.1925 Y-0.3367 I-0.074 J0.0653
N10145 G1 X-5.1982 Y-0.3424
N10150 G2 X-5.2039 Y-0.3476 I-0.0698 J0.0698
N10155 G1 X-5.2095 Y-0.3525
N10160 G2 X-5.2151 Y-0.3569 I-0.0642 J0.0751
N10165 G1 X-5.2207 Y-0.361
N10170 G2 X-5.2281 Y-0.366 I-0.0586 J0.0795
N10175 G1 X-5.2376 Y-0.3717
N10180 G2 X-5.2483 Y-0.3773 I-0.0511 J0.0845
N10185 G1 X-5.2602 Y-0.3827
N10190 G2 X-5.2701 Y-0.3865 I-0.0404 J0.0901
N10195 G1 X-5.278 Y-0.3891
N10200 G2 X-5.2859 Y-0.3913 I-0.0305 J0.0939
N10205 G1 X-5.2939 Y-0.3931
N10210 G2 X-5.3018 Y-0.3946 I-0.0226 J0.0961
N10215 G1 X-5.3097 Y-0.3958
N10220 G2 X-5.3176 Y-0.3967 I-0.0146 J0.0977
N10225 G1 X-5.3255 Y-0.3972
N10230 G2 X-5.3322 Y-0.3975 I-0.0067 J0.0985
N10235 G1 X-5.7059
N10240 X-5.7185 Y-0.3991
N10245 X-5.7219 Y-0.3999
N10250 X-5.7275 Y-0.4026
N10255 X-5.7288 Y-0.4037
N10260 X-5.7298 Y-0.4045
N10265 X-5.7331 Y-0.4089
N10270 X-5.7353 Y-0.4142
N10275 X-5.7374 Y-0.4301
N10280 X-5.7375 Y-0.4345
N10285 X-5.7374 Y-0.4387
N10290 X-5.7352 Y-0.4552
N10295 X-5.7335 Y-0.4594
N10300 X-5.73 Y-0.4643
N10305 X-5.7287 Y-0.4654
N10310 X-5.7277 Y-0.4662
N10315 X-5.7217 Y-0.4691
N10320 X-5.7185 Y-0.4699
N10325 X-5.7059 Y-0.4715
N10330 X-5.3322
N10335 G2 X-5.3255 Y-0.4718 I0. J-0.0987
N10340 G1 X-5.3176 Y-0.4723
N10345 G2 X-5.3097 Y-0.4732 I-0.0067 J-0.0985
N10350 G1 X-5.3018 Y-0.4744
N10355 G2 X-5.2939 Y-0.4759 I-0.0146 J-0.0977
N10360 G1 X-5.2859 Y-0.4777
N10365 G2 X-5.278 Y-0.4799 I-0.0226 J-0.0961
N10370 G1 X-5.2701 Y-0.4825
N10375 G2 X-5.2602 Y-0.4863 I-0.0305 J-0.0939
N10380 G1 X-5.2483 Y-0.4917
N10385 G2 X-5.2377 Y-0.4972 I-0.0404 J-0.0901
N10390 G1 X-5.2285 Y-0.5028
N10395 G2 X-5.2213 Y-0.5076 I-0.051 J-0.0846
N10400 G1 X-5.216 Y-0.5114
N10405 G2 X-5.2086 Y-0.5174 I-0.0582 J-0.0798
N10410 G1 X-5.1993 Y-0.5256
N10415 G2 X-5.1908 Y-0.5342 I-0.0656 J-0.0738
N10420 G1 X-5.1831 Y-0.5429
N10425 G2 X-5.1773 Y-0.5502 I-0.0741 J-0.0653
N10430 G1 X-5.1732 Y-0.5558
N10435 G2 X-5.1691 Y-0.5619 I-0.0799 J-0.058
N10440 G1 X-5.1526 Y-0.5886
N10445 X-5.1494 Y-0.5918
N10450 X-5.146 Y-0.594
N10455 X-5.1416 Y-0.5955
N10460 X-5.1262 Y-0.5974
N10465 X-5.1243 Y-0.5975
N10470 X-3.4978
N10475 X-3.4785 Y-0.5951
N10480 X-3.4742 Y-0.5933
N10485 X-3.4698 Y-0.5899
N10490 X-3.4669 Y-0.5861
N10495 X-3.4661 Y-0.5842
N10500 X-3.4649 Y-0.5813
N10505 X-3.4626 Y-0.5641
N10510 X-3.4625 Y-0.5588
N10515 Y-0.4144
N10520 G3 X-3.4823 Y-0.3957 I-0.0187 J0.
N10525 G1 X-3.6837 Y-0.407
N10530 G2 X-3.686 I-0.0011 J0.0187
N10535 G1 X-5.1533 Y-0.3096
N10540 G2 X-5.1544 Y-0.3091 I0.0001 J0.0016
N10545 G1 X-5.1582 Y-0.3051
N10550 G3 X-5.1599 Y-0.3047 I-0.0012 J-0.0011
N10555 G1 X-5.1638 Y-0.3062 Z-1.1301 F4.
N10560 X-5.1678 Y-0.309 Z-1.1303
N10565 X-5.1883 Y-0.3323 Z-1.1314
N10570 G2 X-5.1925 Y-0.3367 Z-1.1316 I-0.074 J0.0653
N10575 G1 X-5.1982 Y-0.3424 Z-1.1319
N10580 G2 X-5.2039 Y-0.3476 Z-1.1322 I-0.0698 J0.0698
N10585 G1 X-5.2095 Y-0.3525 Z-1.1324
N10590 G2 X-5.2151 Y-0.3569 Z-1.1327 I-0.0642 J0.0751
N10595 G1 X-5.2207 Y-0.361 Z-1.1329
N10600 G2 X-5.2281 Y-0.366 Z-1.1332 I-0.0586 J0.0795
N10605 G1 X-5.2376 Y-0.3717 Z-1.1336
N10610 G2 X-5.2483 Y-0.3773 Z-1.134 I-0.0511 J0.0845
N10615 G1 X-5.2602 Y-0.3827 Z-1.1345
N10620 G2 X-5.2701 Y-0.3865 Z-1.1349 I-0.0404 J0.0901
N10625 G1 X-5.278 Y-0.3891 Z-1.1352
N10630 G2 X-5.2859 Y-0.3913 Z-1.1354 I-0.0305 J0.0939
N10635 G1 X-5.2939 Y-0.3931 Z-1.1357
N10640 G2 X-5.3018 Y-0.3946 Z-1.136 I-0.0226 J0.0961
N10645 G1 X-5.3097 Y-0.3958 Z-1.1363
N10650 G2 X-5.3176 Y-0.3967 Z-1.1366 I-0.0146 J0.0977
N10655 G1 X-5.3255 Y-0.3972 Z-1.1368
N10660 G2 X-5.3322 Y-0.3975 Z-1.1371 I-0.0067 J0.0985
N10665 G1 X-5.7021 Z-1.15
N10670 X-5.7213 Y-0.3999 Z-1.1507
N10675 X-5.7268 Y-0.4024 Z-1.1509
N10680 X-5.7294 Y-0.4044 Z-1.151
N10685 X-5.7299 Y-0.4048
N10690 X-5.7333 Y-0.4094 Z-1.1512
N10695 X-5.7351 Y-0.4138 Z-1.1514
N10700 X-5.7375 Y-0.4327 Z-1.152
N10705 Y-0.436 Z-1.1522
N10710 X-5.7351 Y-0.4553 Z-1.1528
N10715 X-5.7332 Y-0.46 Z-1.153
N10720 X-5.7302 Y-0.4639 Z-1.1532
N10725 X-5.7292 Y-0.4647
N10730 X-5.7268 Y-0.4666 Z-1.1533
N10735 X-5.7213 Y-0.4691 Z-1.1535
N10740 X-5.7021 Y-0.4715 Z-1.1542
N10745 X-5.3322 Z-1.1671
N10750 G2 X-5.3255 Y-0.4718 Z-1.1674 I0. J-0.0987
N10755 G1 X-5.3176 Y-0.4723 Z-1.1677
N10760 G2 X-5.3097 Y-0.4732 Z-1.1679 I-0.0067 J-0.0985
N10765 G1 X-5.3018 Y-0.4744 Z-1.1682
N10770 G2 X-5.2939 Y-0.4759 Z-1.1685 I-0.0146 J-0.0977
N10775 G1 X-5.2859 Y-0.4777 Z-1.1688
N10780 G2 X-5.278 Y-0.4799 Z-1.1691 I-0.0226 J-0.0961
N10785 G1 X-5.2701 Y-0.4825 Z-1.1694
N10790 G2 X-5.2602 Y-0.4863 Z-1.1697 I-0.0305 J-0.0939
N10795 G1 X-5.2483 Y-0.4917 Z-1.1702
N10800 G2 X-5.2377 Y-0.4972 Z-1.1706 I-0.0404 J-0.0901
N10805 G1 X-5.2285 Y-0.5028 Z-1.171
N10810 G2 X-5.2213 Y-0.5076 Z-1.1713 I-0.051 J-0.0846
N10815 G1 X-5.216 Y-0.5114 Z-1.1715
N10820 G2 X-5.2086 Y-0.5174 Z-1.1718 I-0.0582 J-0.0798
N10825 G1 X-5.1993 Y-0.5256 Z-1.1723
N10830 G2 X-5.1908 Y-0.5342 Z-1.1727 I-0.0656 J-0.0738
N10835 G1 X-5.1831 Y-0.5429 Z-1.1731
N10840 G2 X-5.1773 Y-0.5502 Z-1.1734 I-0.0741 J-0.0653
N10845 G1 X-5.1732 Y-0.5558 Z-1.1737
N10850 G2 X-5.1691 Y-0.5619 Z-1.1739 I-0.0799 J-0.058
N10855 G1 X-5.1526 Y-0.5886 Z-1.175
N10860 X-5.1494 Y-0.5918 Z-1.1752
N10865 X-5.146 Y-0.594 Z-1.1753
N10870 X-5.1416 Y-0.5955 Z-1.1755
N10875 X-5.1262 Y-0.5974 Z-1.176
N10880 X-5.1243 Y-0.5975 Z-1.1761
N10885 X-3.4978 Z-1.2329
N10890 X-3.4785 Y-0.5951 Z-1.2336
N10895 X-3.4742 Y-0.5933 Z-1.2337
N10900 X-3.4698 Y-0.5899 Z-1.2339
N10905 X-3.4669 Y-0.5861 Z-1.2341
N10910 X-3.4661 Y-0.5842 Z-1.2342
N10915 X-3.4649 Y-0.5813 Z-1.2343
N10920 X-3.4626 Y-0.5641 Z-1.2349
N10925 X-3.4625 Y-0.5588 Z-1.2351
N10930 Y-0.3371 Z-1.2428
N10935 X-3.4626 Y-0.3357 Z-1.2429
N10940 X-3.4649 Y-0.3188 Z-1.2434
N10945 X-3.4669 Y-0.3139 Z-1.2436
N10950 X-3.4699 Y-0.31 Z-1.2438
N10955 X-3.4742 Y-0.3067 Z-1.244
N10960 X-3.4786 Y-0.3049 Z-1.2442
N10965 X-3.4977 Y-0.3025 Z-1.2448
N10970 X-3.6456 Z-1.25
N10975 X-5.1442 Y-0.3027 F20.
N10980 X-5.1594 Y-0.3045
N10985 X-5.1638 Y-0.3062
N10990 X-5.1678 Y-0.309
N10995 X-5.1883 Y-0.3323
N11000 G2 X-5.1925 Y-0.3367 I-0.074 J0.0653
N11005 G1 X-5.1982 Y-0.3424
N11010 G2 X-5.2039 Y-0.3476 I-0.0698 J0.0698
N11015 G1 X-5.2095 Y-0.3525
N11020 G2 X-5.2151 Y-0.3569 I-0.0642 J0.0751
N11025 G1 X-5.2207 Y-0.361
N11030 G2 X-5.2281 Y-0.366 I-0.0586 J0.0795
N11035 G1 X-5.2376 Y-0.3717
N11040 G2 X-5.2483 Y-0.3773 I-0.0511 J0.0845
N11045 G1 X-5.2602 Y-0.3827
N11050 G2 X-5.2701 Y-0.3865 I-0.0404 J0.0901
N11055 G1 X-5.278 Y-0.3891
N11060 G2 X-5.2859 Y-0.3913 I-0.0305 J0.0939
N11065 G1 X-5.2939 Y-0.3931
N11070 G2 X-5.3018 Y-0.3946 I-0.0226 J0.0961
N11075 G1 X-5.3097 Y-0.3958
N11080 G2 X-5.3176 Y-0.3967 I-0.0146 J0.0977
N11085 G1 X-5.3255 Y-0.3972
N11090 G2 X-5.3322 Y-0.3975 I-0.0067 J0.0985
N11095 G1 X-5.7021
N11100 X-5.7213 Y-0.3999
N11105 X-5.7268 Y-0.4024
N11110 X-5.7294 Y-0.4044
N11115 X-5.7299 Y-0.4048
N11120 X-5.7333 Y-0.4094
N11125 X-5.7351 Y-0.4138
N11130 X-5.7375 Y-0.4327
N11135 Y-0.436
N11140 X-5.7351 Y-0.4553
N11145 X-5.7332 Y-0.46
N11150 X-5.7302 Y-0.4639
N11155 X-5.7292 Y-0.4647
N11160 X-5.7268 Y-0.4666
N11165 X-5.7213 Y-0.4691
N11170 X-5.7021 Y-0.4715
N11175 X-5.3322
N11180 G2 X-5.3255 Y-0.4718 I0. J-0.0987
N11185 G1 X-5.3176 Y-0.4723
N11190 G2 X-5.3097 Y-0.4732 I-0.0067 J-0.0985
N11195 G1 X-5.3018 Y-0.4744
N11200 G2 X-5.2939 Y-0.4759 I-0.0146 J-0.0977
N11205 G1 X-5.2859 Y-0.4777
N11210 G2 X-5.278 Y-0.4799 I-0.0226 J-0.0961
N11215 G1 X-5.2701 Y-0.4825
N11220 G2 X-5.2602 Y-0.4863 I-0.0305 J-0.0939
N11225 G1 X-5.2483 Y-0.4917
N11230 G2 X-5.2377 Y-0.4972 I-0.0404 J-0.0901
N11235 G1 X-5.2285 Y-0.5028
N11240 G2 X-5.2213 Y-0.5076 I-0.051 J-0.0846
N11245 G1 X-5.216 Y-0.5114
N11250 G2 X-5.2086 Y-0.5174 I-0.0582 J-0.0798
N11255 G1 X-5.1993 Y-0.5256
N11260 G2 X-5.1908 Y-0.5342 I-0.0656 J-0.0738
N11265 G1 X-5.1831 Y-0.5429
N11270 G2 X-5.1773 Y-0.5502 I-0.0741 J-0.0653
N11275 G1 X-5.1732 Y-0.5558
N11280 G2 X-5.1691 Y-0.5619 I-0.0799 J-0.058
N11285 G1 X-5.1526 Y-0.5886
N11290 X-5.1494 Y-0.5918
N11295 X-5.146 Y-0.594
N11300 X-5.1416 Y-0.5955
N11305 X-5.1262 Y-0.5974
N11310 X-5.1243 Y-0.5975
N11315 X-3.4978
N11320 X-3.4785 Y-0.5951
N11325 X-3.4742 Y-0.5933
N11330 X-3.4698 Y-0.5899
N11335 X-3.4669 Y-0.5861
N11340 X-3.4661 Y-0.5842
N11345 X-3.4649 Y-0.5813
N11350 X-3.4626 Y-0.5641
N11355 X-3.4625 Y-0.5588
N11360 Y-0.3371
N11365 X-3.4626 Y-0.3357
N11370 X-3.4649 Y-0.3188
N11375 X-3.4669 Y-0.3139
N11380 X-3.4699 Y-0.31
N11385 X-3.4742 Y-0.3067
N11390 X-3.4786 Y-0.3049
N11395 X-3.4977 Y-0.3025
N11400 X-3.6456
N11405 G3 X-3.6529 Y-0.3032 Z-1.2493 I0. J-0.0375 F2.
N11410 X-3.6596 Y-0.3052 Z-1.2471 I0.0073 J-0.0368
N11415 X-3.6654 Y-0.3082 Z-1.2437 I0.014 J-0.0348
N11420 X-3.67 Y-0.3115 Z-1.239 I0.0198 J-0.0319
N11425 X-3.6733 Y-0.3148 Z-1.2333 I0.0244 J-0.0285
N11430 X-3.6756 Y-0.3174 Z-1.2269 I0.0277 J-0.0253
N11435 X-3.6768 Y-0.3192 Z-1.2198 I0.0299 J-0.0226
N11440 X-3.6772 Y-0.3198 Z-1.2125 I0.0312 J-0.0209
N11445 G0 Z0.6
N11455 M9
N11460 G53 Z0.
N11465 M30
%
