%
(FCG_POCKET)
(.375 END MILL 35 MINUTES)
(T1  D=0.375 CR=0. - ZMIN=-1.25 - FLAT END MILL)
N10 G90 G94 G17 G91.1
N15 G20
N20 G53 G0 Z0.
(FCG_POCKET)
N25 M9
N30 T1 M6
N35 S2000 M3
N40 G54
N45 M9
N55 G0 X-5.525 Y-0.425
N60 G43 Z0.6 H1
N65 G0 Z0.2
N70 G1 Z0. F1.
N75 G18 G3 X-5.615 Z-0.09 I-0.09 K0.
N80 G1 X-5.7511
N85 X-6.051 F15.
N90 Y-0.475
N95 X-6.049
N100 G17 G2 X-5.935 Y-0.444 I0.114 J-0.194
N105 G1 X-5.7513
N110 G3 X-5.739 Y-0.4394 I0. J0.0188
N115 G1 X-5.7171 Y-0.4204
N120 G3 X-5.7293 Y-0.3875 I-0.0123 J0.0142
N125 G1 X-6.0885 F10.
N130 Y-0.5125
N135 X-6.0472
N140 G3 X-6.0312 Y-0.5081 I0. J0.0312
N145 G2 X-5.935 Y-0.4815 I0.0962 J-0.1609
N150 G1 X-5.7396
N155 X-5.7294
N160 G3 X-5.7107 Y-0.4628 I0. J0.0187 F15.
N165 G1 X-5.7106 Y-0.4063
N170 G3 X-5.7293 Y-0.3875 I-0.0188 J0.
N175 G1 X-6.0885 F10.
N180 Y-0.5125
N185 X-6.0472
N190 G3 X-6.0312 Y-0.5081 I0. J0.0312
N195 G2 X-5.935 Y-0.4815 I0.0962 J-0.1609
N200 G1 X-5.7396
N205 X-5.7294
N210 G3 X-5.7268 Y-0.4813 I0. J0.0187 F15.
N215 G1 X-5.5911 Y-0.4623
N220 G3 X-5.5937 Y-0.425 I-0.0026 J0.0186
N225 G18 G2 X-5.6717 Z-0.135 I0. K-0.09 F1.
N230 G3 X-5.7496 Z-0.18 I-0.0779 K0.045
N235 G1 X-5.7511
N240 X-6.051 F15.
N245 Y-0.475
N250 X-6.049
N255 G17 G2 X-5.935 Y-0.444 I0.114 J-0.194
N260 G1 X-5.7513
N265 G3 X-5.739 Y-0.4394 I0. J0.0188
N270 G1 X-5.7171 Y-0.4204
N275 G3 X-5.7293 Y-0.3875 I-0.0123 J0.0142
N280 G1 X-6.0885 F10.
N285 Y-0.5125
N290 X-6.0472
N295 G3 X-6.0312 Y-0.5081 I0. J0.0312
N300 G2 X-5.935 Y-0.4815 I0.0962 J-0.1609
N305 G1 X-5.7396
N310 X-5.7294
N315 G3 X-5.7107 Y-0.4628 I0. J0.0187 F15.
N320 G1 X-5.7106 Y-0.4063
N325 G3 X-5.7293 Y-0.3875 I-0.0188 J0.
N330 G1 X-6.0885 F10.
N335 Y-0.5125
N340 X-6.0472
N345 G3 X-6.0312 Y-0.5081 I0. J0.0312
N350 G2 X-5.935 Y-0.4815 I0.0962 J-0.1609
N355 G1 X-5.7396
N360 X-5.7294
N365 G3 X-5.7268 Y-0.4813 I0. J0.0187 F15.
N370 G1 X-5.5911 Y-0.4623
N375 G3 X-5.5937 Y-0.425 I-0.0026 J0.0186
N380 G18 G2 X-5.6717 Z-0.225 I0. K-0.09 F1.
N385 G3 X-5.7496 Z-0.27 I-0.0779 K0.045
N390 G1 X-5.7511
N395 X-6.051 F15.
N400 Y-0.475
N405 X-6.049
N410 G17 G2 X-5.935 Y-0.444 I0.114 J-0.194
N415 G1 X-5.7513
N420 G3 X-5.739 Y-0.4394 I0. J0.0188
N425 G1 X-5.7171 Y-0.4204
N430 G3 X-5.7293 Y-0.3875 I-0.0123 J0.0142
N435 G1 X-6.0885 F10.
N440 Y-0.5125
N445 X-6.0472
N450 G3 X-6.0312 Y-0.5081 I0. J0.0312
N455 G2 X-5.935 Y-0.4815 I0.0962 J-0.1609
N460 G1 X-5.7396
N465 X-5.7294
N470 G3 X-5.7107 Y-0.4628 I0. J0.0187 F15.
N475 G1 X-5.7106 Y-0.4063
N480 G3 X-5.7293 Y-0.3875 I-0.0188 J0.
N485 G1 X-6.0885 F10.
N490 Y-0.5125
N495 X-6.0472
N500 G3 X-6.0312 Y-0.5081 I0. J0.0312
N505 G2 X-5.935 Y-0.4815 I0.0962 J-0.1609
N510 G1 X-5.7396
N515 X-5.7294
N520 G3 X-5.7268 Y-0.4813 I0. J0.0187 F15.
N525 G1 X-5.5911 Y-0.4623
N530 G3 X-5.5937 Y-0.425 I-0.0026 J0.0186
N535 G18 G2 X-5.6717 Z-0.315 I0. K-0.09 F1.
N540 G3 X-5.7496 Z-0.36 I-0.0779 K0.045
N545 G1 X-5.7511
N550 X-6.051 F15.
N555 Y-0.475
N560 X-6.049
N565 G17 G2 X-5.935 Y-0.444 I0.114 J-0.194
N570 G1 X-5.7513
N575 G3 X-5.739 Y-0.4394 I0. J0.0188
N580 G1 X-5.7171 Y-0.4204
N585 G3 X-5.7293 Y-0.3875 I-0.0123 J0.0142
N590 G1 X-6.0885 F10.
N595 Y-0.5125
N600 X-6.0472
N605 G3 X-6.0312 Y-0.5081 I0. J0.0312
N610 G2 X-5.935 Y-0.4815 I0.0962 J-0.1609
N615 G1 X-5.7396
N620 X-5.7294
N625 G3 X-5.7107 Y-0.4628 I0. J0.0187 F15.
N630 G1 X-5.7106 Y-0.4063
N635 G3 X-5.7293 Y-0.3875 I-0.0188 J0.
N640 G1 X-6.0885 F10.
N645 Y-0.5125
N650 X-6.0472
N655 G3 X-6.0312 Y-0.5081 I0. J0.0312
N660 G2 X-5.935 Y-0.4815 I0.0962 J-0.1609
N665 G1 X-5.7396
N670 X-5.7294
N675 G3 X-5.7268 Y-0.4813 I0. J0.0187 F15.
N680 G1 X-5.5911 Y-0.4623
N685 G3 X-5.5937 Y-0.425 I-0.0026 J0.0186
N690 G18 G2 X-5.6717 Z-0.405 I0. K-0.09 F1.
N695 G3 X-5.7496 Z-0.45 I-0.0779 K0.045
N700 G1 X-5.7511
N705 X-6.051 F15.
N710 Y-0.475
N715 X-6.049
N720 G17 G2 X-5.935 Y-0.444 I0.114 J-0.194
N725 G1 X-5.7513
N730 G3 X-5.739 Y-0.4394 I0. J0.0188
N735 G1 X-5.7171 Y-0.4204
N740 G3 X-5.7293 Y-0.3875 I-0.0123 J0.0142
N745 G1 X-6.0885 F10.
N750 Y-0.5125
N755 X-6.0472
N760 G3 X-6.0312 Y-0.5081 I0. J0.0312
N765 G2 X-5.935 Y-0.4815 I0.0962 J-0.1609
N770 G1 X-5.7396
N775 X-5.7294
N780 G3 X-5.7107 Y-0.4628 I0. J0.0187 F15.
N785 G1 X-5.7106 Y-0.4063
N790 G3 X-5.7293 Y-0.3875 I-0.0188 J0.
N795 G1 X-6.0885 F10.
N800 Y-0.5125
N805 X-6.0472
N810 G3 X-6.0312 Y-0.5081 I0. J0.0312
N815 G2 X-5.935 Y-0.4815 I0.0962 J-0.1609
N820 G1 X-5.7396
N825 X-5.7294
N830 G3 X-5.7268 Y-0.4813 I0. J0.0187 F15.
N835 G1 X-5.5911 Y-0.4623
N840 G3 X-5.5937 Y-0.425 I-0.0026 J0.0186
N845 G18 G2 X-5.6717 Z-0.495 I0. K-0.09 F1.
N850 G3 X-5.7496 Z-0.54 I-0.0779 K0.045
N855 G1 X-5.7511
N860 X-6.051 F15.
N865 Y-0.475
N870 X-6.049
N875 G17 G2 X-5.935 Y-0.444 I0.114 J-0.194
N880 G1 X-5.7513
N885 G3 X-5.739 Y-0.4394 I0. J0.0188
N890 G1 X-5.7171 Y-0.4204
N895 G3 X-5.7293 Y-0.3875 I-0.0123 J0.0142
N900 G1 X-6.0885 F10.
N905 Y-0.5125
N910 X-6.0472
N915 G3 X-6.0312 Y-0.5081 I0. J0.0312
N920 G2 X-5.935 Y-0.4815 I0.0962 J-0.1609
N925 G1 X-5.7396
N930 X-5.7294
N935 G3 X-5.7107 Y-0.4628 I0. J0.0187 F15.
N940 G1 X-5.7106 Y-0.4063
N945 G3 X-5.7293 Y-0.3875 I-0.0188 J0.
N950 G1 X-6.0885 F10.
N955 Y-0.5125
N960 X-6.0472
N965 G3 X-6.0312 Y-0.5081 I0. J0.0312
N970 G2 X-5.935 Y-0.4815 I0.0962 J-0.1609
N975 G1 X-5.7396
N980 X-5.7294
N985 G3 X-5.7267 Y-0.4813 I0. J0.0187 F15.
N990 G1 X-5.5959 Y-0.4623
N995 G3 X-5.5986 Y-0.425 I-0.0027 J0.0186
N1000 G18 G2 X-5.6741 Z-0.581 I0. K-0.09 F1.
N1005 G3 X-5.7496 Z-0.622 I-0.0755 K0.049
N1010 G1 X-5.7511
N1015 X-6.051 F15.
N1020 Y-0.475
N1025 X-6.049
N1030 G17 G2 X-5.935 Y-0.444 I0.114 J-0.194
N1035 G1 X-5.7513
N1040 G3 X-5.739 Y-0.4394 I0. J0.0188
N1045 G1 X-5.7171 Y-0.4204
N1050 G3 X-5.7293 Y-0.3875 I-0.0123 J0.0142
N1055 G1 X-6.0885 F10.
N1060 Y-0.5125
N1065 X-6.0472
N1070 G3 X-6.0312 Y-0.5081 I0. J0.0312
N1075 G2 X-5.935 Y-0.4815 I0.0962 J-0.1609
N1080 G1 X-5.7396
N1085 X-5.7294
N1090 G3 X-5.7107 Y-0.4628 I0. J0.0187 F15.
N1095 G1 X-5.7106 Y-0.4063
N1100 G3 X-5.7293 Y-0.3875 I-0.0188 J0.
N1105 G1 X-6.0885 F10.
N1110 Y-0.5125
N1115 X-6.0472
N1120 G3 X-6.0312 Y-0.5081 I0. J0.0312
N1125 G2 X-5.935 Y-0.4815 I0.0962 J-0.1609
N1130 G1 X-5.7396
N1135 X-5.7294
N1140 X-5.935 Z-0.6239 F5.
N1145 G3 X-6.0312 Y-0.5081 Z-0.6249 I0. J-0.1875
N1150 G2 X-6.0472 Y-0.5125 Z-0.625 I-0.016 J0.0268
N1155 G1 X-6.0885 Z-0.6254
N1160 Y-0.3875 Z-0.6266
N1165 X-5.7293 Z-0.63
N1170 X-6.0885 F10.
N1175 Y-0.5125
N1180 X-6.0472
N1185 G3 X-6.0312 Y-0.5081 I0. J0.0312
N1190 G2 X-5.935 Y-0.4815 I0.0962 J-0.1609
N1195 G1 X-5.7396
N1200 X-5.7294
N1205 G3 X-5.7107 Y-0.4628 I0. J0.0187 F15.
N1210 G1 X-5.7106 Y-0.4063
N1215 G3 X-5.7293 Y-0.3875 I-0.0188 J0.
N1220 G1 X-6.0885 F10.
N1225 Y-0.5125
N1230 X-6.0472
N1235 G3 X-6.0312 Y-0.5081 I0. J0.0312
N1240 G2 X-5.935 Y-0.4815 I0.0962 J-0.1609
N1245 G1 X-5.7396
N1250 X-5.7294
N1255 G3 X-5.7235 Y-0.481 I0. J0.0375 F1.
N1260 G1 X-5.6903 Y-0.4758
N1265 X-5.6829 Y-0.4746 Z-0.6297
N1270 X-5.6756 Y-0.4735 Z-0.6288
N1275 X-5.6684 Y-0.4723 Z-0.6272
N1280 X-5.6614 Y-0.4712 Z-0.6251
N1285 X-5.6546 Y-0.4701 Z-0.6224
N1290 X-5.648 Y-0.4691 Z-0.6192
N1295 X-5.6417 Y-0.4681 Z-0.6153
N1300 X-5.6357 Y-0.4671 Z-0.611
N1305 X-5.6301 Y-0.4662 Z-0.6062
N1310 X-5.6249 Y-0.4654 Z-0.601
N1315 X-5.6201 Y-0.4647 Z-0.5953
N1320 X-5.6159 Y-0.464 Z-0.5892
N1325 X-5.6121 Y-0.4634 Z-0.5828
N1330 X-5.6089 Y-0.4629 Z-0.5762
N1335 X-5.6062 Y-0.4625 Z-0.5692
N1340 X-5.6041 Y-0.4621 Z-0.5621
N1345 X-5.6026 Y-0.4619 Z-0.5548
N1350 X-5.6017 Y-0.4617 Z-0.5474
N1355 X-5.6014 Z-0.54
N1360 G0 Z0.6
N1365 X-4.0521 Y-0.4938
N1370 Z0.2
N1375 G1 Z0.19 F1.
N1380 G18 G2 X-3.9646 Z0.1 I0.09 K0. F5.
N1385 G1 X-3.5788 Z0.0894
N1390 G17 G3 X-3.5662 Y-0.4812 Z0.0888 I0. J0.0125
N1395 G1 Y-0.4188 Z0.0871
N1400 G3 X-3.5788 Y-0.4062 Z0.0866 I-0.0125 J0.
N1405 G1 X-5.1061 Z0.0444
N1410 G3 X-5.1217 Y-0.4127 Z0.044 I0. J-0.0221
N1415 G2 X-5.1376 Y-0.4275 Z0.0434 I-0.2133 J0.2127
N1420 G3 Y-0.4415 Z0.0429 I0.006 J-0.007
N1425 G2 X-5.1001 Y-0.4804 Z0.0414 I-0.1974 J-0.2275
N1430 G3 X-5.0722 Y-0.4938 Z0.0405 I0.0279 J0.0224
N1435 G1 X-3.5788 Z-0.0006
N1440 G3 X-3.5662 Y-0.4812 Z-0.0012 I0. J0.0125
N1445 G1 Y-0.4188 Z-0.0029
N1450 G3 X-3.5788 Y-0.4062 Z-0.0034 I-0.0125 J0.
N1455 G1 X-5.1061 Z-0.0456
N1460 G3 X-5.1217 Y-0.4127 Z-0.046 I0. J-0.0221
N1465 G2 X-5.1376 Y-0.4275 Z-0.0466 I-0.2133 J0.2127
N1470 G3 Y-0.4415 Z-0.0471 I0.006 J-0.007
N1475 G2 X-5.1001 Y-0.4804 Z-0.0486 I-0.1974 J-0.2275
N1480 G3 X-5.0722 Y-0.4938 Z-0.0495 I0.0279 J0.0224
N1485 G1 X-3.602 Z-0.09
N1490 X-3.5788 F15.
N1495 G3 X-3.5662 Y-0.4812 I0. J0.0125
N1500 G1 Y-0.4188
N1505 G3 X-3.5788 Y-0.4062 I-0.0125 J0.
N1510 G1 X-5.1061
N1515 G3 X-5.1217 Y-0.4127 I0. J-0.0221
N1520 G2 X-5.1376 Y-0.4275 I-0.2133 J0.2127
N1525 G3 Y-0.4415 I0.006 J-0.007
N1530 G2 X-5.1001 Y-0.4804 I-0.1974 J-0.2275
N1535 G3 X-5.0722 Y-0.4938 I0.0279 J0.0224
N1540 G1 X-3.602
N1545 G2 X-3.5495 Y-0.5253 I0. J-0.0595
N1550 G3 X-3.49 Y-0.5105 I0.0279 J0.0148
N1555 G1 Y-0.33
N1560 X-5.1514
N1565 G2 X-5.335 Y-0.425 I-0.1836 J0.13
N1570 G1 X-5.71
N1575 Y-0.444
N1580 X-5.335
N1585 G2 X-5.133 Y-0.57 I0. J-0.225
N1590 G1 X-3.49
N1595 Y-0.5105
N1600 G2 X-3.4712 Y-0.4823 I0.0305 J0.
N1605 G3 X-3.4525 Y-0.4542 I-0.0117 J0.0281
N1610 G1 Y-0.3238 F10.
N1615 G3 X-3.4837 Y-0.2925 I-0.0312 J0.
N1620 G1 X-5.1546
N1625 G3 X-5.1804 Y-0.3061 I0. J-0.0313
N1630 G2 X-5.335 Y-0.3875 I-0.1546 J0.1061
N1635 G1 X-5.7163
N1640 G3 X-5.7475 Y-0.4187 I0. J-0.0312
N1645 G1 Y-0.4503
N1650 G3 X-5.7163 Y-0.4815 I0.0312 J0.
N1655 G1 X-5.335
N1660 G2 X-5.1652 Y-0.5895 I0. J-0.1875
N1665 G3 X-5.1369 Y-0.6075 I0.0283 J0.0132
N1670 G1 X-3.4837
N1675 G3 X-3.4525 Y-0.5763 I0. J0.0312
N1680 G1 Y-0.3238
N1685 G3 X-3.4837 Y-0.2925 I-0.0312 J0.
N1690 G1 X-5.1546
N1695 G3 X-5.1804 Y-0.3061 I0. J-0.0313
N1700 G2 X-5.335 Y-0.3875 I-0.1546 J0.1061
N1705 G1 X-5.7163
N1710 G3 X-5.7475 Y-0.4187 I0. J-0.0312
N1715 G1 Y-0.4503
N1720 G3 X-5.7163 Y-0.4815 I0.0312 J0.
N1725 G1 X-5.335
N1730 G2 X-5.1652 Y-0.5895 I0. J-0.1875
N1735 G3 X-5.1369 Y-0.6075 I0.0283 J0.0132
N1740 G1 X-3.4837
N1745 G3 X-3.4525 Y-0.5763 I0. J0.0312
N1750 G1 Y-0.4542
N1755 G3 X-3.4704 Y-0.4355 I-0.0187 J0. F15.
N1760 G1 X-4.14 Y-0.4062
N1765 X-5.1061 Z-0.1237 F5.
N1770 G3 X-5.1217 Y-0.4127 Z-0.1243 I0. J-0.0221
N1775 G2 X-5.1376 Y-0.4275 Z-0.1251 I-0.2133 J0.2127
N1780 G3 Y-0.4415 Z-0.1257 I0.006 J-0.007
N1785 G2 X-5.1001 Y-0.4804 Z-0.1275 I-0.1974 J-0.2275
N1790 G3 X-5.0722 Y-0.4938 Z-0.1287 I0.0279 J0.0224
N1795 G1 X-3.602 Z-0.18
N1800 X-3.5788 F15.
N1805 G3 X-3.5662 Y-0.4812 I0. J0.0125
N1810 G1 Y-0.4188
N1815 G3 X-3.5788 Y-0.4062 I-0.0125 J0.
N1820 G1 X-5.1061
N1825 G3 X-5.1217 Y-0.4127 I0. J-0.0221
N1830 G2 X-5.1376 Y-0.4275 I-0.2133 J0.2127
N1835 G3 Y-0.4415 I0.006 J-0.007
N1840 G2 X-5.1001 Y-0.4804 I-0.1974 J-0.2275
N1845 G3 X-5.0722 Y-0.4938 I0.0279 J0.0224
N1850 G1 X-3.602
N1855 G2 X-3.5495 Y-0.5253 I0. J-0.0595
N1860 G3 X-3.49 Y-0.5105 I0.0279 J0.0148
N1865 G1 Y-0.33
N1870 X-5.1514
N1875 G2 X-5.335 Y-0.425 I-0.1836 J0.13
N1880 G1 X-5.71
N1885 Y-0.444
N1890 X-5.335
N1895 G2 X-5.133 Y-0.57 I0. J-0.225
N1900 G1 X-3.49
N1905 Y-0.5105
N1910 G2 X-3.4712 Y-0.4823 I0.0305 J0.
N1915 G3 X-3.4525 Y-0.4542 I-0.0117 J0.0281
N1920 G1 Y-0.3238 F10.
N1925 G3 X-3.4837 Y-0.2925 I-0.0312 J0.
N1930 G1 X-5.1546
N1935 G3 X-5.1804 Y-0.3061 I0. J-0.0313
N1940 G2 X-5.335 Y-0.3875 I-0.1546 J0.1061
N1945 G1 X-5.7163
N1950 G3 X-5.7475 Y-0.4187 I0. J-0.0312
N1955 G1 Y-0.4503
N1960 G3 X-5.7163 Y-0.4815 I0.0312 J0.
N1965 G1 X-5.335
N1970 G2 X-5.1652 Y-0.5895 I0. J-0.1875
N1975 G3 X-5.1369 Y-0.6075 I0.0283 J0.0132
N1980 G1 X-3.4837
N1985 G3 X-3.4525 Y-0.5763 I0. J0.0312
N1990 G1 Y-0.3238
N1995 G3 X-3.4837 Y-0.2925 I-0.0312 J0.
N2000 G1 X-5.1546
N2005 G3 X-5.1804 Y-0.3061 I0. J-0.0313
N2010 G2 X-5.335 Y-0.3875 I-0.1546 J0.1061
N2015 G1 X-5.7163
N2020 G3 X-5.7475 Y-0.4187 I0. J-0.0312
N2025 G1 Y-0.4503
N2030 G3 X-5.7163 Y-0.4815 I0.0312 J0.
N2035 G1 X-5.335
N2040 G2 X-5.1652 Y-0.5895 I0. J-0.1875
N2045 G3 X-5.1369 Y-0.6075 I0.0283 J0.0132
N2050 G1 X-3.4837
N2055 G3 X-3.4525 Y-0.5763 I0. J0.0312
N2060 G1 Y-0.4542
N2065 G3 X-3.4704 Y-0.4355 I-0.0187 J0. F15.
N2070 G1 X-4.14 Y-0.4062
N2075 X-5.1061 Z-0.2137 F5.
N2080 G3 X-5.1217 Y-0.4127 Z-0.2143 I0. J-0.0221
N2085 G2 X-5.1376 Y-0.4275 Z-0.2151 I-0.2133 J0.2127
N2090 G3 Y-0.4415 Z-0.2157 I0.006 J-0.007
N2095 G2 X-5.1001 Y-0.4804 Z-0.2175 I-0.1974 J-0.2275
N2100 G3 X-5.0722 Y-0.4938 Z-0.2187 I0.0279 J0.0224
N2105 G1 X-3.602 Z-0.27
N2110 X-3.5788 F15.
N2115 G3 X-3.5662 Y-0.4812 I0. J0.0125
N2120 G1 Y-0.4188
N2125 G3 X-3.5788 Y-0.4062 I-0.0125 J0.
N2130 G1 X-5.1061
N2135 G3 X-5.1217 Y-0.4127 I0. J-0.0221
N2140 G2 X-5.1376 Y-0.4275 I-0.2133 J0.2127
N2145 G3 Y-0.4415 I0.006 J-0.007
N2150 G2 X-5.1001 Y-0.4804 I-0.1974 J-0.2275
N2155 G3 X-5.0722 Y-0.4938 I0.0279 J0.0224
N2160 G1 X-3.602
N2165 G2 X-3.5495 Y-0.5253 I0. J-0.0595
N2170 G3 X-3.49 Y-0.5105 I0.0279 J0.0148
N2175 G1 Y-0.33
N2180 X-5.1514
N2185 G2 X-5.335 Y-0.425 I-0.1836 J0.13
N2190 G1 X-5.71
N2195 Y-0.444
N2200 X-5.335
N2205 G2 X-5.133 Y-0.57 I0. J-0.225
N2210 G1 X-3.49
N2215 Y-0.5105
N2220 G2 X-3.4712 Y-0.4823 I0.0305 J0.
N2225 G3 X-3.4525 Y-0.4542 I-0.0117 J0.0281
N2230 G1 Y-0.3238 F10.
N2235 G3 X-3.4837 Y-0.2925 I-0.0312 J0.
N2240 G1 X-5.1546
N2245 G3 X-5.1804 Y-0.3061 I0. J-0.0313
N2250 G2 X-5.335 Y-0.3875 I-0.1546 J0.1061
N2255 G1 X-5.7163
N2260 G3 X-5.7475 Y-0.4187 I0. J-0.0312
N2265 G1 Y-0.4503
N2270 G3 X-5.7163 Y-0.4815 I0.0312 J0.
N2275 G1 X-5.335
N2280 G2 X-5.1652 Y-0.5895 I0. J-0.1875
N2285 G3 X-5.1369 Y-0.6075 I0.0283 J0.0132
N2290 G1 X-3.4837
N2295 G3 X-3.4525 Y-0.5763 I0. J0.0312
N2300 G1 Y-0.3238
N2305 G3 X-3.4837 Y-0.2925 I-0.0312 J0.
N2310 G1 X-5.1546
N2315 G3 X-5.1804 Y-0.3061 I0. J-0.0313
N2320 G2 X-5.335 Y-0.3875 I-0.1546 J0.1061
N2325 G1 X-5.7163
N2330 G3 X-5.7475 Y-0.4187 I0. J-0.0312
N2335 G1 Y-0.4503
N2340 G3 X-5.7163 Y-0.4815 I0.0312 J0.
N2345 G1 X-5.335
N2350 G2 X-5.1652 Y-0.5895 I0. J-0.1875
N2355 G3 X-5.1369 Y-0.6075 I0.0283 J0.0132
N2360 G1 X-3.4837
N2365 G3 X-3.4525 Y-0.5763 I0. J0.0312
N2370 G1 Y-0.4542
N2375 G3 X-3.4704 Y-0.4355 I-0.0187 J0. F15.
N2380 G1 X-4.14 Y-0.4062
N2385 X-5.1061 Z-0.3037 F5.
N2390 G3 X-5.1217 Y-0.4127 Z-0.3043 I0. J-0.0221
N2395 G2 X-5.1376 Y-0.4275 Z-0.3051 I-0.2133 J0.2127
N2400 G3 Y-0.4415 Z-0.3057 I0.006 J-0.007
N2405 G2 X-5.1001 Y-0.4804 Z-0.3075 I-0.1974 J-0.2275
N2410 G3 X-5.0722 Y-0.4938 Z-0.3087 I0.0279 J0.0224
N2415 G1 X-3.602 Z-0.36
N2420 X-3.5788 F15.
N2425 G3 X-3.5662 Y-0.4812 I0. J0.0125
N2430 G1 Y-0.4188
N2435 G3 X-3.5788 Y-0.4062 I-0.0125 J0.
N2440 G1 X-5.1061
N2445 G3 X-5.1217 Y-0.4127 I0. J-0.0221
N2450 G2 X-5.1376 Y-0.4275 I-0.2133 J0.2127
N2455 G3 Y-0.4415 I0.006 J-0.007
N2460 G2 X-5.1001 Y-0.4804 I-0.1974 J-0.2275
N2465 G3 X-5.0722 Y-0.4938 I0.0279 J0.0224
N2470 G1 X-3.602
N2475 G2 X-3.5495 Y-0.5253 I0. J-0.0595
N2480 G3 X-3.49 Y-0.5105 I0.0279 J0.0148
N2485 G1 Y-0.33
N2490 X-5.1514
N2495 G2 X-5.335 Y-0.425 I-0.1836 J0.13
N2500 G1 X-5.71
N2505 Y-0.444
N2510 X-5.335
N2515 G2 X-5.133 Y-0.57 I0. J-0.225
N2520 G1 X-3.49
N2525 Y-0.5105
N2530 G2 X-3.4712 Y-0.4823 I0.0305 J0.
N2535 G3 X-3.4525 Y-0.4542 I-0.0117 J0.0281
N2540 G1 Y-0.3238 F10.
N2545 G3 X-3.4837 Y-0.2925 I-0.0312 J0.
N2550 G1 X-5.1546
N2555 G3 X-5.1804 Y-0.3061 I0. J-0.0313
N2560 G2 X-5.335 Y-0.3875 I-0.1546 J0.1061
N2565 G1 X-5.7163
N2570 G3 X-5.7475 Y-0.4187 I0. J-0.0312
N2575 G1 Y-0.4503
N2580 G3 X-5.7163 Y-0.4815 I0.0312 J0.
N2585 G1 X-5.335
N2590 G2 X-5.1652 Y-0.5895 I0. J-0.1875
N2595 G3 X-5.1369 Y-0.6075 I0.0283 J0.0132
N2600 G1 X-3.4837
N2605 G3 X-3.4525 Y-0.5763 I0. J0.0312
N2610 G1 Y-0.3238
N2615 G3 X-3.4837 Y-0.2925 I-0.0312 J0.
N2620 G1 X-5.1546
N2625 G3 X-5.1804 Y-0.3061 I0. J-0.0313
N2630 G2 X-5.335 Y-0.3875 I-0.1546 J0.1061
N2635 G1 X-5.7163
N2640 G3 X-5.7475 Y-0.4187 I0. J-0.0312
N2645 G1 Y-0.4503
N2650 G3 X-5.7163 Y-0.4815 I0.0312 J0.
N2655 G1 X-5.335
N2660 G2 X-5.1652 Y-0.5895 I0. J-0.1875
N2665 G3 X-5.1369 Y-0.6075 I0.0283 J0.0132
N2670 G1 X-3.4837
N2675 G3 X-3.4525 Y-0.5763 I0. J0.0312
N2680 G1 Y-0.4542
N2685 G3 X-3.4704 Y-0.4355 I-0.0187 J0. F15.
N2690 G1 X-4.14 Y-0.4062
N2695 X-5.1061 Z-0.3937 F5.
N2700 G3 X-5.1217 Y-0.4127 Z-0.3943 I0. J-0.0221
N2705 G2 X-5.1376 Y-0.4275 Z-0.3951 I-0.2133 J0.2127
N2710 G3 Y-0.4415 Z-0.3957 I0.006 J-0.007
N2715 G2 X-5.1001 Y-0.4804 Z-0.3975 I-0.1974 J-0.2275
N2720 G3 X-5.0722 Y-0.4938 Z-0.3987 I0.0279 J0.0224
N2725 G1 X-3.602 Z-0.45
N2730 X-3.5788 F15.
N2735 G3 X-3.5662 Y-0.4812 I0. J0.0125
N2740 G1 Y-0.4188
N2745 G3 X-3.5788 Y-0.4062 I-0.0125 J0.
N2750 G1 X-5.1061
N2755 G3 X-5.1217 Y-0.4127 I0. J-0.0221
N2760 G2 X-5.1376 Y-0.4275 I-0.2133 J0.2127
N2765 G3 Y-0.4415 I0.006 J-0.007
N2770 G2 X-5.1001 Y-0.4804 I-0.1974 J-0.2275
N2775 G3 X-5.0722 Y-0.4938 I0.0279 J0.0224
N2780 G1 X-3.602
N2785 G2 X-3.5495 Y-0.5253 I0. J-0.0595
N2790 G3 X-3.49 Y-0.5105 I0.0279 J0.0148
N2795 G1 Y-0.33
N2800 X-5.1514
N2805 G2 X-5.335 Y-0.425 I-0.1836 J0.13
N2810 G1 X-5.71
N2815 Y-0.444
N2820 X-5.335
N2825 G2 X-5.133 Y-0.57 I0. J-0.225
N2830 G1 X-3.49
N2835 Y-0.5105
N2840 G2 X-3.4712 Y-0.4823 I0.0305 J0.
N2845 G3 X-3.4525 Y-0.4542 I-0.0117 J0.0281
N2850 G1 Y-0.3238 F10.
N2855 G3 X-3.4837 Y-0.2925 I-0.0312 J0.
N2860 G1 X-5.1546
N2865 G3 X-5.1804 Y-0.3061 I0. J-0.0313
N2870 G2 X-5.335 Y-0.3875 I-0.1546 J0.1061
N2875 G1 X-5.7163
N2880 G3 X-5.7475 Y-0.4187 I0. J-0.0312
N2885 G1 Y-0.4503
N2890 G3 X-5.7163 Y-0.4815 I0.0312 J0.
N2895 G1 X-5.335
N2900 G2 X-5.1652 Y-0.5895 I0. J-0.1875
N2905 G3 X-5.1369 Y-0.6075 I0.0283 J0.0132
N2910 G1 X-3.4837
N2915 G3 X-3.4525 Y-0.5763 I0. J0.0312
N2920 G1 Y-0.3238
N2925 G3 X-3.4837 Y-0.2925 I-0.0312 J0.
N2930 G1 X-5.1546
N2935 G3 X-5.1804 Y-0.3061 I0. J-0.0313
N2940 G2 X-5.335 Y-0.3875 I-0.1546 J0.1061
N2945 G1 X-5.7163
N2950 G3 X-5.7475 Y-0.4187 I0. J-0.0312
N2955 G1 Y-0.4503
N2960 G3 X-5.7163 Y-0.4815 I0.0312 J0.
N2965 G1 X-5.335
N2970 G2 X-5.1652 Y-0.5895 I0. J-0.1875
N2975 G3 X-5.1369 Y-0.6075 I0.0283 J0.0132
N2980 G1 X-3.4837
N2985 G3 X-3.4525 Y-0.5763 I0. J0.0312
N2990 G1 Y-0.4542
N2995 G3 X-3.4704 Y-0.4355 I-0.0187 J0. F15.
N3000 G1 X-4.14 Y-0.4062
N3005 X-5.1061 Z-0.4837 F5.
N3010 G3 X-5.1217 Y-0.4127 Z-0.4843 I0. J-0.0221
N3015 G2 X-5.1376 Y-0.4275 Z-0.4851 I-0.2133 J0.2127
N3020 G3 Y-0.4415 Z-0.4857 I0.006 J-0.007
N3025 G2 X-5.1001 Y-0.4804 Z-0.4875 I-0.1974 J-0.2275
N3030 G3 X-5.0722 Y-0.4938 Z-0.4887 I0.0279 J0.0224
N3035 G1 X-3.602 Z-0.54
N3040 X-3.5788 F15.
N3045 G3 X-3.5662 Y-0.4812 I0. J0.0125
N3050 G1 Y-0.4188
N3055 G3 X-3.5788 Y-0.4062 I-0.0125 J0.
N3060 G1 X-5.1061
N3065 G3 X-5.1217 Y-0.4127 I0. J-0.0221
N3070 G2 X-5.1376 Y-0.4275 I-0.2133 J0.2127
N3075 G3 Y-0.4415 I0.006 J-0.007
N3080 G2 X-5.1001 Y-0.4804 I-0.1974 J-0.2275
N3085 G3 X-5.0722 Y-0.4938 I0.0279 J0.0224
N3090 G1 X-3.602
N3095 G2 X-3.5495 Y-0.5253 I0. J-0.0595
N3100 G3 X-3.49 Y-0.5105 I0.0279 J0.0148
N3105 G1 Y-0.33
N3110 X-5.1514
N3115 G2 X-5.335 Y-0.425 I-0.1836 J0.13
N3120 G1 X-5.71
N3125 Y-0.444
N3130 X-5.335
N3135 G2 X-5.133 Y-0.57 I0. J-0.225
N3140 G1 X-3.49
N3145 Y-0.5105
N3150 G2 X-3.4712 Y-0.4823 I0.0305 J0.
N3155 G3 X-3.4525 Y-0.4542 I-0.0117 J0.0281
N3160 G1 Y-0.3238 F10.
N3165 G3 X-3.4837 Y-0.2925 I-0.0312 J0.
N3170 G1 X-5.1546
N3175 G3 X-5.1804 Y-0.3061 I0. J-0.0313
N3180 G2 X-5.335 Y-0.3875 I-0.1546 J0.1061
N3185 G1 X-5.7163
N3190 G3 X-5.7475 Y-0.4187 I0. J-0.0312
N3195 G1 Y-0.4503
N3200 G3 X-5.7163 Y-0.4815 I0.0312 J0.
N3205 G1 X-5.335
N3210 G2 X-5.1652 Y-0.5895 I0. J-0.1875
N3215 G3 X-5.1369 Y-0.6075 I0.0283 J0.0132
N3220 G1 X-3.4837
N3225 G3 X-3.4525 Y-0.5763 I0. J0.0312
N3230 G1 Y-0.3238
N3235 G3 X-3.4837 Y-0.2925 I-0.0312 J0.
N3240 G1 X-5.1546
N3245 G3 X-5.1804 Y-0.3061 I0. J-0.0313
N3250 G2 X-5.335 Y-0.3875 I-0.1546 J0.1061
N3255 G1 X-5.7163
N3260 G3 X-5.7475 Y-0.4187 I0. J-0.0312
N3265 G1 Y-0.4503
N3270 G3 X-5.7163 Y-0.4815 I0.0312 J0.
N3275 G1 X-5.335
N3280 G2 X-5.1652 Y-0.5895 I0. J-0.1875
N3285 G3 X-5.1369 Y-0.6075 I0.0283 J0.0132
N3290 G1 X-3.4837
N3295 G3 X-3.4525 Y-0.5763 I0. J0.0312
N3300 G1 Y-0.4542
N3305 G3 X-3.4704 Y-0.4355 I-0.0187 J0. F15.
N3310 G1 X-4.14 Y-0.4062
N3315 X-5.1061 Z-0.5737 F5.
N3320 G3 X-5.1217 Y-0.4127 Z-0.5743 I0. J-0.0221
N3325 G2 X-5.1376 Y-0.4275 Z-0.5751 I-0.2133 J0.2127
N3330 G3 Y-0.4415 Z-0.5757 I0.006 J-0.007
N3335 G2 X-5.1001 Y-0.4804 Z-0.5775 I-0.1974 J-0.2275
N3340 G3 X-5.0722 Y-0.4938 Z-0.5787 I0.0279 J0.0224
N3345 G1 X-3.602 Z-0.63
N3350 X-3.5788 F15.
N3355 G3 X-3.5662 Y-0.4812 I0. J0.0125
N3360 G1 Y-0.4188
N3365 G3 X-3.5788 Y-0.4062 I-0.0125 J0.
N3370 G1 X-5.1061
N3375 G3 X-5.1217 Y-0.4127 I0. J-0.0221
N3380 G2 X-5.1376 Y-0.4275 I-0.2133 J0.2127
N3385 G3 Y-0.4415 I0.006 J-0.007
N3390 G2 X-5.1001 Y-0.4804 I-0.1974 J-0.2275
N3395 G3 X-5.0722 Y-0.4938 I0.0279 J0.0224
N3400 G1 X-3.602
N3405 G2 X-3.5495 Y-0.5253 I0. J-0.0595
N3410 G3 X-3.49 Y-0.5105 I0.0279 J0.0148
N3415 G1 Y-0.33
N3420 X-5.1514
N3425 G2 X-5.335 Y-0.425 I-0.1836 J0.13
N3430 G1 X-5.71
N3435 Y-0.444
N3440 X-5.335
N3445 G2 X-5.133 Y-0.57 I0. J-0.225
N3450 G1 X-3.49
N3455 Y-0.5105
N3460 G2 X-3.4712 Y-0.4823 I0.0305 J0.
N3465 G3 X-3.4525 Y-0.4542 I-0.0117 J0.0281
N3470 G1 Y-0.3238 F10.
N3475 G3 X-3.4837 Y-0.2925 I-0.0312 J0.
N3480 G1 X-5.1546
N3485 G3 X-5.1804 Y-0.3061 I0. J-0.0313
N3490 G2 X-5.335 Y-0.3875 I-0.1546 J0.1061
N3495 G1 X-5.7163
N3500 G3 X-5.7475 Y-0.4187 I0. J-0.0312
N3505 G1 Y-0.4503
N3510 G3 X-5.7163 Y-0.4815 I0.0312 J0.
N3515 G1 X-5.335
N3520 G2 X-5.1652 Y-0.5895 I0. J-0.1875
N3525 G3 X-5.1369 Y-0.6075 I0.0283 J0.0132
N3530 G1 X-3.4837
N3535 G3 X-3.4525 Y-0.5763 I0. J0.0312
N3540 G1 Y-0.3238
N3545 G3 X-3.4837 Y-0.2925 I-0.0312 J0.
N3550 G1 X-5.1546
N3555 G3 X-5.1804 Y-0.3061 I0. J-0.0313
N3560 G2 X-5.335 Y-0.3875 I-0.1546 J0.1061
N3565 G1 X-5.7163
N3570 G3 X-5.7475 Y-0.4187 I0. J-0.0312
N3575 G1 Y-0.4503
N3580 G3 X-5.7163 Y-0.4815 I0.0312 J0.
N3585 G1 X-5.335
N3590 G2 X-5.1652 Y-0.5895 I0. J-0.1875
N3595 G3 X-5.1369 Y-0.6075 I0.0283 J0.0132
N3600 G1 X-3.4837
N3605 G3 X-3.4525 Y-0.5763 I0. J0.0312
N3610 G1 Y-0.4542
N3615 G3 X-3.4704 Y-0.4355 I-0.0187 J0. F15.
N3620 G1 X-4.14 Y-0.4062
N3625 X-5.1061 Z-0.6637 F5.
N3630 G3 X-5.1217 Y-0.4127 Z-0.6643 I0. J-0.0221
N3635 G2 X-5.1376 Y-0.4275 Z-0.6651 I-0.2133 J0.2127
N3640 G3 Y-0.4415 Z-0.6657 I0.006 J-0.007
N3645 G2 X-5.1001 Y-0.4804 Z-0.6675 I-0.1974 J-0.2275
N3650 G3 X-5.0722 Y-0.4938 Z-0.6687 I0.0279 J0.0224
N3655 G1 X-3.602 Z-0.72
N3660 X-3.5788 F15.
N3665 G3 X-3.5662 Y-0.4812 I0. J0.0125
N3670 G1 Y-0.4188
N3675 G3 X-3.5788 Y-0.4062 I-0.0125 J0.
N3680 G1 X-5.1061
N3685 G3 X-5.1217 Y-0.4127 I0. J-0.0221
N3690 G2 X-5.1376 Y-0.4275 I-0.2133 J0.2127
N3695 G3 Y-0.4415 I0.006 J-0.007
N3700 G2 X-5.1001 Y-0.4804 I-0.1974 J-0.2275
N3705 G3 X-5.0722 Y-0.4938 I0.0279 J0.0224
N3710 G1 X-3.602
N3715 G2 X-3.5495 Y-0.5253 I0. J-0.0595
N3720 G3 X-3.49 Y-0.5105 I0.0279 J0.0148
N3725 G1 Y-0.33
N3730 X-5.1514
N3735 G2 X-5.335 Y-0.425 I-0.1836 J0.13
N3740 G1 X-5.71
N3745 Y-0.444
N3750 X-5.335
N3755 G2 X-5.133 Y-0.57 I0. J-0.225
N3760 G1 X-3.49
N3765 Y-0.5105
N3770 G2 X-3.4712 Y-0.4823 I0.0305 J0.
N3775 G3 X-3.4525 Y-0.4542 I-0.0117 J0.0281
N3780 G1 Y-0.3238 F10.
N3785 G3 X-3.4837 Y-0.2925 I-0.0312 J0.
N3790 G1 X-5.1546
N3795 G3 X-5.1804 Y-0.3061 I0. J-0.0313
N3800 G2 X-5.335 Y-0.3875 I-0.1546 J0.1061
N3805 G1 X-5.7163
N3810 G3 X-5.7475 Y-0.4187 I0. J-0.0312
N3815 G1 Y-0.4503
N3820 G3 X-5.7163 Y-0.4815 I0.0312 J0.
N3825 G1 X-5.335
N3830 G2 X-5.1652 Y-0.5895 I0. J-0.1875
N3835 G3 X-5.1369 Y-0.6075 I0.0283 J0.0132
N3840 G1 X-3.4837
N3845 G3 X-3.4525 Y-0.5763 I0. J0.0312
N3850 G1 Y-0.3238
N3855 G3 X-3.4837 Y-0.2925 I-0.0312 J0.
N3860 G1 X-5.1546
N3865 G3 X-5.1804 Y-0.3061 I0. J-0.0313
N3870 G2 X-5.335 Y-0.3875 I-0.1546 J0.1061
N3875 G1 X-5.7163
N3880 G3 X-5.7475 Y-0.4187 I0. J-0.0312
N3885 G1 Y-0.4503
N3890 G3 X-5.7163 Y-0.4815 I0.0312 J0.
N3895 G1 X-5.335
N3900 G2 X-5.1652 Y-0.5895 I0. J-0.1875
N3905 G3 X-5.1369 Y-0.6075 I0.0283 J0.0132
N3910 G1 X-3.4837
N3915 G3 X-3.4525 Y-0.5763 I0. J0.0312
N3920 G1 Y-0.4542
N3925 G3 X-3.4704 Y-0.4355 I-0.0187 J0. F15.
N3930 G1 X-4.14 Y-0.4062
N3935 X-5.1061 Z-0.7537 F5.
N3940 G3 X-5.1217 Y-0.4127 Z-0.7543 I0. J-0.0221
N3945 G2 X-5.1376 Y-0.4275 Z-0.7551 I-0.2133 J0.2127
N3950 G3 Y-0.4415 Z-0.7557 I0.006 J-0.007
N3955 G2 X-5.1001 Y-0.4804 Z-0.7575 I-0.1974 J-0.2275
N3960 G3 X-5.0722 Y-0.4938 Z-0.7587 I0.0279 J0.0224
N3965 G1 X-3.602 Z-0.81
N3970 X-3.5788 F15.
N3975 G3 X-3.5662 Y-0.4812 I0. J0.0125
N3980 G1 Y-0.4188
N3985 G3 X-3.5788 Y-0.4062 I-0.0125 J0.
N3990 G1 X-5.1061
N3995 G3 X-5.1217 Y-0.4127 I0. J-0.0221
N4000 G2 X-5.1376 Y-0.4275 I-0.2133 J0.2127
N4005 G3 Y-0.4415 I0.006 J-0.007
N4010 G2 X-5.1001 Y-0.4804 I-0.1974 J-0.2275
N4015 G3 X-5.0722 Y-0.4938 I0.0279 J0.0224
N4020 G1 X-3.602
N4025 G2 X-3.5495 Y-0.5253 I0. J-0.0595
N4030 G3 X-3.49 Y-0.5105 I0.0279 J0.0148
N4035 G1 Y-0.33
N4040 X-5.1514
N4045 G2 X-5.335 Y-0.425 I-0.1836 J0.13
N4050 G1 X-5.71
N4055 Y-0.444
N4060 X-5.335
N4065 G2 X-5.133 Y-0.57 I0. J-0.225
N4070 G1 X-3.49
N4075 Y-0.5105
N4080 G2 X-3.4712 Y-0.4823 I0.0305 J0.
N4085 G3 X-3.4525 Y-0.4542 I-0.0117 J0.0281
N4090 G1 Y-0.3238 F10.
N4095 G3 X-3.4837 Y-0.2925 I-0.0312 J0.
N4100 G1 X-5.1546
N4105 G3 X-5.1804 Y-0.3061 I0. J-0.0313
N4110 G2 X-5.335 Y-0.3875 I-0.1546 J0.1061
N4115 G1 X-5.7163
N4120 G3 X-5.7475 Y-0.4187 I0. J-0.0312
N4125 G1 Y-0.4503
N4130 G3 X-5.7163 Y-0.4815 I0.0312 J0.
N4135 G1 X-5.335
N4140 G2 X-5.1652 Y-0.5895 I0. J-0.1875
N4145 G3 X-5.1369 Y-0.6075 I0.0283 J0.0132
N4150 G1 X-3.4837
N4155 G3 X-3.4525 Y-0.5763 I0. J0.0312
N4160 G1 Y-0.3238
N4165 G3 X-3.4837 Y-0.2925 I-0.0312 J0.
N4170 G1 X-5.1546
N4175 G3 X-5.1804 Y-0.3061 I0. J-0.0313
N4180 G2 X-5.335 Y-0.3875 I-0.1546 J0.1061
N4185 G1 X-5.7163
N4190 G3 X-5.7475 Y-0.4187 I0. J-0.0312
N4195 G1 Y-0.4503
N4200 G3 X-5.7163 Y-0.4815 I0.0312 J0.
N4205 G1 X-5.335
N4210 G2 X-5.1652 Y-0.5895 I0. J-0.1875
N4215 G3 X-5.1369 Y-0.6075 I0.0283 J0.0132
N4220 G1 X-3.4837
N4225 G3 X-3.4525 Y-0.5763 I0. J0.0312
N4230 G1 Y-0.4542
N4235 G3 X-3.4704 Y-0.4355 I-0.0187 J0. F15.
N4240 G1 X-4.14 Y-0.4062
N4245 X-5.1061 Z-0.8437 F5.
N4250 G3 X-5.1217 Y-0.4127 Z-0.8443 I0. J-0.0221
N4255 G2 X-5.1376 Y-0.4275 Z-0.8451 I-0.2133 J0.2127
N4260 G3 Y-0.4415 Z-0.8457 I0.006 J-0.007
N4265 G2 X-5.1001 Y-0.4804 Z-0.8475 I-0.1974 J-0.2275
N4270 G3 X-5.0722 Y-0.4938 Z-0.8487 I0.0279 J0.0224
N4275 G1 X-3.602 Z-0.9
N4280 X-3.5788 F15.
N4285 G3 X-3.5662 Y-0.4812 I0. J0.0125
N4290 G1 Y-0.4188
N4295 G3 X-3.5788 Y-0.4062 I-0.0125 J0.
N4300 G1 X-5.1061
N4305 G3 X-5.1217 Y-0.4127 I0. J-0.0221
N4310 G2 X-5.1376 Y-0.4275 I-0.2133 J0.2127
N4315 G3 Y-0.4415 I0.006 J-0.007
N4320 G2 X-5.1001 Y-0.4804 I-0.1974 J-0.2275
N4325 G3 X-5.0722 Y-0.4938 I0.0279 J0.0224
N4330 G1 X-3.602
N4335 G2 X-3.5495 Y-0.5253 I0. J-0.0595
N4340 G3 X-3.49 Y-0.5105 I0.0279 J0.0148
N4345 G1 Y-0.33
N4350 X-5.1514
N4355 G2 X-5.335 Y-0.425 I-0.1836 J0.13
N4360 G1 X-5.71
N4365 Y-0.444
N4370 X-5.335
N4375 G2 X-5.133 Y-0.57 I0. J-0.225
N4380 G1 X-3.49
N4385 Y-0.5105
N4390 G2 X-3.4712 Y-0.4823 I0.0305 J0.
N4395 G3 X-3.4525 Y-0.4542 I-0.0117 J0.0281
N4400 G1 Y-0.3238 F10.
N4405 G3 X-3.4837 Y-0.2925 I-0.0312 J0.
N4410 G1 X-5.1546
N4415 G3 X-5.1804 Y-0.3061 I0. J-0.0313
N4420 G2 X-5.335 Y-0.3875 I-0.1546 J0.1061
N4425 G1 X-5.7163
N4430 G3 X-5.7475 Y-0.4187 I0. J-0.0312
N4435 G1 Y-0.4503
N4440 G3 X-5.7163 Y-0.4815 I0.0312 J0.
N4445 G1 X-5.335
N4450 G2 X-5.1652 Y-0.5895 I0. J-0.1875
N4455 G3 X-5.1369 Y-0.6075 I0.0283 J0.0132
N4460 G1 X-3.4837
N4465 G3 X-3.4525 Y-0.5763 I0. J0.0312
N4470 G1 Y-0.3238
N4475 G3 X-3.4837 Y-0.2925 I-0.0312 J0.
N4480 G1 X-5.1546
N4485 G3 X-5.1804 Y-0.3061 I0. J-0.0313
N4490 G2 X-5.335 Y-0.3875 I-0.1546 J0.1061
N4495 G1 X-5.7163
N4500 G3 X-5.7475 Y-0.4187 I0. J-0.0312
N4505 G1 Y-0.4503
N4510 G3 X-5.7163 Y-0.4815 I0.0312 J0.
N4515 G1 X-5.335
N4520 G2 X-5.1652 Y-0.5895 I0. J-0.1875
N4525 G3 X-5.1369 Y-0.6075 I0.0283 J0.0132
N4530 G1 X-3.4837
N4535 G3 X-3.4525 Y-0.5763 I0. J0.0312
N4540 G1 Y-0.4542
N4545 G3 X-3.4704 Y-0.4355 I-0.0187 J0. F15.
N4550 G1 X-4.14 Y-0.4062
N4555 X-5.1061 Z-0.9337 F5.
N4560 G3 X-5.1217 Y-0.4127 Z-0.9343 I0. J-0.0221
N4565 G2 X-5.1376 Y-0.4275 Z-0.9351 I-0.2133 J0.2127
N4570 G3 Y-0.4415 Z-0.9357 I0.006 J-0.007
N4575 G2 X-5.1001 Y-0.4804 Z-0.9375 I-0.1974 J-0.2275
N4580 G3 X-5.0722 Y-0.4938 Z-0.9387 I0.0279 J0.0224
N4585 G1 X-3.602 Z-0.99
N4590 X-3.5788 F15.
N4595 G3 X-3.5662 Y-0.4812 I0. J0.0125
N4600 G1 Y-0.4188
N4605 G3 X-3.5788 Y-0.4062 I-0.0125 J0.
N4610 G1 X-5.1061
N4615 G3 X-5.1217 Y-0.4127 I0. J-0.0221
N4620 G2 X-5.1376 Y-0.4275 I-0.2133 J0.2127
N4625 G3 Y-0.4415 I0.006 J-0.007
N4630 G2 X-5.1001 Y-0.4804 I-0.1974 J-0.2275
N4635 G3 X-5.0722 Y-0.4938 I0.0279 J0.0224
N4640 G1 X-3.602
N4645 G2 X-3.5495 Y-0.5253 I0. J-0.0595
N4650 G3 X-3.49 Y-0.5105 I0.0279 J0.0148
N4655 G1 Y-0.33
N4660 X-5.1514
N4665 G2 X-5.335 Y-0.425 I-0.1836 J0.13
N4670 G1 X-5.71
N4675 Y-0.444
N4680 X-5.335
N4685 G2 X-5.133 Y-0.57 I0. J-0.225
N4690 G1 X-3.49
N4695 Y-0.5105
N4700 G2 X-3.4712 Y-0.4823 I0.0305 J0.
N4705 G3 X-3.4525 Y-0.4542 I-0.0117 J0.0281
N4710 G1 Y-0.3238 F10.
N4715 G3 X-3.4837 Y-0.2925 I-0.0312 J0.
N4720 G1 X-5.1546
N4725 G3 X-5.1804 Y-0.3061 I0. J-0.0313
N4730 G2 X-5.335 Y-0.3875 I-0.1546 J0.1061
N4735 G1 X-5.7163
N4740 G3 X-5.7475 Y-0.4187 I0. J-0.0312
N4745 G1 Y-0.4503
N4750 G3 X-5.7163 Y-0.4815 I0.0312 J0.
N4755 G1 X-5.335
N4760 G2 X-5.1652 Y-0.5895 I0. J-0.1875
N4765 G3 X-5.1369 Y-0.6075 I0.0283 J0.0132
N4770 G1 X-3.4837
N4775 G3 X-3.4525 Y-0.5763 I0. J0.0312
N4780 G1 Y-0.3238
N4785 G3 X-3.4837 Y-0.2925 I-0.0312 J0.
N4790 G1 X-5.1546
N4795 G3 X-5.1804 Y-0.3061 I0. J-0.0313
N4800 G2 X-5.335 Y-0.3875 I-0.1546 J0.1061
N4805 G1 X-5.7163
N4810 G3 X-5.7475 Y-0.4187 I0. J-0.0312
N4815 G1 Y-0.4503
N4820 G3 X-5.7163 Y-0.4815 I0.0312 J0.
N4825 G1 X-5.335
N4830 G2 X-5.1652 Y-0.5895 I0. J-0.1875
N4835 G3 X-5.1369 Y-0.6075 I0.0283 J0.0132
N4840 G1 X-3.4837
N4845 G3 X-3.4525 Y-0.5763 I0. J0.0312
N4850 G1 Y-0.4542
N4855 G3 X-3.4704 Y-0.4355 I-0.0187 J0. F15.
N4860 G1 X-4.14 Y-0.4062
N4865 X-5.1061 Z-1.0237 F5.
N4870 G3 X-5.1217 Y-0.4127 Z-1.0243 I0. J-0.0221
N4875 G2 X-5.1376 Y-0.4275 Z-1.0251 I-0.2133 J0.2127
N4880 G3 Y-0.4415 Z-1.0257 I0.006 J-0.007
N4885 G2 X-5.1001 Y-0.4804 Z-1.0275 I-0.1974 J-0.2275
N4890 G3 X-5.0722 Y-0.4938 Z-1.0287 I0.0279 J0.0224
N4895 G1 X-3.602 Z-1.08
N4900 X-3.5788 F15.
N4905 G3 X-3.5662 Y-0.4812 I0. J0.0125
N4910 G1 Y-0.4188
N4915 G3 X-3.5788 Y-0.4062 I-0.0125 J0.
N4920 G1 X-5.1061
N4925 G3 X-5.1217 Y-0.4127 I0. J-0.0221
N4930 G2 X-5.1376 Y-0.4275 I-0.2133 J0.2127
N4935 G3 Y-0.4415 I0.006 J-0.007
N4940 G2 X-5.1001 Y-0.4804 I-0.1974 J-0.2275
N4945 G3 X-5.0722 Y-0.4938 I0.0279 J0.0224
N4950 G1 X-3.602
N4955 G2 X-3.5495 Y-0.5253 I0. J-0.0595
N4960 G3 X-3.49 Y-0.5105 I0.0279 J0.0148
N4965 G1 Y-0.33
N4970 X-5.1514
N4975 G2 X-5.335 Y-0.425 I-0.1836 J0.13
N4980 G1 X-5.71
N4985 Y-0.444
N4990 X-5.335
N4995 G2 X-5.133 Y-0.57 I0. J-0.225
N5000 G1 X-3.49
N5005 Y-0.5105
N5010 G2 X-3.4712 Y-0.4823 I0.0305 J0.
N5015 G3 X-3.4525 Y-0.4542 I-0.0117 J0.0281
N5020 G1 Y-0.3238 F10.
N5025 G3 X-3.4837 Y-0.2925 I-0.0312 J0.
N5030 G1 X-5.1546
N5035 G3 X-5.1804 Y-0.3061 I0. J-0.0313
N5040 G2 X-5.335 Y-0.3875 I-0.1546 J0.1061
N5045 G1 X-5.7163
N5050 G3 X-5.7475 Y-0.4187 I0. J-0.0312
N5055 G1 Y-0.4503
N5060 G3 X-5.7163 Y-0.4815 I0.0312 J0.
N5065 G1 X-5.335
N5070 G2 X-5.1652 Y-0.5895 I0. J-0.1875
N5075 G3 X-5.1369 Y-0.6075 I0.0283 J0.0132
N5080 G1 X-3.4837
N5085 G3 X-3.4525 Y-0.5763 I0. J0.0312
N5090 G1 Y-0.3238
N5095 G3 X-3.4837 Y-0.2925 I-0.0312 J0.
N5100 G1 X-5.1546
N5105 G3 X-5.1804 Y-0.3061 I0. J-0.0313
N5110 G2 X-5.335 Y-0.3875 I-0.1546 J0.1061
N5115 G1 X-5.7163
N5120 G3 X-5.7475 Y-0.4187 I0. J-0.0312
N5125 G1 Y-0.4503
N5130 G3 X-5.7163 Y-0.4815 I0.0312 J0.
N5135 G1 X-5.335
N5140 G2 X-5.1652 Y-0.5895 I0. J-0.1875
N5145 G3 X-5.1369 Y-0.6075 I0.0283 J0.0132
N5150 G1 X-3.4837
N5155 G3 X-3.4525 Y-0.5763 I0. J0.0312
N5160 G1 Y-0.4542
N5165 G3 X-3.4704 Y-0.4355 I-0.0187 J0. F15.
N5170 G1 X-4.14 Y-0.4062
N5175 X-5.1061 Z-1.1137 F5.
N5180 G3 X-5.1217 Y-0.4127 Z-1.1143 I0. J-0.0221
N5185 G2 X-5.1376 Y-0.4275 Z-1.1151 I-0.2133 J0.2127
N5190 G3 Y-0.4415 Z-1.1157 I0.006 J-0.007
N5195 G2 X-5.1001 Y-0.4804 Z-1.1175 I-0.1974 J-0.2275
N5200 G3 X-5.0722 Y-0.4938 Z-1.1187 I0.0279 J0.0224
N5205 G1 X-3.602 Z-1.17
N5210 X-3.5788 F15.
N5215 G3 X-3.5662 Y-0.4812 I0. J0.0125
N5220 G1 Y-0.4188
N5225 G3 X-3.5788 Y-0.4062 I-0.0125 J0.
N5230 G1 X-5.1061
N5235 G3 X-5.1217 Y-0.4127 I0. J-0.0221
N5240 G2 X-5.1376 Y-0.4275 I-0.2133 J0.2127
N5245 G3 Y-0.4415 I0.006 J-0.007
N5250 G2 X-5.1001 Y-0.4804 I-0.1974 J-0.2275
N5255 G3 X-5.0722 Y-0.4938 I0.0279 J0.0224
N5260 G1 X-3.602
N5265 G2 X-3.5495 Y-0.5253 I0. J-0.0595
N5270 G3 X-3.49 Y-0.5105 I0.0279 J0.0148
N5275 G1 Y-0.33
N5280 X-5.1514
N5285 G2 X-5.335 Y-0.425 I-0.1836 J0.13
N5290 G1 X-5.71
N5295 Y-0.444
N5300 X-5.335
N5305 G2 X-5.133 Y-0.57 I0. J-0.225
N5310 G1 X-3.49
N5315 Y-0.5105
N5320 G2 X-3.4712 Y-0.4823 I0.0305 J0.
N5325 G3 X-3.4525 Y-0.4542 I-0.0117 J0.0281
N5330 G1 Y-0.3238 F10.
N5335 G3 X-3.4837 Y-0.2925 I-0.0312 J0.
N5340 G1 X-5.1546
N5345 G3 X-5.1804 Y-0.3061 I0. J-0.0313
N5350 G2 X-5.335 Y-0.3875 I-0.1546 J0.1061
N5355 G1 X-5.7163
N5360 G3 X-5.7475 Y-0.4187 I0. J-0.0312
N5365 G1 Y-0.4503
N5370 G3 X-5.7163 Y-0.4815 I0.0312 J0.
N5375 G1 X-5.335
N5380 G2 X-5.1652 Y-0.5895 I0. J-0.1875
N5385 G3 X-5.1369 Y-0.6075 I0.0283 J0.0132
N5390 G1 X-3.4837
N5395 G3 X-3.4525 Y-0.5763 I0. J0.0312
N5400 G1 Y-0.3238
N5405 G3 X-3.4837 Y-0.2925 I-0.0312 J0.
N5410 G1 X-5.1546
N5415 G3 X-5.1804 Y-0.3061 I0. J-0.0313
N5420 G2 X-5.335 Y-0.3875 I-0.1546 J0.1061
N5425 G1 X-5.7163
N5430 G3 X-5.7475 Y-0.4187 I0. J-0.0312
N5435 G1 Y-0.4503
N5440 G3 X-5.7163 Y-0.4815 I0.0312 J0.
N5445 G1 X-5.335
N5450 G2 X-5.1652 Y-0.5895 I0. J-0.1875
N5455 G3 X-5.1369 Y-0.6075 I0.0283 J0.0132
N5460 G1 X-3.4837
N5465 G3 X-3.4525 Y-0.5763 I0. J0.0312
N5470 G1 Y-0.4542
N5475 G3 X-3.4708 Y-0.4355 I-0.0187 J0. F15.
N5480 G1 X-4.6555 Y-0.4062
N5485 X-5.1061 Z-1.1857 F5.
N5490 G3 X-5.1217 Y-0.4127 Z-1.1863 I0. J-0.0221
N5495 G2 X-5.1376 Y-0.4275 Z-1.1871 I-0.2133 J0.2127
N5500 G3 Y-0.4415 Z-1.1877 I0.006 J-0.007
N5505 G2 X-5.1001 Y-0.4804 Z-1.1895 I-0.1974 J-0.2275
N5510 G3 X-5.0722 Y-0.4938 Z-1.1907 I0.0279 J0.0224
N5515 G1 X-3.602 Z-1.242
N5520 X-3.5788 F15.
N5525 G3 X-3.5662 Y-0.4812 I0. J0.0125
N5530 G1 Y-0.4188
N5535 G3 X-3.5788 Y-0.4062 I-0.0125 J0.
N5540 G1 X-5.1061
N5545 G3 X-5.1217 Y-0.4127 I0. J-0.0221
N5550 G2 X-5.1376 Y-0.4275 I-0.2133 J0.2127
N5555 G3 Y-0.4415 I0.006 J-0.007
N5560 G2 X-5.1001 Y-0.4804 I-0.1974 J-0.2275
N5565 G3 X-5.0722 Y-0.4938 I0.0279 J0.0224
N5570 G1 X-3.602
N5575 G2 X-3.5495 Y-0.5253 I0. J-0.0595
N5580 G3 X-3.49 Y-0.5105 I0.0279 J0.0148
N5585 G1 Y-0.33
N5590 X-5.1514
N5595 G2 X-5.335 Y-0.425 I-0.1836 J0.13
N5600 G1 X-5.71
N5605 Y-0.444
N5610 X-5.335
N5615 G2 X-5.133 Y-0.57 I0. J-0.225
N5620 G1 X-3.49
N5625 Y-0.5105
N5630 G2 X-3.4712 Y-0.4823 I0.0305 J0.
N5635 G3 X-3.4525 Y-0.4542 I-0.0117 J0.0281
N5640 G1 Y-0.3238 F10.
N5645 G3 X-3.4837 Y-0.2925 I-0.0312 J0.
N5650 G1 X-5.1546
N5655 G3 X-5.1804 Y-0.3061 I0. J-0.0313
N5660 G2 X-5.335 Y-0.3875 I-0.1546 J0.1061
N5665 G1 X-5.7163
N5670 G3 X-5.7475 Y-0.4187 I0. J-0.0312
N5675 G1 Y-0.4503
N5680 G3 X-5.7163 Y-0.4815 I0.0312 J0.
N5685 G1 X-5.335
N5690 G2 X-5.1652 Y-0.5895 I0. J-0.1875
N5695 G3 X-5.1369 Y-0.6075 I0.0283 J0.0132
N5700 G1 X-3.4837
N5705 G3 X-3.4525 Y-0.5763 I0. J0.0312
N5710 G1 Y-0.3238
N5715 G3 X-3.4837 Y-0.2925 I-0.0312 J0.
N5720 G1 X-5.1546
N5725 G3 X-5.1804 Y-0.3061 I0. J-0.0313
N5730 G2 X-5.335 Y-0.3875 I-0.1546 J0.1061
N5735 G1 X-5.7163
N5740 G3 X-5.7475 Y-0.4187 I0. J-0.0312
N5745 G1 Y-0.4503
N5750 G3 X-5.7163 Y-0.4815 I0.0312 J0.
N5755 G1 X-5.335
N5760 G2 X-5.1652 Y-0.5895 I0. J-0.1875
N5765 G3 X-5.1369 Y-0.6075 I0.0283 J0.0132
N5770 G1 X-3.4837
N5775 G3 X-3.4525 Y-0.5763 I0. J0.0312
N5780 G1 Y-0.4542
N5785 G3 X-3.4843 Y-0.3674 Z-1.2451 I-0.1345 J0. F5.
N5790 G1 X-3.5072 Y-0.3402 Z-1.2462
N5795 G3 X-3.61 Y-0.2925 Z-1.25 I-0.1028 J-0.0868
N5800 G1 X-5.1546 F10.
N5805 G3 X-5.1804 Y-0.3061 I0. J-0.0313
N5810 G2 X-5.335 Y-0.3875 I-0.1546 J0.1061
N5815 G1 X-5.7163
N5820 G3 X-5.7475 Y-0.4187 I0. J-0.0312
N5825 G1 Y-0.4503
N5830 G3 X-5.7163 Y-0.4815 I0.0312 J0.
N5835 G1 X-5.335
N5840 G2 X-5.1652 Y-0.5895 I0. J-0.1875
N5845 G3 X-5.1369 Y-0.6075 I0.0283 J0.0132
N5850 G1 X-3.4837
N5855 G3 X-3.4525 Y-0.5763 I0. J0.0312
N5860 G1 Y-0.3238
N5865 G3 X-3.4837 Y-0.2925 I-0.0312 J0.
N5870 G1 X-5.1546
N5875 G3 X-5.1804 Y-0.3061 I0. J-0.0313
N5880 G2 X-5.335 Y-0.3875 I-0.1546 J0.1061
N5885 G1 X-5.7163
N5890 G3 X-5.7475 Y-0.4187 I0. J-0.0312
N5895 G1 Y-0.4503
N5900 G3 X-5.7163 Y-0.4815 I0.0312 J0.
N5905 G1 X-5.335
N5910 G2 X-5.1652 Y-0.5895 I0. J-0.1875
N5915 G3 X-5.1369 Y-0.6075 I0.0283 J0.0132
N5920 G1 X-3.4837
N5925 G3 X-3.4525 Y-0.5763 I0. J0.0312
N5930 G1 Y-0.3238
N5935 G3 X-3.4837 Y-0.2925 I-0.0312 J0.
N5940 G1 X-3.61
N5945 G3 X-3.6246 Y-0.2955 Z-1.2487 I0. J-0.0375 F1.
N5950 X-3.6367 Y-0.3036 Z-1.245 I0.0146 J-0.0345
N5955 X-3.6443 Y-0.315 Z-1.2388 I0.0267 J-0.0264
N5960 X-3.6474 Y-0.3271 Z-1.2305 I0.0343 J-0.015
N5965 X-3.6466 Y-0.338 Z-1.2201 I0.0374 J-0.0029
N5970 X-3.6436 Y-0.3466 Z-1.2081 I0.0366 J0.008
N5975 X-3.64 Y-0.3525 Z-1.1947 I0.0336 J0.0166
N5980 X-3.6375 Y-0.3555 Z-1.1835 I0.03 J0.0225
N5985 X-3.6359 Y-0.3571 Z-1.1718 I0.0275 J0.0255
N5990 X-3.6353 Y-0.3577 Z-1.16 I0.0259 J0.0271
N5995 G0 Z0.6
N6005 M9
N6010 G53 Z0.
N6015 M30
%
