%
(FCG_TRIGGER_SLOT)
(.25 END MILL)
(T2  D=0.25 CR=0. - ZMIN=-1.37 - FLAT END MILL)
N10 G90 G94 G17 G91.1
N15 G20
N20 G53 G0 Z0.
(FCG_TRIGGER_SLOT)
N25 M9
N30 T2 M6
N35 S2000 M3
N40 G54
N45 M8
N55 G0 X-4.4731 Y-0.4432
N60 G43 Z0.6 H2
N65 G0 Z-1.171
N70 G1 Z-1.29 F10.
N75 G3 X-4.4807 Y-0.4592 I0.0041 J-0.0118
N80 G1 X-4.4797 Y-0.4619
N85 X-4.4784 Y-0.4646
N90 Y-0.4647
N95 X-4.4769 Y-0.4673
N100 X-4.475 Y-0.4697
N105 X-4.473 Y-0.472
N110 X-4.4729
N115 X-4.4708 Y-0.474
N120 X-4.4707 Y-0.4741
N125 X-4.4683 Y-0.4758
N130 Y-0.4759
N135 X-4.4657 Y-0.4774
N140 X-4.4656
N145 X-4.4629 Y-0.4787
N150 X-4.46 Y-0.4798
N155 X-4.4571 Y-0.4805
N160 X-4.457
N165 X-4.4541 Y-0.4809
N170 X-4.454
N175 X-4.449 Y-0.4812
N180 X-4.4411 Y-0.4813
N185 X-4.0929
N190 X-4.085 Y-0.4812
N195 X-4.08 Y-0.4809
N200 X-4.077 Y-0.4805
N205 X-4.0769
N210 X-4.074 Y-0.4798
N215 X-4.0711 Y-0.4787
N220 X-4.071
N225 X-4.0684 Y-0.4774
N230 X-4.0683
N235 X-4.0657 Y-0.4759
N240 Y-0.4758
N245 X-4.0633 Y-0.4741
N250 X-4.0632 Y-0.474
N255 X-4.0611 Y-0.472
N260 X-4.061
N265 X-4.059 Y-0.4697
N270 X-4.0571 Y-0.4673
N275 X-4.0556 Y-0.4647
N280 Y-0.4646
N285 X-4.0543 Y-0.4619
N290 X-4.0532 Y-0.459
N295 Y-0.4589
N300 X-4.0525 Y-0.4561
N305 X-4.0521 Y-0.4531
N310 X-4.052 Y-0.453
N315 X-4.0519 Y-0.45
N320 X-4.052 Y-0.447
N325 X-4.0521 Y-0.4469
N330 X-4.0525 Y-0.444
N335 Y-0.4439
N340 X-4.0532 Y-0.4411
N345 Y-0.441
N350 X-4.0543 Y-0.4381
N355 X-4.0556 Y-0.4354
N360 Y-0.4353
N365 X-4.0571 Y-0.4327
N370 X-4.0573 Y-0.4325
N375 X-4.059 Y-0.4303
N380 X-4.061 Y-0.428
N385 X-4.0611
N390 X-4.0632 Y-0.426
N395 X-4.0633 Y-0.4259
N400 X-4.0657 Y-0.4242
N405 Y-0.4241
N410 X-4.0683 Y-0.4226
N415 X-4.0684
N420 X-4.071 Y-0.4213
N425 X-4.0711
N430 X-4.074 Y-0.4202
N435 X-4.0769 Y-0.4195
N440 X-4.077
N445 X-4.08 Y-0.4191
N450 X-4.085 Y-0.4188
N455 X-4.0929 Y-0.4187
N460 X-4.4411
N465 X-4.449 Y-0.4188
N470 X-4.454 Y-0.4191
N475 X-4.4541
N480 X-4.457 Y-0.4195
N485 X-4.4571
N490 X-4.46 Y-0.4202
N495 X-4.4629 Y-0.4213
N500 X-4.4656 Y-0.4226
N505 X-4.4657
N510 X-4.4683 Y-0.4241
N515 Y-0.4242
N520 X-4.4707 Y-0.4259
N525 X-4.4708 Y-0.426
N530 X-4.4729 Y-0.428
N535 X-4.473
N540 X-4.475 Y-0.4303
N545 X-4.4769 Y-0.4327
N550 X-4.4784 Y-0.4353
N555 Y-0.4354
N560 X-4.4797 Y-0.4381
N565 X-4.4808 Y-0.441
N570 X-4.4815 Y-0.4439
N575 Y-0.444
N580 X-4.4819 Y-0.4469
N585 X-4.482 Y-0.447
N590 X-4.4821 Y-0.45
N595 X-4.482 Y-0.453
N600 X-4.4819 Y-0.4531
N605 X-4.4815 Y-0.4561
N610 X-4.4808 Y-0.459
N615 X-4.4807 Y-0.4592
N620 X-4.4797 Y-0.4619
N625 Y-0.462
N630 X-4.4784 Y-0.4646
N635 Y-0.4647
N640 X-4.4769 Y-0.4672
N645 X-4.4768 Y-0.4673
N650 X-4.4751 Y-0.4697
N655 X-4.475 Y-0.4698
N660 X-4.473 Y-0.4719
N665 Y-0.472
N670 X-4.4708 Y-0.474
N675 X-4.4707 Y-0.4741
N680 X-4.4684 Y-0.4758
N685 X-4.4683 Y-0.4759
N690 X-4.4657 Y-0.4774
N695 X-4.4629 Y-0.4787
N700 X-4.4628 Y-0.4788
N705 X-4.46 Y-0.4798 Z-1.2901
N710 X-4.4599
N715 X-4.4571 Y-0.4805
N720 X-4.457
N725 X-4.4541 Y-0.4809
N730 X-4.454 Y-0.481
N735 X-4.4522
N740 X-4.4488 Y-0.4812
N745 X-4.4349 Y-0.4813 Z-1.2902
N750 X-4.421 Z-1.2903
N755 X-4.4071 Z-1.2904
N760 X-4.3932 Z-1.2906
N765 X-4.3793 Z-1.2907
N770 X-4.3654 Z-1.2909
N775 X-4.3584 Z-1.291
N780 X-4.3515 Z-1.2911
N785 X-4.3445 Z-1.2912
N790 X-4.3376 Z-1.2914
N795 X-4.3306 Z-1.2915
N800 X-4.3237 Z-1.2916
N805 X-4.3167 Z-1.2917
N810 X-4.3098 Z-1.2919
N815 X-4.3028 Z-1.292
N820 X-4.2959 Z-1.2921
N825 X-4.2889 Z-1.2923
N830 X-4.282 Z-1.2924
N835 X-4.275 Z-1.2926
N840 X-4.2681 Z-1.2928
N845 X-4.2611 Z-1.2929
N850 X-4.2542 Z-1.2931
N855 X-4.2472 Z-1.2933
N860 X-4.2403 Z-1.2934
N865 X-4.2333 Z-1.2936
N870 X-4.2264 Z-1.2938
N875 X-4.2194 Z-1.294
N880 X-4.2125 Z-1.2942
N885 X-4.2055 Z-1.2944
N890 X-4.1986 Z-1.2946
N895 X-4.1951 Z-1.2947
N900 X-4.1916 Z-1.2948
N905 X-4.1881 Z-1.2949
N910 X-4.1847 Z-1.295
N915 X-4.1812 Z-1.2951
N920 X-4.1777 Z-1.2952
N925 X-4.1742 Z-1.2953
N930 X-4.1708 Z-1.2954
N935 X-4.1673 Z-1.2955
N940 X-4.1638 Z-1.2956
N945 X-4.1603 Z-1.2957
N950 X-4.1569 Z-1.2958
N955 X-4.1534 Z-1.2959
N960 X-4.1499 Z-1.2961
N965 X-4.1464 Z-1.2962
N970 X-4.143 Z-1.2963
N975 X-4.1395 Z-1.2964
N980 X-4.136 Z-1.2965
N985 X-4.1325 Z-1.2966
N990 X-4.1291 Z-1.2967
N995 X-4.1256 Z-1.2969
N1000 X-4.1221 Z-1.297
N1005 X-4.1186 Z-1.2971
N1010 X-4.1152 Z-1.2972
N1015 X-4.1117 Z-1.2973
N1020 X-4.1082 Z-1.2974
N1025 X-4.1047 Z-1.2976
N1030 X-4.1013 Z-1.2977
N1035 X-4.0978 Z-1.2978
N1040 X-4.0943 Z-1.2979
N1045 X-4.0908 Z-1.2981
N1050 X-4.0874 Z-1.2982
N1055 X-4.0839 Y-0.4811 Z-1.2983
N1060 X-4.08 Y-0.481 Z-1.2984
N1065 X-4.0799 Y-0.4809
N1070 X-4.077 Y-0.4805 Z-1.2985
N1075 X-4.0769
N1080 X-4.074 Y-0.4798 Z-1.2986
N1085 X-4.0739 Y-0.4797
N1090 X-4.0736 Y-0.4796 Z-1.2987
N1095 X-4.0712 Y-0.4788
N1100 X-4.0711 Y-0.4787 Z-1.2988
N1105 X-4.0684 Y-0.4775 Z-1.2989
N1110 X-4.0683 Y-0.4774
N1115 X-4.0658 Y-0.4759 Z-1.299
N1120 X-4.0657 Y-0.4758
N1125 X-4.0634 Y-0.4741 Z-1.2991
N1130 X-4.0633 Y-0.474
N1135 X-4.061 Y-0.472 Z-1.2992
N1140 X-4.0608 Y-0.4718
N1145 X-4.059 Y-0.4697 Z-1.2993
N1150 X-4.0589
N1155 X-4.0572 Y-0.4673 Z-1.2994
N1160 X-4.0571 Y-0.4672
N1165 X-4.0556 Y-0.4647 Z-1.2995
N1170 X-4.0555 Y-0.4646
N1175 X-4.0543 Y-0.4619 Z-1.2996
N1180 X-4.0542 Y-0.4618
N1185 X-4.054 Y-0.4612
N1190 X-4.0533 Y-0.4591 Z-1.2997
N1195 X-4.0532 Y-0.459
N1200 X-4.0525 Y-0.4561 Z-1.2998
N1205 Y-0.456
N1210 X-4.0521 Y-0.4531 Z-1.2999
N1215 X-4.052 Y-0.453
N1220 X-4.0519 Y-0.4501 Z-1.3
N1225 Y-0.45
N1230 X-4.052 Y-0.4471 Z-1.3001
N1235 X-4.0521 Y-0.4469
N1240 X-4.0525 Y-0.4439 Z-1.3002
N1245 Y-0.4437
N1250 X-4.0532 Y-0.441 Z-1.3003
N1255 X-4.0533 Y-0.4409
N1260 X-4.0543 Y-0.4381 Z-1.3004
N1265 Y-0.438
N1270 X-4.0556 Y-0.4354 Z-1.3005
N1275 Y-0.4353 Z-1.3006
N1280 X-4.0571 Y-0.4328 Z-1.3007
N1285 X-4.0572 Y-0.4327
N1290 X-4.0589 Y-0.4303 Z-1.3008
N1295 X-4.059 Y-0.4302
N1300 X-4.061 Y-0.4281 Z-1.3009
N1305 Y-0.428
N1310 X-4.0632 Y-0.426 Z-1.301
N1315 X-4.0633 Y-0.4259
N1320 X-4.0656 Y-0.4242 Z-1.3011
N1325 X-4.0657 Y-0.4241
N1330 X-4.0683 Y-0.4226 Z-1.3012
N1335 X-4.0711 Y-0.4213 Z-1.3013
N1340 X-4.0712 Y-0.4212
N1345 X-4.074 Y-0.4202 Z-1.3014
N1350 X-4.0741
N1355 X-4.0769 Y-0.4195 Z-1.3015
N1360 X-4.077
N1365 X-4.0799 Y-0.4191 Z-1.3016
N1370 X-4.08 Y-0.419
N1375 X-4.0852 Y-0.4188 Z-1.3018
N1380 X-4.0887 Y-0.4187 Z-1.3019
N1385 X-4.0922 Z-1.302
N1390 X-4.0991 Z-1.3023
N1395 X-4.12 Z-1.303
N1400 X-4.1269 Z-1.3032
N1405 X-4.1478 Z-1.304
N1410 X-4.1547 Z-1.3042
N1415 X-4.1791 Z-1.3051
N1420 X-4.1999 Z-1.3058
N1425 X-4.2069 Z-1.306
N1430 X-4.2277 Z-1.3068
N1435 X-4.2381 Z-1.3071
N1440 X-4.2868 Z-1.3088
N1445 X-4.3285 Z-1.3103
N1450 X-4.4084 Z-1.3131
N1455 X-4.4188 Z-1.3134
N1460 X-4.4466 Z-1.3144
N1465 X-4.4501 Y-0.4189 Z-1.3145
N1470 X-4.454 Y-0.419 Z-1.3147
N1475 X-4.4541 Y-0.4191
N1480 X-4.457 Y-0.4195 Z-1.3148
N1485 X-4.4571
N1490 X-4.46 Y-0.4202 Z-1.3149
N1495 X-4.4601 Y-0.4203
N1500 X-4.4628 Y-0.4212 Z-1.315
N1505 X-4.4629 Y-0.4213
N1510 X-4.4656 Y-0.4225 Z-1.3151
N1515 X-4.4657 Y-0.4226
N1520 X-4.4682 Y-0.4241 Z-1.3152
N1525 X-4.4683 Y-0.4242
N1530 X-4.4706 Y-0.4259 Z-1.3153
N1535 X-4.4707 Y-0.426
N1540 X-4.473 Y-0.428 Z-1.3154
N1545 X-4.4732 Y-0.4283
N1550 X-4.475 Y-0.4303 Z-1.3155
N1555 X-4.4751
N1560 X-4.4768 Y-0.4327 Z-1.3156
N1565 X-4.4769 Y-0.4328
N1570 X-4.4784 Y-0.4353 Z-1.3157
N1575 X-4.4785 Y-0.4354
N1580 X-4.4797 Y-0.4381 Z-1.3158
N1585 X-4.4798 Y-0.4382
N1590 X-4.4807 Y-0.4409 Z-1.3159
N1595 X-4.4808 Y-0.441
N1600 X-4.4815 Y-0.4439 Z-1.316
N1605 Y-0.444
N1610 X-4.4819 Y-0.4469 Z-1.3161
N1615 X-4.482 Y-0.447
N1620 X-4.4821 Y-0.4499 Z-1.3163
N1625 Y-0.45
N1630 X-4.482 Y-0.4529 Z-1.3164
N1635 X-4.4819 Y-0.4531
N1640 X-4.4815 Y-0.4561 Z-1.3165
N1645 X-4.4814 Y-0.4563
N1650 X-4.4808 Y-0.459 Z-1.3166
N1655 X-4.4807 Y-0.4591
N1660 X-4.4801 Y-0.4609
N1665 X-4.4797 Y-0.4619 Z-1.3167
N1670 Y-0.462
N1675 X-4.4784 Y-0.4646 Z-1.3168
N1680 Y-0.4647
N1685 X-4.4769 Y-0.4672 Z-1.3169
N1690 X-4.4768 Y-0.4673
N1695 X-4.4751 Y-0.4697 Z-1.317
N1700 X-4.475 Y-0.4698
N1705 X-4.473 Y-0.4719 Z-1.3171
N1710 Y-0.472
N1715 X-4.4708 Y-0.474 Z-1.3172
N1720 X-4.4707 Y-0.4741
N1725 X-4.4684 Y-0.4758 Z-1.3173
N1730 X-4.4683 Y-0.4759
N1735 X-4.4657 Y-0.4774 Z-1.3174
N1740 X-4.4629 Y-0.4787 Z-1.3175
N1745 X-4.4628 Y-0.4788
N1750 X-4.4624 Y-0.4789
N1755 X-4.46 Y-0.4798 Z-1.3176
N1760 X-4.4599
N1765 X-4.4571 Y-0.4805 Z-1.3177
N1770 X-4.457
N1775 X-4.4541 Y-0.4809 Z-1.3178
N1780 X-4.454 Y-0.481
N1785 X-4.4488 Y-0.4812 Z-1.318
N1790 X-4.4453 Y-0.4813 Z-1.3181
N1795 X-4.4384 Z-1.3184
N1800 X-4.4349 Z-1.3185
N1805 X-4.4279 Z-1.3187
N1810 X-4.4175 Z-1.3191
N1815 X-4.4105 Z-1.3194
N1820 X-4.4071 Z-1.3195
N1825 X-4.4001 Z-1.3197
N1830 X-4.3897 Z-1.3201
N1835 X-4.3827 Z-1.3203
N1840 X-4.3793 Z-1.3204
N1845 X-4.3723 Z-1.3207
N1850 X-4.3619 Z-1.3211
N1855 X-4.3549 Z-1.3213
N1860 X-4.3515 Z-1.3214
N1865 X-4.3445 Z-1.3217
N1870 X-4.3376 Z-1.3219
N1875 X-4.3341 Z-1.322
N1880 X-4.3306 Z-1.3221
N1885 X-4.3271 Z-1.3223
N1890 X-4.3167 Z-1.3226
N1895 X-4.3132 Z-1.3227
N1900 X-4.3098 Z-1.3229
N1905 X-4.3063 Z-1.323
N1910 X-4.3028 Z-1.3231
N1915 X-4.2993 Z-1.3232
N1920 X-4.2959 Z-1.3233
N1925 X-4.2924 Z-1.3235
N1930 X-4.2889 Z-1.3236
N1935 X-4.2854 Z-1.3237
N1940 X-4.282 Z-1.3238
N1945 X-4.2785 Z-1.3239
N1950 X-4.275 Z-1.324
N1955 X-4.2715 Z-1.3241
N1960 X-4.2681 Z-1.3242
N1965 X-4.2646 Z-1.3243
N1970 X-4.2611 Z-1.3245
N1975 X-4.2576 Z-1.3246
N1980 X-4.2542 Z-1.3247
N1985 X-4.2507 Z-1.3248
N1990 X-4.2472 Z-1.3249
N1995 X-4.2437 Z-1.325
N2000 X-4.2403 Z-1.3251
N2005 X-4.2368 Z-1.3252
N2010 X-4.2333 Z-1.3253
N2015 X-4.2298 Z-1.3254
N2020 X-4.2264 Z-1.3255
N2025 X-4.2194 Z-1.3257
N2030 X-4.2125 Z-1.3259
N2035 X-4.2055 Z-1.3261
N2040 X-4.1986 Z-1.3263
N2045 X-4.1916 Z-1.3264
N2050 X-4.1847 Z-1.3266
N2055 X-4.1777 Z-1.3268
N2060 X-4.1708 Z-1.327
N2065 X-4.1638 Z-1.3271
N2070 X-4.1569 Z-1.3273
N2075 X-4.1499 Z-1.3275
N2080 X-4.143 Z-1.3276
N2085 X-4.136 Z-1.3278
N2090 X-4.1291 Z-1.3279
N2095 X-4.1221 Z-1.328
N2100 X-4.1152 Z-1.3282
N2105 X-4.1082 Z-1.3283
N2110 X-4.1013 Z-1.3284
N2115 X-4.0943 Z-1.3286
N2120 X-4.0874 Z-1.3287
N2125 X-4.0804 Y-0.481 Z-1.3288
N2130 X-4.08
N2135 X-4.0799 Y-0.4809
N2140 X-4.077 Y-0.4805 Z-1.3289
N2145 X-4.0769
N2150 X-4.074 Y-0.4798
N2155 X-4.0739 Y-0.4797
N2160 X-4.0712 Y-0.4788
N2165 X-4.0711 Y-0.4787 Z-1.329
N2170 X-4.0684 Y-0.4775
N2175 X-4.0683 Y-0.4774
N2180 X-4.0658 Y-0.4759
N2185 X-4.0657 Y-0.4758
N2190 X-4.0634 Y-0.4741 Z-1.3291
N2195 X-4.0633 Y-0.474
N2200 X-4.061 Y-0.472
N2205 X-4.0608 Y-0.4718
N2210 X-4.059 Y-0.4697 Z-1.3292
N2215 X-4.0589
N2220 X-4.0572 Y-0.4673
N2225 X-4.0571 Y-0.4672
N2230 X-4.0556 Y-0.4647
N2235 X-4.0555 Y-0.4646 Z-1.3293
N2240 X-4.0543 Y-0.4619
N2245 X-4.0542 Y-0.4618
N2250 X-4.0533 Y-0.4591
N2255 X-4.0532 Y-0.459
N2260 X-4.0525 Y-0.4561 Z-1.3294
N2265 Y-0.456
N2270 X-4.0521 Y-0.4531
N2275 X-4.052 Y-0.453
N2280 X-4.0519 Y-0.4501
N2285 Y-0.45
N2290 X-4.052 Y-0.4471 Z-1.3295
N2295 X-4.0521 Y-0.4469
N2300 X-4.0525 Y-0.4439
N2305 Y-0.4437
N2310 X-4.0532 Y-0.441
N2315 X-4.0533 Y-0.4409
N2320 X-4.0543 Y-0.4381 Z-1.3296
N2325 Y-0.438
N2330 X-4.0556 Y-0.4354
N2335 Y-0.4353
N2340 X-4.0571 Y-0.4328
N2345 X-4.0572 Y-0.4327
N2350 X-4.0589 Y-0.4303 Z-1.3297
N2355 X-4.059 Y-0.4302
N2360 X-4.061 Y-0.4281
N2365 Y-0.428
N2370 X-4.0632 Y-0.426
N2375 X-4.0633 Y-0.4259
N2380 X-4.0656 Y-0.4242
N2385 X-4.0657 Y-0.4241
N2390 X-4.0683 Y-0.4226 Z-1.3298
N2395 X-4.0711 Y-0.4213
N2400 X-4.0712 Y-0.4212
N2405 X-4.074 Y-0.4202
N2410 X-4.0741
N2415 X-4.0769 Y-0.4195
N2420 X-4.077
N2425 X-4.0799 Y-0.4191
N2430 X-4.08 Y-0.419
N2435 X-4.0818
N2440 X-4.0852 Y-0.4188 Z-1.3299
N2445 X-4.0922 Y-0.4187
N2450 X-4.1061 Z-1.33
N2455 X-4.12
N2460 X-4.1257
N2465 X-4.13
N2470 X-4.1315
N2475 X-4.4411
N2480 X-4.449 Y-0.4188
N2485 X-4.454 Y-0.4191
N2490 X-4.4541
N2495 X-4.457 Y-0.4195
N2500 X-4.4571
N2505 X-4.46 Y-0.4202
N2510 X-4.4629 Y-0.4213
N2515 X-4.4656 Y-0.4226
N2520 X-4.4657
N2525 X-4.4683 Y-0.4241
N2530 Y-0.4242
N2535 X-4.4707 Y-0.4259
N2540 X-4.4708 Y-0.426
N2545 X-4.4729 Y-0.428
N2550 X-4.473
N2555 X-4.475 Y-0.4303
N2560 X-4.4769 Y-0.4327
N2565 X-4.4784 Y-0.4353
N2570 Y-0.4354
N2575 X-4.4797 Y-0.4381
N2580 X-4.4808 Y-0.441
N2585 X-4.4815 Y-0.4439
N2590 Y-0.444
N2595 X-4.4819 Y-0.4469
N2600 X-4.482 Y-0.447
N2605 X-4.4821 Y-0.45
N2610 X-4.482 Y-0.453
N2615 X-4.4819 Y-0.4531
N2620 X-4.4815 Y-0.4561
N2625 X-4.4808 Y-0.459
N2630 X-4.4797 Y-0.4619
N2635 X-4.4784 Y-0.4646
N2640 Y-0.4647
N2645 X-4.4769 Y-0.4673
N2650 X-4.475 Y-0.4697
N2655 X-4.473 Y-0.472
N2660 X-4.4729
N2665 X-4.4708 Y-0.474
N2670 X-4.4707 Y-0.4741
N2675 X-4.4683 Y-0.4758
N2680 Y-0.4759
N2685 X-4.4657 Y-0.4774
N2690 X-4.4656
N2695 X-4.4629 Y-0.4787
N2700 X-4.46 Y-0.4798
N2705 X-4.4571 Y-0.4805
N2710 X-4.457
N2715 X-4.4541 Y-0.4809
N2720 X-4.454
N2725 X-4.449 Y-0.4812
N2730 X-4.4411 Y-0.4813
N2735 X-4.0929
N2740 X-4.085 Y-0.4812
N2745 X-4.08 Y-0.4809
N2750 X-4.077 Y-0.4805
N2755 X-4.0769
N2760 X-4.074 Y-0.4798
N2765 X-4.0711 Y-0.4787
N2770 X-4.071
N2775 X-4.0684 Y-0.4774
N2780 X-4.0683
N2785 X-4.0657 Y-0.4759
N2790 Y-0.4758
N2795 X-4.0633 Y-0.4741
N2800 X-4.0632 Y-0.474
N2805 X-4.0611 Y-0.472
N2810 X-4.061
N2815 X-4.059 Y-0.4697
N2820 X-4.0571 Y-0.4673
N2825 X-4.0556 Y-0.4647
N2830 Y-0.4646
N2835 X-4.0543 Y-0.4619
N2840 X-4.0532 Y-0.459
N2845 Y-0.4589
N2850 X-4.0525 Y-0.4561
N2855 X-4.0521 Y-0.4531
N2860 X-4.052 Y-0.453
N2865 X-4.0519 Y-0.45
N2870 X-4.052 Y-0.447
N2875 X-4.0521 Y-0.4469
N2880 X-4.0525 Y-0.444
N2885 Y-0.4439
N2890 X-4.0532 Y-0.4411
N2895 Y-0.441
N2900 X-4.0543 Y-0.4381
N2905 X-4.0556 Y-0.4354
N2910 Y-0.4353
N2915 X-4.0571 Y-0.4327
N2920 X-4.0573 Y-0.4325
N2925 X-4.059 Y-0.4303
N2930 X-4.061 Y-0.428
N2935 X-4.0611
N2940 X-4.0632 Y-0.426
N2945 X-4.0633 Y-0.4259
N2950 X-4.0657 Y-0.4242
N2955 Y-0.4241
N2960 X-4.0683 Y-0.4226
N2965 X-4.0684
N2970 X-4.071 Y-0.4213
N2975 X-4.0711
N2980 X-4.074 Y-0.4202
N2985 X-4.0769 Y-0.4195
N2990 X-4.077
N2995 X-4.08 Y-0.4191
N3000 X-4.085 Y-0.4188
N3005 X-4.0929 Y-0.4187
N3010 X-4.1315
N3015 X-4.1332
N3020 X-4.135
N3025 X-4.1384
N3030 X-4.1454
N3035 X-4.1593
N3040 X-4.1732 Z-1.3301
N3045 X-4.1871 Z-1.3302
N3050 X-4.201 Z-1.3303
N3055 X-4.2149 Z-1.3304
N3060 X-4.2288 Z-1.3306
N3065 X-4.2427 Z-1.3307
N3070 X-4.2566 Z-1.3309
N3075 X-4.2635 Z-1.331
N3080 X-4.2705 Z-1.3311
N3085 X-4.2774 Z-1.3312
N3090 X-4.2844 Z-1.3314
N3095 X-4.2913 Z-1.3315
N3100 X-4.2983 Z-1.3316
N3105 X-4.3052 Z-1.3317
N3110 X-4.3122 Z-1.3319
N3115 X-4.3191 Z-1.332
N3120 X-4.3261 Z-1.3321
N3125 X-4.333 Z-1.3323
N3130 X-4.34 Z-1.3324
N3135 X-4.3469 Z-1.3326
N3140 X-4.3539 Z-1.3328
N3145 X-4.3608 Z-1.3329
N3150 X-4.3678 Z-1.3331
N3155 X-4.3747 Z-1.3333
N3160 X-4.3817 Z-1.3334
N3165 X-4.3886 Z-1.3336
N3170 X-4.3956 Z-1.3338
N3175 X-4.4025 Z-1.334
N3180 X-4.4095 Z-1.3342
N3185 X-4.4164 Z-1.3344
N3190 X-4.4234 Z-1.3346
N3195 X-4.4269 Z-1.3347
N3200 X-4.4303 Z-1.3348
N3205 X-4.4338 Z-1.3349
N3210 X-4.4373 Z-1.335
N3215 X-4.4408 Z-1.3351
N3220 X-4.4442 Z-1.3352
N3225 X-4.4477 Z-1.3353
N3230 X-4.4512 Y-0.4189 Z-1.3354
N3235 X-4.454 Y-0.419 Z-1.3355
N3240 X-4.4541 Y-0.4191
N3245 X-4.457 Y-0.4195 Z-1.3356
N3250 X-4.4571
N3255 X-4.46 Y-0.4202 Z-1.3357
N3260 X-4.4601 Y-0.4203
N3265 X-4.4628 Y-0.4212 Z-1.3358
N3270 X-4.4629 Y-0.4213
N3275 X-4.4656 Y-0.4225 Z-1.3359
N3280 X-4.4657 Y-0.4226
N3285 X-4.4682 Y-0.4241 Z-1.336
N3290 X-4.4683 Y-0.4242
N3295 X-4.4706 Y-0.4259 Z-1.3361
N3300 X-4.4707 Y-0.426
N3305 X-4.473 Y-0.428 Z-1.3362
N3310 X-4.4731 Y-0.4281
N3315 X-4.475 Y-0.4303 Z-1.3363
N3320 X-4.4751
N3325 X-4.4768 Y-0.4327 Z-1.3364
N3330 X-4.4769 Y-0.4328
N3335 X-4.4784 Y-0.4353 Z-1.3365
N3340 X-4.4785 Y-0.4354
N3345 X-4.4797 Y-0.4381 Z-1.3366
N3350 X-4.4798 Y-0.4382
N3355 X-4.4807 Y-0.4409 Z-1.3367
N3360 X-4.4808 Y-0.441
N3365 X-4.4815 Y-0.4439 Z-1.3368
N3370 Y-0.444
N3375 X-4.4819 Y-0.4469 Z-1.3369
N3380 X-4.482 Y-0.447
N3385 X-4.4821 Y-0.4499 Z-1.337
N3390 Y-0.45
N3395 X-4.4819 Y-0.453 Z-1.3371
N3400 X-4.4815 Y-0.4561 Z-1.3372
N3405 Y-0.4562
N3410 X-4.4808 Y-0.459 Z-1.3373
N3415 X-4.4807 Y-0.4591
N3420 X-4.4797 Y-0.4619 Z-1.3374
N3425 Y-0.462
N3430 X-4.4784 Y-0.4646 Z-1.3375
N3435 Y-0.4647
N3440 X-4.4769 Y-0.4672 Z-1.3376
N3445 X-4.4768 Y-0.4673
N3450 X-4.4751 Y-0.4697 Z-1.3377
N3455 X-4.475 Y-0.4698
N3460 X-4.473 Y-0.4719 Z-1.3378
N3465 Y-0.472
N3470 X-4.4708 Y-0.474 Z-1.3379
N3475 X-4.4707 Y-0.4741
N3480 X-4.4684 Y-0.4758 Z-1.338
N3485 X-4.4683 Y-0.4759
N3490 X-4.4657 Y-0.4774 Z-1.3381
N3495 X-4.4654 Y-0.4776
N3500 X-4.4646 Y-0.4779 Z-1.3382
N3505 X-4.4629 Y-0.4787
N3510 X-4.4628 Y-0.4788
N3515 X-4.46 Y-0.4798 Z-1.3383
N3520 X-4.4599
N3525 X-4.4571 Y-0.4805 Z-1.3384
N3530 X-4.457
N3535 X-4.4541 Y-0.4809 Z-1.3386
N3540 X-4.454 Y-0.481
N3545 X-4.4512 Y-0.4811 Z-1.3387
N3550 X-4.4477 Y-0.4813 Z-1.3388
N3555 X-4.4407 Z-1.339
N3560 X-4.4373 Z-1.3391
N3565 X-4.4303 Z-1.3394
N3570 X-4.4199 Z-1.3397
N3575 X-4.4129 Z-1.34
N3580 X-4.4095 Z-1.3401
N3585 X-4.4025 Z-1.3404
N3590 X-4.3921 Z-1.3407
N3595 X-4.3851 Z-1.341
N3600 X-4.3817 Z-1.3411
N3605 X-4.3747 Z-1.3413
N3610 X-4.3643 Z-1.3417
N3615 X-4.3573 Z-1.3419
N3620 X-4.3539 Z-1.3421
N3625 X-4.3469 Z-1.3423
N3630 X-4.3261 Z-1.343
N3635 X-4.3191 Z-1.3433
N3640 X-4.2983 Z-1.344
N3645 X-4.2913 Z-1.3442
N3650 X-4.267 Z-1.3451
N3655 X-4.2461 Z-1.3458
N3660 X-4.2392 Z-1.3461
N3665 X-4.2183 Z-1.3468
N3670 X-4.2079 Z-1.3471
N3675 X-4.1593 Z-1.3488
N3680 X-4.1176 Z-1.3503
N3685 X-4.0863 Z-1.3514
N3690 X-4.0828 Y-0.4811 Z-1.3515
N3695 X-4.08 Y-0.481 Z-1.3516
N3700 X-4.0799 Y-0.4809
N3705 X-4.077 Y-0.4805 Z-1.3517
N3710 X-4.0769
N3715 X-4.074 Y-0.4798 Z-1.3518
N3720 X-4.0739 Y-0.4797
N3725 X-4.0712 Y-0.4788 Z-1.3519
N3730 X-4.0711 Y-0.4787
N3735 X-4.0684 Y-0.4775 Z-1.352
N3740 X-4.0683 Y-0.4774
N3745 X-4.0658 Y-0.4759 Z-1.3521
N3750 X-4.0657 Y-0.4758
N3755 X-4.0633 Y-0.474 Z-1.3523
N3760 X-4.061 Y-0.472 Z-1.3524
N3765 X-4.0609 Y-0.4719
N3770 X-4.059 Y-0.4697 Z-1.3525
N3775 X-4.0589
N3780 X-4.0572 Y-0.4673 Z-1.3526
N3785 X-4.0571 Y-0.4672
N3790 X-4.0556 Y-0.4647 Z-1.3527
N3795 X-4.0555 Y-0.4646
N3800 X-4.0543 Y-0.4619 Z-1.3528
N3805 X-4.0542 Y-0.4618
N3810 X-4.0533 Y-0.4591 Z-1.3529
N3815 X-4.0532 Y-0.459
N3820 X-4.0525 Y-0.4561 Z-1.353
N3825 Y-0.456
N3830 X-4.0521 Y-0.4531 Z-1.3531
N3835 X-4.052 Y-0.453
N3840 X-4.0519 Y-0.4501 Z-1.3532
N3845 Y-0.45
N3850 X-4.0521 Y-0.447 Z-1.3533
N3855 X-4.0525 Y-0.4439 Z-1.3534
N3860 Y-0.4438
N3865 X-4.0532 Y-0.441 Z-1.3535
N3870 X-4.0533 Y-0.4409
N3875 X-4.0543 Y-0.4381 Z-1.3536
N3880 Y-0.438
N3885 X-4.0556 Y-0.4354 Z-1.3537
N3890 Y-0.4353
N3895 X-4.0571 Y-0.4328 Z-1.3538
N3900 X-4.0572 Y-0.4327
N3905 X-4.0589 Y-0.4303 Z-1.3539
N3910 X-4.059 Y-0.4302
N3915 X-4.061 Y-0.4281 Z-1.354
N3920 Y-0.428
N3925 X-4.0632 Y-0.426 Z-1.3541
N3930 X-4.0633 Y-0.4259 Z-1.3542
N3935 X-4.0656 Y-0.4242 Z-1.3543
N3940 X-4.0657 Y-0.4241
N3945 X-4.0683 Y-0.4226 Z-1.3544
N3950 X-4.0686 Y-0.4224
N3955 X-4.0711 Y-0.4213 Z-1.3545
N3960 X-4.0712 Y-0.4212
N3965 X-4.0739 Y-0.4202 Z-1.3546
N3970 X-4.0741
N3975 X-4.0769 Y-0.4195 Z-1.3547
N3980 X-4.077
N3985 X-4.0799 Y-0.4191 Z-1.3548
N3990 X-4.08 Y-0.419
N3995 X-4.0828 Y-0.4189 Z-1.3549
N4000 X-4.0863 Y-0.4187 Z-1.355
N4005 X-4.0898 Z-1.3551
N4010 X-4.1002 Z-1.3555
N4015 X-4.1072 Z-1.3557
N4020 X-4.1141 Z-1.356
N4025 X-4.1176 Z-1.3561
N4030 X-4.1245 Z-1.3563
N4035 X-4.1454 Z-1.3571
N4040 X-4.1523 Z-1.3573
N4045 X-4.1732 Z-1.358
N4050 X-4.1801 Z-1.3583
N4055 X-4.1906 Z-1.3586
N4060 X-4.1975 Z-1.3589
N4065 X-4.201 Z-1.359
N4070 X-4.2079 Z-1.3593
N4075 X-4.2184 Z-1.3596
N4080 X-4.2253 Z-1.3599
N4085 X-4.2288 Z-1.36
N4090 X-4.2357 Z-1.3602
N4095 X-4.2462 Z-1.3606
N4100 X-4.2531 Z-1.3608
N4105 X-4.2566 Z-1.361
N4110 X-4.2635 Z-1.3612
N4115 X-4.2705 Z-1.3614
N4120 X-4.2774 Z-1.3617
N4125 X-4.2844 Z-1.3619
N4130 X-4.2879 Z-1.362
N4135 X-4.2913 Z-1.3622
N4140 X-4.2948 Z-1.3623
N4145 X-4.3052 Z-1.3627
N4150 X-4.3087 Z-1.3628
N4155 X-4.3122 Z-1.3629
N4160 X-4.3157 Z-1.363
N4165 X-4.3191 Z-1.3631
N4170 X-4.3226 Z-1.3632
N4175 X-4.3261 Z-1.3634
N4180 X-4.3296 Z-1.3635
N4185 X-4.333 Z-1.3636
N4190 X-4.3365 Z-1.3637
N4195 X-4.34 Z-1.3638
N4200 X-4.3435 Z-1.3639
N4205 X-4.3469 Z-1.364
N4210 X-4.3504 Z-1.3641
N4215 X-4.3539 Z-1.3643
N4220 X-4.3574 Z-1.3644
N4225 X-4.3608 Z-1.3645
N4230 X-4.3643 Z-1.3646
N4235 X-4.3678 Z-1.3647
N4240 X-4.3713 Z-1.3648
N4245 X-4.3747 Z-1.3649
N4250 X-4.3782 Z-1.365
N4255 X-4.3817 Z-1.3651
N4260 X-4.3852 Z-1.3652
N4265 X-4.3886 Z-1.3653
N4270 X-4.3921 Z-1.3654
N4275 X-4.3956 Z-1.3655
N4280 X-4.4025 Z-1.3657
N4285 X-4.4095 Z-1.3659
N4290 X-4.4164 Z-1.3661
N4295 X-4.4234 Z-1.3663
N4300 X-4.4303 Z-1.3665
N4305 X-4.4373 Z-1.3666
N4310 X-4.4442 Z-1.3668
N4315 X-4.4512 Y-0.4189 Z-1.367
N4320 X-4.454 Y-0.419
N4325 X-4.4541 Y-0.4191
N4330 X-4.457 Y-0.4195 Z-1.3671
N4335 X-4.4571
N4340 X-4.46 Y-0.4202 Z-1.3672
N4345 X-4.4601 Y-0.4203
N4350 X-4.4628 Y-0.4212 Z-1.3673
N4355 X-4.4629 Y-0.4213
N4360 X-4.4656 Y-0.4225
N4365 X-4.4657 Y-0.4226
N4370 X-4.4682 Y-0.4241 Z-1.3674
N4375 X-4.4683 Y-0.4242
N4380 X-4.4707 Y-0.426 Z-1.3675
N4385 X-4.473 Y-0.428
N4390 X-4.4731 Y-0.4281
N4395 X-4.475 Y-0.4303 Z-1.3676
N4400 X-4.4751
N4405 X-4.4768 Y-0.4327 Z-1.3677
N4410 X-4.4769 Y-0.4328
N4415 X-4.4784 Y-0.4353
N4420 X-4.4785 Y-0.4354
N4425 X-4.4797 Y-0.4381 Z-1.3678
N4430 X-4.4798 Y-0.4382
N4435 X-4.4807 Y-0.4409 Z-1.3679
N4440 X-4.4808 Y-0.441
N4445 X-4.4815 Y-0.4439
N4450 Y-0.444
N4455 X-4.4819 Y-0.4469 Z-1.368
N4460 X-4.482 Y-0.447
N4465 X-4.4821 Y-0.4499 Z-1.3681
N4470 Y-0.45
N4475 X-4.4819 Y-0.453
N4480 X-4.4815 Y-0.4561 Z-1.3682
N4485 Y-0.4562
N4490 X-4.4808 Y-0.459
N4495 X-4.4807 Y-0.4591
N4500 X-4.4797 Y-0.4619 Z-1.3683
N4505 Y-0.462
N4510 X-4.4784 Y-0.4646 Z-1.3684
N4515 Y-0.4647
N4520 X-4.4769 Y-0.4672
N4525 X-4.4768 Y-0.4673
N4530 X-4.4751 Y-0.4697 Z-1.3685
N4535 X-4.475 Y-0.4698
N4540 X-4.473 Y-0.4719
N4545 Y-0.472
N4550 X-4.4708 Y-0.474 Z-1.3686
N4555 X-4.4707 Y-0.4741
N4560 X-4.4684 Y-0.4758
N4565 X-4.4683 Y-0.4759
N4570 X-4.4657 Y-0.4774 Z-1.3687
N4575 X-4.4654 Y-0.4776
N4580 X-4.4629 Y-0.4787
N4585 X-4.4628 Y-0.4788
N4590 X-4.46 Y-0.4798 Z-1.3688
N4595 X-4.4599
N4600 X-4.4571 Y-0.4805
N4605 X-4.457
N4610 X-4.4541 Y-0.4809 Z-1.3689
N4615 X-4.454 Y-0.481
N4620 X-4.4512 Y-0.4811
N4625 X-4.4442 Y-0.4813 Z-1.369
N4630 X-4.4373 Z-1.3691
N4635 X-4.4234 Z-1.3693
N4640 X-4.4095 Z-1.3695
N4645 X-4.3956 Z-1.3696
N4650 X-4.3817 Z-1.3697
N4655 X-4.3678 Z-1.3698
N4660 X-4.3539 Z-1.3699
N4665 X-4.34 Z-1.37
N4670 X-4.3261
N4675 X-4.3206
N4680 X-4.3165
N4685 X-4.3151
N4690 X-4.0929
N4695 X-4.085 Y-0.4812
N4700 X-4.08 Y-0.4809
N4705 X-4.077 Y-0.4805
N4710 X-4.0769
N4715 X-4.074 Y-0.4798
N4720 X-4.0711 Y-0.4787
N4725 X-4.071
N4730 X-4.0684 Y-0.4774
N4735 X-4.0683
N4740 X-4.0657 Y-0.4759
N4745 Y-0.4758
N4750 X-4.0633 Y-0.4741
N4755 X-4.0632 Y-0.474
N4760 X-4.0611 Y-0.472
N4765 X-4.061
N4770 X-4.059 Y-0.4697
N4775 X-4.0571 Y-0.4673
N4780 X-4.0556 Y-0.4647
N4785 Y-0.4646
N4790 X-4.0543 Y-0.4619
N4795 X-4.0532 Y-0.459
N4800 Y-0.4589
N4805 X-4.0525 Y-0.4561
N4810 X-4.0521 Y-0.4531
N4815 X-4.052 Y-0.453
N4820 X-4.0519 Y-0.45
N4825 X-4.052 Y-0.447
N4830 X-4.0521 Y-0.4469
N4835 X-4.0525 Y-0.444
N4840 Y-0.4439
N4845 X-4.0532 Y-0.4411
N4850 Y-0.441
N4855 X-4.0543 Y-0.4381
N4860 X-4.0556 Y-0.4354
N4865 Y-0.4353
N4870 X-4.0571 Y-0.4327
N4875 X-4.0573 Y-0.4325
N4880 X-4.059 Y-0.4303
N4885 X-4.061 Y-0.428
N4890 X-4.0611
N4895 X-4.0632 Y-0.426
N4900 X-4.0633 Y-0.4259
N4905 X-4.0657 Y-0.4242
N4910 Y-0.4241
N4915 X-4.0683 Y-0.4226
N4920 X-4.0684
N4925 X-4.071 Y-0.4213
N4930 X-4.0711
N4935 X-4.074 Y-0.4202
N4940 X-4.0769 Y-0.4195
N4945 X-4.077
N4950 X-4.08 Y-0.4191
N4955 X-4.085 Y-0.4188
N4960 X-4.0929 Y-0.4187
N4965 X-4.4411
N4970 X-4.449 Y-0.4188
N4975 X-4.454 Y-0.4191
N4980 X-4.4541
N4985 X-4.457 Y-0.4195
N4990 X-4.4571
N4995 X-4.46 Y-0.4202
N5000 X-4.4629 Y-0.4213
N5005 X-4.4656 Y-0.4226
N5010 X-4.4657
N5015 X-4.4683 Y-0.4241
N5020 Y-0.4242
N5025 X-4.4707 Y-0.4259
N5030 X-4.4708 Y-0.426
N5035 X-4.4729 Y-0.428
N5040 X-4.473
N5045 X-4.475 Y-0.4303
N5050 X-4.4769 Y-0.4327
N5055 X-4.4784 Y-0.4353
N5060 Y-0.4354
N5065 X-4.4797 Y-0.4381
N5070 X-4.4808 Y-0.441
N5075 X-4.4815 Y-0.4439
N5080 Y-0.444
N5085 X-4.4819 Y-0.4469
N5090 X-4.482 Y-0.447
N5095 X-4.4821 Y-0.45
N5100 X-4.482 Y-0.453
N5105 X-4.4819 Y-0.4531
N5110 X-4.4815 Y-0.4561
N5115 X-4.4808 Y-0.459
N5120 X-4.4797 Y-0.4619
N5125 X-4.4784 Y-0.4646
N5130 Y-0.4647
N5135 X-4.4769 Y-0.4673
N5140 X-4.475 Y-0.4697
N5145 X-4.473 Y-0.472
N5150 X-4.4729
N5155 X-4.4708 Y-0.474
N5160 X-4.4707 Y-0.4741
N5165 X-4.4683 Y-0.4758
N5170 Y-0.4759
N5175 X-4.4657 Y-0.4774
N5180 X-4.4656
N5185 X-4.4629 Y-0.4787
N5190 X-4.46 Y-0.4798
N5195 X-4.4571 Y-0.4805
N5200 X-4.457
N5205 X-4.4541 Y-0.4809
N5210 X-4.454
N5215 X-4.449 Y-0.4812
N5220 X-4.4411 Y-0.4813
N5225 X-4.3151
N5230 G3 X-4.2966 Y-0.4622 I0. J0.0186
N5235 G0 Z0.6
N5245 M9
N5250 G53 Z0.
N5255 M30
%
