%
(FCG_POCKET_CLEARING)
(.375 END MILL 23 MINUTES)
(T1  D=0.375 CR=0. - ZMIN=-1.23 - FLAT END MILL)
N10 G90 G94 G17 G91.1
N15 G20
N20 G53 G0 Z0.
(3D POCKET CLEARING)
N25 M9
N30 T1 M6
N35 S2000 M3
N40 G54
N45 M8
N55 G0 X-3.6246 Y-0.5875
N60 G43 Z0.6 H1
N65 G0 Z0.1687
N70 G18 G2 X-3.5879 Z0.1313 I0.0375 K0. F4.
N75 G1 X-3.4986 Z0.1293
N80 X-3.4811 Y-0.5853 Z0.1289
N85 X-3.4792 Y-0.5845 Z0.1288
N90 X-3.477 Y-0.5828
N95 X-3.4756 Y-0.581 Z0.1287
N100 X-3.4747 Y-0.5788
N105 X-3.4725 Y-0.5622 Z0.1283
N110 Y-0.3378 Z0.1233
N115 X-3.4747 Y-0.3212 Z0.1229
N120 X-3.4756 Y-0.319
N125 X-3.477 Y-0.3172 Z0.1228
N130 X-3.4792 Y-0.3155
N135 X-3.4811 Y-0.3147 Z0.1227
N140 X-3.4986 Y-0.3125 Z0.1223
N145 X-5.1436 Y-0.3127 Z0.0857
N150 X-5.1569 Y-0.3143 Z0.0854
N155 X-5.1592 Y-0.3152
N160 X-5.1611 Y-0.3165 Z0.0853
N165 X-5.1818 Y-0.34 Z0.0846
N170 G17 G2 X-5.188 Y-0.3464 Z0.0844 I-0.0777 J0.0687
N175 G1 X-5.196 Y-0.354 Z0.0842
N180 G2 X-5.2053 Y-0.3618 Z0.0839 I-0.0715 J0.0751
N185 G1 X-5.2158 Y-0.3697 Z0.0836
N190 G2 X-5.2246 Y-0.3756 Z0.0834 I-0.0623 J0.083
N195 G1 X-5.2316 Y-0.3799 Z0.0832
N200 G2 X-5.2386 Y-0.3837 Z0.083 I-0.0535 J0.0889
N205 G1 X-5.2456 Y-0.3872 Z0.0829
N210 G2 X-5.2532 Y-0.3906 Z0.0827 I-0.0465 J0.0928
N215 G1 X-5.2613 Y-0.3939 Z0.0825
N220 G2 X-5.2695 Y-0.3968 Z0.0823 I-0.0389 J0.0962
N225 G1 X-5.2776 Y-0.3994 Z0.0821
N230 G2 X-5.2857 Y-0.4015 Z0.0819 I-0.0308 J0.0991
N235 G1 X-5.2938 Y-0.4033 Z0.0817
N240 G2 X-5.302 Y-0.4048 Z0.0815 I-0.0226 J0.1013
N245 G1 X-5.3101 Y-0.406 Z0.0814
N250 G2 X-5.3182 Y-0.4068 Z0.0812 I-0.0145 J0.1027
N255 G1 X-5.3264 Y-0.4073 Z0.081
N260 G2 X-5.3327 Y-0.4075 Z0.0809 I-0.0064 J0.1036
N265 G1 X-6.0685 Z0.0645
N270 Y-0.4925 Z0.0626
N275 X-6.0568 Z0.0623
N280 X-6.0451 Y-0.4914 Z0.0621
N285 X-6.0435 Y-0.491 Z0.062
N290 X-6.0192 Y-0.4794 Z0.0614
N295 G2 X-6.0103 Y-0.4757 Z0.0612 I0.0445 J-0.0937
N300 G1 X-6.0022 Y-0.4727 Z0.061
N305 G2 X-5.9941 Y-0.4701 Z0.0609 I0.0357 J-0.0974
N310 G1 X-5.986 Y-0.4679 Z0.0607
N315 G2 X-5.9778 Y-0.466 Z0.0605 I0.0275 J-0.1
N320 G1 X-5.9697 Y-0.4645 Z0.0603
N325 G2 X-5.9616 Y-0.4632 Z0.0601 I0.0194 J-0.1019
N330 G1 X-5.9534 Y-0.4624 Z0.0599
N335 G2 X-5.9423 Y-0.4617 Z0.0597 I0.0113 J-0.1031
N340 G1 X-5.7798 Y-0.4615 Z0.0561
N345 X-5.3327 Z0.0461
N350 G2 X-5.3264 Y-0.4617 Z0.046 I0. J-0.1038
N355 G1 X-5.3182 Y-0.4622 Z0.0458
N360 G2 X-5.3101 Y-0.463 Z0.0456 I-0.0064 J-0.1036
N365 G1 X-5.302 Y-0.4642 Z0.0454
N370 G2 X-5.2938 Y-0.4657 Z0.0453 I-0.0145 J-0.1027
N375 G1 X-5.2857 Y-0.4675 Z0.0451
N380 G2 X-5.2776 Y-0.4696 Z0.0449 I-0.0226 J-0.1013
N385 G1 X-5.2695 Y-0.4722 Z0.0447
N390 G2 X-5.2613 Y-0.4751 Z0.0445 I-0.0308 J-0.0991
N395 G1 X-5.2532 Y-0.4784 Z0.0443
N400 G2 X-5.2457 Y-0.4817 Z0.0441 I-0.0389 J-0.0962
N405 G1 X-5.2389 Y-0.4851 Z0.044
N410 G2 X-5.2321 Y-0.4889 Z0.0438 I-0.0464 J-0.0928
N415 G1 X-5.2253 Y-0.4929 Z0.0436
N420 G2 X-5.2184 Y-0.4974 Z0.0434 I-0.0532 J-0.0891
N425 G1 X-5.2116 Y-0.5022 Z0.0432
N430 G2 X-5.2048 Y-0.5075 Z0.043 I-0.06 J-0.0846
N435 G1 X-5.198 Y-0.5133 Z0.0428
N440 G2 X-5.1919 Y-0.5187 Z0.0427 I-0.0669 J-0.0793
N445 G1 X-5.1867 Y-0.5239 Z0.0425
N450 G2 X-5.1812 Y-0.5298 Z0.0423 I-0.0729 J-0.0739
N455 G1 X-5.1755 Y-0.5364 Z0.0421
N460 G2 X-5.1701 Y-0.5431 Z0.0419 I-0.0784 J-0.068
N465 G1 X-5.1653 Y-0.5497 Z0.0418
N470 G2 X-5.1607 Y-0.5565 Z0.0416 I-0.0837 J-0.0613
N475 G1 X-5.1449 Y-0.5821 Z0.0409
N480 X-5.1433 Y-0.5837
N485 X-5.141 Y-0.5852 Z0.0408
N490 X-5.1391 Y-0.5859 Z0.0407
N495 X-5.1239 Y-0.5875 Z0.0404
N500 X-3.4986 Z0.0043
N505 X-3.4811 Y-0.5853 Z0.0039
N510 X-3.4792 Y-0.5845 Z0.0038
N515 X-3.477 Y-0.5828
N520 X-3.4756 Y-0.581 Z0.0037
N525 X-3.4747 Y-0.5788
N530 X-3.4725 Y-0.5622 Z0.0033
N535 Y-0.3378 Z-0.0017
N540 X-3.4747 Y-0.3212 Z-0.0021
N545 X-3.4756 Y-0.319
N550 X-3.477 Y-0.3172 Z-0.0022
N555 X-3.4792 Y-0.3155
N560 X-3.4811 Y-0.3147 Z-0.0023
N565 X-3.4986 Y-0.3125 Z-0.0027
N570 X-5.1436 Y-0.3127 Z-0.0393
N575 X-5.1569 Y-0.3143 Z-0.0396
N580 X-5.1592 Y-0.3152
N585 X-5.1611 Y-0.3165 Z-0.0397
N590 X-5.1818 Y-0.34 Z-0.0404
N595 G2 X-5.188 Y-0.3464 Z-0.0406 I-0.0777 J0.0687
N600 G1 X-5.196 Y-0.354 Z-0.0408
N605 G2 X-5.2053 Y-0.3618 Z-0.0411 I-0.0715 J0.0751
N610 G1 X-5.2158 Y-0.3697 Z-0.0414
N615 G2 X-5.2246 Y-0.3756 Z-0.0416 I-0.0623 J0.083
N620 G1 X-5.2316 Y-0.3799 Z-0.0418
N625 G2 X-5.2386 Y-0.3837 Z-0.042 I-0.0535 J0.0889
N630 G1 X-5.2456 Y-0.3872 Z-0.0421
N635 G2 X-5.2532 Y-0.3906 Z-0.0423 I-0.0465 J0.0928
N640 G1 X-5.2613 Y-0.3939 Z-0.0425
N645 G2 X-5.2695 Y-0.3968 Z-0.0427 I-0.0389 J0.0962
N650 G1 X-5.2776 Y-0.3994 Z-0.0429
N655 G2 X-5.2857 Y-0.4015 Z-0.0431 I-0.0308 J0.0991
N660 G1 X-5.2938 Y-0.4033 Z-0.0433
N665 G2 X-5.302 Y-0.4048 Z-0.0435 I-0.0226 J0.1013
N670 G1 X-5.3101 Y-0.406 Z-0.0436
N675 G2 X-5.3182 Y-0.4068 Z-0.0438 I-0.0145 J0.1027
N680 G1 X-5.3264 Y-0.4073 Z-0.044
N685 G2 X-5.3327 Y-0.4075 Z-0.0441 I-0.0064 J0.1036
N690 G1 X-6.0685 Z-0.0605
N695 Y-0.4925 Z-0.0624
N700 X-6.0568 Z-0.0627
N705 X-6.0451 Y-0.4914 Z-0.0629
N710 X-6.0435 Y-0.491 Z-0.063
N715 X-6.0192 Y-0.4794 Z-0.0636
N720 G2 X-6.0103 Y-0.4757 Z-0.0638 I0.0445 J-0.0937
N725 G1 X-6.0022 Y-0.4727 Z-0.064
N730 G2 X-5.9941 Y-0.4701 Z-0.0641 I0.0357 J-0.0974
N735 G1 X-5.986 Y-0.4679 Z-0.0643
N740 G2 X-5.9778 Y-0.466 Z-0.0645 I0.0275 J-0.1
N745 G1 X-5.9697 Y-0.4645 Z-0.0647
N750 G2 X-5.9616 Y-0.4632 Z-0.0649 I0.0194 J-0.1019
N755 G1 X-5.9534 Y-0.4624 Z-0.0651
N760 G2 X-5.9423 Y-0.4617 Z-0.0653 I0.0113 J-0.1031
N765 G1 X-5.7798 Y-0.4615 Z-0.0689
N770 X-5.3327 Z-0.0789
N775 G2 X-5.3264 Y-0.4617 Z-0.079 I0. J-0.1038
N780 G1 X-5.3182 Y-0.4622 Z-0.0792
N785 G2 X-5.3101 Y-0.463 Z-0.0794 I-0.0064 J-0.1036
N790 G1 X-5.302 Y-0.4642 Z-0.0796
N795 G2 X-5.2938 Y-0.4657 Z-0.0797 I-0.0145 J-0.1027
N800 G1 X-5.2857 Y-0.4675 Z-0.0799
N805 G2 X-5.2776 Y-0.4696 Z-0.0801 I-0.0226 J-0.1013
N810 G1 X-5.2695 Y-0.4722 Z-0.0803
N815 G2 X-5.2613 Y-0.4751 Z-0.0805 I-0.0308 J-0.0991
N820 G1 X-5.2532 Y-0.4784 Z-0.0807
N825 G2 X-5.2457 Y-0.4817 Z-0.0809 I-0.0389 J-0.0962
N830 G1 X-5.2389 Y-0.4851 Z-0.081
N835 G2 X-5.2321 Y-0.4889 Z-0.0812 I-0.0464 J-0.0928
N840 G1 X-5.2253 Y-0.4929 Z-0.0814
N845 G2 X-5.2184 Y-0.4974 Z-0.0816 I-0.0532 J-0.0891
N850 G1 X-5.2116 Y-0.5022 Z-0.0818
N855 G2 X-5.2048 Y-0.5075 Z-0.082 I-0.06 J-0.0846
N860 G1 X-5.198 Y-0.5133 Z-0.0822
N865 G2 X-5.1919 Y-0.5187 Z-0.0823 I-0.0669 J-0.0793
N870 G1 X-5.1867 Y-0.5239 Z-0.0825
N875 G2 X-5.1812 Y-0.5298 Z-0.0827 I-0.0729 J-0.0739
N880 G1 X-5.1755 Y-0.5364 Z-0.0829
N885 G2 X-5.1701 Y-0.5431 Z-0.0831 I-0.0784 J-0.068
N890 G1 X-5.1653 Y-0.5497 Z-0.0832
N895 G2 X-5.1607 Y-0.5565 Z-0.0834 I-0.0837 J-0.0613
N900 G1 X-5.1449 Y-0.5821 Z-0.0841
N905 X-5.1433 Y-0.5837
N910 X-5.141 Y-0.5852 Z-0.0842
N915 X-5.1391 Y-0.5859 Z-0.0843
N920 X-5.1239 Y-0.5875 Z-0.0846
N925 X-3.4986 Z-0.1207
N930 X-3.4811 Y-0.5853 Z-0.1211
N935 X-3.4792 Y-0.5845 Z-0.1212
N940 X-3.477 Y-0.5828
N945 X-3.4756 Y-0.581 Z-0.1213
N950 X-3.4747 Y-0.5788
N955 X-3.4725 Y-0.5622 Z-0.1217
N960 Y-0.4144 Z-0.125
N965 Y-0.3378 F20.
N970 X-3.4747 Y-0.3212
N975 X-3.4756 Y-0.319
N980 X-3.477 Y-0.3172
N985 X-3.4792 Y-0.3155
N990 X-3.4811 Y-0.3147
N995 X-3.4986 Y-0.3125
N1000 X-5.1436 Y-0.3127
N1005 X-5.1569 Y-0.3143
N1010 X-5.1592 Y-0.3152
N1015 X-5.1611 Y-0.3165
N1020 X-5.1818 Y-0.34
N1025 G2 X-5.188 Y-0.3464 I-0.0777 J0.0687
N1030 G1 X-5.196 Y-0.354
N1035 G2 X-5.2053 Y-0.3618 I-0.0715 J0.0751
N1040 G1 X-5.2158 Y-0.3697
N1045 G2 X-5.2246 Y-0.3756 I-0.0623 J0.083
N1050 G1 X-5.2316 Y-0.3799
N1055 G2 X-5.2386 Y-0.3837 I-0.0535 J0.0889
N1060 G1 X-5.2456 Y-0.3872
N1065 G2 X-5.2532 Y-0.3906 I-0.0465 J0.0928
N1070 G1 X-5.2613 Y-0.3939
N1075 G2 X-5.2695 Y-0.3968 I-0.0389 J0.0962
N1080 G1 X-5.2776 Y-0.3994
N1085 G2 X-5.2857 Y-0.4015 I-0.0308 J0.0991
N1090 G1 X-5.2938 Y-0.4033
N1095 G2 X-5.302 Y-0.4048 I-0.0226 J0.1013
N1100 G1 X-5.3101 Y-0.406
N1105 G2 X-5.3182 Y-0.4068 I-0.0145 J0.1027
N1110 G1 X-5.3264 Y-0.4073
N1115 G2 X-5.3327 Y-0.4075 I-0.0064 J0.1036
N1120 G1 X-6.0685
N1125 Y-0.4925
N1130 X-6.0568
N1135 X-6.0451 Y-0.4914
N1140 X-6.0435 Y-0.491
N1145 X-6.0192 Y-0.4794
N1150 G2 X-6.0103 Y-0.4757 I0.0445 J-0.0937
N1155 G1 X-6.0022 Y-0.4727
N1160 G2 X-5.9941 Y-0.4701 I0.0357 J-0.0974
N1165 G1 X-5.986 Y-0.4679
N1170 G2 X-5.9778 Y-0.466 I0.0275 J-0.1
N1175 G1 X-5.9697 Y-0.4645
N1180 G2 X-5.9616 Y-0.4632 I0.0194 J-0.1019
N1185 G1 X-5.9534 Y-0.4624
N1190 G2 X-5.9423 Y-0.4617 I0.0113 J-0.1031
N1195 G1 X-5.7798 Y-0.4615
N1200 X-5.3327
N1205 G2 X-5.3264 Y-0.4617 I0. J-0.1038
N1210 G1 X-5.3182 Y-0.4622
N1215 G2 X-5.3101 Y-0.463 I-0.0064 J-0.1036
N1220 G1 X-5.302 Y-0.4642
N1225 G2 X-5.2938 Y-0.4657 I-0.0145 J-0.1027
N1230 G1 X-5.2857 Y-0.4675
N1235 G2 X-5.2776 Y-0.4696 I-0.0226 J-0.1013
N1240 G1 X-5.2695 Y-0.4722
N1245 G2 X-5.2613 Y-0.4751 I-0.0308 J-0.0991
N1250 G1 X-5.2532 Y-0.4784
N1255 G2 X-5.2457 Y-0.4817 I-0.0389 J-0.0962
N1260 G1 X-5.2389 Y-0.4851
N1265 G2 X-5.2321 Y-0.4889 I-0.0464 J-0.0928
N1270 G1 X-5.2253 Y-0.4929
N1275 G2 X-5.2184 Y-0.4974 I-0.0532 J-0.0891
N1280 G1 X-5.2116 Y-0.5022
N1285 G2 X-5.2048 Y-0.5075 I-0.06 J-0.0846
N1290 G1 X-5.198 Y-0.5133
N1295 G2 X-5.1919 Y-0.5187 I-0.0669 J-0.0793
N1300 G1 X-5.1867 Y-0.5239
N1305 G2 X-5.1812 Y-0.5298 I-0.0729 J-0.0739
N1310 G1 X-5.1755 Y-0.5364
N1315 G2 X-5.1701 Y-0.5431 I-0.0784 J-0.068
N1320 G1 X-5.1653 Y-0.5497
N1325 G2 X-5.1607 Y-0.5565 I-0.0837 J-0.0613
N1330 G1 X-5.1449 Y-0.5821
N1335 X-5.1433 Y-0.5837
N1340 X-5.141 Y-0.5852
N1345 X-5.1391 Y-0.5859
N1350 X-5.1239 Y-0.5875
N1355 X-3.4986
N1360 X-3.4811 Y-0.5853
N1365 X-3.4792 Y-0.5845
N1370 X-3.477 Y-0.5828
N1375 X-3.4756 Y-0.581
N1380 X-3.4747 Y-0.5788
N1385 X-3.4725 Y-0.5622
N1390 Y-0.4144
N1395 G3 X-3.4732 Y-0.4071 Z-0.1243 I-0.0375 J0. F2.
N1400 X-3.4752 Y-0.4004 Z-0.1221 I-0.0368 J-0.0073
N1405 X-3.4781 Y-0.3946 Z-0.1187 I-0.0348 J-0.014
N1410 X-3.4815 Y-0.39 Z-0.114 I-0.0319 J-0.0198
N1415 X-3.4847 Y-0.3867 Z-0.1083 I-0.0285 J-0.0244
N1420 X-3.4874 Y-0.3845 Z-0.1019 I-0.0253 J-0.0277
N1425 X-3.4891 Y-0.3832 Z-0.0948 I-0.0226 J-0.0299
N1430 X-3.4897 Y-0.3828 Z-0.0875 I-0.0209 J-0.0312
N1435 G0 Z0.2
N1440 X-3.6246 Y-0.5875
N1445 Z0.0437
N1450 G18 G2 X-3.5879 Z0.0062 I0.0375 K0. F4.
N1455 G1 X-3.4986 Z0.0043
N1460 X-3.4811 Y-0.5853 Z0.0039
N1465 X-3.4792 Y-0.5845 Z0.0038
N1470 X-3.477 Y-0.5828
N1475 X-3.4756 Y-0.581 Z0.0037
N1480 X-3.4747 Y-0.5788
N1485 X-3.4725 Y-0.5622 Z0.0033
N1490 Y-0.3378 Z-0.0017
N1495 X-3.4747 Y-0.3212 Z-0.0021
N1500 X-3.4756 Y-0.319
N1505 X-3.477 Y-0.3172 Z-0.0022
N1510 X-3.4792 Y-0.3155
N1515 X-3.4811 Y-0.3147 Z-0.0023
N1520 X-3.4986 Y-0.3125 Z-0.0027
N1525 X-5.1436 Y-0.3127 Z-0.0393
N1530 X-5.1569 Y-0.3143 Z-0.0396
N1535 X-5.1592 Y-0.3152
N1540 X-5.1611 Y-0.3165 Z-0.0397
N1545 X-5.1818 Y-0.34 Z-0.0404
N1550 G17 G2 X-5.188 Y-0.3464 Z-0.0406 I-0.0777 J0.0687
N1555 G1 X-5.196 Y-0.354 Z-0.0408
N1560 G2 X-5.2053 Y-0.3618 Z-0.0411 I-0.0715 J0.0751
N1565 G1 X-5.2158 Y-0.3697 Z-0.0414
N1570 G2 X-5.2246 Y-0.3756 Z-0.0416 I-0.0623 J0.083
N1575 G1 X-5.2316 Y-0.3799 Z-0.0418
N1580 G2 X-5.2386 Y-0.3837 Z-0.042 I-0.0535 J0.0889
N1585 G1 X-5.2456 Y-0.3872 Z-0.0421
N1590 G2 X-5.2532 Y-0.3906 Z-0.0423 I-0.0465 J0.0928
N1595 G1 X-5.2613 Y-0.3939 Z-0.0425
N1600 G2 X-5.2695 Y-0.3968 Z-0.0427 I-0.0389 J0.0962
N1605 G1 X-5.2776 Y-0.3994 Z-0.0429
N1610 G2 X-5.2857 Y-0.4015 Z-0.0431 I-0.0308 J0.0991
N1615 G1 X-5.2938 Y-0.4033 Z-0.0433
N1620 G2 X-5.302 Y-0.4048 Z-0.0435 I-0.0226 J0.1013
N1625 G1 X-5.3101 Y-0.406 Z-0.0436
N1630 G2 X-5.3182 Y-0.4068 Z-0.0438 I-0.0145 J0.1027
N1635 G1 X-5.3264 Y-0.4073 Z-0.044
N1640 G2 X-5.3327 Y-0.4075 Z-0.0441 I-0.0064 J0.1036
N1645 G1 X-6.0685 Z-0.0605
N1650 Y-0.4925 Z-0.0624
N1655 X-6.0568 Z-0.0627
N1660 X-6.0451 Y-0.4914 Z-0.0629
N1665 X-6.0435 Y-0.491 Z-0.063
N1670 X-6.0192 Y-0.4794 Z-0.0636
N1675 G2 X-6.0103 Y-0.4757 Z-0.0638 I0.0445 J-0.0937
N1680 G1 X-6.0022 Y-0.4727 Z-0.064
N1685 G2 X-5.9941 Y-0.4701 Z-0.0641 I0.0357 J-0.0974
N1690 G1 X-5.986 Y-0.4679 Z-0.0643
N1695 G2 X-5.9778 Y-0.466 Z-0.0645 I0.0275 J-0.1
N1700 G1 X-5.9697 Y-0.4645 Z-0.0647
N1705 G2 X-5.9616 Y-0.4632 Z-0.0649 I0.0194 J-0.1019
N1710 G1 X-5.9534 Y-0.4624 Z-0.0651
N1715 G2 X-5.9423 Y-0.4617 Z-0.0653 I0.0113 J-0.1031
N1720 G1 X-5.7798 Y-0.4615 Z-0.0689
N1725 X-5.3327 Z-0.0789
N1730 G2 X-5.3264 Y-0.4617 Z-0.079 I0. J-0.1038
N1735 G1 X-5.3182 Y-0.4622 Z-0.0792
N1740 G2 X-5.3101 Y-0.463 Z-0.0794 I-0.0064 J-0.1036
N1745 G1 X-5.302 Y-0.4642 Z-0.0796
N1750 G2 X-5.2938 Y-0.4657 Z-0.0797 I-0.0145 J-0.1027
N1755 G1 X-5.2857 Y-0.4675 Z-0.0799
N1760 G2 X-5.2776 Y-0.4696 Z-0.0801 I-0.0226 J-0.1013
N1765 G1 X-5.2695 Y-0.4722 Z-0.0803
N1770 G2 X-5.2613 Y-0.4751 Z-0.0805 I-0.0308 J-0.0991
N1775 G1 X-5.2532 Y-0.4784 Z-0.0807
N1780 G2 X-5.2457 Y-0.4817 Z-0.0809 I-0.0389 J-0.0962
N1785 G1 X-5.2389 Y-0.4851 Z-0.081
N1790 G2 X-5.2321 Y-0.4889 Z-0.0812 I-0.0464 J-0.0928
N1795 G1 X-5.2253 Y-0.4929 Z-0.0814
N1800 G2 X-5.2184 Y-0.4974 Z-0.0816 I-0.0532 J-0.0891
N1805 G1 X-5.2116 Y-0.5022 Z-0.0818
N1810 G2 X-5.2048 Y-0.5075 Z-0.082 I-0.06 J-0.0846
N1815 G1 X-5.198 Y-0.5133 Z-0.0822
N1820 G2 X-5.1919 Y-0.5187 Z-0.0823 I-0.0669 J-0.0793
N1825 G1 X-5.1867 Y-0.5239 Z-0.0825
N1830 G2 X-5.1812 Y-0.5298 Z-0.0827 I-0.0729 J-0.0739
N1835 G1 X-5.1755 Y-0.5364 Z-0.0829
N1840 G2 X-5.1701 Y-0.5431 Z-0.0831 I-0.0784 J-0.068
N1845 G1 X-5.1653 Y-0.5497 Z-0.0832
N1850 G2 X-5.1607 Y-0.5565 Z-0.0834 I-0.0837 J-0.0613
N1855 G1 X-5.1449 Y-0.5821 Z-0.0841
N1860 X-5.1433 Y-0.5837
N1865 X-5.141 Y-0.5852 Z-0.0842
N1870 X-5.1391 Y-0.5859 Z-0.0843
N1875 X-5.1239 Y-0.5875 Z-0.0846
N1880 X-3.4986 Z-0.1207
N1885 X-3.4811 Y-0.5853 Z-0.1211
N1890 X-3.4792 Y-0.5845 Z-0.1212
N1895 X-3.477 Y-0.5828
N1900 X-3.4756 Y-0.581 Z-0.1213
N1905 X-3.4747 Y-0.5788
N1910 X-3.4725 Y-0.5622 Z-0.1217
N1915 Y-0.3378 Z-0.1267
N1920 X-3.4747 Y-0.3212 Z-0.1271
N1925 X-3.4756 Y-0.319
N1930 X-3.477 Y-0.3172 Z-0.1272
N1935 X-3.4792 Y-0.3155
N1940 X-3.4811 Y-0.3147 Z-0.1273
N1945 X-3.4986 Y-0.3125 Z-0.1277
N1950 X-5.1436 Y-0.3127 Z-0.1643
N1955 X-5.1569 Y-0.3143 Z-0.1646
N1960 X-5.1592 Y-0.3152
N1965 X-5.1611 Y-0.3165 Z-0.1647
N1970 X-5.1818 Y-0.34 Z-0.1654
N1975 G2 X-5.188 Y-0.3464 Z-0.1656 I-0.0777 J0.0687
N1980 G1 X-5.196 Y-0.354 Z-0.1658
N1985 G2 X-5.2053 Y-0.3618 Z-0.1661 I-0.0715 J0.0751
N1990 G1 X-5.2158 Y-0.3697 Z-0.1664
N1995 G2 X-5.2246 Y-0.3756 Z-0.1666 I-0.0623 J0.083
N2000 G1 X-5.2316 Y-0.3799 Z-0.1668
N2005 G2 X-5.2386 Y-0.3837 Z-0.167 I-0.0535 J0.0889
N2010 G1 X-5.2456 Y-0.3872 Z-0.1671
N2015 G2 X-5.2532 Y-0.3906 Z-0.1673 I-0.0465 J0.0928
N2020 G1 X-5.2613 Y-0.3939 Z-0.1675
N2025 G2 X-5.2695 Y-0.3968 Z-0.1677 I-0.0389 J0.0962
N2030 G1 X-5.2776 Y-0.3994 Z-0.1679
N2035 G2 X-5.2857 Y-0.4015 Z-0.1681 I-0.0308 J0.0991
N2040 G1 X-5.2938 Y-0.4033 Z-0.1683
N2045 G2 X-5.302 Y-0.4048 Z-0.1685 I-0.0226 J0.1013
N2050 G1 X-5.3101 Y-0.406 Z-0.1686
N2055 G2 X-5.3182 Y-0.4068 Z-0.1688 I-0.0145 J0.1027
N2060 G1 X-5.3264 Y-0.4073 Z-0.169
N2065 G2 X-5.3327 Y-0.4075 Z-0.1691 I-0.0064 J0.1036
N2070 G1 X-6.0685 Z-0.1855
N2075 Y-0.4925 Z-0.1874
N2080 X-6.0568 Z-0.1877
N2085 X-6.0451 Y-0.4914 Z-0.1879
N2090 X-6.0435 Y-0.491 Z-0.188
N2095 X-6.0192 Y-0.4794 Z-0.1886
N2100 G2 X-6.0103 Y-0.4757 Z-0.1888 I0.0445 J-0.0937
N2105 G1 X-6.0022 Y-0.4727 Z-0.189
N2110 G2 X-5.9941 Y-0.4701 Z-0.1891 I0.0357 J-0.0974
N2115 G1 X-5.986 Y-0.4679 Z-0.1893
N2120 G2 X-5.9778 Y-0.466 Z-0.1895 I0.0275 J-0.1
N2125 G1 X-5.9697 Y-0.4645 Z-0.1897
N2130 G2 X-5.9616 Y-0.4632 Z-0.1899 I0.0194 J-0.1019
N2135 G1 X-5.9534 Y-0.4624 Z-0.1901
N2140 G2 X-5.9423 Y-0.4617 Z-0.1903 I0.0113 J-0.1031
N2145 G1 X-5.7798 Y-0.4615 Z-0.1939
N2150 X-5.3327 Z-0.2039
N2155 G2 X-5.3264 Y-0.4617 Z-0.204 I0. J-0.1038
N2160 G1 X-5.3182 Y-0.4622 Z-0.2042
N2165 G2 X-5.3101 Y-0.463 Z-0.2044 I-0.0064 J-0.1036
N2170 G1 X-5.302 Y-0.4642 Z-0.2046
N2175 G2 X-5.2938 Y-0.4657 Z-0.2047 I-0.0145 J-0.1027
N2180 G1 X-5.2857 Y-0.4675 Z-0.2049
N2185 G2 X-5.2776 Y-0.4696 Z-0.2051 I-0.0226 J-0.1013
N2190 G1 X-5.2695 Y-0.4722 Z-0.2053
N2195 G2 X-5.2613 Y-0.4751 Z-0.2055 I-0.0308 J-0.0991
N2200 G1 X-5.2532 Y-0.4784 Z-0.2057
N2205 G2 X-5.2457 Y-0.4817 Z-0.2059 I-0.0389 J-0.0962
N2210 G1 X-5.2389 Y-0.4851 Z-0.206
N2215 G2 X-5.2321 Y-0.4889 Z-0.2062 I-0.0464 J-0.0928
N2220 G1 X-5.2253 Y-0.4929 Z-0.2064
N2225 G2 X-5.2184 Y-0.4974 Z-0.2066 I-0.0532 J-0.0891
N2230 G1 X-5.2116 Y-0.5022 Z-0.2068
N2235 G2 X-5.2048 Y-0.5075 Z-0.207 I-0.06 J-0.0846
N2240 G1 X-5.198 Y-0.5133 Z-0.2072
N2245 G2 X-5.1919 Y-0.5187 Z-0.2073 I-0.0669 J-0.0793
N2250 G1 X-5.1867 Y-0.5239 Z-0.2075
N2255 G2 X-5.1812 Y-0.5298 Z-0.2077 I-0.0729 J-0.0739
N2260 G1 X-5.1755 Y-0.5364 Z-0.2079
N2265 G2 X-5.1701 Y-0.5431 Z-0.2081 I-0.0784 J-0.068
N2270 G1 X-5.1653 Y-0.5497 Z-0.2082
N2275 G2 X-5.1607 Y-0.5565 Z-0.2084 I-0.0837 J-0.0613
N2280 G1 X-5.1449 Y-0.5821 Z-0.2091
N2285 X-5.1433 Y-0.5837
N2290 X-5.141 Y-0.5852 Z-0.2092
N2295 X-5.1391 Y-0.5859 Z-0.2093
N2300 X-5.1239 Y-0.5875 Z-0.2096
N2305 X-3.4986 Z-0.2457
N2310 X-3.4811 Y-0.5853 Z-0.2461
N2315 X-3.4792 Y-0.5845 Z-0.2462
N2320 X-3.477 Y-0.5828
N2325 X-3.4756 Y-0.581 Z-0.2463
N2330 X-3.4747 Y-0.5788
N2335 X-3.4725 Y-0.5622 Z-0.2467
N2340 Y-0.4144 Z-0.25
N2345 Y-0.3378 F20.
N2350 X-3.4747 Y-0.3212
N2355 X-3.4756 Y-0.319
N2360 X-3.477 Y-0.3172
N2365 X-3.4792 Y-0.3155
N2370 X-3.4811 Y-0.3147
N2375 X-3.4986 Y-0.3125
N2380 X-5.1436 Y-0.3127
N2385 X-5.1569 Y-0.3143
N2390 X-5.1592 Y-0.3152
N2395 X-5.1611 Y-0.3165
N2400 X-5.1818 Y-0.34
N2405 G2 X-5.188 Y-0.3464 I-0.0777 J0.0687
N2410 G1 X-5.196 Y-0.354
N2415 G2 X-5.2053 Y-0.3618 I-0.0715 J0.0751
N2420 G1 X-5.2158 Y-0.3697
N2425 G2 X-5.2246 Y-0.3756 I-0.0623 J0.083
N2430 G1 X-5.2316 Y-0.3799
N2435 G2 X-5.2386 Y-0.3837 I-0.0535 J0.0889
N2440 G1 X-5.2456 Y-0.3872
N2445 G2 X-5.2532 Y-0.3906 I-0.0465 J0.0928
N2450 G1 X-5.2613 Y-0.3939
N2455 G2 X-5.2695 Y-0.3968 I-0.0389 J0.0962
N2460 G1 X-5.2776 Y-0.3994
N2465 G2 X-5.2857 Y-0.4015 I-0.0308 J0.0991
N2470 G1 X-5.2938 Y-0.4033
N2475 G2 X-5.302 Y-0.4048 I-0.0226 J0.1013
N2480 G1 X-5.3101 Y-0.406
N2485 G2 X-5.3182 Y-0.4068 I-0.0145 J0.1027
N2490 G1 X-5.3264 Y-0.4073
N2495 G2 X-5.3327 Y-0.4075 I-0.0064 J0.1036
N2500 G1 X-6.0685
N2505 Y-0.4925
N2510 X-6.0568
N2515 X-6.0451 Y-0.4914
N2520 X-6.0435 Y-0.491
N2525 X-6.0192 Y-0.4794
N2530 G2 X-6.0103 Y-0.4757 I0.0445 J-0.0937
N2535 G1 X-6.0022 Y-0.4727
N2540 G2 X-5.9941 Y-0.4701 I0.0357 J-0.0974
N2545 G1 X-5.986 Y-0.4679
N2550 G2 X-5.9778 Y-0.466 I0.0275 J-0.1
N2555 G1 X-5.9697 Y-0.4645
N2560 G2 X-5.9616 Y-0.4632 I0.0194 J-0.1019
N2565 G1 X-5.9534 Y-0.4624
N2570 G2 X-5.9423 Y-0.4617 I0.0113 J-0.1031
N2575 G1 X-5.7798 Y-0.4615
N2580 X-5.3327
N2585 G2 X-5.3264 Y-0.4617 I0. J-0.1038
N2590 G1 X-5.3182 Y-0.4622
N2595 G2 X-5.3101 Y-0.463 I-0.0064 J-0.1036
N2600 G1 X-5.302 Y-0.4642
N2605 G2 X-5.2938 Y-0.4657 I-0.0145 J-0.1027
N2610 G1 X-5.2857 Y-0.4675
N2615 G2 X-5.2776 Y-0.4696 I-0.0226 J-0.1013
N2620 G1 X-5.2695 Y-0.4722
N2625 G2 X-5.2613 Y-0.4751 I-0.0308 J-0.0991
N2630 G1 X-5.2532 Y-0.4784
N2635 G2 X-5.2457 Y-0.4817 I-0.0389 J-0.0962
N2640 G1 X-5.2389 Y-0.4851
N2645 G2 X-5.2321 Y-0.4889 I-0.0464 J-0.0928
N2650 G1 X-5.2253 Y-0.4929
N2655 G2 X-5.2184 Y-0.4974 I-0.0532 J-0.0891
N2660 G1 X-5.2116 Y-0.5022
N2665 G2 X-5.2048 Y-0.5075 I-0.06 J-0.0846
N2670 G1 X-5.198 Y-0.5133
N2675 G2 X-5.1919 Y-0.5187 I-0.0669 J-0.0793
N2680 G1 X-5.1867 Y-0.5239
N2685 G2 X-5.1812 Y-0.5298 I-0.0729 J-0.0739
N2690 G1 X-5.1755 Y-0.5364
N2695 G2 X-5.1701 Y-0.5431 I-0.0784 J-0.068
N2700 G1 X-5.1653 Y-0.5497
N2705 G2 X-5.1607 Y-0.5565 I-0.0837 J-0.0613
N2710 G1 X-5.1449 Y-0.5821
N2715 X-5.1433 Y-0.5837
N2720 X-5.141 Y-0.5852
N2725 X-5.1391 Y-0.5859
N2730 X-5.1239 Y-0.5875
N2735 X-3.4986
N2740 X-3.4811 Y-0.5853
N2745 X-3.4792 Y-0.5845
N2750 X-3.477 Y-0.5828
N2755 X-3.4756 Y-0.581
N2760 X-3.4747 Y-0.5788
N2765 X-3.4725 Y-0.5622
N2770 Y-0.4144
N2775 G3 X-3.4732 Y-0.4071 Z-0.2493 I-0.0375 J0. F2.
N2780 X-3.4752 Y-0.4004 Z-0.2471 I-0.0368 J-0.0073
N2785 X-3.4781 Y-0.3946 Z-0.2437 I-0.0348 J-0.014
N2790 X-3.4815 Y-0.39 Z-0.239 I-0.0319 J-0.0198
N2795 X-3.4847 Y-0.3867 Z-0.2333 I-0.0285 J-0.0244
N2800 X-3.4874 Y-0.3845 Z-0.2269 I-0.0253 J-0.0277
N2805 X-3.4891 Y-0.3832 Z-0.2198 I-0.0226 J-0.0299
N2810 X-3.4897 Y-0.3828 Z-0.2125 I-0.0209 J-0.0312
N2815 G0 Z0.2
N2820 X-3.6246 Y-0.5875
N2825 Z0.1644
N2830 G1 Z-0.0813 F1.
N2835 G18 G2 X-3.5879 Z-0.1187 I0.0375 K0. F4.
N2840 G1 X-3.4986 Z-0.1207
N2845 X-3.4811 Y-0.5853 Z-0.1211
N2850 X-3.4792 Y-0.5845 Z-0.1212
N2855 X-3.477 Y-0.5828
N2860 X-3.4756 Y-0.581 Z-0.1213
N2865 X-3.4747 Y-0.5788
N2870 X-3.4725 Y-0.5622 Z-0.1217
N2875 Y-0.3378 Z-0.1267
N2880 X-3.4747 Y-0.3212 Z-0.1271
N2885 X-3.4756 Y-0.319
N2890 X-3.477 Y-0.3172 Z-0.1272
N2895 X-3.4792 Y-0.3155
N2900 X-3.4811 Y-0.3147 Z-0.1273
N2905 X-3.4986 Y-0.3125 Z-0.1277
N2910 X-5.1436 Y-0.3127 Z-0.1643
N2915 X-5.1569 Y-0.3143 Z-0.1646
N2920 X-5.1592 Y-0.3152
N2925 X-5.1611 Y-0.3165 Z-0.1647
N2930 X-5.1818 Y-0.34 Z-0.1654
N2935 G17 G2 X-5.188 Y-0.3464 Z-0.1656 I-0.0777 J0.0687
N2940 G1 X-5.196 Y-0.354 Z-0.1658
N2945 G2 X-5.2053 Y-0.3618 Z-0.1661 I-0.0715 J0.0751
N2950 G1 X-5.2158 Y-0.3697 Z-0.1664
N2955 G2 X-5.2246 Y-0.3756 Z-0.1666 I-0.0623 J0.083
N2960 G1 X-5.2316 Y-0.3799 Z-0.1668
N2965 G2 X-5.2386 Y-0.3837 Z-0.167 I-0.0535 J0.0889
N2970 G1 X-5.2456 Y-0.3872 Z-0.1671
N2975 G2 X-5.2532 Y-0.3906 Z-0.1673 I-0.0465 J0.0928
N2980 G1 X-5.2613 Y-0.3939 Z-0.1675
N2985 G2 X-5.2695 Y-0.3968 Z-0.1677 I-0.0389 J0.0962
N2990 G1 X-5.2776 Y-0.3994 Z-0.1679
N2995 G2 X-5.2857 Y-0.4015 Z-0.1681 I-0.0308 J0.0991
N3000 G1 X-5.2938 Y-0.4033 Z-0.1683
N3005 G2 X-5.302 Y-0.4048 Z-0.1685 I-0.0226 J0.1013
N3010 G1 X-5.3101 Y-0.406 Z-0.1686
N3015 G2 X-5.3182 Y-0.4068 Z-0.1688 I-0.0145 J0.1027
N3020 G1 X-5.3264 Y-0.4073 Z-0.169
N3025 G2 X-5.3327 Y-0.4075 Z-0.1691 I-0.0064 J0.1036
N3030 G1 X-6.0685 Z-0.1855
N3035 Y-0.4925 Z-0.1874
N3040 X-6.0568 Z-0.1877
N3045 X-6.0451 Y-0.4914 Z-0.1879
N3050 X-6.0435 Y-0.491 Z-0.188
N3055 X-6.0192 Y-0.4794 Z-0.1886
N3060 G2 X-6.0103 Y-0.4757 Z-0.1888 I0.0445 J-0.0937
N3065 G1 X-6.0022 Y-0.4727 Z-0.189
N3070 G2 X-5.9941 Y-0.4701 Z-0.1891 I0.0357 J-0.0974
N3075 G1 X-5.986 Y-0.4679 Z-0.1893
N3080 G2 X-5.9778 Y-0.466 Z-0.1895 I0.0275 J-0.1
N3085 G1 X-5.9697 Y-0.4645 Z-0.1897
N3090 G2 X-5.9616 Y-0.4632 Z-0.1899 I0.0194 J-0.1019
N3095 G1 X-5.9534 Y-0.4624 Z-0.1901
N3100 G2 X-5.9423 Y-0.4617 Z-0.1903 I0.0113 J-0.1031
N3105 G1 X-5.7798 Y-0.4615 Z-0.1939
N3110 X-5.3327 Z-0.2039
N3115 G2 X-5.3264 Y-0.4617 Z-0.204 I0. J-0.1038
N3120 G1 X-5.3182 Y-0.4622 Z-0.2042
N3125 G2 X-5.3101 Y-0.463 Z-0.2044 I-0.0064 J-0.1036
N3130 G1 X-5.302 Y-0.4642 Z-0.2046
N3135 G2 X-5.2938 Y-0.4657 Z-0.2047 I-0.0145 J-0.1027
N3140 G1 X-5.2857 Y-0.4675 Z-0.2049
N3145 G2 X-5.2776 Y-0.4696 Z-0.2051 I-0.0226 J-0.1013
N3150 G1 X-5.2695 Y-0.4722 Z-0.2053
N3155 G2 X-5.2613 Y-0.4751 Z-0.2055 I-0.0308 J-0.0991
N3160 G1 X-5.2532 Y-0.4784 Z-0.2057
N3165 G2 X-5.2457 Y-0.4817 Z-0.2059 I-0.0389 J-0.0962
N3170 G1 X-5.2389 Y-0.4851 Z-0.206
N3175 G2 X-5.2321 Y-0.4889 Z-0.2062 I-0.0464 J-0.0928
N3180 G1 X-5.2253 Y-0.4929 Z-0.2064
N3185 G2 X-5.2184 Y-0.4974 Z-0.2066 I-0.0532 J-0.0891
N3190 G1 X-5.2116 Y-0.5022 Z-0.2068
N3195 G2 X-5.2048 Y-0.5075 Z-0.207 I-0.06 J-0.0846
N3200 G1 X-5.198 Y-0.5133 Z-0.2072
N3205 G2 X-5.1919 Y-0.5187 Z-0.2073 I-0.0669 J-0.0793
N3210 G1 X-5.1867 Y-0.5239 Z-0.2075
N3215 G2 X-5.1812 Y-0.5298 Z-0.2077 I-0.0729 J-0.0739
N3220 G1 X-5.1755 Y-0.5364 Z-0.2079
N3225 G2 X-5.1701 Y-0.5431 Z-0.2081 I-0.0784 J-0.068
N3230 G1 X-5.1653 Y-0.5497 Z-0.2082
N3235 G2 X-5.1607 Y-0.5565 Z-0.2084 I-0.0837 J-0.0613
N3240 G1 X-5.1449 Y-0.5821 Z-0.2091
N3245 X-5.1433 Y-0.5837
N3250 X-5.141 Y-0.5852 Z-0.2092
N3255 X-5.1391 Y-0.5859 Z-0.2093
N3260 X-5.1239 Y-0.5875 Z-0.2096
N3265 X-3.4986 Z-0.2457
N3270 X-3.4811 Y-0.5853 Z-0.2461
N3275 X-3.4792 Y-0.5845 Z-0.2462
N3280 X-3.477 Y-0.5828
N3285 X-3.4756 Y-0.581 Z-0.2463
N3290 X-3.4747 Y-0.5788
N3295 X-3.4725 Y-0.5622 Z-0.2467
N3300 Y-0.3378 Z-0.2517
N3305 X-3.4747 Y-0.3212 Z-0.2521
N3310 X-3.4756 Y-0.319
N3315 X-3.477 Y-0.3172 Z-0.2522
N3320 X-3.4792 Y-0.3155
N3325 X-3.4811 Y-0.3147 Z-0.2523
N3330 X-3.4986 Y-0.3125 Z-0.2527
N3335 X-5.1436 Y-0.3127 Z-0.2893
N3340 X-5.1569 Y-0.3143 Z-0.2896
N3345 X-5.1592 Y-0.3152
N3350 X-5.1611 Y-0.3165 Z-0.2897
N3355 X-5.1818 Y-0.34 Z-0.2904
N3360 G2 X-5.188 Y-0.3464 Z-0.2906 I-0.0777 J0.0687
N3365 G1 X-5.196 Y-0.354 Z-0.2908
N3370 G2 X-5.2053 Y-0.3618 Z-0.2911 I-0.0715 J0.0751
N3375 G1 X-5.2158 Y-0.3697 Z-0.2914
N3380 G2 X-5.2246 Y-0.3756 Z-0.2916 I-0.0623 J0.083
N3385 G1 X-5.2316 Y-0.3799 Z-0.2918
N3390 G2 X-5.2386 Y-0.3837 Z-0.292 I-0.0535 J0.0889
N3395 G1 X-5.2456 Y-0.3872 Z-0.2921
N3400 G2 X-5.2532 Y-0.3906 Z-0.2923 I-0.0465 J0.0928
N3405 G1 X-5.2613 Y-0.3939 Z-0.2925
N3410 G2 X-5.2695 Y-0.3968 Z-0.2927 I-0.0389 J0.0962
N3415 G1 X-5.2776 Y-0.3994 Z-0.2929
N3420 G2 X-5.2857 Y-0.4015 Z-0.2931 I-0.0308 J0.0991
N3425 G1 X-5.2938 Y-0.4033 Z-0.2933
N3430 G2 X-5.302 Y-0.4048 Z-0.2935 I-0.0226 J0.1013
N3435 G1 X-5.3101 Y-0.406 Z-0.2936
N3440 G2 X-5.3182 Y-0.4068 Z-0.2938 I-0.0145 J0.1027
N3445 G1 X-5.3264 Y-0.4073 Z-0.294
N3450 G2 X-5.3327 Y-0.4075 Z-0.2941 I-0.0064 J0.1036
N3455 G1 X-6.0685 Z-0.3105
N3460 Y-0.4925 Z-0.3124
N3465 X-6.0568 Z-0.3127
N3470 X-6.0451 Y-0.4914 Z-0.3129
N3475 X-6.0435 Y-0.491 Z-0.313
N3480 X-6.0192 Y-0.4794 Z-0.3136
N3485 G2 X-6.0103 Y-0.4757 Z-0.3138 I0.0445 J-0.0937
N3490 G1 X-6.0022 Y-0.4727 Z-0.314
N3495 G2 X-5.9941 Y-0.4701 Z-0.3141 I0.0357 J-0.0974
N3500 G1 X-5.986 Y-0.4679 Z-0.3143
N3505 G2 X-5.9778 Y-0.466 Z-0.3145 I0.0275 J-0.1
N3510 G1 X-5.9697 Y-0.4645 Z-0.3147
N3515 G2 X-5.9616 Y-0.4632 Z-0.3149 I0.0194 J-0.1019
N3520 G1 X-5.9534 Y-0.4624 Z-0.3151
N3525 G2 X-5.9423 Y-0.4617 Z-0.3153 I0.0113 J-0.1031
N3530 G1 X-5.7798 Y-0.4615 Z-0.3189
N3535 X-5.3327 Z-0.3289
N3540 G2 X-5.3264 Y-0.4617 Z-0.329 I0. J-0.1038
N3545 G1 X-5.3182 Y-0.4622 Z-0.3292
N3550 G2 X-5.3101 Y-0.463 Z-0.3294 I-0.0064 J-0.1036
N3555 G1 X-5.302 Y-0.4642 Z-0.3296
N3560 G2 X-5.2938 Y-0.4657 Z-0.3297 I-0.0145 J-0.1027
N3565 G1 X-5.2857 Y-0.4675 Z-0.3299
N3570 G2 X-5.2776 Y-0.4696 Z-0.3301 I-0.0226 J-0.1013
N3575 G1 X-5.2695 Y-0.4722 Z-0.3303
N3580 G2 X-5.2613 Y-0.4751 Z-0.3305 I-0.0308 J-0.0991
N3585 G1 X-5.2532 Y-0.4784 Z-0.3307
N3590 G2 X-5.2457 Y-0.4817 Z-0.3309 I-0.0389 J-0.0962
N3595 G1 X-5.2389 Y-0.4851 Z-0.331
N3600 G2 X-5.2321 Y-0.4889 Z-0.3312 I-0.0464 J-0.0928
N3605 G1 X-5.2253 Y-0.4929 Z-0.3314
N3610 G2 X-5.2184 Y-0.4974 Z-0.3316 I-0.0532 J-0.0891
N3615 G1 X-5.2116 Y-0.5022 Z-0.3318
N3620 G2 X-5.2048 Y-0.5075 Z-0.332 I-0.06 J-0.0846
N3625 G1 X-5.198 Y-0.5133 Z-0.3322
N3630 G2 X-5.1919 Y-0.5187 Z-0.3323 I-0.0669 J-0.0793
N3635 G1 X-5.1867 Y-0.5239 Z-0.3325
N3640 G2 X-5.1812 Y-0.5298 Z-0.3327 I-0.0729 J-0.0739
N3645 G1 X-5.1755 Y-0.5364 Z-0.3329
N3650 G2 X-5.1701 Y-0.5431 Z-0.3331 I-0.0784 J-0.068
N3655 G1 X-5.1653 Y-0.5497 Z-0.3332
N3660 G2 X-5.1607 Y-0.5565 Z-0.3334 I-0.0837 J-0.0613
N3665 G1 X-5.1449 Y-0.5821 Z-0.3341
N3670 X-5.1433 Y-0.5837
N3675 X-5.141 Y-0.5852 Z-0.3342
N3680 X-5.1391 Y-0.5859 Z-0.3343
N3685 X-5.1239 Y-0.5875 Z-0.3346
N3690 X-3.4986 Z-0.3707
N3695 X-3.4811 Y-0.5853 Z-0.3711
N3700 X-3.4792 Y-0.5845 Z-0.3712
N3705 X-3.477 Y-0.5828
N3710 X-3.4756 Y-0.581 Z-0.3713
N3715 X-3.4747 Y-0.5788
N3720 X-3.4725 Y-0.5622 Z-0.3717
N3725 Y-0.4144 Z-0.375
N3730 Y-0.3378 F20.
N3735 X-3.4747 Y-0.3212
N3740 X-3.4756 Y-0.319
N3745 X-3.477 Y-0.3172
N3750 X-3.4792 Y-0.3155
N3755 X-3.4811 Y-0.3147
N3760 X-3.4986 Y-0.3125
N3765 X-5.1436 Y-0.3127
N3770 X-5.1569 Y-0.3143
N3775 X-5.1592 Y-0.3152
N3780 X-5.1611 Y-0.3165
N3785 X-5.1818 Y-0.34
N3790 G2 X-5.188 Y-0.3464 I-0.0777 J0.0687
N3795 G1 X-5.196 Y-0.354
N3800 G2 X-5.2053 Y-0.3618 I-0.0715 J0.0751
N3805 G1 X-5.2158 Y-0.3697
N3810 G2 X-5.2246 Y-0.3756 I-0.0623 J0.083
N3815 G1 X-5.2316 Y-0.3799
N3820 G2 X-5.2386 Y-0.3837 I-0.0535 J0.0889
N3825 G1 X-5.2456 Y-0.3872
N3830 G2 X-5.2532 Y-0.3906 I-0.0465 J0.0928
N3835 G1 X-5.2613 Y-0.3939
N3840 G2 X-5.2695 Y-0.3968 I-0.0389 J0.0962
N3845 G1 X-5.2776 Y-0.3994
N3850 G2 X-5.2857 Y-0.4015 I-0.0308 J0.0991
N3855 G1 X-5.2938 Y-0.4033
N3860 G2 X-5.302 Y-0.4048 I-0.0226 J0.1013
N3865 G1 X-5.3101 Y-0.406
N3870 G2 X-5.3182 Y-0.4068 I-0.0145 J0.1027
N3875 G1 X-5.3264 Y-0.4073
N3880 G2 X-5.3327 Y-0.4075 I-0.0064 J0.1036
N3885 G1 X-6.0685
N3890 Y-0.4925
N3895 X-6.0568
N3900 X-6.0451 Y-0.4914
N3905 X-6.0435 Y-0.491
N3910 X-6.0192 Y-0.4794
N3915 G2 X-6.0103 Y-0.4757 I0.0445 J-0.0937
N3920 G1 X-6.0022 Y-0.4727
N3925 G2 X-5.9941 Y-0.4701 I0.0357 J-0.0974
N3930 G1 X-5.986 Y-0.4679
N3935 G2 X-5.9778 Y-0.466 I0.0275 J-0.1
N3940 G1 X-5.9697 Y-0.4645
N3945 G2 X-5.9616 Y-0.4632 I0.0194 J-0.1019
N3950 G1 X-5.9534 Y-0.4624
N3955 G2 X-5.9423 Y-0.4617 I0.0113 J-0.1031
N3960 G1 X-5.7798 Y-0.4615
N3965 X-5.3327
N3970 G2 X-5.3264 Y-0.4617 I0. J-0.1038
N3975 G1 X-5.3182 Y-0.4622
N3980 G2 X-5.3101 Y-0.463 I-0.0064 J-0.1036
N3985 G1 X-5.302 Y-0.4642
N3990 G2 X-5.2938 Y-0.4657 I-0.0145 J-0.1027
N3995 G1 X-5.2857 Y-0.4675
N4000 G2 X-5.2776 Y-0.4696 I-0.0226 J-0.1013
N4005 G1 X-5.2695 Y-0.4722
N4010 G2 X-5.2613 Y-0.4751 I-0.0308 J-0.0991
N4015 G1 X-5.2532 Y-0.4784
N4020 G2 X-5.2457 Y-0.4817 I-0.0389 J-0.0962
N4025 G1 X-5.2389 Y-0.4851
N4030 G2 X-5.2321 Y-0.4889 I-0.0464 J-0.0928
N4035 G1 X-5.2253 Y-0.4929
N4040 G2 X-5.2184 Y-0.4974 I-0.0532 J-0.0891
N4045 G1 X-5.2116 Y-0.5022
N4050 G2 X-5.2048 Y-0.5075 I-0.06 J-0.0846
N4055 G1 X-5.198 Y-0.5133
N4060 G2 X-5.1919 Y-0.5187 I-0.0669 J-0.0793
N4065 G1 X-5.1867 Y-0.5239
N4070 G2 X-5.1812 Y-0.5298 I-0.0729 J-0.0739
N4075 G1 X-5.1755 Y-0.5364
N4080 G2 X-5.1701 Y-0.5431 I-0.0784 J-0.068
N4085 G1 X-5.1653 Y-0.5497
N4090 G2 X-5.1607 Y-0.5565 I-0.0837 J-0.0613
N4095 G1 X-5.1449 Y-0.5821
N4100 X-5.1433 Y-0.5837
N4105 X-5.141 Y-0.5852
N4110 X-5.1391 Y-0.5859
N4115 X-5.1239 Y-0.5875
N4120 X-3.4986
N4125 X-3.4811 Y-0.5853
N4130 X-3.4792 Y-0.5845
N4135 X-3.477 Y-0.5828
N4140 X-3.4756 Y-0.581
N4145 X-3.4747 Y-0.5788
N4150 X-3.4725 Y-0.5622
N4155 Y-0.4144
N4160 G3 X-3.4732 Y-0.4071 Z-0.3743 I-0.0375 J0. F2.
N4165 X-3.4752 Y-0.4004 Z-0.3721 I-0.0368 J-0.0073
N4170 X-3.4781 Y-0.3946 Z-0.3687 I-0.0348 J-0.014
N4175 X-3.4815 Y-0.39 Z-0.364 I-0.0319 J-0.0198
N4180 X-3.4847 Y-0.3867 Z-0.3583 I-0.0285 J-0.0244
N4185 X-3.4874 Y-0.3845 Z-0.3519 I-0.0253 J-0.0277
N4190 X-3.4891 Y-0.3832 Z-0.3448 I-0.0226 J-0.0299
N4195 X-3.4897 Y-0.3828 Z-0.3375 I-0.0209 J-0.0312
N4200 G0 Z0.2
N4205 X-3.6246 Y-0.5875
N4210 G1 Z-0.2063 F1.
N4215 G18 G2 X-3.5879 Z-0.2437 I0.0375 K0. F4.
N4220 G1 X-3.4986 Z-0.2457
N4225 X-3.4811 Y-0.5853 Z-0.2461
N4230 X-3.4792 Y-0.5845 Z-0.2462
N4235 X-3.477 Y-0.5828
N4240 X-3.4756 Y-0.581 Z-0.2463
N4245 X-3.4747 Y-0.5788
N4250 X-3.4725 Y-0.5622 Z-0.2467
N4255 Y-0.3378 Z-0.2517
N4260 X-3.4747 Y-0.3212 Z-0.2521
N4265 X-3.4756 Y-0.319
N4270 X-3.477 Y-0.3172 Z-0.2522
N4275 X-3.4792 Y-0.3155
N4280 X-3.4811 Y-0.3147 Z-0.2523
N4285 X-3.4986 Y-0.3125 Z-0.2527
N4290 X-5.1436 Y-0.3127 Z-0.2893
N4295 X-5.1569 Y-0.3143 Z-0.2896
N4300 X-5.1592 Y-0.3152
N4305 X-5.1611 Y-0.3165 Z-0.2897
N4310 X-5.1818 Y-0.34 Z-0.2904
N4315 G17 G2 X-5.188 Y-0.3464 Z-0.2906 I-0.0777 J0.0687
N4320 G1 X-5.196 Y-0.354 Z-0.2908
N4325 G2 X-5.2053 Y-0.3618 Z-0.2911 I-0.0715 J0.0751
N4330 G1 X-5.2158 Y-0.3697 Z-0.2914
N4335 G2 X-5.2246 Y-0.3756 Z-0.2916 I-0.0623 J0.083
N4340 G1 X-5.2316 Y-0.3799 Z-0.2918
N4345 G2 X-5.2386 Y-0.3837 Z-0.292 I-0.0535 J0.0889
N4350 G1 X-5.2456 Y-0.3872 Z-0.2921
N4355 G2 X-5.2532 Y-0.3906 Z-0.2923 I-0.0465 J0.0928
N4360 G1 X-5.2613 Y-0.3939 Z-0.2925
N4365 G2 X-5.2695 Y-0.3968 Z-0.2927 I-0.0389 J0.0962
N4370 G1 X-5.2776 Y-0.3994 Z-0.2929
N4375 G2 X-5.2857 Y-0.4015 Z-0.2931 I-0.0308 J0.0991
N4380 G1 X-5.2938 Y-0.4033 Z-0.2933
N4385 G2 X-5.302 Y-0.4048 Z-0.2935 I-0.0226 J0.1013
N4390 G1 X-5.3101 Y-0.406 Z-0.2936
N4395 G2 X-5.3182 Y-0.4068 Z-0.2938 I-0.0145 J0.1027
N4400 G1 X-5.3264 Y-0.4073 Z-0.294
N4405 G2 X-5.3327 Y-0.4075 Z-0.2941 I-0.0064 J0.1036
N4410 G1 X-6.0685 Z-0.3105
N4415 Y-0.4925 Z-0.3124
N4420 X-6.0568 Z-0.3127
N4425 X-6.0451 Y-0.4914 Z-0.3129
N4430 X-6.0435 Y-0.491 Z-0.313
N4435 X-6.0192 Y-0.4794 Z-0.3136
N4440 G2 X-6.0103 Y-0.4757 Z-0.3138 I0.0445 J-0.0937
N4445 G1 X-6.0022 Y-0.4727 Z-0.314
N4450 G2 X-5.9941 Y-0.4701 Z-0.3141 I0.0357 J-0.0974
N4455 G1 X-5.986 Y-0.4679 Z-0.3143
N4460 G2 X-5.9778 Y-0.466 Z-0.3145 I0.0275 J-0.1
N4465 G1 X-5.9697 Y-0.4645 Z-0.3147
N4470 G2 X-5.9616 Y-0.4632 Z-0.3149 I0.0194 J-0.1019
N4475 G1 X-5.9534 Y-0.4624 Z-0.3151
N4480 G2 X-5.9423 Y-0.4617 Z-0.3153 I0.0113 J-0.1031
N4485 G1 X-5.7798 Y-0.4615 Z-0.3189
N4490 X-5.3327 Z-0.3289
N4495 G2 X-5.3264 Y-0.4617 Z-0.329 I0. J-0.1038
N4500 G1 X-5.3182 Y-0.4622 Z-0.3292
N4505 G2 X-5.3101 Y-0.463 Z-0.3294 I-0.0064 J-0.1036
N4510 G1 X-5.302 Y-0.4642 Z-0.3296
N4515 G2 X-5.2938 Y-0.4657 Z-0.3297 I-0.0145 J-0.1027
N4520 G1 X-5.2857 Y-0.4675 Z-0.3299
N4525 G2 X-5.2776 Y-0.4696 Z-0.3301 I-0.0226 J-0.1013
N4530 G1 X-5.2695 Y-0.4722 Z-0.3303
N4535 G2 X-5.2613 Y-0.4751 Z-0.3305 I-0.0308 J-0.0991
N4540 G1 X-5.2532 Y-0.4784 Z-0.3307
N4545 G2 X-5.2457 Y-0.4817 Z-0.3309 I-0.0389 J-0.0962
N4550 G1 X-5.2389 Y-0.4851 Z-0.331
N4555 G2 X-5.2321 Y-0.4889 Z-0.3312 I-0.0464 J-0.0928
N4560 G1 X-5.2253 Y-0.4929 Z-0.3314
N4565 G2 X-5.2184 Y-0.4974 Z-0.3316 I-0.0532 J-0.0891
N4570 G1 X-5.2116 Y-0.5022 Z-0.3318
N4575 G2 X-5.2048 Y-0.5075 Z-0.332 I-0.06 J-0.0846
N4580 G1 X-5.198 Y-0.5133 Z-0.3322
N4585 G2 X-5.1919 Y-0.5187 Z-0.3323 I-0.0669 J-0.0793
N4590 G1 X-5.1867 Y-0.5239 Z-0.3325
N4595 G2 X-5.1812 Y-0.5298 Z-0.3327 I-0.0729 J-0.0739
N4600 G1 X-5.1755 Y-0.5364 Z-0.3329
N4605 G2 X-5.1701 Y-0.5431 Z-0.3331 I-0.0784 J-0.068
N4610 G1 X-5.1653 Y-0.5497 Z-0.3332
N4615 G2 X-5.1607 Y-0.5565 Z-0.3334 I-0.0837 J-0.0613
N4620 G1 X-5.1449 Y-0.5821 Z-0.3341
N4625 X-5.1433 Y-0.5837
N4630 X-5.141 Y-0.5852 Z-0.3342
N4635 X-5.1391 Y-0.5859 Z-0.3343
N4640 X-5.1239 Y-0.5875 Z-0.3346
N4645 X-3.4986 Z-0.3707
N4650 X-3.4811 Y-0.5853 Z-0.3711
N4655 X-3.4792 Y-0.5845 Z-0.3712
N4660 X-3.477 Y-0.5828
N4665 X-3.4756 Y-0.581 Z-0.3713
N4670 X-3.4747 Y-0.5788
N4675 X-3.4725 Y-0.5622 Z-0.3717
N4680 Y-0.3378 Z-0.3767
N4685 X-3.4747 Y-0.3212 Z-0.3771
N4690 X-3.4756 Y-0.319
N4695 X-3.477 Y-0.3172 Z-0.3772
N4700 X-3.4792 Y-0.3155
N4705 X-3.4811 Y-0.3147 Z-0.3773
N4710 X-3.4986 Y-0.3125 Z-0.3777
N4715 X-5.1436 Y-0.3127 Z-0.4143
N4720 X-5.1569 Y-0.3143 Z-0.4146
N4725 X-5.1592 Y-0.3152
N4730 X-5.1611 Y-0.3165 Z-0.4147
N4735 X-5.1818 Y-0.34 Z-0.4154
N4740 G2 X-5.188 Y-0.3464 Z-0.4156 I-0.0777 J0.0687
N4745 G1 X-5.196 Y-0.354 Z-0.4158
N4750 G2 X-5.2053 Y-0.3618 Z-0.4161 I-0.0715 J0.0751
N4755 G1 X-5.2158 Y-0.3697 Z-0.4164
N4760 G2 X-5.2246 Y-0.3756 Z-0.4166 I-0.0623 J0.083
N4765 G1 X-5.2316 Y-0.3799 Z-0.4168
N4770 G2 X-5.2386 Y-0.3837 Z-0.417 I-0.0535 J0.0889
N4775 G1 X-5.2456 Y-0.3872 Z-0.4171
N4780 G2 X-5.2532 Y-0.3906 Z-0.4173 I-0.0465 J0.0928
N4785 G1 X-5.2613 Y-0.3939 Z-0.4175
N4790 G2 X-5.2695 Y-0.3968 Z-0.4177 I-0.0389 J0.0962
N4795 G1 X-5.2776 Y-0.3994 Z-0.4179
N4800 G2 X-5.2857 Y-0.4015 Z-0.4181 I-0.0308 J0.0991
N4805 G1 X-5.2938 Y-0.4033 Z-0.4183
N4810 G2 X-5.302 Y-0.4048 Z-0.4185 I-0.0226 J0.1013
N4815 G1 X-5.3101 Y-0.406 Z-0.4186
N4820 G2 X-5.3182 Y-0.4068 Z-0.4188 I-0.0145 J0.1027
N4825 G1 X-5.3264 Y-0.4073 Z-0.419
N4830 G2 X-5.3327 Y-0.4075 Z-0.4191 I-0.0064 J0.1036
N4835 G1 X-6.0685 Z-0.4355
N4840 Y-0.4925 Z-0.4374
N4845 X-6.0568 Z-0.4377
N4850 X-6.0451 Y-0.4914 Z-0.4379
N4855 X-6.0435 Y-0.491 Z-0.438
N4860 X-6.0192 Y-0.4794 Z-0.4386
N4865 G2 X-6.0103 Y-0.4757 Z-0.4388 I0.0445 J-0.0937
N4870 G1 X-6.0022 Y-0.4727 Z-0.439
N4875 G2 X-5.9941 Y-0.4701 Z-0.4391 I0.0357 J-0.0974
N4880 G1 X-5.986 Y-0.4679 Z-0.4393
N4885 G2 X-5.9778 Y-0.466 Z-0.4395 I0.0275 J-0.1
N4890 G1 X-5.9697 Y-0.4645 Z-0.4397
N4895 G2 X-5.9616 Y-0.4632 Z-0.4399 I0.0194 J-0.1019
N4900 G1 X-5.9534 Y-0.4624 Z-0.4401
N4905 G2 X-5.9423 Y-0.4617 Z-0.4403 I0.0113 J-0.1031
N4910 G1 X-5.7798 Y-0.4615 Z-0.4439
N4915 X-5.3327 Z-0.4539
N4920 G2 X-5.3264 Y-0.4617 Z-0.454 I0. J-0.1038
N4925 G1 X-5.3182 Y-0.4622 Z-0.4542
N4930 G2 X-5.3101 Y-0.463 Z-0.4544 I-0.0064 J-0.1036
N4935 G1 X-5.302 Y-0.4642 Z-0.4546
N4940 G2 X-5.2938 Y-0.4657 Z-0.4547 I-0.0145 J-0.1027
N4945 G1 X-5.2857 Y-0.4675 Z-0.4549
N4950 G2 X-5.2776 Y-0.4696 Z-0.4551 I-0.0226 J-0.1013
N4955 G1 X-5.2695 Y-0.4722 Z-0.4553
N4960 G2 X-5.2613 Y-0.4751 Z-0.4555 I-0.0308 J-0.0991
N4965 G1 X-5.2532 Y-0.4784 Z-0.4557
N4970 G2 X-5.2457 Y-0.4817 Z-0.4559 I-0.0389 J-0.0962
N4975 G1 X-5.2389 Y-0.4851 Z-0.456
N4980 G2 X-5.2321 Y-0.4889 Z-0.4562 I-0.0464 J-0.0928
N4985 G1 X-5.2253 Y-0.4929 Z-0.4564
N4990 G2 X-5.2184 Y-0.4974 Z-0.4566 I-0.0532 J-0.0891
N4995 G1 X-5.2116 Y-0.5022 Z-0.4568
N5000 G2 X-5.2048 Y-0.5075 Z-0.457 I-0.06 J-0.0846
N5005 G1 X-5.198 Y-0.5133 Z-0.4572
N5010 G2 X-5.1919 Y-0.5187 Z-0.4573 I-0.0669 J-0.0793
N5015 G1 X-5.1867 Y-0.5239 Z-0.4575
N5020 G2 X-5.1812 Y-0.5298 Z-0.4577 I-0.0729 J-0.0739
N5025 G1 X-5.1755 Y-0.5364 Z-0.4579
N5030 G2 X-5.1701 Y-0.5431 Z-0.4581 I-0.0784 J-0.068
N5035 G1 X-5.1653 Y-0.5497 Z-0.4582
N5040 G2 X-5.1607 Y-0.5565 Z-0.4584 I-0.0837 J-0.0613
N5045 G1 X-5.1449 Y-0.5821 Z-0.4591
N5050 X-5.1433 Y-0.5837
N5055 X-5.141 Y-0.5852 Z-0.4592
N5060 X-5.1391 Y-0.5859 Z-0.4593
N5065 X-5.1239 Y-0.5875 Z-0.4596
N5070 X-3.4986 Z-0.4957
N5075 X-3.4811 Y-0.5853 Z-0.4961
N5080 X-3.4792 Y-0.5845 Z-0.4962
N5085 X-3.477 Y-0.5828
N5090 X-3.4756 Y-0.581 Z-0.4963
N5095 X-3.4747 Y-0.5788
N5100 X-3.4725 Y-0.5622 Z-0.4967
N5105 Y-0.4144 Z-0.5
N5110 Y-0.3378 F20.
N5115 X-3.4747 Y-0.3212
N5120 X-3.4756 Y-0.319
N5125 X-3.477 Y-0.3172
N5130 X-3.4792 Y-0.3155
N5135 X-3.4811 Y-0.3147
N5140 X-3.4986 Y-0.3125
N5145 X-5.1436 Y-0.3127
N5150 X-5.1569 Y-0.3143
N5155 X-5.1592 Y-0.3152
N5160 X-5.1611 Y-0.3165
N5165 X-5.1818 Y-0.34
N5170 G2 X-5.188 Y-0.3464 I-0.0777 J0.0687
N5175 G1 X-5.196 Y-0.354
N5180 G2 X-5.2053 Y-0.3618 I-0.0715 J0.0751
N5185 G1 X-5.2158 Y-0.3697
N5190 G2 X-5.2246 Y-0.3756 I-0.0623 J0.083
N5195 G1 X-5.2316 Y-0.3799
N5200 G2 X-5.2386 Y-0.3837 I-0.0535 J0.0889
N5205 G1 X-5.2456 Y-0.3872
N5210 G2 X-5.2532 Y-0.3906 I-0.0465 J0.0928
N5215 G1 X-5.2613 Y-0.3939
N5220 G2 X-5.2695 Y-0.3968 I-0.0389 J0.0962
N5225 G1 X-5.2776 Y-0.3994
N5230 G2 X-5.2857 Y-0.4015 I-0.0308 J0.0991
N5235 G1 X-5.2938 Y-0.4033
N5240 G2 X-5.302 Y-0.4048 I-0.0226 J0.1013
N5245 G1 X-5.3101 Y-0.406
N5250 G2 X-5.3182 Y-0.4068 I-0.0145 J0.1027
N5255 G1 X-5.3264 Y-0.4073
N5260 G2 X-5.3327 Y-0.4075 I-0.0064 J0.1036
N5265 G1 X-6.0685
N5270 Y-0.4925
N5275 X-6.0568
N5280 X-6.0451 Y-0.4914
N5285 X-6.0435 Y-0.491
N5290 X-6.0192 Y-0.4794
N5295 G2 X-6.0103 Y-0.4757 I0.0445 J-0.0937
N5300 G1 X-6.0022 Y-0.4727
N5305 G2 X-5.9941 Y-0.4701 I0.0357 J-0.0974
N5310 G1 X-5.986 Y-0.4679
N5315 G2 X-5.9778 Y-0.466 I0.0275 J-0.1
N5320 G1 X-5.9697 Y-0.4645
N5325 G2 X-5.9616 Y-0.4632 I0.0194 J-0.1019
N5330 G1 X-5.9534 Y-0.4624
N5335 G2 X-5.9423 Y-0.4617 I0.0113 J-0.1031
N5340 G1 X-5.7798 Y-0.4615
N5345 X-5.3327
N5350 G2 X-5.3264 Y-0.4617 I0. J-0.1038
N5355 G1 X-5.3182 Y-0.4622
N5360 G2 X-5.3101 Y-0.463 I-0.0064 J-0.1036
N5365 G1 X-5.302 Y-0.4642
N5370 G2 X-5.2938 Y-0.4657 I-0.0145 J-0.1027
N5375 G1 X-5.2857 Y-0.4675
N5380 G2 X-5.2776 Y-0.4696 I-0.0226 J-0.1013
N5385 G1 X-5.2695 Y-0.4722
N5390 G2 X-5.2613 Y-0.4751 I-0.0308 J-0.0991
N5395 G1 X-5.2532 Y-0.4784
N5400 G2 X-5.2457 Y-0.4817 I-0.0389 J-0.0962
N5405 G1 X-5.2389 Y-0.4851
N5410 G2 X-5.2321 Y-0.4889 I-0.0464 J-0.0928
N5415 G1 X-5.2253 Y-0.4929
N5420 G2 X-5.2184 Y-0.4974 I-0.0532 J-0.0891
N5425 G1 X-5.2116 Y-0.5022
N5430 G2 X-5.2048 Y-0.5075 I-0.06 J-0.0846
N5435 G1 X-5.198 Y-0.5133
N5440 G2 X-5.1919 Y-0.5187 I-0.0669 J-0.0793
N5445 G1 X-5.1867 Y-0.5239
N5450 G2 X-5.1812 Y-0.5298 I-0.0729 J-0.0739
N5455 G1 X-5.1755 Y-0.5364
N5460 G2 X-5.1701 Y-0.5431 I-0.0784 J-0.068
N5465 G1 X-5.1653 Y-0.5497
N5470 G2 X-5.1607 Y-0.5565 I-0.0837 J-0.0613
N5475 G1 X-5.1449 Y-0.5821
N5480 X-5.1433 Y-0.5837
N5485 X-5.141 Y-0.5852
N5490 X-5.1391 Y-0.5859
N5495 X-5.1239 Y-0.5875
N5500 X-3.4986
N5505 X-3.4811 Y-0.5853
N5510 X-3.4792 Y-0.5845
N5515 X-3.477 Y-0.5828
N5520 X-3.4756 Y-0.581
N5525 X-3.4747 Y-0.5788
N5530 X-3.4725 Y-0.5622
N5535 Y-0.4144
N5540 G3 X-3.4732 Y-0.4071 Z-0.4993 I-0.0375 J0. F2.
N5545 X-3.4752 Y-0.4004 Z-0.4971 I-0.0368 J-0.0073
N5550 X-3.4781 Y-0.3946 Z-0.4937 I-0.0348 J-0.014
N5555 X-3.4815 Y-0.39 Z-0.489 I-0.0319 J-0.0198
N5560 X-3.4847 Y-0.3867 Z-0.4833 I-0.0285 J-0.0244
N5565 X-3.4874 Y-0.3845 Z-0.4769 I-0.0253 J-0.0277
N5570 X-3.4891 Y-0.3832 Z-0.4698 I-0.0226 J-0.0299
N5575 X-3.4897 Y-0.3828 Z-0.4625 I-0.0209 J-0.0312
N5580 G0 Z0.2
N5585 X-3.7349 Y-0.3125
N5590 G1 Z-0.3313 F1.
N5595 X-3.7352 Z-0.3361 F4.
N5600 X-3.7361 Z-0.3408
N5605 X-3.7377 Z-0.3454
N5610 X-3.7398 Z-0.3498
N5615 X-3.7424 Z-0.3538
N5620 X-3.7456 Z-0.3575
N5625 X-3.7492 Z-0.3607
N5630 X-3.7532 Z-0.3635
N5635 X-3.7575 Z-0.3657
N5640 X-3.762 Z-0.3673
N5645 X-3.7668 Z-0.3683
N5650 X-3.7716 Z-0.3688
N5655 X-5.1436 Y-0.3127 Z-0.3993
N5660 X-5.1569 Y-0.3143 Z-0.3996
N5665 X-5.1592 Y-0.3152
N5670 X-5.1611 Y-0.3165 Z-0.3997
N5675 X-5.1818 Y-0.34 Z-0.4004
N5680 G2 X-5.188 Y-0.3464 Z-0.4006 I-0.0777 J0.0687
N5685 G1 X-5.196 Y-0.354 Z-0.4008
N5690 G2 X-5.2053 Y-0.3618 Z-0.4011 I-0.0715 J0.0751
N5695 G1 X-5.2158 Y-0.3697 Z-0.4014
N5700 G2 X-5.2246 Y-0.3756 Z-0.4016 I-0.0623 J0.083
N5705 G1 X-5.2316 Y-0.3799 Z-0.4018
N5710 G2 X-5.2386 Y-0.3837 Z-0.402 I-0.0535 J0.0889
N5715 G1 X-5.2456 Y-0.3872 Z-0.4021
N5720 G2 X-5.2532 Y-0.3906 Z-0.4023 I-0.0465 J0.0928
N5725 G1 X-5.2613 Y-0.3939 Z-0.4025
N5730 G2 X-5.2695 Y-0.3968 Z-0.4027 I-0.0389 J0.0962
N5735 G1 X-5.2776 Y-0.3994 Z-0.4029
N5740 G2 X-5.2857 Y-0.4015 Z-0.4031 I-0.0308 J0.0991
N5745 G1 X-5.2938 Y-0.4033 Z-0.4033
N5750 G2 X-5.302 Y-0.4048 Z-0.4035 I-0.0226 J0.1013
N5755 G1 X-5.3101 Y-0.406 Z-0.4036
N5760 G2 X-5.3182 Y-0.4068 Z-0.4038 I-0.0145 J0.1027
N5765 G1 X-5.3264 Y-0.4073 Z-0.404
N5770 G2 X-5.3327 Y-0.4075 Z-0.4041 I-0.0064 J0.1036
N5775 G1 X-6.0685 Z-0.4205
N5780 Y-0.4925 Z-0.4224
N5785 X-6.0568 Z-0.4227
N5790 X-6.0451 Y-0.4914 Z-0.4229
N5795 X-6.0435 Y-0.491 Z-0.423
N5800 X-6.0192 Y-0.4794 Z-0.4236
N5805 G2 X-6.0103 Y-0.4757 Z-0.4238 I0.0445 J-0.0937
N5810 G1 X-6.0022 Y-0.4727 Z-0.424
N5815 G2 X-5.9941 Y-0.4701 Z-0.4241 I0.0357 J-0.0974
N5820 G1 X-5.986 Y-0.4679 Z-0.4243
N5825 G2 X-5.9778 Y-0.466 Z-0.4245 I0.0275 J-0.1
N5830 G1 X-5.9697 Y-0.4645 Z-0.4247
N5835 G2 X-5.9616 Y-0.4632 Z-0.4249 I0.0194 J-0.1019
N5840 G1 X-5.9534 Y-0.4624 Z-0.4251
N5845 G2 X-5.9423 Y-0.4617 Z-0.4253 I0.0113 J-0.1031
N5850 G1 X-5.7798 Y-0.4615 Z-0.4289
N5855 X-5.3327 Z-0.4389
N5860 G2 X-5.3264 Y-0.4617 Z-0.439 I0. J-0.1038
N5865 G1 X-5.3182 Y-0.4622 Z-0.4392
N5870 G2 X-5.3101 Y-0.463 Z-0.4394 I-0.0064 J-0.1036
N5875 G1 X-5.302 Y-0.4642 Z-0.4396
N5880 G2 X-5.2938 Y-0.4657 Z-0.4397 I-0.0145 J-0.1027
N5885 G1 X-5.2857 Y-0.4675 Z-0.4399
N5890 G2 X-5.2776 Y-0.4696 Z-0.4401 I-0.0226 J-0.1013
N5895 G1 X-5.2695 Y-0.4722 Z-0.4403
N5900 G2 X-5.2613 Y-0.4751 Z-0.4405 I-0.0308 J-0.0991
N5905 G1 X-5.2532 Y-0.4784 Z-0.4407
N5910 G2 X-5.2457 Y-0.4817 Z-0.4409 I-0.0389 J-0.0962
N5915 G1 X-5.2389 Y-0.4851 Z-0.441
N5920 G2 X-5.2321 Y-0.4889 Z-0.4412 I-0.0464 J-0.0928
N5925 G1 X-5.2253 Y-0.4929 Z-0.4414
N5930 G2 X-5.2184 Y-0.4974 Z-0.4416 I-0.0532 J-0.0891
N5935 G1 X-5.2116 Y-0.5022 Z-0.4418
N5940 G2 X-5.2048 Y-0.5075 Z-0.442 I-0.06 J-0.0846
N5945 G1 X-5.198 Y-0.5133 Z-0.4422
N5950 G2 X-5.1919 Y-0.5187 Z-0.4423 I-0.0669 J-0.0793
N5955 G1 X-5.1867 Y-0.5239 Z-0.4425
N5960 G2 X-5.1812 Y-0.5298 Z-0.4427 I-0.0729 J-0.0739
N5965 G1 X-5.1755 Y-0.5364 Z-0.4429
N5970 G2 X-5.1701 Y-0.5431 Z-0.4431 I-0.0784 J-0.068
N5975 G1 X-5.1653 Y-0.5497 Z-0.4432
N5980 G2 X-5.1607 Y-0.5565 Z-0.4434 I-0.0837 J-0.0613
N5985 G1 X-5.1449 Y-0.5821 Z-0.4441
N5990 X-5.1433 Y-0.5837
N5995 X-5.141 Y-0.5852 Z-0.4442
N6000 X-5.1391 Y-0.5859 Z-0.4443
N6005 X-5.1239 Y-0.5875 Z-0.4446
N6010 X-3.4986 Z-0.4807
N6015 X-3.4811 Y-0.5853 Z-0.4811
N6020 X-3.4792 Y-0.5845 Z-0.4812
N6025 X-3.477 Y-0.5828
N6030 X-3.4756 Y-0.581 Z-0.4813
N6035 X-3.4747 Y-0.5788
N6040 X-3.4725 Y-0.5622 Z-0.4817
N6045 Y-0.3378 Z-0.4867
N6050 X-3.4747 Y-0.3212 Z-0.4871
N6055 X-3.4756 Y-0.319
N6060 X-3.477 Y-0.3172 Z-0.4872
N6065 X-3.4792 Y-0.3155
N6070 X-3.4811 Y-0.3147 Z-0.4873
N6075 X-3.4986 Y-0.3125 Z-0.4877
N6080 X-5.1436 Y-0.3127 Z-0.5243
N6085 X-5.1569 Y-0.3143 Z-0.5246
N6090 X-5.1592 Y-0.3152
N6095 X-5.1611 Y-0.3165 Z-0.5247
N6100 X-5.1818 Y-0.34 Z-0.5254
N6105 G2 X-5.188 Y-0.3464 Z-0.5256 I-0.0777 J0.0687
N6110 G1 X-5.196 Y-0.354 Z-0.5258
N6115 G2 X-5.2053 Y-0.3618 Z-0.5261 I-0.0715 J0.0751
N6120 G1 X-5.2158 Y-0.3697 Z-0.5264
N6125 G2 X-5.2246 Y-0.3756 Z-0.5266 I-0.0623 J0.083
N6130 G1 X-5.2316 Y-0.3799 Z-0.5268
N6135 G2 X-5.2386 Y-0.3837 Z-0.527 I-0.0535 J0.0889
N6140 G1 X-5.2456 Y-0.3872 Z-0.5271
N6145 G2 X-5.2532 Y-0.3906 Z-0.5273 I-0.0465 J0.0928
N6150 G1 X-5.2613 Y-0.3939 Z-0.5275
N6155 G2 X-5.2695 Y-0.3968 Z-0.5277 I-0.0389 J0.0962
N6160 G1 X-5.2776 Y-0.3994 Z-0.5279
N6165 G2 X-5.2857 Y-0.4015 Z-0.5281 I-0.0308 J0.0991
N6170 G1 X-5.2938 Y-0.4033 Z-0.5283
N6175 G2 X-5.302 Y-0.4048 Z-0.5285 I-0.0226 J0.1013
N6180 G1 X-5.3101 Y-0.406 Z-0.5286
N6185 G2 X-5.3182 Y-0.4068 Z-0.5288 I-0.0145 J0.1027
N6190 G1 X-5.3264 Y-0.4073 Z-0.529
N6195 G2 X-5.3327 Y-0.4075 Z-0.5291 I-0.0064 J0.1036
N6200 G1 X-6.0685 Z-0.5455
N6205 Y-0.4925 Z-0.5474
N6210 X-6.0568 Z-0.5477
N6215 X-6.0451 Y-0.4914 Z-0.5479
N6220 X-6.0435 Y-0.491 Z-0.548
N6225 X-6.0192 Y-0.4794 Z-0.5486
N6230 G2 X-6.0103 Y-0.4757 Z-0.5488 I0.0445 J-0.0937
N6235 G1 X-6.0022 Y-0.4727 Z-0.549
N6240 G2 X-5.9941 Y-0.4701 Z-0.5491 I0.0357 J-0.0974
N6245 G1 X-5.986 Y-0.4679 Z-0.5493
N6250 G2 X-5.9778 Y-0.466 Z-0.5495 I0.0275 J-0.1
N6255 G1 X-5.9697 Y-0.4645 Z-0.5497
N6260 G2 X-5.9616 Y-0.4632 Z-0.5499 I0.0194 J-0.1019
N6265 G1 X-5.9534 Y-0.4624 Z-0.5501
N6270 G2 X-5.9423 Y-0.4617 Z-0.5503 I0.0113 J-0.1031
N6275 G1 X-5.7798 Y-0.4615 Z-0.5539
N6280 X-5.3327 Z-0.5639
N6285 G2 X-5.3264 Y-0.4617 Z-0.564 I0. J-0.1038
N6290 G1 X-5.3182 Y-0.4622 Z-0.5642
N6295 G2 X-5.3101 Y-0.463 Z-0.5644 I-0.0064 J-0.1036
N6300 G1 X-5.302 Y-0.4642 Z-0.5646
N6305 G2 X-5.2938 Y-0.4657 Z-0.5647 I-0.0145 J-0.1027
N6310 G1 X-5.2857 Y-0.4675 Z-0.5649
N6315 G2 X-5.2776 Y-0.4696 Z-0.5651 I-0.0226 J-0.1013
N6320 G1 X-5.2695 Y-0.4722 Z-0.5653
N6325 G2 X-5.2613 Y-0.4751 Z-0.5655 I-0.0308 J-0.0991
N6330 G1 X-5.2532 Y-0.4784 Z-0.5657
N6335 G2 X-5.2457 Y-0.4817 Z-0.5659 I-0.0389 J-0.0962
N6340 G1 X-5.2389 Y-0.4851 Z-0.566
N6345 G2 X-5.2321 Y-0.4889 Z-0.5662 I-0.0464 J-0.0928
N6350 G1 X-5.2253 Y-0.4929 Z-0.5664
N6355 G2 X-5.2184 Y-0.4974 Z-0.5666 I-0.0532 J-0.0891
N6360 G1 X-5.2116 Y-0.5022 Z-0.5668
N6365 G2 X-5.2048 Y-0.5075 Z-0.567 I-0.06 J-0.0846
N6370 G1 X-5.198 Y-0.5133 Z-0.5672
N6375 G2 X-5.1919 Y-0.5187 Z-0.5673 I-0.0669 J-0.0793
N6380 G1 X-5.1867 Y-0.5239 Z-0.5675
N6385 G2 X-5.1812 Y-0.5298 Z-0.5677 I-0.0729 J-0.0739
N6390 G1 X-5.1755 Y-0.5364 Z-0.5679
N6395 G2 X-5.1701 Y-0.5431 Z-0.5681 I-0.0784 J-0.068
N6400 G1 X-5.1653 Y-0.5497 Z-0.5682
N6405 G2 X-5.1607 Y-0.5565 Z-0.5684 I-0.0837 J-0.0613
N6410 G1 X-5.1449 Y-0.5821 Z-0.5691
N6415 X-5.1433 Y-0.5837
N6420 X-5.141 Y-0.5852 Z-0.5692
N6425 X-5.1391 Y-0.5859 Z-0.5693
N6430 X-5.1239 Y-0.5875 Z-0.5696
N6435 X-3.4986 Z-0.6057
N6440 X-3.4811 Y-0.5853 Z-0.6061
N6445 X-3.4792 Y-0.5845 Z-0.6062
N6450 X-3.477 Y-0.5828
N6455 X-3.4756 Y-0.581 Z-0.6063
N6460 X-3.4747 Y-0.5788
N6465 X-3.4725 Y-0.5622 Z-0.6067
N6470 Y-0.4144 Z-0.61
N6475 Y-0.3378 F20.
N6480 X-3.4747 Y-0.3212
N6485 X-3.4756 Y-0.319
N6490 X-3.477 Y-0.3172
N6495 X-3.4792 Y-0.3155
N6500 X-3.4811 Y-0.3147
N6505 X-3.4986 Y-0.3125
N6510 X-5.1436 Y-0.3127
N6515 X-5.1569 Y-0.3143
N6520 X-5.1592 Y-0.3152
N6525 X-5.1611 Y-0.3165
N6530 X-5.1818 Y-0.34
N6535 G2 X-5.188 Y-0.3464 I-0.0777 J0.0687
N6540 G1 X-5.196 Y-0.354
N6545 G2 X-5.2053 Y-0.3618 I-0.0715 J0.0751
N6550 G1 X-5.2158 Y-0.3697
N6555 G2 X-5.2246 Y-0.3756 I-0.0623 J0.083
N6560 G1 X-5.2316 Y-0.3799
N6565 G2 X-5.2386 Y-0.3837 I-0.0535 J0.0889
N6570 G1 X-5.2456 Y-0.3872
N6575 G2 X-5.2532 Y-0.3906 I-0.0465 J0.0928
N6580 G1 X-5.2613 Y-0.3939
N6585 G2 X-5.2695 Y-0.3968 I-0.0389 J0.0962
N6590 G1 X-5.2776 Y-0.3994
N6595 G2 X-5.2857 Y-0.4015 I-0.0308 J0.0991
N6600 G1 X-5.2938 Y-0.4033
N6605 G2 X-5.302 Y-0.4048 I-0.0226 J0.1013
N6610 G1 X-5.3101 Y-0.406
N6615 G2 X-5.3182 Y-0.4068 I-0.0145 J0.1027
N6620 G1 X-5.3264 Y-0.4073
N6625 G2 X-5.3327 Y-0.4075 I-0.0064 J0.1036
N6630 G1 X-6.0685
N6635 Y-0.4925
N6640 X-6.0568
N6645 X-6.0451 Y-0.4914
N6650 X-6.0435 Y-0.491
N6655 X-6.0192 Y-0.4794
N6660 G2 X-6.0103 Y-0.4757 I0.0445 J-0.0937
N6665 G1 X-6.0022 Y-0.4727
N6670 G2 X-5.9941 Y-0.4701 I0.0357 J-0.0974
N6675 G1 X-5.986 Y-0.4679
N6680 G2 X-5.9778 Y-0.466 I0.0275 J-0.1
N6685 G1 X-5.9697 Y-0.4645
N6690 G2 X-5.9616 Y-0.4632 I0.0194 J-0.1019
N6695 G1 X-5.9534 Y-0.4624
N6700 G2 X-5.9423 Y-0.4617 I0.0113 J-0.1031
N6705 G1 X-5.7798 Y-0.4615
N6710 X-5.3327
N6715 G2 X-5.3264 Y-0.4617 I0. J-0.1038
N6720 G1 X-5.3182 Y-0.4622
N6725 G2 X-5.3101 Y-0.463 I-0.0064 J-0.1036
N6730 G1 X-5.302 Y-0.4642
N6735 G2 X-5.2938 Y-0.4657 I-0.0145 J-0.1027
N6740 G1 X-5.2857 Y-0.4675
N6745 G2 X-5.2776 Y-0.4696 I-0.0226 J-0.1013
N6750 G1 X-5.2695 Y-0.4722
N6755 G2 X-5.2613 Y-0.4751 I-0.0308 J-0.0991
N6760 G1 X-5.2532 Y-0.4784
N6765 G2 X-5.2457 Y-0.4817 I-0.0389 J-0.0962
N6770 G1 X-5.2389 Y-0.4851
N6775 G2 X-5.2321 Y-0.4889 I-0.0464 J-0.0928
N6780 G1 X-5.2253 Y-0.4929
N6785 G2 X-5.2184 Y-0.4974 I-0.0532 J-0.0891
N6790 G1 X-5.2116 Y-0.5022
N6795 G2 X-5.2048 Y-0.5075 I-0.06 J-0.0846
N6800 G1 X-5.198 Y-0.5133
N6805 G2 X-5.1919 Y-0.5187 I-0.0669 J-0.0793
N6810 G1 X-5.1867 Y-0.5239
N6815 G2 X-5.1812 Y-0.5298 I-0.0729 J-0.0739
N6820 G1 X-5.1755 Y-0.5364
N6825 G2 X-5.1701 Y-0.5431 I-0.0784 J-0.068
N6830 G1 X-5.1653 Y-0.5497
N6835 G2 X-5.1607 Y-0.5565 I-0.0837 J-0.0613
N6840 G1 X-5.1449 Y-0.5821
N6845 X-5.1433 Y-0.5837
N6850 X-5.141 Y-0.5852
N6855 X-5.1391 Y-0.5859
N6860 X-5.1239 Y-0.5875
N6865 X-3.4986
N6870 X-3.4811 Y-0.5853
N6875 X-3.4792 Y-0.5845
N6880 X-3.477 Y-0.5828
N6885 X-3.4756 Y-0.581
N6890 X-3.4747 Y-0.5788
N6895 X-3.4725 Y-0.5622
N6900 Y-0.4144
N6905 G3 X-3.4896 Y-0.3957 I-0.0187 J0.
N6910 G1 X-4.4179 Y-0.3127
N6915 G3 X-4.4195 Y-0.3126 I-0.0017 J-0.0187
N6920 G1 X-5.1436 Y-0.3127 Z-0.6353 F4.
N6925 X-5.1569 Y-0.3143 Z-0.6358
N6930 X-5.1592 Y-0.3152
N6935 X-5.1611 Y-0.3165 Z-0.6359
N6940 X-5.1818 Y-0.34 Z-0.637
N6945 G2 X-5.188 Y-0.3464 Z-0.6373 I-0.0777 J0.0687
N6950 G1 X-5.196 Y-0.354 Z-0.6377
N6955 G2 X-5.2053 Y-0.3618 Z-0.6381 I-0.0715 J0.0751
N6960 G1 X-5.2158 Y-0.3697 Z-0.6386
N6965 G2 X-5.2246 Y-0.3756 Z-0.639 I-0.0623 J0.083
N6970 G1 X-5.2316 Y-0.3799 Z-0.6392
N6975 G2 X-5.2386 Y-0.3837 Z-0.6395 I-0.0535 J0.0889
N6980 G1 X-5.2456 Y-0.3872 Z-0.6398
N6985 G2 X-5.2532 Y-0.3906 Z-0.6401 I-0.0465 J0.0928
N6990 G1 X-5.2613 Y-0.3939 Z-0.6404
N6995 G2 X-5.2695 Y-0.3968 Z-0.6407 I-0.0389 J0.0962
N7000 G1 X-5.2776 Y-0.3994 Z-0.641
N7005 G2 X-5.2857 Y-0.4015 Z-0.6413 I-0.0308 J0.0991
N7010 G1 X-5.2938 Y-0.4033 Z-0.6416
N7015 G2 X-5.302 Y-0.4048 Z-0.6419 I-0.0226 J0.1013
N7020 G1 X-5.3101 Y-0.406 Z-0.6422
N7025 G2 X-5.3182 Y-0.4068 Z-0.6424 I-0.0145 J0.1027
N7030 G1 X-5.3264 Y-0.4073 Z-0.6427
N7035 G2 X-5.3327 Y-0.4075 Z-0.6429 I-0.0064 J0.1036
N7040 G1 X-5.7104 Z-0.6561
N7045 X-5.7195 Y-0.4096 Z-0.6565
N7050 X-5.7215 Y-0.4106
N7055 X-5.7236 Y-0.4125 Z-0.6566
N7060 X-5.7246 Y-0.4138 Z-0.6567
N7065 X-5.7255 Y-0.4162 Z-0.6568
N7070 X-5.7275 Y-0.4326 Z-0.6574
N7075 Y-0.4361 Z-0.6575
N7080 X-5.7256 Y-0.4526 Z-0.6581
N7085 X-5.7246 Y-0.4551 Z-0.6582
N7090 X-5.7236 Y-0.4565
N7095 X-5.7215 Y-0.4584 Z-0.6583
N7100 X-5.7195 Y-0.4594 Z-0.6584
N7105 X-5.7104 Y-0.4615 Z-0.6587
N7110 X-5.3327 Z-0.6719
N7115 G2 X-5.3264 Y-0.4617 Z-0.6721 I0. J-0.1038
N7120 G1 X-5.3182 Y-0.4622 Z-0.6724
N7125 G2 X-5.3101 Y-0.463 Z-0.6727 I-0.0064 J-0.1036
N7130 G1 X-5.302 Y-0.4642 Z-0.673
N7135 G2 X-5.2938 Y-0.4657 Z-0.6733 I-0.0145 J-0.1027
N7140 G1 X-5.2857 Y-0.4675 Z-0.6736
N7145 G2 X-5.2776 Y-0.4696 Z-0.6739 I-0.0226 J-0.1013
N7150 G1 X-5.2695 Y-0.4722 Z-0.6742
N7155 G2 X-5.2613 Y-0.4751 Z-0.6745 I-0.0308 J-0.0991
N7160 G1 X-5.2532 Y-0.4784 Z-0.6748
N7165 G2 X-5.2457 Y-0.4817 Z-0.6751 I-0.0389 J-0.0962
N7170 G1 X-5.2389 Y-0.4851 Z-0.6753
N7175 G2 X-5.2321 Y-0.4889 Z-0.6756 I-0.0464 J-0.0928
N7180 G1 X-5.2253 Y-0.4929 Z-0.6759
N7185 G2 X-5.2184 Y-0.4974 Z-0.6762 I-0.0532 J-0.0891
N7190 G1 X-5.2116 Y-0.5022 Z-0.6764
N7195 G2 X-5.2048 Y-0.5075 Z-0.6767 I-0.06 J-0.0846
N7200 G1 X-5.198 Y-0.5133 Z-0.6771
N7205 G2 X-5.1919 Y-0.5187 Z-0.6773 I-0.0669 J-0.0793
N7210 G1 X-5.1867 Y-0.5239 Z-0.6776
N7215 G2 X-5.1812 Y-0.5298 Z-0.6779 I-0.0729 J-0.0739
N7220 G1 X-5.1755 Y-0.5364 Z-0.6782
N7225 G2 X-5.1701 Y-0.5431 Z-0.6785 I-0.0784 J-0.068
N7230 G1 X-5.1653 Y-0.5497 Z-0.6788
N7235 G2 X-5.1607 Y-0.5565 Z-0.6791 I-0.0837 J-0.0613
N7240 G1 X-5.1449 Y-0.5821 Z-0.6801
N7245 X-5.1433 Y-0.5837 Z-0.6802
N7250 X-5.141 Y-0.5852 Z-0.6803
N7255 X-5.1391 Y-0.5859 Z-0.6804
N7260 X-5.1239 Y-0.5875 Z-0.6809
N7265 X-3.5744 Z-0.735
N7270 X-3.4986 F20.
N7275 X-3.4811 Y-0.5853
N7280 X-3.4792 Y-0.5845
N7285 X-3.477 Y-0.5828
N7290 X-3.4756 Y-0.581
N7295 X-3.4747 Y-0.5788
N7300 X-3.4725 Y-0.5622
N7305 Y-0.3378
N7310 X-3.4747 Y-0.3212
N7315 X-3.4756 Y-0.319
N7320 X-3.477 Y-0.3172
N7325 X-3.4792 Y-0.3155
N7330 X-3.4811 Y-0.3147
N7335 X-3.4986 Y-0.3125
N7340 X-5.1436 Y-0.3127
N7345 X-5.1569 Y-0.3143
N7350 X-5.1592 Y-0.3152
N7355 X-5.1611 Y-0.3165
N7360 X-5.1818 Y-0.34
N7365 G2 X-5.188 Y-0.3464 I-0.0777 J0.0687
N7370 G1 X-5.196 Y-0.354
N7375 G2 X-5.2053 Y-0.3618 I-0.0715 J0.0751
N7380 G1 X-5.2158 Y-0.3697
N7385 G2 X-5.2246 Y-0.3756 I-0.0623 J0.083
N7390 G1 X-5.2316 Y-0.3799
N7395 G2 X-5.2386 Y-0.3837 I-0.0535 J0.0889
N7400 G1 X-5.2456 Y-0.3872
N7405 G2 X-5.2532 Y-0.3906 I-0.0465 J0.0928
N7410 G1 X-5.2613 Y-0.3939
N7415 G2 X-5.2695 Y-0.3968 I-0.0389 J0.0962
N7420 G1 X-5.2776 Y-0.3994
N7425 G2 X-5.2857 Y-0.4015 I-0.0308 J0.0991
N7430 G1 X-5.2938 Y-0.4033
N7435 G2 X-5.302 Y-0.4048 I-0.0226 J0.1013
N7440 G1 X-5.3101 Y-0.406
N7445 G2 X-5.3182 Y-0.4068 I-0.0145 J0.1027
N7450 G1 X-5.3264 Y-0.4073
N7455 G2 X-5.3327 Y-0.4075 I-0.0064 J0.1036
N7460 G1 X-5.7104
N7465 X-5.7195 Y-0.4096
N7470 X-5.7215 Y-0.4106
N7475 X-5.7236 Y-0.4125
N7480 X-5.7246 Y-0.4138
N7485 X-5.7255 Y-0.4162
N7490 X-5.7275 Y-0.4326
N7495 Y-0.4361
N7500 X-5.7256 Y-0.4526
N7505 X-5.7246 Y-0.4551
N7510 X-5.7236 Y-0.4565
N7515 X-5.7215 Y-0.4584
N7520 X-5.7195 Y-0.4594
N7525 X-5.7104 Y-0.4615
N7530 X-5.3327
N7535 G2 X-5.3264 Y-0.4617 I0. J-0.1038
N7540 G1 X-5.3182 Y-0.4622
N7545 G2 X-5.3101 Y-0.463 I-0.0064 J-0.1036
N7550 G1 X-5.302 Y-0.4642
N7555 G2 X-5.2938 Y-0.4657 I-0.0145 J-0.1027
N7560 G1 X-5.2857 Y-0.4675
N7565 G2 X-5.2776 Y-0.4696 I-0.0226 J-0.1013
N7570 G1 X-5.2695 Y-0.4722
N7575 G2 X-5.2613 Y-0.4751 I-0.0308 J-0.0991
N7580 G1 X-5.2532 Y-0.4784
N7585 G2 X-5.2457 Y-0.4817 I-0.0389 J-0.0962
N7590 G1 X-5.2389 Y-0.4851
N7595 G2 X-5.2321 Y-0.4889 I-0.0464 J-0.0928
N7600 G1 X-5.2253 Y-0.4929
N7605 G2 X-5.2184 Y-0.4974 I-0.0532 J-0.0891
N7610 G1 X-5.2116 Y-0.5022
N7615 G2 X-5.2048 Y-0.5075 I-0.06 J-0.0846
N7620 G1 X-5.198 Y-0.5133
N7625 G2 X-5.1919 Y-0.5187 I-0.0669 J-0.0793
N7630 G1 X-5.1867 Y-0.5239
N7635 G2 X-5.1812 Y-0.5298 I-0.0729 J-0.0739
N7640 G1 X-5.1755 Y-0.5364
N7645 G2 X-5.1701 Y-0.5431 I-0.0784 J-0.068
N7650 G1 X-5.1653 Y-0.5497
N7655 G2 X-5.1607 Y-0.5565 I-0.0837 J-0.0613
N7660 G1 X-5.1449 Y-0.5821
N7665 X-5.1433 Y-0.5837
N7670 X-5.141 Y-0.5852
N7675 X-5.1391 Y-0.5859
N7680 X-5.1239 Y-0.5875
N7685 X-3.5744
N7690 G3 X-3.5693 Y-0.5507 I0. J0.0187
N7695 G1 X-4.4144 Y-0.3133
N7700 G3 X-4.4195 Y-0.3126 I-0.0051 J-0.0181
N7705 G1 X-5.1436 Y-0.3127 Z-0.7603 F4.
N7710 X-5.1569 Y-0.3143 Z-0.7608
N7715 X-5.1592 Y-0.3152
N7720 X-5.1611 Y-0.3165 Z-0.7609
N7725 X-5.1818 Y-0.34 Z-0.762
N7730 G2 X-5.188 Y-0.3464 Z-0.7623 I-0.0777 J0.0687
N7735 G1 X-5.196 Y-0.354 Z-0.7627
N7740 G2 X-5.2053 Y-0.3618 Z-0.7631 I-0.0715 J0.0751
N7745 G1 X-5.2158 Y-0.3697 Z-0.7636
N7750 G2 X-5.2246 Y-0.3756 Z-0.764 I-0.0623 J0.083
N7755 G1 X-5.2316 Y-0.3799 Z-0.7642
N7760 G2 X-5.2386 Y-0.3837 Z-0.7645 I-0.0535 J0.0889
N7765 G1 X-5.2456 Y-0.3872 Z-0.7648
N7770 G2 X-5.2532 Y-0.3906 Z-0.7651 I-0.0465 J0.0928
N7775 G1 X-5.2613 Y-0.3939 Z-0.7654
N7780 G2 X-5.2695 Y-0.3968 Z-0.7657 I-0.0389 J0.0962
N7785 G1 X-5.2776 Y-0.3994 Z-0.766
N7790 G2 X-5.2857 Y-0.4015 Z-0.7663 I-0.0308 J0.0991
N7795 G1 X-5.2938 Y-0.4033 Z-0.7666
N7800 G2 X-5.302 Y-0.4048 Z-0.7669 I-0.0226 J0.1013
N7805 G1 X-5.3101 Y-0.406 Z-0.7672
N7810 G2 X-5.3182 Y-0.4068 Z-0.7674 I-0.0145 J0.1027
N7815 G1 X-5.3264 Y-0.4073 Z-0.7677
N7820 G2 X-5.3327 Y-0.4075 Z-0.7679 I-0.0064 J0.1036
N7825 G1 X-5.7101 Z-0.7811
N7830 X-5.7196 Y-0.4097 Z-0.7815
N7835 X-5.7215 Y-0.4106
N7840 X-5.7236 Y-0.4125 Z-0.7816
N7845 X-5.7246 Y-0.4138 Z-0.7817
N7850 X-5.7255 Y-0.4162 Z-0.7818
N7855 X-5.7275 Y-0.4326 Z-0.7824
N7860 Y-0.4361 Z-0.7825
N7865 X-5.7256 Y-0.4525 Z-0.7831
N7870 X-5.7246 Y-0.4552 Z-0.7832
N7875 X-5.7236 Y-0.4565
N7880 X-5.7215 Y-0.4584 Z-0.7833
N7885 X-5.7195 Y-0.4594 Z-0.7834
N7890 X-5.7104 Y-0.4615 Z-0.7837
N7895 X-5.3327 Z-0.7969
N7900 G2 X-5.3264 Y-0.4617 Z-0.7971 I0. J-0.1038
N7905 G1 X-5.3182 Y-0.4622 Z-0.7974
N7910 G2 X-5.3101 Y-0.463 Z-0.7977 I-0.0064 J-0.1036
N7915 G1 X-5.302 Y-0.4642 Z-0.798
N7920 G2 X-5.2938 Y-0.4657 Z-0.7983 I-0.0145 J-0.1027
N7925 G1 X-5.2857 Y-0.4675 Z-0.7986
N7930 G2 X-5.2776 Y-0.4696 Z-0.7989 I-0.0226 J-0.1013
N7935 G1 X-5.2695 Y-0.4722 Z-0.7992
N7940 G2 X-5.2613 Y-0.4751 Z-0.7995 I-0.0308 J-0.0991
N7945 G1 X-5.2532 Y-0.4784 Z-0.7998
N7950 G2 X-5.2457 Y-0.4817 Z-0.8001 I-0.0389 J-0.0962
N7955 G1 X-5.2389 Y-0.4851 Z-0.8003
N7960 G2 X-5.2321 Y-0.4889 Z-0.8006 I-0.0464 J-0.0928
N7965 G1 X-5.2253 Y-0.4929 Z-0.8009
N7970 G2 X-5.2184 Y-0.4974 Z-0.8012 I-0.0532 J-0.0891
N7975 G1 X-5.2116 Y-0.5022 Z-0.8014
N7980 G2 X-5.2048 Y-0.5075 Z-0.8017 I-0.06 J-0.0846
N7985 G1 X-5.198 Y-0.5133 Z-0.8021
N7990 G2 X-5.1919 Y-0.5187 Z-0.8023 I-0.0669 J-0.0793
N7995 G1 X-5.1867 Y-0.5239 Z-0.8026
N8000 G2 X-5.1812 Y-0.5298 Z-0.8029 I-0.0729 J-0.0739
N8005 G1 X-5.1755 Y-0.5364 Z-0.8032
N8010 G2 X-5.1701 Y-0.5431 Z-0.8035 I-0.0784 J-0.068
N8015 G1 X-5.1653 Y-0.5497 Z-0.8038
N8020 G2 X-5.1607 Y-0.5565 Z-0.8041 I-0.0837 J-0.0613
N8025 G1 X-5.1449 Y-0.5821 Z-0.8051
N8030 X-5.1433 Y-0.5837 Z-0.8052
N8035 X-5.141 Y-0.5852 Z-0.8053
N8040 X-5.1391 Y-0.5859 Z-0.8054
N8045 X-5.1239 Y-0.5875 Z-0.8059
N8050 X-3.5744 Z-0.86
N8055 X-3.4986 F20.
N8060 X-3.4811 Y-0.5853
N8065 X-3.4792 Y-0.5845
N8070 X-3.477 Y-0.5828
N8075 X-3.4756 Y-0.581
N8080 X-3.4747 Y-0.5788
N8085 X-3.4725 Y-0.5622
N8090 Y-0.3378
N8095 X-3.4747 Y-0.3212
N8100 X-3.4756 Y-0.319
N8105 X-3.477 Y-0.3172
N8110 X-3.4792 Y-0.3155
N8115 X-3.4811 Y-0.3147
N8120 X-3.4986 Y-0.3125
N8125 X-5.1436 Y-0.3127
N8130 X-5.1569 Y-0.3143
N8135 X-5.1592 Y-0.3152
N8140 X-5.1611 Y-0.3165
N8145 X-5.1818 Y-0.34
N8150 G2 X-5.188 Y-0.3464 I-0.0777 J0.0687
N8155 G1 X-5.196 Y-0.354
N8160 G2 X-5.2053 Y-0.3618 I-0.0715 J0.0751
N8165 G1 X-5.2158 Y-0.3697
N8170 G2 X-5.2246 Y-0.3756 I-0.0623 J0.083
N8175 G1 X-5.2316 Y-0.3799
N8180 G2 X-5.2386 Y-0.3837 I-0.0535 J0.0889
N8185 G1 X-5.2456 Y-0.3872
N8190 G2 X-5.2532 Y-0.3906 I-0.0465 J0.0928
N8195 G1 X-5.2613 Y-0.3939
N8200 G2 X-5.2695 Y-0.3968 I-0.0389 J0.0962
N8205 G1 X-5.2776 Y-0.3994
N8210 G2 X-5.2857 Y-0.4015 I-0.0308 J0.0991
N8215 G1 X-5.2938 Y-0.4033
N8220 G2 X-5.302 Y-0.4048 I-0.0226 J0.1013
N8225 G1 X-5.3101 Y-0.406
N8230 G2 X-5.3182 Y-0.4068 I-0.0145 J0.1027
N8235 G1 X-5.3264 Y-0.4073
N8240 G2 X-5.3327 Y-0.4075 I-0.0064 J0.1036
N8245 G1 X-5.7101
N8250 X-5.7196 Y-0.4097
N8255 X-5.7215 Y-0.4106
N8260 X-5.7236 Y-0.4125
N8265 X-5.7246 Y-0.4138
N8270 X-5.7255 Y-0.4162
N8275 X-5.7275 Y-0.4326
N8280 Y-0.4361
N8285 X-5.7256 Y-0.4525
N8290 X-5.7246 Y-0.4552
N8295 X-5.7236 Y-0.4565
N8300 X-5.7215 Y-0.4584
N8305 X-5.7195 Y-0.4594
N8310 X-5.7104 Y-0.4615
N8315 X-5.3327
N8320 G2 X-5.3264 Y-0.4617 I0. J-0.1038
N8325 G1 X-5.3182 Y-0.4622
N8330 G2 X-5.3101 Y-0.463 I-0.0064 J-0.1036
N8335 G1 X-5.302 Y-0.4642
N8340 G2 X-5.2938 Y-0.4657 I-0.0145 J-0.1027
N8345 G1 X-5.2857 Y-0.4675
N8350 G2 X-5.2776 Y-0.4696 I-0.0226 J-0.1013
N8355 G1 X-5.2695 Y-0.4722
N8360 G2 X-5.2613 Y-0.4751 I-0.0308 J-0.0991
N8365 G1 X-5.2532 Y-0.4784
N8370 G2 X-5.2457 Y-0.4817 I-0.0389 J-0.0962
N8375 G1 X-5.2389 Y-0.4851
N8380 G2 X-5.2321 Y-0.4889 I-0.0464 J-0.0928
N8385 G1 X-5.2253 Y-0.4929
N8390 G2 X-5.2184 Y-0.4974 I-0.0532 J-0.0891
N8395 G1 X-5.2116 Y-0.5022
N8400 G2 X-5.2048 Y-0.5075 I-0.06 J-0.0846
N8405 G1 X-5.198 Y-0.5133
N8410 G2 X-5.1919 Y-0.5187 I-0.0669 J-0.0793
N8415 G1 X-5.1867 Y-0.5239
N8420 G2 X-5.1812 Y-0.5298 I-0.0729 J-0.0739
N8425 G1 X-5.1755 Y-0.5364
N8430 G2 X-5.1701 Y-0.5431 I-0.0784 J-0.068
N8435 G1 X-5.1653 Y-0.5497
N8440 G2 X-5.1607 Y-0.5565 I-0.0837 J-0.0613
N8445 G1 X-5.1449 Y-0.5821
N8450 X-5.1433 Y-0.5837
N8455 X-5.141 Y-0.5852
N8460 X-5.1391 Y-0.5859
N8465 X-5.1239 Y-0.5875
N8470 X-3.5744
N8475 G3 X-3.5693 Y-0.5507 I0. J0.0187
N8480 G1 X-4.4143 Y-0.3133
N8485 G3 X-4.4194 Y-0.3126 I-0.0051 J-0.0181
N8490 G1 X-5.1436 Y-0.3127 Z-0.8853 F4.
N8495 X-5.1569 Y-0.3143 Z-0.8858
N8500 X-5.1592 Y-0.3152
N8505 X-5.1611 Y-0.3165 Z-0.8859
N8510 X-5.1818 Y-0.34 Z-0.887
N8515 G2 X-5.188 Y-0.3464 Z-0.8873 I-0.0777 J0.0687
N8520 G1 X-5.196 Y-0.354 Z-0.8877
N8525 G2 X-5.2053 Y-0.3618 Z-0.8881 I-0.0715 J0.0751
N8530 G1 X-5.2158 Y-0.3697 Z-0.8886
N8535 G2 X-5.2246 Y-0.3756 Z-0.889 I-0.0623 J0.083
N8540 G1 X-5.2316 Y-0.3799 Z-0.8893
N8545 G2 X-5.2386 Y-0.3837 Z-0.8895 I-0.0535 J0.0889
N8550 G1 X-5.2456 Y-0.3872 Z-0.8898
N8555 G2 X-5.2532 Y-0.3906 Z-0.8901 I-0.0465 J0.0928
N8560 G1 X-5.2613 Y-0.3939 Z-0.8904
N8565 G2 X-5.2695 Y-0.3968 Z-0.8907 I-0.0389 J0.0962
N8570 G1 X-5.2776 Y-0.3994 Z-0.891
N8575 G2 X-5.2857 Y-0.4015 Z-0.8913 I-0.0308 J0.0991
N8580 G1 X-5.2938 Y-0.4033 Z-0.8916
N8585 G2 X-5.302 Y-0.4048 Z-0.8919 I-0.0226 J0.1013
N8590 G1 X-5.3101 Y-0.406 Z-0.8922
N8595 G2 X-5.3182 Y-0.4068 Z-0.8924 I-0.0145 J0.1027
N8600 G1 X-5.3264 Y-0.4073 Z-0.8927
N8605 G2 X-5.3327 Y-0.4075 Z-0.893 I-0.0064 J0.1036
N8610 G1 X-5.7109 Y-0.4076 Z-0.9062
N8615 X-5.719 Y-0.4095 Z-0.9065
N8620 X-5.7214 Y-0.4107
N8625 X-5.7234 Y-0.4124 Z-0.9066
N8630 X-5.7246 Y-0.4141 Z-0.9067
N8635 X-5.7255 Y-0.4163 Z-0.9068
N8640 X-5.7275 Y-0.4326 Z-0.9074
N8645 Y-0.4361 Z-0.9075
N8650 X-5.7257 Y-0.452 Z-0.908
N8655 X-5.7244 Y-0.4553 Z-0.9082
N8660 X-5.7236 Y-0.4565
N8665 X-5.7213 Y-0.4584 Z-0.9083
N8670 X-5.7199 Y-0.4592 Z-0.9084
N8675 X-5.7109 Y-0.4614 Z-0.9087
N8680 X-5.3327 Y-0.4615 Z-0.9219
N8685 G2 X-5.3264 Y-0.4617 Z-0.9221 I0. J-0.1037
N8690 G1 X-5.3182 Y-0.4622 Z-0.9224
N8695 G2 X-5.3101 Y-0.463 Z-0.9227 I-0.0064 J-0.1036
N8700 G1 X-5.302 Y-0.4642 Z-0.923
N8705 G2 X-5.2938 Y-0.4657 Z-0.9233 I-0.0145 J-0.1027
N8710 G1 X-5.2857 Y-0.4675 Z-0.9236
N8715 G2 X-5.2776 Y-0.4696 Z-0.9239 I-0.0226 J-0.1013
N8720 G1 X-5.2695 Y-0.4722 Z-0.9242
N8725 G2 X-5.2613 Y-0.4751 Z-0.9245 I-0.0308 J-0.0991
N8730 G1 X-5.2532 Y-0.4784 Z-0.9248
N8735 G2 X-5.2457 Y-0.4817 Z-0.9251 I-0.0389 J-0.0962
N8740 G1 X-5.2389 Y-0.4851 Z-0.9253
N8745 G2 X-5.2321 Y-0.4889 Z-0.9256 I-0.0464 J-0.0928
N8750 G1 X-5.2253 Y-0.4929 Z-0.9259
N8755 G2 X-5.2184 Y-0.4974 Z-0.9262 I-0.0532 J-0.0891
N8760 G1 X-5.2116 Y-0.5022 Z-0.9264
N8765 G2 X-5.2048 Y-0.5075 Z-0.9267 I-0.06 J-0.0846
N8770 G1 X-5.198 Y-0.5133 Z-0.9271
N8775 G2 X-5.1919 Y-0.5187 Z-0.9273 I-0.0669 J-0.0793
N8780 G1 X-5.1867 Y-0.5239 Z-0.9276
N8785 G2 X-5.1812 Y-0.5298 Z-0.9279 I-0.0729 J-0.0739
N8790 G1 X-5.1755 Y-0.5364 Z-0.9282
N8795 G2 X-5.1701 Y-0.5431 Z-0.9285 I-0.0784 J-0.068
N8800 G1 X-5.1653 Y-0.5497 Z-0.9288
N8805 G2 X-5.1607 Y-0.5565 Z-0.9291 I-0.0837 J-0.0613
N8810 G1 X-5.1449 Y-0.5821 Z-0.9301
N8815 X-5.1433 Y-0.5837 Z-0.9302
N8820 X-5.141 Y-0.5852 Z-0.9303
N8825 X-5.1391 Y-0.5859 Z-0.9304
N8830 X-5.1239 Y-0.5875 Z-0.9309
N8835 X-3.5744 Z-0.985
N8840 X-3.4986 F20.
N8845 X-3.4811 Y-0.5853
N8850 X-3.4792 Y-0.5845
N8855 X-3.477 Y-0.5828
N8860 X-3.4756 Y-0.581
N8865 X-3.4747 Y-0.5788
N8870 X-3.4725 Y-0.5622
N8875 Y-0.3378
N8880 X-3.4747 Y-0.3212
N8885 X-3.4756 Y-0.319
N8890 X-3.477 Y-0.3172
N8895 X-3.4792 Y-0.3155
N8900 X-3.4811 Y-0.3147
N8905 X-3.4986 Y-0.3125
N8910 X-5.1436 Y-0.3127
N8915 X-5.1569 Y-0.3143
N8920 X-5.1592 Y-0.3152
N8925 X-5.1611 Y-0.3165
N8930 X-5.1818 Y-0.34
N8935 G2 X-5.188 Y-0.3464 I-0.0777 J0.0687
N8940 G1 X-5.196 Y-0.354
N8945 G2 X-5.2053 Y-0.3618 I-0.0715 J0.0751
N8950 G1 X-5.2158 Y-0.3697
N8955 G2 X-5.2246 Y-0.3756 I-0.0623 J0.083
N8960 G1 X-5.2316 Y-0.3799
N8965 G2 X-5.2386 Y-0.3837 I-0.0535 J0.0889
N8970 G1 X-5.2456 Y-0.3872
N8975 G2 X-5.2532 Y-0.3906 I-0.0465 J0.0928
N8980 G1 X-5.2613 Y-0.3939
N8985 G2 X-5.2695 Y-0.3968 I-0.0389 J0.0962
N8990 G1 X-5.2776 Y-0.3994
N8995 G2 X-5.2857 Y-0.4015 I-0.0308 J0.0991
N9000 G1 X-5.2938 Y-0.4033
N9005 G2 X-5.302 Y-0.4048 I-0.0226 J0.1013
N9010 G1 X-5.3101 Y-0.406
N9015 G2 X-5.3182 Y-0.4068 I-0.0145 J0.1027
N9020 G1 X-5.3264 Y-0.4073
N9025 G2 X-5.3327 Y-0.4075 I-0.0064 J0.1036
N9030 G1 X-5.7109 Y-0.4076
N9035 X-5.719 Y-0.4095
N9040 X-5.7214 Y-0.4107
N9045 X-5.7234 Y-0.4124
N9050 X-5.7246 Y-0.4141
N9055 X-5.7255 Y-0.4163
N9060 X-5.7275 Y-0.4326
N9065 Y-0.4361
N9070 X-5.7257 Y-0.452
N9075 X-5.7244 Y-0.4553
N9080 X-5.7236 Y-0.4565
N9085 X-5.7213 Y-0.4584
N9090 X-5.7199 Y-0.4592
N9095 X-5.7109 Y-0.4614
N9100 X-5.3327 Y-0.4615
N9105 G2 X-5.3264 Y-0.4617 I0. J-0.1037
N9110 G1 X-5.3182 Y-0.4622
N9115 G2 X-5.3101 Y-0.463 I-0.0064 J-0.1036
N9120 G1 X-5.302 Y-0.4642
N9125 G2 X-5.2938 Y-0.4657 I-0.0145 J-0.1027
N9130 G1 X-5.2857 Y-0.4675
N9135 G2 X-5.2776 Y-0.4696 I-0.0226 J-0.1013
N9140 G1 X-5.2695 Y-0.4722
N9145 G2 X-5.2613 Y-0.4751 I-0.0308 J-0.0991
N9150 G1 X-5.2532 Y-0.4784
N9155 G2 X-5.2457 Y-0.4817 I-0.0389 J-0.0962
N9160 G1 X-5.2389 Y-0.4851
N9165 G2 X-5.2321 Y-0.4889 I-0.0464 J-0.0928
N9170 G1 X-5.2253 Y-0.4929
N9175 G2 X-5.2184 Y-0.4974 I-0.0532 J-0.0891
N9180 G1 X-5.2116 Y-0.5022
N9185 G2 X-5.2048 Y-0.5075 I-0.06 J-0.0846
N9190 G1 X-5.198 Y-0.5133
N9195 G2 X-5.1919 Y-0.5187 I-0.0669 J-0.0793
N9200 G1 X-5.1867 Y-0.5239
N9205 G2 X-5.1812 Y-0.5298 I-0.0729 J-0.0739
N9210 G1 X-5.1755 Y-0.5364
N9215 G2 X-5.1701 Y-0.5431 I-0.0784 J-0.068
N9220 G1 X-5.1653 Y-0.5497
N9225 G2 X-5.1607 Y-0.5565 I-0.0837 J-0.0613
N9230 G1 X-5.1449 Y-0.5821
N9235 X-5.1433 Y-0.5837
N9240 X-5.141 Y-0.5852
N9245 X-5.1391 Y-0.5859
N9250 X-5.1239 Y-0.5875
N9255 X-3.5744
N9260 G3 X-3.5712 Y-0.5503 I0. J0.0187
N9265 G1 X-4.951 Y-0.3129
N9270 G3 X-4.9542 Y-0.3127 I-0.0032 J-0.0185
N9275 G1 X-5.1436 Z-0.9916 F4.
N9280 X-5.1569 Y-0.3143 Z-0.9921
N9285 X-5.1592 Y-0.3152 Z-0.9922
N9290 X-5.1611 Y-0.3165 Z-0.9923
N9295 X-5.1818 Y-0.34 Z-0.9933
N9300 G2 X-5.188 Y-0.3464 Z-0.9937 I-0.0777 J0.0687
N9305 G1 X-5.196 Y-0.354 Z-0.994
N9310 G2 X-5.2053 Y-0.3618 Z-0.9945 I-0.0715 J0.0751
N9315 G1 X-5.2158 Y-0.3697 Z-0.9949
N9320 G2 X-5.2246 Y-0.3756 Z-0.9953 I-0.0623 J0.083
N9325 G1 X-5.2316 Y-0.3799 Z-0.9956
N9330 G2 X-5.2386 Y-0.3837 Z-0.9959 I-0.0535 J0.0889
N9335 G1 X-5.2456 Y-0.3872 Z-0.9961
N9340 G2 X-5.2532 Y-0.3906 Z-0.9964 I-0.0465 J0.0928
N9345 G1 X-5.2613 Y-0.3939 Z-0.9967
N9350 G2 X-5.2695 Y-0.3968 Z-0.997 I-0.0389 J0.0962
N9355 G1 X-5.2776 Y-0.3994 Z-0.9973
N9360 G2 X-5.2857 Y-0.4015 Z-0.9976 I-0.0308 J0.0991
N9365 G1 X-5.2938 Y-0.4033 Z-0.9979
N9370 G2 X-5.302 Y-0.4048 Z-0.9982 I-0.0226 J0.1013
N9375 G1 X-5.3101 Y-0.406 Z-0.9985
N9380 G2 X-5.3182 Y-0.4068 Z-0.9988 I-0.0145 J0.1027
N9385 G1 X-5.3264 Y-0.4073 Z-0.9991
N9390 G2 X-5.3327 Y-0.4075 Z-0.9993 I-0.0064 J0.1036
N9395 G1 X-5.7074 Y-0.4076 Z-1.0124
N9400 X-5.716 Y-0.4088 Z-1.0127
N9405 X-5.7194 Y-0.4096 Z-1.0128
N9410 X-5.7199 Y-0.4098
N9415 X-5.7205 Y-0.4101
N9420 X-5.7232 Y-0.4123 Z-1.013
N9425 X-5.7245 Y-0.4141
N9430 X-5.7255 Y-0.4166 Z-1.0131
N9435 X-5.7275 Y-0.4327 Z-1.0137
N9440 Y-0.4372 Z-1.0138
N9445 X-5.7274 Y-0.4383 Z-1.0139
N9450 X-5.7255 Y-0.4525 Z-1.0144
N9455 X-5.7245 Y-0.455 Z-1.0145
N9460 X-5.7235 Y-0.4564
N9465 X-5.7205 Y-0.4589 Z-1.0147
N9470 X-5.7199 Y-0.4592
N9475 X-5.713 Y-0.4607 Z-1.0149
N9480 X-5.7078 Y-0.4614 Z-1.0151
N9485 X-5.3327 Y-0.4615 Z-1.0282
N9490 G2 X-5.3264 Y-0.4617 Z-1.0285 I0. J-0.1037
N9495 G1 X-5.3182 Y-0.4622 Z-1.0287
N9500 G2 X-5.3101 Y-0.463 Z-1.029 I-0.0064 J-0.1036
N9505 G1 X-5.302 Y-0.4642 Z-1.0293
N9510 G2 X-5.2938 Y-0.4657 Z-1.0296 I-0.0145 J-0.1027
N9515 G1 X-5.2857 Y-0.4675 Z-1.0299
N9520 G2 X-5.2776 Y-0.4696 Z-1.0302 I-0.0226 J-0.1013
N9525 G1 X-5.2695 Y-0.4722 Z-1.0305
N9530 G2 X-5.2613 Y-0.4751 Z-1.0308 I-0.0308 J-0.0991
N9535 G1 X-5.2532 Y-0.4784 Z-1.0311
N9540 G2 X-5.2457 Y-0.4817 Z-1.0314 I-0.0389 J-0.0962
N9545 G1 X-5.2389 Y-0.4851 Z-1.0316
N9550 G2 X-5.2321 Y-0.4889 Z-1.0319 I-0.0464 J-0.0928
N9555 G1 X-5.2253 Y-0.4929 Z-1.0322
N9560 G2 X-5.2184 Y-0.4974 Z-1.0325 I-0.0532 J-0.0891
N9565 G1 X-5.2116 Y-0.5022 Z-1.0328
N9570 G2 X-5.2048 Y-0.5075 Z-1.0331 I-0.06 J-0.0846
N9575 G1 X-5.198 Y-0.5133 Z-1.0334
N9580 G2 X-5.1919 Y-0.5187 Z-1.0337 I-0.0669 J-0.0793
N9585 G1 X-5.1867 Y-0.5239 Z-1.0339
N9590 G2 X-5.1812 Y-0.5298 Z-1.0342 I-0.0729 J-0.0739
N9595 G1 X-5.1755 Y-0.5364 Z-1.0345
N9600 G2 X-5.1701 Y-0.5431 Z-1.0348 I-0.0784 J-0.068
N9605 G1 X-5.1653 Y-0.5497 Z-1.0351
N9610 G2 X-5.1607 Y-0.5565 Z-1.0354 I-0.0837 J-0.0613
N9615 G1 X-5.1449 Y-0.5821 Z-1.0364
N9620 X-5.1433 Y-0.5837 Z-1.0365
N9625 X-5.141 Y-0.5852 Z-1.0366
N9630 X-5.1391 Y-0.5859 Z-1.0367
N9635 X-5.1239 Y-0.5875 Z-1.0372
N9640 X-3.4986 Z-1.094
N9645 X-3.4811 Y-0.5853 Z-1.0946
N9650 X-3.4792 Y-0.5845 Z-1.0947
N9655 X-3.477 Y-0.5828
N9660 X-3.4756 Y-0.581 Z-1.0948
N9665 X-3.4747 Y-0.5788 Z-1.0949
N9670 X-3.4725 Y-0.5622 Z-1.0955
N9675 Y-0.3378 Z-1.1033
N9680 X-3.4747 Y-0.3212 Z-1.1039
N9685 X-3.4756 Y-0.319 Z-1.104
N9690 X-3.477 Y-0.3172 Z-1.1041
N9695 X-3.4792 Y-0.3155 Z-1.1042
N9700 X-3.4811 Y-0.3147 Z-1.1043
N9705 X-3.4986 Y-0.3125 Z-1.1049
N9710 X-3.6456 Z-1.11
N9715 X-5.1436 Y-0.3127 F20.
N9720 X-5.1569 Y-0.3143
N9725 X-5.1592 Y-0.3152
N9730 X-5.1611 Y-0.3165
N9735 X-5.1818 Y-0.34
N9740 G2 X-5.188 Y-0.3464 I-0.0777 J0.0687
N9745 G1 X-5.196 Y-0.354
N9750 G2 X-5.2053 Y-0.3618 I-0.0715 J0.0751
N9755 G1 X-5.2158 Y-0.3697
N9760 G2 X-5.2246 Y-0.3756 I-0.0623 J0.083
N9765 G1 X-5.2316 Y-0.3799
N9770 G2 X-5.2386 Y-0.3837 I-0.0535 J0.0889
N9775 G1 X-5.2456 Y-0.3872
N9780 G2 X-5.2532 Y-0.3906 I-0.0465 J0.0928
N9785 G1 X-5.2613 Y-0.3939
N9790 G2 X-5.2695 Y-0.3968 I-0.0389 J0.0962
N9795 G1 X-5.2776 Y-0.3994
N9800 G2 X-5.2857 Y-0.4015 I-0.0308 J0.0991
N9805 G1 X-5.2938 Y-0.4033
N9810 G2 X-5.302 Y-0.4048 I-0.0226 J0.1013
N9815 G1 X-5.3101 Y-0.406
N9820 G2 X-5.3182 Y-0.4068 I-0.0145 J0.1027
N9825 G1 X-5.3264 Y-0.4073
N9830 G2 X-5.3327 Y-0.4075 I-0.0064 J0.1036
N9835 G1 X-5.7074 Y-0.4076
N9840 X-5.716 Y-0.4088
N9845 X-5.7194 Y-0.4096
N9850 X-5.7199 Y-0.4098
N9855 X-5.7205 Y-0.4101
N9860 X-5.7232 Y-0.4123
N9865 X-5.7245 Y-0.4141
N9870 X-5.7255 Y-0.4166
N9875 X-5.7275 Y-0.4327
N9880 Y-0.4372
N9885 X-5.7274 Y-0.4383
N9890 X-5.7255 Y-0.4525
N9895 X-5.7245 Y-0.455
N9900 X-5.7235 Y-0.4564
N9905 X-5.7205 Y-0.4589
N9910 X-5.7199 Y-0.4592
N9915 X-5.713 Y-0.4607
N9920 X-5.7078 Y-0.4614
N9925 X-5.3327 Y-0.4615
N9930 G2 X-5.3264 Y-0.4617 I0. J-0.1037
N9935 G1 X-5.3182 Y-0.4622
N9940 G2 X-5.3101 Y-0.463 I-0.0064 J-0.1036
N9945 G1 X-5.302 Y-0.4642
N9950 G2 X-5.2938 Y-0.4657 I-0.0145 J-0.1027
N9955 G1 X-5.2857 Y-0.4675
N9960 G2 X-5.2776 Y-0.4696 I-0.0226 J-0.1013
N9965 G1 X-5.2695 Y-0.4722
N9970 G2 X-5.2613 Y-0.4751 I-0.0308 J-0.0991
N9975 G1 X-5.2532 Y-0.4784
N9980 G2 X-5.2457 Y-0.4817 I-0.0389 J-0.0962
N9985 G1 X-5.2389 Y-0.4851
N9990 G2 X-5.2321 Y-0.4889 I-0.0464 J-0.0928
N9995 G1 X-5.2253 Y-0.4929
N10000 G2 X-5.2184 Y-0.4974 I-0.0532 J-0.0891
N10005 G1 X-5.2116 Y-0.5022
N10010 G2 X-5.2048 Y-0.5075 I-0.06 J-0.0846
N10015 G1 X-5.198 Y-0.5133
N10020 G2 X-5.1919 Y-0.5187 I-0.0669 J-0.0793
N10025 G1 X-5.1867 Y-0.5239
N10030 G2 X-5.1812 Y-0.5298 I-0.0729 J-0.0739
N10035 G1 X-5.1755 Y-0.5364
N10040 G2 X-5.1701 Y-0.5431 I-0.0784 J-0.068
N10045 G1 X-5.1653 Y-0.5497
N10050 G2 X-5.1607 Y-0.5565 I-0.0837 J-0.0613
N10055 G1 X-5.1449 Y-0.5821
N10060 X-5.1433 Y-0.5837
N10065 X-5.141 Y-0.5852
N10070 X-5.1391 Y-0.5859
N10075 X-5.1239 Y-0.5875
N10080 X-3.4986
N10085 X-3.4811 Y-0.5853
N10090 X-3.4792 Y-0.5845
N10095 X-3.477 Y-0.5828
N10100 X-3.4756 Y-0.581
N10105 X-3.4747 Y-0.5788
N10110 X-3.4725 Y-0.5622
N10115 Y-0.3378
N10120 X-3.4747 Y-0.3212
N10125 X-3.4756 Y-0.319
N10130 X-3.477 Y-0.3172
N10135 X-3.4792 Y-0.3155
N10140 X-3.4811 Y-0.3147
N10145 X-3.4986 Y-0.3125
N10150 X-3.6456
N10155 G3 X-3.6525 Y-0.3163 I0. J-0.0082
N10160 G1 X-3.6632 Y-0.3332
N10165 G2 X-3.6701 Y-0.337 I-0.0069 J0.0044
N10170 G1 X-4.5374 Y-0.3371
N10175 G2 X-4.5443 Y-0.3333 I0. J0.0082
N10180 G1 X-4.5549 Y-0.3164
N10185 G3 X-4.5618 Y-0.3126 I-0.0069 J-0.0044
N10190 G1 X-5.1436 Y-0.3127 Z-1.1303 F4.
N10195 X-5.1569 Y-0.3143 Z-1.1308
N10200 X-5.1592 Y-0.3152 Z-1.1309
N10205 X-5.1611 Y-0.3165 Z-1.131
N10210 X-5.1818 Y-0.34 Z-1.132
N10215 G2 X-5.188 Y-0.3464 Z-1.1324 I-0.0777 J0.0687
N10220 G1 X-5.196 Y-0.354 Z-1.1327
N10225 G2 X-5.2053 Y-0.3618 Z-1.1332 I-0.0715 J0.0751
N10230 G1 X-5.2158 Y-0.3697 Z-1.1336
N10235 G2 X-5.2246 Y-0.3756 Z-1.134 I-0.0623 J0.083
N10240 G1 X-5.2316 Y-0.3799 Z-1.1343
N10245 G2 X-5.2386 Y-0.3837 Z-1.1346 I-0.0535 J0.0889
N10250 G1 X-5.2456 Y-0.3872 Z-1.1348
N10255 G2 X-5.2532 Y-0.3906 Z-1.1351 I-0.0465 J0.0928
N10260 G1 X-5.2613 Y-0.3939 Z-1.1354
N10265 G2 X-5.2695 Y-0.3968 Z-1.1357 I-0.0389 J0.0962
N10270 G1 X-5.2776 Y-0.3994 Z-1.136
N10275 G2 X-5.2857 Y-0.4015 Z-1.1363 I-0.0308 J0.0991
N10280 G1 X-5.2938 Y-0.4033 Z-1.1366
N10285 G2 X-5.302 Y-0.4048 Z-1.1369 I-0.0226 J0.1013
N10290 G1 X-5.3101 Y-0.406 Z-1.1372
N10295 G2 X-5.3182 Y-0.4068 Z-1.1375 I-0.0145 J0.1027
N10300 G1 X-5.3264 Y-0.4073 Z-1.1378
N10305 G2 X-5.3327 Y-0.4075 Z-1.138 I-0.0064 J0.1036
N10310 G1 X-5.7034 Y-0.4076 Z-1.1509
N10315 X-5.7191 Y-0.4097 Z-1.1515
N10320 X-5.72 Y-0.4101
N10325 X-5.7234 Y-0.4128 Z-1.1517
N10330 X-5.7246 Y-0.4144
N10335 X-5.7254 Y-0.4163 Z-1.1518
N10340 X-5.7275 Y-0.4329 Z-1.1524
N10345 Y-0.4356 Z-1.1525
N10350 X-5.7253 Y-0.4528 Z-1.1531
N10355 X-5.7245 Y-0.4547 Z-1.1532
N10360 X-5.7235 Y-0.4561
N10365 X-5.7199 Y-0.4589 Z-1.1534
N10370 X-5.7188 Y-0.4594
N10375 X-5.7184 Y-0.4595
N10380 X-5.7038 Y-0.4614 Z-1.154
N10385 X-5.3327 Y-0.4615 Z-1.1669
N10390 G2 X-5.3264 Y-0.4617 Z-1.1671 I0. J-0.1038
N10395 G1 X-5.3182 Y-0.4622 Z-1.1674
N10400 G2 X-5.3101 Y-0.463 Z-1.1677 I-0.0064 J-0.1036
N10405 G1 X-5.302 Y-0.4642 Z-1.168
N10410 G2 X-5.2938 Y-0.4657 Z-1.1683 I-0.0145 J-0.1027
N10415 G1 X-5.2857 Y-0.4675 Z-1.1686
N10420 G2 X-5.2776 Y-0.4696 Z-1.1689 I-0.0226 J-0.1013
N10425 G1 X-5.2695 Y-0.4722 Z-1.1692
N10430 G2 X-5.2613 Y-0.4751 Z-1.1695 I-0.0308 J-0.0991
N10435 G1 X-5.2532 Y-0.4784 Z-1.1698
N10440 G2 X-5.2457 Y-0.4817 Z-1.1701 I-0.0389 J-0.0962
N10445 G1 X-5.2389 Y-0.4851 Z-1.1703
N10450 G2 X-5.2321 Y-0.4889 Z-1.1706 I-0.0464 J-0.0928
N10455 G1 X-5.2253 Y-0.4929 Z-1.1709
N10460 G2 X-5.2184 Y-0.4974 Z-1.1712 I-0.0532 J-0.0891
N10465 G1 X-5.2116 Y-0.5022 Z-1.1714
N10470 G2 X-5.2048 Y-0.5075 Z-1.1717 I-0.06 J-0.0846
N10475 G1 X-5.198 Y-0.5133 Z-1.1721
N10480 G2 X-5.1919 Y-0.5187 Z-1.1723 I-0.0669 J-0.0793
N10485 G1 X-5.1867 Y-0.5239 Z-1.1726
N10490 G2 X-5.1812 Y-0.5298 Z-1.1729 I-0.0729 J-0.0739
N10495 G1 X-5.1755 Y-0.5364 Z-1.1732
N10500 G2 X-5.1701 Y-0.5431 Z-1.1735 I-0.0784 J-0.068
N10505 G1 X-5.1653 Y-0.5497 Z-1.1738
N10510 G2 X-5.1607 Y-0.5565 Z-1.1741 I-0.0837 J-0.0613
N10515 G1 X-5.1449 Y-0.5821 Z-1.1751
N10520 X-5.1433 Y-0.5837 Z-1.1752
N10525 X-5.141 Y-0.5852 Z-1.1753
N10530 X-5.1391 Y-0.5859 Z-1.1754
N10535 X-5.1239 Y-0.5875 Z-1.1759
N10540 X-3.5744 Z-1.23
N10545 X-3.4986 F20.
N10550 X-3.4811 Y-0.5853
N10555 X-3.4792 Y-0.5845
N10560 X-3.477 Y-0.5828
N10565 X-3.4756 Y-0.581
N10570 X-3.4747 Y-0.5788
N10575 X-3.4725 Y-0.5622
N10580 Y-0.3378
N10585 X-3.4747 Y-0.3212
N10590 X-3.4756 Y-0.319
N10595 X-3.477 Y-0.3172
N10600 X-3.4792 Y-0.3155
N10605 X-3.4811 Y-0.3147
N10610 X-3.4986 Y-0.3125
N10615 X-5.1436 Y-0.3127
N10620 X-5.1569 Y-0.3143
N10625 X-5.1592 Y-0.3152
N10630 X-5.1611 Y-0.3165
N10635 X-5.1818 Y-0.34
N10640 G2 X-5.188 Y-0.3464 I-0.0777 J0.0687
N10645 G1 X-5.196 Y-0.354
N10650 G2 X-5.2053 Y-0.3618 I-0.0715 J0.0751
N10655 G1 X-5.2158 Y-0.3697
N10660 G2 X-5.2246 Y-0.3756 I-0.0623 J0.083
N10665 G1 X-5.2316 Y-0.3799
N10670 G2 X-5.2386 Y-0.3837 I-0.0535 J0.0889
N10675 G1 X-5.2456 Y-0.3872
N10680 G2 X-5.2532 Y-0.3906 I-0.0465 J0.0928
N10685 G1 X-5.2613 Y-0.3939
N10690 G2 X-5.2695 Y-0.3968 I-0.0389 J0.0962
N10695 G1 X-5.2776 Y-0.3994
N10700 G2 X-5.2857 Y-0.4015 I-0.0308 J0.0991
N10705 G1 X-5.2938 Y-0.4033
N10710 G2 X-5.302 Y-0.4048 I-0.0226 J0.1013
N10715 G1 X-5.3101 Y-0.406
N10720 G2 X-5.3182 Y-0.4068 I-0.0145 J0.1027
N10725 G1 X-5.3264 Y-0.4073
N10730 G2 X-5.3327 Y-0.4075 I-0.0064 J0.1036
N10735 G1 X-5.7034 Y-0.4076
N10740 X-5.7191 Y-0.4097
N10745 X-5.72 Y-0.4101
N10750 X-5.7234 Y-0.4128
N10755 X-5.7246 Y-0.4144
N10760 X-5.7254 Y-0.4163
N10765 X-5.7275 Y-0.4329
N10770 Y-0.4356
N10775 X-5.7253 Y-0.4528
N10780 X-5.7245 Y-0.4547
N10785 X-5.7235 Y-0.4561
N10790 X-5.7199 Y-0.4589
N10795 X-5.7188 Y-0.4594
N10800 X-5.7184 Y-0.4595
N10805 X-5.7038 Y-0.4614
N10810 X-5.3327 Y-0.4615
N10815 G2 X-5.3264 Y-0.4617 I0. J-0.1038
N10820 G1 X-5.3182 Y-0.4622
N10825 G2 X-5.3101 Y-0.463 I-0.0064 J-0.1036
N10830 G1 X-5.302 Y-0.4642
N10835 G2 X-5.2938 Y-0.4657 I-0.0145 J-0.1027
N10840 G1 X-5.2857 Y-0.4675
N10845 G2 X-5.2776 Y-0.4696 I-0.0226 J-0.1013
N10850 G1 X-5.2695 Y-0.4722
N10855 G2 X-5.2613 Y-0.4751 I-0.0308 J-0.0991
N10860 G1 X-5.2532 Y-0.4784
N10865 G2 X-5.2457 Y-0.4817 I-0.0389 J-0.0962
N10870 G1 X-5.2389 Y-0.4851
N10875 G2 X-5.2321 Y-0.4889 I-0.0464 J-0.0928
N10880 G1 X-5.2253 Y-0.4929
N10885 G2 X-5.2184 Y-0.4974 I-0.0532 J-0.0891
N10890 G1 X-5.2116 Y-0.5022
N10895 G2 X-5.2048 Y-0.5075 I-0.06 J-0.0846
N10900 G1 X-5.198 Y-0.5133
N10905 G2 X-5.1919 Y-0.5187 I-0.0669 J-0.0793
N10910 G1 X-5.1867 Y-0.5239
N10915 G2 X-5.1812 Y-0.5298 I-0.0729 J-0.0739
N10920 G1 X-5.1755 Y-0.5364
N10925 G2 X-5.1701 Y-0.5431 I-0.0784 J-0.068
N10930 G1 X-5.1653 Y-0.5497
N10935 G2 X-5.1607 Y-0.5565 I-0.0837 J-0.0613
N10940 G1 X-5.1449 Y-0.5821
N10945 X-5.1433 Y-0.5837
N10950 X-5.141 Y-0.5852
N10955 X-5.1391 Y-0.5859
N10960 X-5.1239 Y-0.5875
N10965 X-3.5744
N10970 G3 X-3.5671 Y-0.5868 Z-1.2293 I0. J0.0375 F2.
N10975 X-3.5604 Y-0.5848 Z-1.2271 I-0.0073 J0.0368
N10980 X-3.5546 Y-0.5819 Z-1.2237 I-0.014 J0.0348
N10985 X-3.55 Y-0.5785 Z-1.219 I-0.0198 J0.0319
N10990 X-3.5467 Y-0.5753 Z-1.2133 I-0.0244 J0.0285
N10995 X-3.5444 Y-0.5726 Z-1.2069 I-0.0277 J0.0253
N11000 X-3.5432 Y-0.5709 Z-1.1998 I-0.0299 J0.0226
N11005 X-3.5428 Y-0.5703 Z-1.1925 I-0.0312 J0.0209
N11010 G0 Z0.6
N11020 M9
N11025 G53 Z0.
N11030 M30
%
