%
(FCG_POCKET_CONTOUR)
(.375 END MILL 25 MINUTES)
(T1  D=0.375 CR=0. - ZMIN=-1.25 - FLAT END MILL)
N10 G90 G94 G17 G91.1
N15 G20
N20 G53 G0 Z0.
(CONTOUR2)
N25 M9
N30 T1 M6
N35 S2000 M3
N40 G54
N45 M8
N55 G0 X-3.5034 Y-0.2925
N60 G43 Z0.6 H1
N65 G0 Z0.1294
N70 G1 Z0.042 F2.
N75 G18 G3 X-3.5396 Z0.0045 I-0.0375 K0.
N80 G1 X-5.1414 Z-0.0514
N85 X-5.1512 Z-0.0517
N90 X-5.156 Y-0.2927 Z-0.0519
N95 X-5.1584 Y-0.2929 Z-0.052
N100 X-5.1608 Y-0.2933 Z-0.0521
N105 X-5.161
N110 X-5.1634 Y-0.294 Z-0.0522
N115 X-5.1659 Y-0.2948 Z-0.0523
N120 X-5.1683 Y-0.2959
N125 X-5.1708 Y-0.2972 Z-0.0524
N130 X-5.1725 Y-0.2984 Z-0.0525
N135 X-5.1743 Y-0.2997 Z-0.0526
N140 X-5.1761 Y-0.3013 Z-0.0527
N145 X-5.1778 Y-0.3031 Z-0.0528
N150 X-5.1806 Y-0.3066 Z-0.0529
N155 X-5.1853 Y-0.3129 Z-0.0532
N160 X-5.1904 Y-0.3193 Z-0.0535
N165 X-5.1932 Y-0.3227 Z-0.0536
N170 X-5.2002 Y-0.3303 Z-0.054
N175 X-5.2023 Y-0.3325 Z-0.0541
N180 X-5.21 Y-0.3397 Z-0.0545
N185 X-5.2129 Y-0.3423 Z-0.0546
N190 X-5.2198 Y-0.3479 Z-0.0549
N195 X-5.2253 Y-0.3521 Z-0.0552
N200 X-5.2295 Y-0.355 Z-0.0553
N205 X-5.2393 Y-0.3613 Z-0.0557
N210 X-5.2404 Y-0.3619 Z-0.0558
N215 X-5.2491 Y-0.3667 Z-0.0561
N220 X-5.2589 Y-0.3714 Z-0.0565
N225 X-5.2596 Y-0.3717
N230 X-5.2687 Y-0.3754 Z-0.0569
N235 X-5.2785 Y-0.3788 Z-0.0572
N240 X-5.2877 Y-0.3814 Z-0.0576
N245 X-5.2883 Y-0.3816
N250 X-5.2981 Y-0.3838 Z-0.058
N255 X-5.3079 Y-0.3855 Z-0.0583
N260 X-5.3177 Y-0.3867 Z-0.0586
N265 X-5.3275 Y-0.3873 Z-0.059
N270 X-5.3373 Y-0.3875 Z-0.0593
N275 X-6.0816 Z-0.0853
N280 X-6.0851 Z-0.0854
N285 X-6.0882 Y-0.3877 Z-0.0856
N290 X-6.0883 Y-0.3878
N295 X-6.0885 Y-0.3912 Z-0.0857
N300 Y-0.401 Z-0.086
N305 Y-0.499 Z-0.0894
N310 Y-0.5088 Z-0.0898
N315 X-6.0883 Y-0.5122 Z-0.0899
N320 X-6.0882 Y-0.5123
N325 X-6.0864 Y-0.5124 Z-0.09
N330 X-6.0851 Y-0.5125
N335 X-6.0816 F15.
N340 X-6.0523
N345 X-6.0474 Y-0.5124
N350 X-6.0449 Y-0.5123
N355 X-6.0437 Y-0.5121
N360 X-6.0425 Y-0.512
N365 X-6.04 Y-0.5115
N370 X-6.0376 Y-0.5108
N375 X-6.0352 Y-0.5099
N380 X-6.0328 Y-0.5088
N385 X-6.0229 Y-0.5034
N390 X-6.014 Y-0.499
N395 X-6.0131 Y-0.4985
N400 X-6.0033 Y-0.4944
N405 X-5.9935 Y-0.4909
N410 X-5.9881 Y-0.4892
N415 X-5.9837 Y-0.4879
N420 X-5.9739 Y-0.4856
N425 X-5.9641 Y-0.4838
N430 X-5.9543 Y-0.4825
N435 X-5.9445 Y-0.4817
N440 X-5.9347 Y-0.4815
N445 X-5.3373
N450 X-5.3275 Y-0.4817
N455 X-5.3177 Y-0.4823
N460 X-5.3079 Y-0.4835
N465 X-5.2981 Y-0.4852
N470 X-5.2883 Y-0.4874
N475 X-5.2819 Y-0.4892
N480 X-5.2785 Y-0.4902
N485 X-5.2687 Y-0.4936
N490 X-5.2589 Y-0.4976
N495 X-5.256 Y-0.499
N500 X-5.2491 Y-0.5023
N505 X-5.2393 Y-0.5077
N510 X-5.2376 Y-0.5088
N515 X-5.2295 Y-0.514
N520 X-5.2231 Y-0.5186
N525 X-5.2198 Y-0.5211
N530 X-5.211 Y-0.5283
N535 X-5.21 Y-0.5293
N540 X-5.2007 Y-0.5381
N545 X-5.2002 Y-0.5387
N550 X-5.1918 Y-0.5479
N555 X-5.1904 Y-0.5497
N560 X-5.1841 Y-0.5577
N565 X-5.1806 Y-0.5626
N570 X-5.1773 Y-0.5675
N575 X-5.1714 Y-0.5773
N580 X-5.1708 Y-0.5785
N585 X-5.1663 Y-0.5871
N590 X-5.164 Y-0.5915
N595 X-5.1626 Y-0.5937
N600 X-5.1618 Y-0.5948
N605 X-5.161 Y-0.5959
N610 X-5.1601 Y-0.5969
N615 X-5.1579 Y-0.5992
N620 X-5.1556 Y-0.601
N625 X-5.1545 Y-0.6018
N630 X-5.1534 Y-0.6026
N635 X-5.1512 Y-0.6038
N640 X-5.1471 Y-0.6056
N645 X-5.1451 Y-0.6062
N650 X-5.1431 Y-0.6067
N655 X-5.1414 Y-0.607
N660 X-5.1365 Y-0.6074
N665 X-5.1316 Y-0.6075
N670 X-3.496
N675 X-3.4862 Y-0.6074
N680 X-3.4819 Y-0.6073
N685 X-3.4797 Y-0.6071
N690 X-3.4776 Y-0.6067
N695 X-3.4764 Y-0.6064
N700 X-3.474 Y-0.6057
N705 X-3.4715 Y-0.6048
N710 X-3.4691 Y-0.6036
N715 X-3.4678 Y-0.6029
N720 X-3.4666 Y-0.6022
N725 X-3.4636 Y-0.5999
N730 X-3.4621 Y-0.5985
N735 X-3.4605 Y-0.5969
N740 X-3.4585 Y-0.5943
N745 X-3.4568 Y-0.5917
N750 X-3.4556 Y-0.5894
N755 X-3.4546 Y-0.5871
N760 X-3.4538 Y-0.5847
N765 X-3.4533 Y-0.5822
N770 X-3.4529 Y-0.5798
N775 X-3.4527 Y-0.5773
N780 X-3.4525 Y-0.5675
N785 Y-0.3325
N790 X-3.4527 Y-0.3227
N795 X-3.4529 Y-0.3202
N800 X-3.4533 Y-0.3178
N805 X-3.4538 Y-0.3153
N810 X-3.4546 Y-0.3129
N815 X-3.4556 Y-0.3106
N820 X-3.4568 Y-0.3083
N825 X-3.4585 Y-0.3057
N830 X-3.4605 Y-0.3031
N835 X-3.4621 Y-0.3015
N840 X-3.4636 Y-0.3001
N845 X-3.4666 Y-0.2978
N850 X-3.4678 Y-0.2971
N855 X-3.4691 Y-0.2964
N860 X-3.4715 Y-0.2952
N865 X-3.474 Y-0.2943
N870 X-3.4764 Y-0.2936
N875 X-3.4776 Y-0.2933
N880 X-3.4797 Y-0.2929
N885 X-3.4819 Y-0.2927
N890 X-3.4862 Y-0.2926
N895 X-3.496 Y-0.2925
N900 X-5.1414
N905 X-5.1512
N910 X-5.156 Y-0.2927
N915 X-5.1584 Y-0.2929
N920 X-5.1608 Y-0.2933
N925 X-5.161
N930 X-5.1634 Y-0.294
N935 X-5.1659 Y-0.2948
N940 X-5.1683 Y-0.2959
N945 X-5.1708 Y-0.2972
N950 X-5.1725 Y-0.2984
N955 X-5.1743 Y-0.2997
N960 X-5.1761 Y-0.3013
N965 X-5.1778 Y-0.3031
N970 X-5.1806 Y-0.3066
N975 X-5.1853 Y-0.3129
N980 X-5.1904 Y-0.3193
N985 X-5.1932 Y-0.3227
N990 X-5.2002 Y-0.3303
N995 X-5.2023 Y-0.3325
N1000 X-5.21 Y-0.3397
N1005 X-5.2129 Y-0.3423
N1010 X-5.2198 Y-0.3479
N1015 X-5.2253 Y-0.3521
N1020 X-5.2295 Y-0.355
N1025 X-5.2393 Y-0.3613
N1030 X-5.2404 Y-0.3619
N1035 X-5.2491 Y-0.3667
N1040 X-5.2589 Y-0.3714
N1045 X-5.2596 Y-0.3717
N1050 X-5.2687 Y-0.3754
N1055 X-5.2785 Y-0.3788
N1060 X-5.2877 Y-0.3814
N1065 X-5.2883 Y-0.3816
N1070 X-5.2981 Y-0.3838
N1075 X-5.3079 Y-0.3855
N1080 X-5.3177 Y-0.3867
N1085 X-5.3275 Y-0.3873
N1090 X-5.3373 Y-0.3875
N1095 X-6.0816
N1100 X-6.0851
N1105 X-6.0882 Y-0.3877
N1110 X-6.0883 Y-0.3878
N1115 X-6.0885 Y-0.3912
N1120 Y-0.401
N1125 Y-0.499
N1130 Y-0.5088
N1135 X-6.0883 Y-0.5122
N1140 X-6.0882 Y-0.5123
N1145 X-6.0851 Y-0.5125
N1150 X-6.0838 F2.
N1155 X-6.0816 Z-0.0901
N1160 X-6.0523 Z-0.0911
N1165 X-6.0474 Y-0.5124 Z-0.0913
N1170 X-6.0449 Y-0.5123 Z-0.0914
N1175 X-6.0437 Y-0.5121
N1180 X-6.0425 Y-0.512 Z-0.0915
N1185 X-6.04 Y-0.5115 Z-0.0916
N1190 X-6.0376 Y-0.5108
N1195 X-6.0352 Y-0.5099 Z-0.0917
N1200 X-6.0328 Y-0.5088 Z-0.0918
N1205 X-6.0229 Y-0.5034 Z-0.0922
N1210 X-6.014 Y-0.499 Z-0.0926
N1215 X-6.0131 Y-0.4985
N1220 X-6.0033 Y-0.4944 Z-0.093
N1225 X-5.9935 Y-0.4909 Z-0.0933
N1230 X-5.9881 Y-0.4892 Z-0.0935
N1235 X-5.9837 Y-0.4879 Z-0.0937
N1240 X-5.9739 Y-0.4856 Z-0.094
N1245 X-5.9641 Y-0.4838 Z-0.0944
N1250 X-5.9543 Y-0.4825 Z-0.0947
N1255 X-5.9445 Y-0.4817 Z-0.0951
N1260 X-5.9347 Y-0.4815 Z-0.0954
N1265 X-5.3373 Z-0.1163
N1270 X-5.3275 Y-0.4817 Z-0.1166
N1275 X-5.3177 Y-0.4823 Z-0.117
N1280 X-5.3079 Y-0.4835 Z-0.1173
N1285 X-5.2981 Y-0.4852 Z-0.1177
N1290 X-5.2883 Y-0.4874 Z-0.118
N1295 X-5.2819 Y-0.4892 Z-0.1182
N1300 X-5.2785 Y-0.4902 Z-0.1184
N1305 X-5.2687 Y-0.4936 Z-0.1187
N1310 X-5.2589 Y-0.4976 Z-0.1191
N1315 X-5.256 Y-0.499 Z-0.1192
N1320 X-5.2491 Y-0.5023 Z-0.1195
N1325 X-5.2393 Y-0.5077 Z-0.1199
N1330 X-5.2376 Y-0.5088
N1335 X-5.2295 Y-0.514 Z-0.1203
N1340 X-5.2231 Y-0.5186 Z-0.1206
N1345 X-5.2198 Y-0.5211 Z-0.1207
N1350 X-5.211 Y-0.5283 Z-0.1211
N1355 X-5.21 Y-0.5293
N1360 X-5.2007 Y-0.5381 Z-0.1216
N1365 X-5.2002 Y-0.5387
N1370 X-5.1918 Y-0.5479 Z-0.1221
N1375 X-5.1904 Y-0.5497
N1380 X-5.1841 Y-0.5577 Z-0.1225
N1385 X-5.1806 Y-0.5626 Z-0.1227
N1390 X-5.1773 Y-0.5675 Z-0.1229
N1395 X-5.1714 Y-0.5773 Z-0.1233
N1400 X-5.1708 Y-0.5785
N1405 X-5.1663 Y-0.5871 Z-0.1237
N1410 X-5.164 Y-0.5915 Z-0.1239
N1415 X-5.1626 Y-0.5937 Z-0.124
N1420 X-5.1618 Y-0.5948
N1425 X-5.161 Y-0.5959
N1430 X-5.1601 Y-0.5969 Z-0.1241
N1435 X-5.1579 Y-0.5992 Z-0.1242
N1440 X-5.1556 Y-0.601 Z-0.1243
N1445 X-5.1545 Y-0.6018 Z-0.1244
N1450 X-5.1534 Y-0.6026
N1455 X-5.1512 Y-0.6038 Z-0.1245
N1460 X-5.1471 Y-0.6056 Z-0.1246
N1465 X-5.1451 Y-0.6062 Z-0.1247
N1470 X-5.1431 Y-0.6067 Z-0.1248
N1475 X-5.1414 Y-0.607 Z-0.1249
N1480 X-5.1365 Y-0.6074 Z-0.125
N1485 X-5.1316 Y-0.6075 Z-0.1252
N1490 X-3.5628 Z-0.18
N1495 G2 X-3.5615 I0.0013 K0.0375
N1500 G1 X-3.496 F15.
N1505 X-3.4862 Y-0.6074
N1510 X-3.4819 Y-0.6073
N1515 X-3.4797 Y-0.6071
N1520 X-3.4776 Y-0.6067
N1525 X-3.4764 Y-0.6064
N1530 X-3.474 Y-0.6057
N1535 X-3.4715 Y-0.6048
N1540 X-3.4691 Y-0.6036
N1545 X-3.4678 Y-0.6029
N1550 X-3.4666 Y-0.6022
N1555 X-3.4636 Y-0.5999
N1560 X-3.4621 Y-0.5985
N1565 X-3.4605 Y-0.5969
N1570 X-3.4585 Y-0.5943
N1575 X-3.4568 Y-0.5917
N1580 X-3.4556 Y-0.5894
N1585 X-3.4546 Y-0.5871
N1590 X-3.4538 Y-0.5847
N1595 X-3.4533 Y-0.5822
N1600 X-3.4529 Y-0.5798
N1605 X-3.4527 Y-0.5773
N1610 X-3.4525 Y-0.5675
N1615 Y-0.3325
N1620 X-3.4527 Y-0.3227
N1625 X-3.4529 Y-0.3202
N1630 X-3.4533 Y-0.3178
N1635 X-3.4538 Y-0.3153
N1640 X-3.4546 Y-0.3129
N1645 X-3.4556 Y-0.3106
N1650 X-3.4568 Y-0.3083
N1655 X-3.4585 Y-0.3057
N1660 X-3.4605 Y-0.3031
N1665 X-3.4621 Y-0.3015
N1670 X-3.4636 Y-0.3001
N1675 X-3.4666 Y-0.2978
N1680 X-3.4678 Y-0.2971
N1685 X-3.4691 Y-0.2964
N1690 X-3.4715 Y-0.2952
N1695 X-3.474 Y-0.2943
N1700 X-3.4764 Y-0.2936
N1705 X-3.4776 Y-0.2933
N1710 X-3.4797 Y-0.2929
N1715 X-3.4819 Y-0.2927
N1720 X-3.4862 Y-0.2926
N1725 X-3.496 Y-0.2925
N1730 X-5.1414
N1735 X-5.1512
N1740 X-5.156 Y-0.2927
N1745 X-5.1584 Y-0.2929
N1750 X-5.1608 Y-0.2933
N1755 X-5.161
N1760 X-5.1634 Y-0.294
N1765 X-5.1659 Y-0.2948
N1770 X-5.1683 Y-0.2959
N1775 X-5.1708 Y-0.2972
N1780 X-5.1725 Y-0.2984
N1785 X-5.1743 Y-0.2997
N1790 X-5.1761 Y-0.3013
N1795 X-5.1778 Y-0.3031
N1800 X-5.1806 Y-0.3066
N1805 X-5.1853 Y-0.3129
N1810 X-5.1904 Y-0.3193
N1815 X-5.1932 Y-0.3227
N1820 X-5.2002 Y-0.3303
N1825 X-5.2023 Y-0.3325
N1830 X-5.21 Y-0.3397
N1835 X-5.2129 Y-0.3423
N1840 X-5.2198 Y-0.3479
N1845 X-5.2253 Y-0.3521
N1850 X-5.2295 Y-0.355
N1855 X-5.2393 Y-0.3613
N1860 X-5.2404 Y-0.3619
N1865 X-5.2491 Y-0.3667
N1870 X-5.2589 Y-0.3714
N1875 X-5.2596 Y-0.3717
N1880 X-5.2687 Y-0.3754
N1885 X-5.2785 Y-0.3788
N1890 X-5.2877 Y-0.3814
N1895 X-5.2883 Y-0.3816
N1900 X-5.2981 Y-0.3838
N1905 X-5.3079 Y-0.3855
N1910 X-5.3177 Y-0.3867
N1915 X-5.3275 Y-0.3873
N1920 X-5.3373 Y-0.3875
N1925 X-6.0816
N1930 X-6.0851
N1935 X-6.0882 Y-0.3877
N1940 X-6.0883 Y-0.3878
N1945 X-6.0885 Y-0.3912
N1950 Y-0.401
N1955 Y-0.499
N1960 Y-0.5088
N1965 X-6.0883 Y-0.5122
N1970 X-6.0882 Y-0.5123
N1975 X-6.0851 Y-0.5125
N1980 X-6.0816
N1985 X-6.0523
N1990 X-6.0474 Y-0.5124
N1995 X-6.0449 Y-0.5123
N2000 X-6.0437 Y-0.5121
N2005 X-6.0425 Y-0.512
N2010 X-6.04 Y-0.5115
N2015 X-6.0376 Y-0.5108
N2020 X-6.0352 Y-0.5099
N2025 X-6.0328 Y-0.5088
N2030 X-6.0229 Y-0.5034
N2035 X-6.014 Y-0.499
N2040 X-6.0131 Y-0.4985
N2045 X-6.0033 Y-0.4944
N2050 X-5.9935 Y-0.4909
N2055 X-5.9881 Y-0.4892
N2060 X-5.9837 Y-0.4879
N2065 X-5.9739 Y-0.4856
N2070 X-5.9641 Y-0.4838
N2075 X-5.9543 Y-0.4825
N2080 X-5.9445 Y-0.4817
N2085 X-5.9347 Y-0.4815
N2090 X-5.3373
N2095 X-5.3275 Y-0.4817
N2100 X-5.3177 Y-0.4823
N2105 X-5.3079 Y-0.4835
N2110 X-5.2981 Y-0.4852
N2115 X-5.2883 Y-0.4874
N2120 X-5.2819 Y-0.4892
N2125 X-5.2785 Y-0.4902
N2130 X-5.2687 Y-0.4936
N2135 X-5.2589 Y-0.4976
N2140 X-5.256 Y-0.499
N2145 X-5.2491 Y-0.5023
N2150 X-5.2393 Y-0.5077
N2155 X-5.2376 Y-0.5088
N2160 X-5.2295 Y-0.514
N2165 X-5.2231 Y-0.5186
N2170 X-5.2198 Y-0.5211
N2175 X-5.211 Y-0.5283
N2180 X-5.21 Y-0.5293
N2185 X-5.2007 Y-0.5381
N2190 X-5.2002 Y-0.5387
N2195 X-5.1918 Y-0.5479
N2200 X-5.1904 Y-0.5497
N2205 X-5.1841 Y-0.5577
N2210 X-5.1806 Y-0.5626
N2215 X-5.1773 Y-0.5675
N2220 X-5.1714 Y-0.5773
N2225 X-5.1708 Y-0.5785
N2230 X-5.1663 Y-0.5871
N2235 X-5.164 Y-0.5915
N2240 X-5.1626 Y-0.5937
N2245 X-5.1618 Y-0.5948
N2250 X-5.161 Y-0.5959
N2255 X-5.1601 Y-0.5969
N2260 X-5.1579 Y-0.5992
N2265 X-5.1556 Y-0.601
N2270 X-5.1545 Y-0.6018
N2275 X-5.1534 Y-0.6026
N2280 X-5.1512 Y-0.6038
N2285 X-5.1471 Y-0.6056
N2290 X-5.1451 Y-0.6062
N2295 X-5.1431 Y-0.6067
N2300 X-5.1414 Y-0.607
N2305 X-5.1365 Y-0.6074
N2310 X-5.1316 Y-0.6075
N2315 X-3.5615
N2320 G17 G3 X-3.524 Y-0.57 I0. J0.0375 F2.
N2325 X-3.5243 Y-0.5658 I-0.0375 J0. F15.
N2330 G1 X-3.5429 Y-0.3992
N2335 G3 X-3.6958 Y-0.328 I-0.0982 J-0.011
N2340 X-3.6969 Y-0.3287 I0.0547 J-0.0822 F2.
N2345 X-3.5852 Y-0.4917 Z-0.1909 I0.0558 J-0.0815
N2350 X-3.6969 Y-0.3287 Z-0.2017 I-0.0558 J0.0815
N2355 X-3.5852 Y-0.4917 Z-0.2125 I0.0558 J-0.0815
N2360 X-3.6969 Y-0.3287 Z-0.2234 I-0.0558 J0.0815
N2365 X-3.5852 Y-0.4917 Z-0.2342 I0.0558 J-0.0815
N2370 X-3.6969 Y-0.3287 Z-0.245 I-0.0558 J0.0815
N2375 X-3.5852 Y-0.4917 Z-0.2558 I0.0558 J-0.0815
N2380 X-3.6969 Y-0.3287 Z-0.2667 I-0.0558 J0.0815
N2385 X-3.7398 Y-0.4089 Z-0.27 I0.0558 J-0.0815
N2390 Y-0.4102 I0.0988 J-0.0013
N2395 G1 Y-0.4292
N2400 G3 X-3.5615 Y-0.6075 I0.1783 J0.
N2405 G1 X-3.496 F15.
N2410 X-3.4862 Y-0.6074
N2415 X-3.4819 Y-0.6073
N2420 X-3.4797 Y-0.6071
N2425 X-3.4776 Y-0.6067
N2430 X-3.4764 Y-0.6064
N2435 X-3.474 Y-0.6057
N2440 X-3.4715 Y-0.6048
N2445 X-3.4691 Y-0.6036
N2450 X-3.4678 Y-0.6029
N2455 X-3.4666 Y-0.6022
N2460 X-3.4636 Y-0.5999
N2465 X-3.4621 Y-0.5985
N2470 X-3.4605 Y-0.5969
N2475 X-3.4585 Y-0.5943
N2480 X-3.4568 Y-0.5917
N2485 X-3.4556 Y-0.5894
N2490 X-3.4546 Y-0.5871
N2495 X-3.4538 Y-0.5847
N2500 X-3.4533 Y-0.5822
N2505 X-3.4529 Y-0.5798
N2510 X-3.4527 Y-0.5773
N2515 X-3.4525 Y-0.5675
N2520 Y-0.3325
N2525 X-3.4527 Y-0.3227
N2530 X-3.4529 Y-0.3202
N2535 X-3.4533 Y-0.3178
N2540 X-3.4538 Y-0.3153
N2545 X-3.4546 Y-0.3129
N2550 X-3.4556 Y-0.3106
N2555 X-3.4568 Y-0.3083
N2560 X-3.4585 Y-0.3057
N2565 X-3.4605 Y-0.3031
N2570 X-3.4621 Y-0.3015
N2575 X-3.4636 Y-0.3001
N2580 X-3.4666 Y-0.2978
N2585 X-3.4678 Y-0.2971
N2590 X-3.4691 Y-0.2964
N2595 X-3.4715 Y-0.2952
N2600 X-3.474 Y-0.2943
N2605 X-3.4764 Y-0.2936
N2610 X-3.4776 Y-0.2933
N2615 X-3.4797 Y-0.2929
N2620 X-3.4819 Y-0.2927
N2625 X-3.4862 Y-0.2926
N2630 X-3.496 Y-0.2925
N2635 X-5.1414
N2640 X-5.1512
N2645 X-5.156 Y-0.2927
N2650 X-5.1584 Y-0.2929
N2655 X-5.1608 Y-0.2933
N2660 X-5.161
N2665 X-5.1634 Y-0.294
N2670 X-5.1659 Y-0.2948
N2675 X-5.1683 Y-0.2959
N2680 X-5.1708 Y-0.2972
N2685 X-5.1725 Y-0.2984
N2690 X-5.1743 Y-0.2997
N2695 X-5.1761 Y-0.3013
N2700 X-5.1778 Y-0.3031
N2705 X-5.1806 Y-0.3066
N2710 X-5.1853 Y-0.3129
N2715 X-5.1904 Y-0.3193
N2720 X-5.1932 Y-0.3227
N2725 X-5.2002 Y-0.3303
N2730 X-5.2023 Y-0.3325
N2735 X-5.21 Y-0.3397
N2740 X-5.2129 Y-0.3423
N2745 X-5.2198 Y-0.3479
N2750 X-5.2253 Y-0.3521
N2755 X-5.2295 Y-0.355
N2760 X-5.2393 Y-0.3613
N2765 X-5.2404 Y-0.3619
N2770 X-5.2491 Y-0.3667
N2775 X-5.2589 Y-0.3714
N2780 X-5.2596 Y-0.3717
N2785 X-5.2687 Y-0.3754
N2790 X-5.2785 Y-0.3788
N2795 X-5.2877 Y-0.3814
N2800 X-5.2883 Y-0.3816
N2805 X-5.2981 Y-0.3838
N2810 X-5.3079 Y-0.3855
N2815 X-5.3177 Y-0.3867
N2820 X-5.3275 Y-0.3873
N2825 X-5.3373 Y-0.3875
N2830 X-6.0816
N2835 X-6.0851
N2840 X-6.0882 Y-0.3877
N2845 X-6.0883 Y-0.3878
N2850 X-6.0885 Y-0.3912
N2855 Y-0.401
N2860 Y-0.499
N2865 Y-0.5088
N2870 X-6.0883 Y-0.5122
N2875 X-6.0882 Y-0.5123
N2880 X-6.0851 Y-0.5125
N2885 X-6.0816
N2890 X-6.0523
N2895 X-6.0474 Y-0.5124
N2900 X-6.0449 Y-0.5123
N2905 X-6.0437 Y-0.5121
N2910 X-6.0425 Y-0.512
N2915 X-6.04 Y-0.5115
N2920 X-6.0376 Y-0.5108
N2925 X-6.0352 Y-0.5099
N2930 X-6.0328 Y-0.5088
N2935 X-6.0229 Y-0.5034
N2940 X-6.014 Y-0.499
N2945 X-6.0131 Y-0.4985
N2950 X-6.0033 Y-0.4944
N2955 X-5.9935 Y-0.4909
N2960 X-5.9881 Y-0.4892
N2965 X-5.9837 Y-0.4879
N2970 X-5.9739 Y-0.4856
N2975 X-5.9641 Y-0.4838
N2980 X-5.9543 Y-0.4825
N2985 X-5.9445 Y-0.4817
N2990 X-5.9347 Y-0.4815
N2995 X-5.3373
N3000 X-5.3275 Y-0.4817
N3005 X-5.3177 Y-0.4823
N3010 X-5.3079 Y-0.4835
N3015 X-5.2981 Y-0.4852
N3020 X-5.2883 Y-0.4874
N3025 X-5.2819 Y-0.4892
N3030 X-5.2785 Y-0.4902
N3035 X-5.2687 Y-0.4936
N3040 X-5.2589 Y-0.4976
N3045 X-5.256 Y-0.499
N3050 X-5.2491 Y-0.5023
N3055 X-5.2393 Y-0.5077
N3060 X-5.2376 Y-0.5088
N3065 X-5.2295 Y-0.514
N3070 X-5.2231 Y-0.5186
N3075 X-5.2198 Y-0.5211
N3080 X-5.211 Y-0.5283
N3085 X-5.21 Y-0.5293
N3090 X-5.2007 Y-0.5381
N3095 X-5.2002 Y-0.5387
N3100 X-5.1918 Y-0.5479
N3105 X-5.1904 Y-0.5497
N3110 X-5.1841 Y-0.5577
N3115 X-5.1806 Y-0.5626
N3120 X-5.1773 Y-0.5675
N3125 X-5.1714 Y-0.5773
N3130 X-5.1708 Y-0.5785
N3135 X-5.1663 Y-0.5871
N3140 X-5.164 Y-0.5915
N3145 X-5.1626 Y-0.5937
N3150 X-5.1618 Y-0.5948
N3155 X-5.161 Y-0.5959
N3160 X-5.1601 Y-0.5969
N3165 X-5.1579 Y-0.5992
N3170 X-5.1556 Y-0.601
N3175 X-5.1545 Y-0.6018
N3180 X-5.1534 Y-0.6026
N3185 X-5.1512 Y-0.6038
N3190 X-5.1471 Y-0.6056
N3195 X-5.1451 Y-0.6062
N3200 X-5.1431 Y-0.6067
N3205 X-5.1414 Y-0.607
N3210 X-5.1365 Y-0.6074
N3215 X-5.1316 Y-0.6075
N3220 X-3.5615
N3225 G3 X-3.524 Y-0.57 I0. J0.0375 F2.
N3230 X-3.5243 Y-0.5658 I-0.0375 J0. F15.
N3235 G1 X-3.5429 Y-0.3992
N3240 G3 X-3.6958 Y-0.328 I-0.0982 J-0.011
N3245 X-3.6969 Y-0.3287 I0.0547 J-0.0822 F2.
N3250 X-3.5852 Y-0.4917 Z-0.2809 I0.0558 J-0.0815
N3255 X-3.6969 Y-0.3287 Z-0.2917 I-0.0558 J0.0815
N3260 X-3.5852 Y-0.4917 Z-0.3025 I0.0558 J-0.0815
N3265 X-3.6969 Y-0.3287 Z-0.3134 I-0.0558 J0.0815
N3270 X-3.5852 Y-0.4917 Z-0.3242 I0.0558 J-0.0815
N3275 X-3.6969 Y-0.3287 Z-0.335 I-0.0558 J0.0815
N3280 X-3.5852 Y-0.4917 Z-0.3458 I0.0558 J-0.0815
N3285 X-3.6969 Y-0.3287 Z-0.3567 I-0.0558 J0.0815
N3290 X-3.7398 Y-0.4089 Z-0.36 I0.0558 J-0.0815
N3295 Y-0.4102 I0.0988 J-0.0013
N3300 G1 Y-0.4292
N3305 G3 X-3.5615 Y-0.6075 I0.1783 J0.
N3310 G1 X-3.496 F15.
N3315 X-3.4862 Y-0.6074
N3320 X-3.4819 Y-0.6073
N3325 X-3.4797 Y-0.6071
N3330 X-3.4776 Y-0.6067
N3335 X-3.4764 Y-0.6064
N3340 X-3.474 Y-0.6057
N3345 X-3.4715 Y-0.6048
N3350 X-3.4691 Y-0.6036
N3355 X-3.4678 Y-0.6029
N3360 X-3.4666 Y-0.6022
N3365 X-3.4636 Y-0.5999
N3370 X-3.4621 Y-0.5985
N3375 X-3.4605 Y-0.5969
N3380 X-3.4585 Y-0.5943
N3385 X-3.4568 Y-0.5917
N3390 X-3.4556 Y-0.5894
N3395 X-3.4546 Y-0.5871
N3400 X-3.4538 Y-0.5847
N3405 X-3.4533 Y-0.5822
N3410 X-3.4529 Y-0.5798
N3415 X-3.4527 Y-0.5773
N3420 X-3.4525 Y-0.5675
N3425 Y-0.3325
N3430 X-3.4527 Y-0.3227
N3435 X-3.4529 Y-0.3202
N3440 X-3.4533 Y-0.3178
N3445 X-3.4538 Y-0.3153
N3450 X-3.4546 Y-0.3129
N3455 X-3.4556 Y-0.3106
N3460 X-3.4568 Y-0.3083
N3465 X-3.4585 Y-0.3057
N3470 X-3.4605 Y-0.3031
N3475 X-3.4621 Y-0.3015
N3480 X-3.4636 Y-0.3001
N3485 X-3.4666 Y-0.2978
N3490 X-3.4678 Y-0.2971
N3495 X-3.4691 Y-0.2964
N3500 X-3.4715 Y-0.2952
N3505 X-3.474 Y-0.2943
N3510 X-3.4764 Y-0.2936
N3515 X-3.4776 Y-0.2933
N3520 X-3.4797 Y-0.2929
N3525 X-3.4819 Y-0.2927
N3530 X-3.4862 Y-0.2926
N3535 X-3.496 Y-0.2925
N3540 X-5.1414
N3545 X-5.1512
N3550 X-5.156 Y-0.2927
N3555 X-5.1584 Y-0.2929
N3560 X-5.1608 Y-0.2933
N3565 X-5.161
N3570 X-5.1634 Y-0.294
N3575 X-5.1659 Y-0.2948
N3580 X-5.1683 Y-0.2959
N3585 X-5.1708 Y-0.2972
N3590 X-5.1725 Y-0.2984
N3595 X-5.1743 Y-0.2997
N3600 X-5.1761 Y-0.3013
N3605 X-5.1778 Y-0.3031
N3610 X-5.1806 Y-0.3066
N3615 X-5.1853 Y-0.3129
N3620 X-5.1904 Y-0.3193
N3625 X-5.1932 Y-0.3227
N3630 X-5.2002 Y-0.3303
N3635 X-5.2023 Y-0.3325
N3640 X-5.21 Y-0.3397
N3645 X-5.2129 Y-0.3423
N3650 X-5.2198 Y-0.3479
N3655 X-5.2253 Y-0.3521
N3660 X-5.2295 Y-0.355
N3665 X-5.2393 Y-0.3613
N3670 X-5.2404 Y-0.3619
N3675 X-5.2491 Y-0.3667
N3680 X-5.2589 Y-0.3714
N3685 X-5.2596 Y-0.3717
N3690 X-5.2687 Y-0.3754
N3695 X-5.2785 Y-0.3788
N3700 X-5.2877 Y-0.3814
N3705 X-5.2883 Y-0.3816
N3710 X-5.2981 Y-0.3838
N3715 X-5.3079 Y-0.3855
N3720 X-5.3177 Y-0.3867
N3725 X-5.3275 Y-0.3873
N3730 X-5.3373 Y-0.3875
N3735 X-6.0816
N3740 X-6.0851
N3745 X-6.0882 Y-0.3877
N3750 X-6.0883 Y-0.3878
N3755 X-6.0885 Y-0.3912
N3760 Y-0.401
N3765 Y-0.499
N3770 Y-0.5088
N3775 X-6.0883 Y-0.5122
N3780 X-6.0882 Y-0.5123
N3785 X-6.0851 Y-0.5125
N3790 X-6.0816
N3795 X-6.0523
N3800 X-6.0474 Y-0.5124
N3805 X-6.0449 Y-0.5123
N3810 X-6.0437 Y-0.5121
N3815 X-6.0425 Y-0.512
N3820 X-6.04 Y-0.5115
N3825 X-6.0376 Y-0.5108
N3830 X-6.0352 Y-0.5099
N3835 X-6.0328 Y-0.5088
N3840 X-6.0229 Y-0.5034
N3845 X-6.014 Y-0.499
N3850 X-6.0131 Y-0.4985
N3855 X-6.0033 Y-0.4944
N3860 X-5.9935 Y-0.4909
N3865 X-5.9881 Y-0.4892
N3870 X-5.9837 Y-0.4879
N3875 X-5.9739 Y-0.4856
N3880 X-5.9641 Y-0.4838
N3885 X-5.9543 Y-0.4825
N3890 X-5.9445 Y-0.4817
N3895 X-5.9347 Y-0.4815
N3900 X-5.3373
N3905 X-5.3275 Y-0.4817
N3910 X-5.3177 Y-0.4823
N3915 X-5.3079 Y-0.4835
N3920 X-5.2981 Y-0.4852
N3925 X-5.2883 Y-0.4874
N3930 X-5.2819 Y-0.4892
N3935 X-5.2785 Y-0.4902
N3940 X-5.2687 Y-0.4936
N3945 X-5.2589 Y-0.4976
N3950 X-5.256 Y-0.499
N3955 X-5.2491 Y-0.5023
N3960 X-5.2393 Y-0.5077
N3965 X-5.2376 Y-0.5088
N3970 X-5.2295 Y-0.514
N3975 X-5.2231 Y-0.5186
N3980 X-5.2198 Y-0.5211
N3985 X-5.211 Y-0.5283
N3990 X-5.21 Y-0.5293
N3995 X-5.2007 Y-0.5381
N4000 X-5.2002 Y-0.5387
N4005 X-5.1918 Y-0.5479
N4010 X-5.1904 Y-0.5497
N4015 X-5.1841 Y-0.5577
N4020 X-5.1806 Y-0.5626
N4025 X-5.1773 Y-0.5675
N4030 X-5.1714 Y-0.5773
N4035 X-5.1708 Y-0.5785
N4040 X-5.1663 Y-0.5871
N4045 X-5.164 Y-0.5915
N4050 X-5.1626 Y-0.5937
N4055 X-5.1618 Y-0.5948
N4060 X-5.161 Y-0.5959
N4065 X-5.1601 Y-0.5969
N4070 X-5.1579 Y-0.5992
N4075 X-5.1556 Y-0.601
N4080 X-5.1545 Y-0.6018
N4085 X-5.1534 Y-0.6026
N4090 X-5.1512 Y-0.6038
N4095 X-5.1471 Y-0.6056
N4100 X-5.1451 Y-0.6062
N4105 X-5.1431 Y-0.6067
N4110 X-5.1414 Y-0.607
N4115 X-5.1365 Y-0.6074
N4120 X-5.1316 Y-0.6075
N4125 X-3.5615
N4130 G3 X-3.524 Y-0.57 I0. J0.0375 F2.
N4135 X-3.5243 Y-0.5658 I-0.0375 J0. F15.
N4140 G1 X-3.5429 Y-0.3992
N4145 G3 X-3.6958 Y-0.328 I-0.0982 J-0.011
N4150 X-3.6969 Y-0.3287 I0.0547 J-0.0822 F2.
N4155 X-3.5852 Y-0.4917 Z-0.3709 I0.0558 J-0.0815
N4160 X-3.6969 Y-0.3287 Z-0.3817 I-0.0558 J0.0815
N4165 X-3.5852 Y-0.4917 Z-0.3925 I0.0558 J-0.0815
N4170 X-3.6969 Y-0.3287 Z-0.4034 I-0.0558 J0.0815
N4175 X-3.5852 Y-0.4917 Z-0.4142 I0.0558 J-0.0815
N4180 X-3.6969 Y-0.3287 Z-0.425 I-0.0558 J0.0815
N4185 X-3.5852 Y-0.4917 Z-0.4358 I0.0558 J-0.0815
N4190 X-3.6969 Y-0.3287 Z-0.4467 I-0.0558 J0.0815
N4195 X-3.7398 Y-0.4089 Z-0.45 I0.0558 J-0.0815
N4200 Y-0.4102 I0.0988 J-0.0013
N4205 G1 Y-0.4292
N4210 G3 X-3.5615 Y-0.6075 I0.1783 J0.
N4215 G1 X-3.496 F15.
N4220 X-3.4862 Y-0.6074
N4225 X-3.4819 Y-0.6073
N4230 X-3.4797 Y-0.6071
N4235 X-3.4776 Y-0.6067
N4240 X-3.4764 Y-0.6064
N4245 X-3.474 Y-0.6057
N4250 X-3.4715 Y-0.6048
N4255 X-3.4691 Y-0.6036
N4260 X-3.4678 Y-0.6029
N4265 X-3.4666 Y-0.6022
N4270 X-3.4636 Y-0.5999
N4275 X-3.4621 Y-0.5985
N4280 X-3.4605 Y-0.5969
N4285 X-3.4585 Y-0.5943
N4290 X-3.4568 Y-0.5917
N4295 X-3.4556 Y-0.5894
N4300 X-3.4546 Y-0.5871
N4305 X-3.4538 Y-0.5847
N4310 X-3.4533 Y-0.5822
N4315 X-3.4529 Y-0.5798
N4320 X-3.4527 Y-0.5773
N4325 X-3.4525 Y-0.5675
N4330 Y-0.3325
N4335 X-3.4527 Y-0.3227
N4340 X-3.4529 Y-0.3202
N4345 X-3.4533 Y-0.3178
N4350 X-3.4538 Y-0.3153
N4355 X-3.4546 Y-0.3129
N4360 X-3.4556 Y-0.3106
N4365 X-3.4568 Y-0.3083
N4370 X-3.4585 Y-0.3057
N4375 X-3.4605 Y-0.3031
N4380 X-3.4621 Y-0.3015
N4385 X-3.4636 Y-0.3001
N4390 X-3.4666 Y-0.2978
N4395 X-3.4678 Y-0.2971
N4400 X-3.4691 Y-0.2964
N4405 X-3.4715 Y-0.2952
N4410 X-3.474 Y-0.2943
N4415 X-3.4764 Y-0.2936
N4420 X-3.4776 Y-0.2933
N4425 X-3.4797 Y-0.2929
N4430 X-3.4819 Y-0.2927
N4435 X-3.4862 Y-0.2926
N4440 X-3.496 Y-0.2925
N4445 X-5.1414
N4450 X-5.1512
N4455 X-5.156 Y-0.2927
N4460 X-5.1584 Y-0.2929
N4465 X-5.1608 Y-0.2933
N4470 X-5.161
N4475 X-5.1634 Y-0.294
N4480 X-5.1659 Y-0.2948
N4485 X-5.1683 Y-0.2959
N4490 X-5.1708 Y-0.2972
N4495 X-5.1725 Y-0.2984
N4500 X-5.1743 Y-0.2997
N4505 X-5.1761 Y-0.3013
N4510 X-5.1778 Y-0.3031
N4515 X-5.1806 Y-0.3066
N4520 X-5.1853 Y-0.3129
N4525 X-5.1904 Y-0.3193
N4530 X-5.1932 Y-0.3227
N4535 X-5.2002 Y-0.3303
N4540 X-5.2023 Y-0.3325
N4545 X-5.21 Y-0.3397
N4550 X-5.2129 Y-0.3423
N4555 X-5.2198 Y-0.3479
N4560 X-5.2253 Y-0.3521
N4565 X-5.2295 Y-0.355
N4570 X-5.2393 Y-0.3613
N4575 X-5.2404 Y-0.3619
N4580 X-5.2491 Y-0.3667
N4585 X-5.2589 Y-0.3714
N4590 X-5.2596 Y-0.3717
N4595 X-5.2687 Y-0.3754
N4600 X-5.2785 Y-0.3788
N4605 X-5.2877 Y-0.3814
N4610 X-5.2883 Y-0.3816
N4615 X-5.2981 Y-0.3838
N4620 X-5.3079 Y-0.3855
N4625 X-5.3177 Y-0.3867
N4630 X-5.3275 Y-0.3873
N4635 X-5.3373 Y-0.3875
N4640 X-6.0816
N4645 X-6.0851
N4650 X-6.0882 Y-0.3877
N4655 X-6.0883 Y-0.3878
N4660 X-6.0885 Y-0.3912
N4665 Y-0.401
N4670 Y-0.499
N4675 Y-0.5088
N4680 X-6.0883 Y-0.5122
N4685 X-6.0882 Y-0.5123
N4690 X-6.0851 Y-0.5125
N4695 X-6.0816
N4700 X-6.0523
N4705 X-6.0474 Y-0.5124
N4710 X-6.0449 Y-0.5123
N4715 X-6.0437 Y-0.5121
N4720 X-6.0425 Y-0.512
N4725 X-6.04 Y-0.5115
N4730 X-6.0376 Y-0.5108
N4735 X-6.0352 Y-0.5099
N4740 X-6.0328 Y-0.5088
N4745 X-6.0229 Y-0.5034
N4750 X-6.014 Y-0.499
N4755 X-6.0131 Y-0.4985
N4760 X-6.0033 Y-0.4944
N4765 X-5.9935 Y-0.4909
N4770 X-5.9881 Y-0.4892
N4775 X-5.9837 Y-0.4879
N4780 X-5.9739 Y-0.4856
N4785 X-5.9641 Y-0.4838
N4790 X-5.9543 Y-0.4825
N4795 X-5.9445 Y-0.4817
N4800 X-5.9347 Y-0.4815
N4805 X-5.3373
N4810 X-5.3275 Y-0.4817
N4815 X-5.3177 Y-0.4823
N4820 X-5.3079 Y-0.4835
N4825 X-5.2981 Y-0.4852
N4830 X-5.2883 Y-0.4874
N4835 X-5.2819 Y-0.4892
N4840 X-5.2785 Y-0.4902
N4845 X-5.2687 Y-0.4936
N4850 X-5.2589 Y-0.4976
N4855 X-5.256 Y-0.499
N4860 X-5.2491 Y-0.5023
N4865 X-5.2393 Y-0.5077
N4870 X-5.2376 Y-0.5088
N4875 X-5.2295 Y-0.514
N4880 X-5.2231 Y-0.5186
N4885 X-5.2198 Y-0.5211
N4890 X-5.211 Y-0.5283
N4895 X-5.21 Y-0.5293
N4900 X-5.2007 Y-0.5381
N4905 X-5.2002 Y-0.5387
N4910 X-5.1918 Y-0.5479
N4915 X-5.1904 Y-0.5497
N4920 X-5.1841 Y-0.5577
N4925 X-5.1806 Y-0.5626
N4930 X-5.1773 Y-0.5675
N4935 X-5.1714 Y-0.5773
N4940 X-5.1708 Y-0.5785
N4945 X-5.1663 Y-0.5871
N4950 X-5.164 Y-0.5915
N4955 X-5.1626 Y-0.5937
N4960 X-5.1618 Y-0.5948
N4965 X-5.161 Y-0.5959
N4970 X-5.1601 Y-0.5969
N4975 X-5.1579 Y-0.5992
N4980 X-5.1556 Y-0.601
N4985 X-5.1545 Y-0.6018
N4990 X-5.1534 Y-0.6026
N4995 X-5.1512 Y-0.6038
N5000 X-5.1471 Y-0.6056
N5005 X-5.1451 Y-0.6062
N5010 X-5.1431 Y-0.6067
N5015 X-5.1414 Y-0.607
N5020 X-5.1365 Y-0.6074
N5025 X-5.1316 Y-0.6075
N5030 X-3.5615
N5035 G3 X-3.524 Y-0.57 I0. J0.0375 F2.
N5040 X-3.5243 Y-0.5658 I-0.0375 J0. F15.
N5045 G1 X-3.5429 Y-0.3992
N5050 G3 X-3.6958 Y-0.328 I-0.0982 J-0.011
N5055 X-3.6969 Y-0.3287 I0.0547 J-0.0822 F2.
N5060 X-3.5852 Y-0.4917 Z-0.4609 I0.0558 J-0.0815
N5065 X-3.6969 Y-0.3287 Z-0.4717 I-0.0558 J0.0815
N5070 X-3.5852 Y-0.4917 Z-0.4825 I0.0558 J-0.0815
N5075 X-3.6969 Y-0.3287 Z-0.4934 I-0.0558 J0.0815
N5080 X-3.5852 Y-0.4917 Z-0.5042 I0.0558 J-0.0815
N5085 X-3.6969 Y-0.3287 Z-0.515 I-0.0558 J0.0815
N5090 X-3.5852 Y-0.4917 Z-0.5258 I0.0558 J-0.0815
N5095 X-3.6969 Y-0.3287 Z-0.5367 I-0.0558 J0.0815
N5100 X-3.7398 Y-0.4089 Z-0.54 I0.0558 J-0.0815
N5105 Y-0.4102 I0.0988 J-0.0013
N5110 G1 Y-0.4292
N5115 G3 X-3.5615 Y-0.6075 I0.1783 J0.
N5120 G1 X-3.496 F15.
N5125 X-3.4862 Y-0.6074
N5130 X-3.4819 Y-0.6073
N5135 X-3.4797 Y-0.6071
N5140 X-3.4776 Y-0.6067
N5145 X-3.4764 Y-0.6064
N5150 X-3.474 Y-0.6057
N5155 X-3.4715 Y-0.6048
N5160 X-3.4691 Y-0.6036
N5165 X-3.4678 Y-0.6029
N5170 X-3.4666 Y-0.6022
N5175 X-3.4636 Y-0.5999
N5180 X-3.4621 Y-0.5985
N5185 X-3.4605 Y-0.5969
N5190 X-3.4585 Y-0.5943
N5195 X-3.4568 Y-0.5917
N5200 X-3.4556 Y-0.5894
N5205 X-3.4546 Y-0.5871
N5210 X-3.4538 Y-0.5847
N5215 X-3.4533 Y-0.5822
N5220 X-3.4529 Y-0.5798
N5225 X-3.4527 Y-0.5773
N5230 X-3.4525 Y-0.5675
N5235 Y-0.3325
N5240 X-3.4527 Y-0.3227
N5245 X-3.4529 Y-0.3202
N5250 X-3.4533 Y-0.3178
N5255 X-3.4538 Y-0.3153
N5260 X-3.4546 Y-0.3129
N5265 X-3.4556 Y-0.3106
N5270 X-3.4568 Y-0.3083
N5275 X-3.4585 Y-0.3057
N5280 X-3.4605 Y-0.3031
N5285 X-3.4621 Y-0.3015
N5290 X-3.4636 Y-0.3001
N5295 X-3.4666 Y-0.2978
N5300 X-3.4678 Y-0.2971
N5305 X-3.4691 Y-0.2964
N5310 X-3.4715 Y-0.2952
N5315 X-3.474 Y-0.2943
N5320 X-3.4764 Y-0.2936
N5325 X-3.4776 Y-0.2933
N5330 X-3.4797 Y-0.2929
N5335 X-3.4819 Y-0.2927
N5340 X-3.4862 Y-0.2926
N5345 X-3.496 Y-0.2925
N5350 X-5.1414
N5355 X-5.1512
N5360 X-5.156 Y-0.2927
N5365 X-5.1584 Y-0.2929
N5370 X-5.1608 Y-0.2933
N5375 X-5.161
N5380 X-5.1634 Y-0.294
N5385 X-5.1659 Y-0.2948
N5390 X-5.1683 Y-0.2959
N5395 X-5.1708 Y-0.2972
N5400 X-5.1725 Y-0.2984
N5405 X-5.1743 Y-0.2997
N5410 X-5.1761 Y-0.3013
N5415 X-5.1778 Y-0.3031
N5420 X-5.1806 Y-0.3066
N5425 X-5.1853 Y-0.3129
N5430 X-5.1904 Y-0.3193
N5435 X-5.1932 Y-0.3227
N5440 X-5.2002 Y-0.3303
N5445 X-5.2023 Y-0.3325
N5450 X-5.21 Y-0.3397
N5455 X-5.2129 Y-0.3423
N5460 X-5.2198 Y-0.3479
N5465 X-5.2253 Y-0.3521
N5470 X-5.2295 Y-0.355
N5475 X-5.2393 Y-0.3613
N5480 X-5.2404 Y-0.3619
N5485 X-5.2491 Y-0.3667
N5490 X-5.2589 Y-0.3714
N5495 X-5.2596 Y-0.3717
N5500 X-5.2687 Y-0.3754
N5505 X-5.2785 Y-0.3788
N5510 X-5.2877 Y-0.3814
N5515 X-5.2883 Y-0.3816
N5520 X-5.2981 Y-0.3838
N5525 X-5.3079 Y-0.3855
N5530 X-5.3177 Y-0.3867
N5535 X-5.3275 Y-0.3873
N5540 X-5.3373 Y-0.3875
N5545 X-6.0816
N5550 X-6.0851
N5555 X-6.0882 Y-0.3877
N5560 X-6.0883 Y-0.3878
N5565 X-6.0885 Y-0.3912
N5570 Y-0.401
N5575 Y-0.499
N5580 Y-0.5088
N5585 X-6.0883 Y-0.5122
N5590 X-6.0882 Y-0.5123
N5595 X-6.0851 Y-0.5125
N5600 X-6.0816
N5605 X-6.0523
N5610 X-6.0474 Y-0.5124
N5615 X-6.0449 Y-0.5123
N5620 X-6.0437 Y-0.5121
N5625 X-6.0425 Y-0.512
N5630 X-6.04 Y-0.5115
N5635 X-6.0376 Y-0.5108
N5640 X-6.0352 Y-0.5099
N5645 X-6.0328 Y-0.5088
N5650 X-6.0229 Y-0.5034
N5655 X-6.014 Y-0.499
N5660 X-6.0131 Y-0.4985
N5665 X-6.0033 Y-0.4944
N5670 X-5.9935 Y-0.4909
N5675 X-5.9881 Y-0.4892
N5680 X-5.9837 Y-0.4879
N5685 X-5.9739 Y-0.4856
N5690 X-5.9641 Y-0.4838
N5695 X-5.9543 Y-0.4825
N5700 X-5.9445 Y-0.4817
N5705 X-5.9347 Y-0.4815
N5710 X-5.3373
N5715 X-5.3275 Y-0.4817
N5720 X-5.3177 Y-0.4823
N5725 X-5.3079 Y-0.4835
N5730 X-5.2981 Y-0.4852
N5735 X-5.2883 Y-0.4874
N5740 X-5.2819 Y-0.4892
N5745 X-5.2785 Y-0.4902
N5750 X-5.2687 Y-0.4936
N5755 X-5.2589 Y-0.4976
N5760 X-5.256 Y-0.499
N5765 X-5.2491 Y-0.5023
N5770 X-5.2393 Y-0.5077
N5775 X-5.2376 Y-0.5088
N5780 X-5.2295 Y-0.514
N5785 X-5.2231 Y-0.5186
N5790 X-5.2198 Y-0.5211
N5795 X-5.211 Y-0.5283
N5800 X-5.21 Y-0.5293
N5805 X-5.2007 Y-0.5381
N5810 X-5.2002 Y-0.5387
N5815 X-5.1918 Y-0.5479
N5820 X-5.1904 Y-0.5497
N5825 X-5.1841 Y-0.5577
N5830 X-5.1806 Y-0.5626
N5835 X-5.1773 Y-0.5675
N5840 X-5.1714 Y-0.5773
N5845 X-5.1708 Y-0.5785
N5850 X-5.1663 Y-0.5871
N5855 X-5.164 Y-0.5915
N5860 X-5.1626 Y-0.5937
N5865 X-5.1618 Y-0.5948
N5870 X-5.161 Y-0.5959
N5875 X-5.1601 Y-0.5969
N5880 X-5.1579 Y-0.5992
N5885 X-5.1556 Y-0.601
N5890 X-5.1545 Y-0.6018
N5895 X-5.1534 Y-0.6026
N5900 X-5.1512 Y-0.6038
N5905 X-5.1471 Y-0.6056
N5910 X-5.1451 Y-0.6062
N5915 X-5.1431 Y-0.6067
N5920 X-5.1414 Y-0.607
N5925 X-5.1365 Y-0.6074
N5930 X-5.1316 Y-0.6075
N5935 X-3.5615
N5940 G3 X-3.524 Y-0.57 I0. J0.0375 F2.
N5945 X-3.5243 Y-0.5658 I-0.0375 J0. F15.
N5950 G1 X-3.5429 Y-0.3992
N5955 G3 X-3.6958 Y-0.328 I-0.0982 J-0.011
N5960 X-3.6969 Y-0.3287 I0.0547 J-0.0822 F2.
N5965 X-3.5852 Y-0.4917 Z-0.5509 I0.0558 J-0.0815
N5970 X-3.6969 Y-0.3287 Z-0.5617 I-0.0558 J0.0815
N5975 X-3.5852 Y-0.4917 Z-0.5725 I0.0558 J-0.0815
N5980 X-3.6969 Y-0.3287 Z-0.5834 I-0.0558 J0.0815
N5985 X-3.5852 Y-0.4917 Z-0.5942 I0.0558 J-0.0815
N5990 X-3.6969 Y-0.3287 Z-0.605 I-0.0558 J0.0815
N5995 X-3.5852 Y-0.4917 Z-0.6158 I0.0558 J-0.0815
N6000 X-3.6969 Y-0.3287 Z-0.6267 I-0.0558 J0.0815
N6005 X-3.7398 Y-0.4089 Z-0.63 I0.0558 J-0.0815
N6010 Y-0.4102 I0.0988 J-0.0013
N6015 G1 Y-0.4292
N6020 G3 X-3.5615 Y-0.6075 I0.1783 J0.
N6025 G1 X-3.496 F15.
N6030 X-3.4862 Y-0.6074
N6035 X-3.4819 Y-0.6073
N6040 X-3.4797 Y-0.6071
N6045 X-3.4776 Y-0.6067
N6050 X-3.4764 Y-0.6064
N6055 X-3.474 Y-0.6057
N6060 X-3.4715 Y-0.6048
N6065 X-3.4691 Y-0.6036
N6070 X-3.4678 Y-0.6029
N6075 X-3.4666 Y-0.6022
N6080 X-3.4636 Y-0.5999
N6085 X-3.4621 Y-0.5985
N6090 X-3.4605 Y-0.5969
N6095 X-3.4585 Y-0.5943
N6100 X-3.4568 Y-0.5917
N6105 X-3.4556 Y-0.5894
N6110 X-3.4546 Y-0.5871
N6115 X-3.4538 Y-0.5847
N6120 X-3.4533 Y-0.5822
N6125 X-3.4529 Y-0.5798
N6130 X-3.4527 Y-0.5773
N6135 X-3.4525 Y-0.5675
N6140 Y-0.3325
N6145 X-3.4527 Y-0.3227
N6150 X-3.4529 Y-0.3202
N6155 X-3.4533 Y-0.3178
N6160 X-3.4538 Y-0.3153
N6165 X-3.4546 Y-0.3129
N6170 X-3.4556 Y-0.3106
N6175 X-3.4568 Y-0.3083
N6180 X-3.4585 Y-0.3057
N6185 X-3.4605 Y-0.3031
N6190 X-3.4621 Y-0.3015
N6195 X-3.4636 Y-0.3001
N6200 X-3.4666 Y-0.2978
N6205 X-3.4678 Y-0.2971
N6210 X-3.4691 Y-0.2964
N6215 X-3.4715 Y-0.2952
N6220 X-3.474 Y-0.2943
N6225 X-3.4764 Y-0.2936
N6230 X-3.4776 Y-0.2933
N6235 X-3.4797 Y-0.2929
N6240 X-3.4819 Y-0.2927
N6245 X-3.4862 Y-0.2926
N6250 X-3.496 Y-0.2925
N6255 X-5.1414
N6260 X-5.1512
N6265 X-5.156 Y-0.2927
N6270 X-5.1584 Y-0.2929
N6275 X-5.1608 Y-0.2933
N6280 X-5.161
N6285 X-5.1634 Y-0.294
N6290 X-5.1659 Y-0.2948
N6295 X-5.1683 Y-0.2959
N6300 X-5.1708 Y-0.2972
N6305 X-5.1725 Y-0.2984
N6310 X-5.1743 Y-0.2997
N6315 X-5.1761 Y-0.3013
N6320 X-5.1778 Y-0.3031
N6325 X-5.1806 Y-0.3066
N6330 X-5.1853 Y-0.3129
N6335 X-5.1904 Y-0.3193
N6340 X-5.1932 Y-0.3227
N6345 X-5.2002 Y-0.3303
N6350 X-5.2023 Y-0.3325
N6355 X-5.21 Y-0.3397
N6360 X-5.2129 Y-0.3423
N6365 X-5.2198 Y-0.3479
N6370 X-5.2253 Y-0.3521
N6375 X-5.2295 Y-0.355
N6380 X-5.2393 Y-0.3613
N6385 X-5.2404 Y-0.3619
N6390 X-5.2491 Y-0.3667
N6395 X-5.2589 Y-0.3714
N6400 X-5.2596 Y-0.3717
N6405 X-5.2687 Y-0.3754
N6410 X-5.2785 Y-0.3788
N6415 X-5.2877 Y-0.3814
N6420 X-5.2883 Y-0.3816
N6425 X-5.2981 Y-0.3838
N6430 X-5.3079 Y-0.3855
N6435 X-5.3177 Y-0.3867
N6440 X-5.3275 Y-0.3873
N6445 X-5.3373 Y-0.3875
N6450 X-6.0816
N6455 X-6.0851
N6460 X-6.0882 Y-0.3877
N6465 X-6.0883 Y-0.3878
N6470 X-6.0885 Y-0.3912
N6475 Y-0.401
N6480 Y-0.499
N6485 Y-0.5088
N6490 X-6.0883 Y-0.5122
N6495 X-6.0882 Y-0.5123
N6500 X-6.0851 Y-0.5125
N6505 X-6.0816
N6510 X-6.0523
N6515 X-6.0474 Y-0.5124
N6520 X-6.0449 Y-0.5123
N6525 X-6.0437 Y-0.5121
N6530 X-6.0425 Y-0.512
N6535 X-6.04 Y-0.5115
N6540 X-6.0376 Y-0.5108
N6545 X-6.0352 Y-0.5099
N6550 X-6.0328 Y-0.5088
N6555 X-6.0229 Y-0.5034
N6560 X-6.014 Y-0.499
N6565 X-6.0131 Y-0.4985
N6570 X-6.0033 Y-0.4944
N6575 X-5.9935 Y-0.4909
N6580 X-5.9881 Y-0.4892
N6585 X-5.9837 Y-0.4879
N6590 X-5.9739 Y-0.4856
N6595 X-5.9641 Y-0.4838
N6600 X-5.9543 Y-0.4825
N6605 X-5.9445 Y-0.4817
N6610 X-5.9347 Y-0.4815
N6615 X-5.3373
N6620 X-5.3275 Y-0.4817
N6625 X-5.3177 Y-0.4823
N6630 X-5.3079 Y-0.4835
N6635 X-5.2981 Y-0.4852
N6640 X-5.2883 Y-0.4874
N6645 X-5.2819 Y-0.4892
N6650 X-5.2785 Y-0.4902
N6655 X-5.2687 Y-0.4936
N6660 X-5.2589 Y-0.4976
N6665 X-5.256 Y-0.499
N6670 X-5.2491 Y-0.5023
N6675 X-5.2393 Y-0.5077
N6680 X-5.2376 Y-0.5088
N6685 X-5.2295 Y-0.514
N6690 X-5.2231 Y-0.5186
N6695 X-5.2198 Y-0.5211
N6700 X-5.211 Y-0.5283
N6705 X-5.21 Y-0.5293
N6710 X-5.2007 Y-0.5381
N6715 X-5.2002 Y-0.5387
N6720 X-5.1918 Y-0.5479
N6725 X-5.1904 Y-0.5497
N6730 X-5.1841 Y-0.5577
N6735 X-5.1806 Y-0.5626
N6740 X-5.1773 Y-0.5675
N6745 X-5.1714 Y-0.5773
N6750 X-5.1708 Y-0.5785
N6755 X-5.1663 Y-0.5871
N6760 X-5.164 Y-0.5915
N6765 X-5.1626 Y-0.5937
N6770 X-5.1618 Y-0.5948
N6775 X-5.161 Y-0.5959
N6780 X-5.1601 Y-0.5969
N6785 X-5.1579 Y-0.5992
N6790 X-5.1556 Y-0.601
N6795 X-5.1545 Y-0.6018
N6800 X-5.1534 Y-0.6026
N6805 X-5.1512 Y-0.6038
N6810 X-5.1471 Y-0.6056
N6815 X-5.1451 Y-0.6062
N6820 X-5.1431 Y-0.6067
N6825 X-5.1414 Y-0.607
N6830 X-5.1365 Y-0.6074
N6835 X-5.1316 Y-0.6075
N6840 X-3.5615
N6845 G3 X-3.524 Y-0.57 I0. J0.0375 F2.
N6850 X-3.5243 Y-0.5658 I-0.0375 J0. F15.
N6855 G1 X-3.5429 Y-0.3992
N6860 G3 X-3.6958 Y-0.328 I-0.0982 J-0.011
N6865 X-3.6969 Y-0.3287 I0.0547 J-0.0822 F2.
N6870 X-3.5852 Y-0.4917 Z-0.6409 I0.0558 J-0.0815
N6875 X-3.6969 Y-0.3287 Z-0.6517 I-0.0558 J0.0815
N6880 X-3.5852 Y-0.4917 Z-0.6625 I0.0558 J-0.0815
N6885 X-3.6969 Y-0.3287 Z-0.6734 I-0.0558 J0.0815
N6890 X-3.5852 Y-0.4917 Z-0.6842 I0.0558 J-0.0815
N6895 X-3.6969 Y-0.3287 Z-0.695 I-0.0558 J0.0815
N6900 X-3.5852 Y-0.4917 Z-0.7058 I0.0558 J-0.0815
N6905 X-3.6969 Y-0.3287 Z-0.7167 I-0.0558 J0.0815
N6910 X-3.7398 Y-0.4089 Z-0.72 I0.0558 J-0.0815
N6915 Y-0.4102 I0.0988 J-0.0013
N6920 G1 Y-0.4292
N6925 G3 X-3.5615 Y-0.6075 I0.1783 J0.
N6930 G1 X-3.496 F15.
N6935 X-3.4862 Y-0.6074
N6940 X-3.4819 Y-0.6073
N6945 X-3.4797 Y-0.6071
N6950 X-3.4776 Y-0.6067
N6955 X-3.4764 Y-0.6064
N6960 X-3.474 Y-0.6057
N6965 X-3.4715 Y-0.6048
N6970 X-3.4691 Y-0.6036
N6975 X-3.4678 Y-0.6029
N6980 X-3.4666 Y-0.6022
N6985 X-3.4636 Y-0.5999
N6990 X-3.4621 Y-0.5985
N6995 X-3.4605 Y-0.5969
N7000 X-3.4585 Y-0.5943
N7005 X-3.4568 Y-0.5917
N7010 X-3.4556 Y-0.5894
N7015 X-3.4546 Y-0.5871
N7020 X-3.4538 Y-0.5847
N7025 X-3.4533 Y-0.5822
N7030 X-3.4529 Y-0.5798
N7035 X-3.4527 Y-0.5773
N7040 X-3.4525 Y-0.5675
N7045 Y-0.3325
N7050 X-3.4527 Y-0.3227
N7055 X-3.4529 Y-0.3202
N7060 X-3.4533 Y-0.3178
N7065 X-3.4538 Y-0.3153
N7070 X-3.4546 Y-0.3129
N7075 X-3.4556 Y-0.3106
N7080 X-3.4568 Y-0.3083
N7085 X-3.4585 Y-0.3057
N7090 X-3.4605 Y-0.3031
N7095 X-3.4621 Y-0.3015
N7100 X-3.4636 Y-0.3001
N7105 X-3.4666 Y-0.2978
N7110 X-3.4678 Y-0.2971
N7115 X-3.4691 Y-0.2964
N7120 X-3.4715 Y-0.2952
N7125 X-3.474 Y-0.2943
N7130 X-3.4764 Y-0.2936
N7135 X-3.4776 Y-0.2933
N7140 X-3.4797 Y-0.2929
N7145 X-3.4819 Y-0.2927
N7150 X-3.4862 Y-0.2926
N7155 X-3.496 Y-0.2925
N7160 X-5.1414
N7165 X-5.1512
N7170 X-5.156 Y-0.2927
N7175 X-5.1584 Y-0.2929
N7180 X-5.1608 Y-0.2933
N7185 X-5.161
N7190 X-5.1634 Y-0.294
N7195 X-5.1659 Y-0.2948
N7200 X-5.1683 Y-0.2959
N7205 X-5.1708 Y-0.2972
N7210 X-5.1725 Y-0.2984
N7215 X-5.1743 Y-0.2997
N7220 X-5.1761 Y-0.3013
N7225 X-5.1778 Y-0.3031
N7230 X-5.1806 Y-0.3066
N7235 X-5.1853 Y-0.3129
N7240 X-5.1904 Y-0.3193
N7245 X-5.1932 Y-0.3227
N7250 X-5.2002 Y-0.3303
N7255 X-5.2023 Y-0.3325
N7260 X-5.21 Y-0.3397
N7265 X-5.2129 Y-0.3423
N7270 X-5.2198 Y-0.3479
N7275 X-5.2253 Y-0.3521
N7280 X-5.2295 Y-0.355
N7285 X-5.2393 Y-0.3613
N7290 X-5.2404 Y-0.3619
N7295 X-5.2491 Y-0.3667
N7300 X-5.2589 Y-0.3714
N7305 X-5.2596 Y-0.3717
N7310 X-5.2687 Y-0.3754
N7315 X-5.2785 Y-0.3788
N7320 X-5.2877 Y-0.3814
N7325 X-5.2883 Y-0.3816
N7330 X-5.2981 Y-0.3838
N7335 X-5.3079 Y-0.3855
N7340 X-5.3177 Y-0.3867
N7345 X-5.3275 Y-0.3873
N7350 X-5.3373 Y-0.3875
N7355 X-5.7173
N7360 X-5.7193 Y-0.3878
N7365 X-5.7242 Y-0.3887
N7370 X-5.7266 Y-0.3894
N7375 X-5.729 Y-0.3904
N7380 X-5.7307 Y-0.3912
N7385 X-5.7327 Y-0.3924
N7390 X-5.7348 Y-0.3938
N7395 X-5.7368 Y-0.3955
N7400 X-5.7388 Y-0.3974
N7405 X-5.7404 Y-0.3992
N7410 X-5.7418 Y-0.401
N7415 X-5.7433 Y-0.4035
N7420 X-5.7446 Y-0.4059
N7425 X-5.7455 Y-0.4084
N7430 X-5.7463 Y-0.4108
N7435 X-5.7468 Y-0.4133
N7440 X-5.7472 Y-0.4157
N7445 X-5.7474 Y-0.4206
N7450 X-5.7475 Y-0.4304
N7455 Y-0.4402
N7460 X-5.7474 Y-0.45
N7465 X-5.747 Y-0.4549
N7470 X-5.7465 Y-0.4573
N7475 X-5.7458 Y-0.4598
N7480 X-5.7449 Y-0.4622
N7485 X-5.7438 Y-0.4647
N7490 X-5.7431 Y-0.4659
N7495 X-5.7424 Y-0.4671
N7500 X-5.7406 Y-0.4696
N7505 X-5.7388 Y-0.4716
N7510 X-5.7364 Y-0.4739
N7515 X-5.7339 Y-0.4758
N7520 X-5.7327 Y-0.4766
N7525 X-5.7315 Y-0.4773
N7530 X-5.729 Y-0.4786
N7535 X-5.7271 Y-0.4794
N7540 X-5.7251 Y-0.48
N7545 X-5.7232 Y-0.4805
N7550 X-5.7193 Y-0.4812
N7555 X-5.7173 Y-0.4815
N7560 X-5.3373
N7565 X-5.3275 Y-0.4817
N7570 X-5.3177 Y-0.4823
N7575 X-5.3079 Y-0.4835
N7580 X-5.2981 Y-0.4852
N7585 X-5.2883 Y-0.4874
N7590 X-5.2819 Y-0.4892
N7595 X-5.2785 Y-0.4902
N7600 X-5.2687 Y-0.4936
N7605 X-5.2589 Y-0.4976
N7610 X-5.256 Y-0.499
N7615 X-5.2491 Y-0.5023
N7620 X-5.2393 Y-0.5077
N7625 X-5.2376 Y-0.5088
N7630 X-5.2295 Y-0.514
N7635 X-5.2231 Y-0.5186
N7640 X-5.2198 Y-0.5211
N7645 X-5.211 Y-0.5283
N7650 X-5.21 Y-0.5293
N7655 X-5.2007 Y-0.5381
N7660 X-5.2002 Y-0.5387
N7665 X-5.1918 Y-0.5479
N7670 X-5.1904 Y-0.5497
N7675 X-5.1841 Y-0.5577
N7680 X-5.1806 Y-0.5626
N7685 X-5.1773 Y-0.5675
N7690 X-5.1714 Y-0.5773
N7695 X-5.1708 Y-0.5785
N7700 X-5.1663 Y-0.5871
N7705 X-5.164 Y-0.5915
N7710 X-5.1626 Y-0.5937
N7715 X-5.1618 Y-0.5948
N7720 X-5.161 Y-0.5959
N7725 X-5.1601 Y-0.5969
N7730 X-5.1579 Y-0.5992
N7735 X-5.1556 Y-0.601
N7740 X-5.1545 Y-0.6018
N7745 X-5.1534 Y-0.6026
N7750 X-5.1512 Y-0.6038
N7755 X-5.1471 Y-0.6056
N7760 X-5.1451 Y-0.6062
N7765 X-5.1431 Y-0.6067
N7770 X-5.1414 Y-0.607
N7775 X-5.1365 Y-0.6074
N7780 X-5.1316 Y-0.6075
N7785 X-3.5615
N7790 G3 X-3.524 Y-0.57 I0. J0.0375 F2.
N7795 X-3.5243 Y-0.5658 I-0.0375 J0. F15.
N7800 G1 X-3.5429 Y-0.3992
N7805 G3 X-3.6958 Y-0.328 I-0.0982 J-0.011
N7810 X-3.6969 Y-0.3287 I0.0547 J-0.0822 F2.
N7815 X-3.5852 Y-0.4917 Z-0.7309 I0.0558 J-0.0815
N7820 X-3.6969 Y-0.3287 Z-0.7417 I-0.0558 J0.0815
N7825 X-3.5852 Y-0.4917 Z-0.7525 I0.0558 J-0.0815
N7830 X-3.6969 Y-0.3287 Z-0.7634 I-0.0558 J0.0815
N7835 X-3.5852 Y-0.4917 Z-0.7742 I0.0558 J-0.0815
N7840 X-3.6969 Y-0.3287 Z-0.785 I-0.0558 J0.0815
N7845 X-3.5852 Y-0.4917 Z-0.7958 I0.0558 J-0.0815
N7850 X-3.6969 Y-0.3287 Z-0.8067 I-0.0558 J0.0815
N7855 X-3.7398 Y-0.4089 Z-0.81 I0.0558 J-0.0815
N7860 Y-0.4102 I0.0988 J-0.0013
N7865 G1 Y-0.4292
N7870 G3 X-3.5615 Y-0.6075 I0.1783 J0.
N7875 G1 X-3.496 F15.
N7880 X-3.4862 Y-0.6074
N7885 X-3.4819 Y-0.6073
N7890 X-3.4797 Y-0.6071
N7895 X-3.4776 Y-0.6067
N7900 X-3.4764 Y-0.6064
N7905 X-3.474 Y-0.6057
N7910 X-3.4715 Y-0.6048
N7915 X-3.4691 Y-0.6036
N7920 X-3.4678 Y-0.6029
N7925 X-3.4666 Y-0.6022
N7930 X-3.4636 Y-0.5999
N7935 X-3.4621 Y-0.5985
N7940 X-3.4605 Y-0.5969
N7945 X-3.4585 Y-0.5943
N7950 X-3.4568 Y-0.5917
N7955 X-3.4556 Y-0.5894
N7960 X-3.4546 Y-0.5871
N7965 X-3.4538 Y-0.5847
N7970 X-3.4533 Y-0.5822
N7975 X-3.4529 Y-0.5798
N7980 X-3.4527 Y-0.5773
N7985 X-3.4525 Y-0.5675
N7990 Y-0.3325
N7995 X-3.4527 Y-0.3227
N8000 X-3.4529 Y-0.3202
N8005 X-3.4533 Y-0.3178
N8010 X-3.4538 Y-0.3153
N8015 X-3.4546 Y-0.3129
N8020 X-3.4556 Y-0.3106
N8025 X-3.4568 Y-0.3083
N8030 X-3.4585 Y-0.3057
N8035 X-3.4605 Y-0.3031
N8040 X-3.4621 Y-0.3015
N8045 X-3.4636 Y-0.3001
N8050 X-3.4666 Y-0.2978
N8055 X-3.4678 Y-0.2971
N8060 X-3.4691 Y-0.2964
N8065 X-3.4715 Y-0.2952
N8070 X-3.474 Y-0.2943
N8075 X-3.4764 Y-0.2936
N8080 X-3.4776 Y-0.2933
N8085 X-3.4797 Y-0.2929
N8090 X-3.4819 Y-0.2927
N8095 X-3.4862 Y-0.2926
N8100 X-3.496 Y-0.2925
N8105 X-5.1414
N8110 X-5.1512
N8115 X-5.156 Y-0.2927
N8120 X-5.1584 Y-0.2929
N8125 X-5.1608 Y-0.2933
N8130 X-5.161
N8135 X-5.1634 Y-0.294
N8140 X-5.1659 Y-0.2948
N8145 X-5.1683 Y-0.2959
N8150 X-5.1708 Y-0.2972
N8155 X-5.1725 Y-0.2984
N8160 X-5.1743 Y-0.2997
N8165 X-5.1761 Y-0.3013
N8170 X-5.1778 Y-0.3031
N8175 X-5.1806 Y-0.3066
N8180 X-5.1853 Y-0.3129
N8185 X-5.1904 Y-0.3193
N8190 X-5.1932 Y-0.3227
N8195 X-5.2002 Y-0.3303
N8200 X-5.2023 Y-0.3325
N8205 X-5.21 Y-0.3397
N8210 X-5.2129 Y-0.3423
N8215 X-5.2198 Y-0.3479
N8220 X-5.2253 Y-0.3521
N8225 X-5.2295 Y-0.355
N8230 X-5.2393 Y-0.3613
N8235 X-5.2404 Y-0.3619
N8240 X-5.2491 Y-0.3667
N8245 X-5.2589 Y-0.3714
N8250 X-5.2596 Y-0.3717
N8255 X-5.2687 Y-0.3754
N8260 X-5.2785 Y-0.3788
N8265 X-5.2877 Y-0.3814
N8270 X-5.2883 Y-0.3816
N8275 X-5.2981 Y-0.3838
N8280 X-5.3079 Y-0.3855
N8285 X-5.3177 Y-0.3867
N8290 X-5.3275 Y-0.3873
N8295 X-5.3373 Y-0.3875
N8300 X-5.7173
N8305 X-5.7193 Y-0.3878
N8310 X-5.7242 Y-0.3887
N8315 X-5.7266 Y-0.3894
N8320 X-5.729 Y-0.3904
N8325 X-5.7307 Y-0.3912
N8330 X-5.7327 Y-0.3924
N8335 X-5.7348 Y-0.3938
N8340 X-5.7368 Y-0.3955
N8345 X-5.7388 Y-0.3974
N8350 X-5.7404 Y-0.3992
N8355 X-5.7418 Y-0.401
N8360 X-5.7433 Y-0.4035
N8365 X-5.7446 Y-0.4059
N8370 X-5.7455 Y-0.4084
N8375 X-5.7463 Y-0.4108
N8380 X-5.7468 Y-0.4133
N8385 X-5.7472 Y-0.4157
N8390 X-5.7474 Y-0.4206
N8395 X-5.7475 Y-0.4304
N8400 Y-0.4402
N8405 X-5.7474 Y-0.45
N8410 X-5.747 Y-0.4549
N8415 X-5.7465 Y-0.4573
N8420 X-5.7458 Y-0.4598
N8425 X-5.7449 Y-0.4622
N8430 X-5.7438 Y-0.4647
N8435 X-5.7431 Y-0.4659
N8440 X-5.7424 Y-0.4671
N8445 X-5.7406 Y-0.4696
N8450 X-5.7388 Y-0.4716
N8455 X-5.7364 Y-0.4739
N8460 X-5.7339 Y-0.4758
N8465 X-5.7327 Y-0.4766
N8470 X-5.7315 Y-0.4773
N8475 X-5.729 Y-0.4786
N8480 X-5.7271 Y-0.4794
N8485 X-5.7251 Y-0.48
N8490 X-5.7232 Y-0.4805
N8495 X-5.7193 Y-0.4812
N8500 X-5.7173 Y-0.4815
N8505 X-5.3373
N8510 X-5.3275 Y-0.4817
N8515 X-5.3177 Y-0.4823
N8520 X-5.3079 Y-0.4835
N8525 X-5.2981 Y-0.4852
N8530 X-5.2883 Y-0.4874
N8535 X-5.2819 Y-0.4892
N8540 X-5.2785 Y-0.4902
N8545 X-5.2687 Y-0.4936
N8550 X-5.2589 Y-0.4976
N8555 X-5.256 Y-0.499
N8560 X-5.2491 Y-0.5023
N8565 X-5.2393 Y-0.5077
N8570 X-5.2376 Y-0.5088
N8575 X-5.2295 Y-0.514
N8580 X-5.2231 Y-0.5186
N8585 X-5.2198 Y-0.5211
N8590 X-5.211 Y-0.5283
N8595 X-5.21 Y-0.5293
N8600 X-5.2007 Y-0.5381
N8605 X-5.2002 Y-0.5387
N8610 X-5.1918 Y-0.5479
N8615 X-5.1904 Y-0.5497
N8620 X-5.1841 Y-0.5577
N8625 X-5.1806 Y-0.5626
N8630 X-5.1773 Y-0.5675
N8635 X-5.1714 Y-0.5773
N8640 X-5.1708 Y-0.5785
N8645 X-5.1663 Y-0.5871
N8650 X-5.164 Y-0.5915
N8655 X-5.1626 Y-0.5937
N8660 X-5.1618 Y-0.5948
N8665 X-5.161 Y-0.5959
N8670 X-5.1601 Y-0.5969
N8675 X-5.1579 Y-0.5992
N8680 X-5.1556 Y-0.601
N8685 X-5.1545 Y-0.6018
N8690 X-5.1534 Y-0.6026
N8695 X-5.1512 Y-0.6038
N8700 X-5.1471 Y-0.6056
N8705 X-5.1451 Y-0.6062
N8710 X-5.1431 Y-0.6067
N8715 X-5.1414 Y-0.607
N8720 X-5.1365 Y-0.6074
N8725 X-5.1316 Y-0.6075
N8730 X-3.5615
N8735 G3 X-3.524 Y-0.57 I0. J0.0375 F2.
N8740 X-3.5243 Y-0.5658 I-0.0375 J0. F15.
N8745 G1 X-3.5429 Y-0.3992
N8750 G3 X-3.6958 Y-0.328 I-0.0982 J-0.011
N8755 X-3.6969 Y-0.3287 I0.0547 J-0.0822 F2.
N8760 X-3.5852 Y-0.4917 Z-0.8209 I0.0558 J-0.0815
N8765 X-3.6969 Y-0.3287 Z-0.8317 I-0.0558 J0.0815
N8770 X-3.5852 Y-0.4917 Z-0.8425 I0.0558 J-0.0815
N8775 X-3.6969 Y-0.3287 Z-0.8534 I-0.0558 J0.0815
N8780 X-3.5852 Y-0.4917 Z-0.8642 I0.0558 J-0.0815
N8785 X-3.6969 Y-0.3287 Z-0.875 I-0.0558 J0.0815
N8790 X-3.5852 Y-0.4917 Z-0.8858 I0.0558 J-0.0815
N8795 X-3.6969 Y-0.3287 Z-0.8967 I-0.0558 J0.0815
N8800 X-3.7398 Y-0.4089 Z-0.9 I0.0558 J-0.0815
N8805 Y-0.4102 I0.0988 J-0.0013
N8810 G1 Y-0.4292
N8815 G3 X-3.5615 Y-0.6075 I0.1783 J0.
N8820 G1 X-3.496 F15.
N8825 X-3.4862 Y-0.6074
N8830 X-3.4819 Y-0.6073
N8835 X-3.4797 Y-0.6071
N8840 X-3.4776 Y-0.6067
N8845 X-3.4764 Y-0.6064
N8850 X-3.474 Y-0.6057
N8855 X-3.4715 Y-0.6048
N8860 X-3.4691 Y-0.6036
N8865 X-3.4678 Y-0.6029
N8870 X-3.4666 Y-0.6022
N8875 X-3.4636 Y-0.5999
N8880 X-3.4621 Y-0.5985
N8885 X-3.4605 Y-0.5969
N8890 X-3.4585 Y-0.5943
N8895 X-3.4568 Y-0.5917
N8900 X-3.4556 Y-0.5894
N8905 X-3.4546 Y-0.5871
N8910 X-3.4538 Y-0.5847
N8915 X-3.4533 Y-0.5822
N8920 X-3.4529 Y-0.5798
N8925 X-3.4527 Y-0.5773
N8930 X-3.4525 Y-0.5675
N8935 Y-0.3325
N8940 X-3.4527 Y-0.3227
N8945 X-3.4529 Y-0.3202
N8950 X-3.4533 Y-0.3178
N8955 X-3.4538 Y-0.3153
N8960 X-3.4546 Y-0.3129
N8965 X-3.4556 Y-0.3106
N8970 X-3.4568 Y-0.3083
N8975 X-3.4585 Y-0.3057
N8980 X-3.4605 Y-0.3031
N8985 X-3.4621 Y-0.3015
N8990 X-3.4636 Y-0.3001
N8995 X-3.4666 Y-0.2978
N9000 X-3.4678 Y-0.2971
N9005 X-3.4691 Y-0.2964
N9010 X-3.4715 Y-0.2952
N9015 X-3.474 Y-0.2943
N9020 X-3.4764 Y-0.2936
N9025 X-3.4776 Y-0.2933
N9030 X-3.4797 Y-0.2929
N9035 X-3.4819 Y-0.2927
N9040 X-3.4862 Y-0.2926
N9045 X-3.496 Y-0.2925
N9050 X-5.1414
N9055 X-5.1512
N9060 X-5.156 Y-0.2927
N9065 X-5.1584 Y-0.2929
N9070 X-5.1608 Y-0.2933
N9075 X-5.161
N9080 X-5.1634 Y-0.294
N9085 X-5.1659 Y-0.2948
N9090 X-5.1683 Y-0.2959
N9095 X-5.1708 Y-0.2972
N9100 X-5.1725 Y-0.2984
N9105 X-5.1743 Y-0.2997
N9110 X-5.1761 Y-0.3013
N9115 X-5.1778 Y-0.3031
N9120 X-5.1806 Y-0.3066
N9125 X-5.1853 Y-0.3129
N9130 X-5.1904 Y-0.3193
N9135 X-5.1932 Y-0.3227
N9140 X-5.2002 Y-0.3303
N9145 X-5.2023 Y-0.3325
N9150 X-5.21 Y-0.3397
N9155 X-5.2129 Y-0.3423
N9160 X-5.2198 Y-0.3479
N9165 X-5.2253 Y-0.3521
N9170 X-5.2295 Y-0.355
N9175 X-5.2393 Y-0.3613
N9180 X-5.2404 Y-0.3619
N9185 X-5.2491 Y-0.3667
N9190 X-5.2589 Y-0.3714
N9195 X-5.2596 Y-0.3717
N9200 X-5.2687 Y-0.3754
N9205 X-5.2785 Y-0.3788
N9210 X-5.2877 Y-0.3814
N9215 X-5.2883 Y-0.3816
N9220 X-5.2981 Y-0.3838
N9225 X-5.3079 Y-0.3855
N9230 X-5.3177 Y-0.3867
N9235 X-5.3275 Y-0.3873
N9240 X-5.3373 Y-0.3875
N9245 X-5.7144
N9250 X-5.7168
N9255 X-5.7174 Y-0.3876
N9260 X-5.7179
N9265 X-5.718
N9270 X-5.7193 Y-0.3878
N9275 X-5.7242 Y-0.3887
N9280 X-5.7266 Y-0.3894
N9285 X-5.729 Y-0.3904
N9290 X-5.7307 Y-0.3912
N9295 X-5.7327 Y-0.3924
N9300 X-5.7348 Y-0.3938
N9305 X-5.7368 Y-0.3955
N9310 X-5.7388 Y-0.3974
N9315 X-5.7404 Y-0.3992
N9320 X-5.7418 Y-0.401
N9325 X-5.7433 Y-0.4035
N9330 X-5.7446 Y-0.4059
N9335 X-5.7455 Y-0.4084
N9340 X-5.7463 Y-0.4108
N9345 X-5.7468 Y-0.4133
N9350 X-5.7472 Y-0.4157
N9355 X-5.7474 Y-0.4206
N9360 X-5.7475 Y-0.4304
N9365 Y-0.4402
N9370 X-5.7474 Y-0.45
N9375 X-5.747 Y-0.4549
N9380 X-5.7465 Y-0.4573
N9385 X-5.7458 Y-0.4598
N9390 X-5.7449 Y-0.4622
N9395 X-5.7438 Y-0.4647
N9400 X-5.7431 Y-0.4659
N9405 X-5.7424 Y-0.4671
N9410 X-5.7406 Y-0.4696
N9415 X-5.7388 Y-0.4716
N9420 X-5.7364 Y-0.4739
N9425 X-5.7339 Y-0.4758
N9430 X-5.7327 Y-0.4766
N9435 X-5.7315 Y-0.4773
N9440 X-5.729 Y-0.4786
N9445 X-5.7271 Y-0.4794
N9450 X-5.7251 Y-0.48
N9455 X-5.7232 Y-0.4805
N9460 X-5.7193 Y-0.4812
N9465 X-5.718 Y-0.4814
N9470 X-5.7179
N9475 X-5.7174
N9480 X-5.7168 Y-0.4815
N9485 X-5.7144
N9490 X-5.3373
N9495 X-5.3275 Y-0.4817
N9500 X-5.3177 Y-0.4823
N9505 X-5.3079 Y-0.4835
N9510 X-5.2981 Y-0.4852
N9515 X-5.2883 Y-0.4874
N9520 X-5.2819 Y-0.4892
N9525 X-5.2785 Y-0.4902
N9530 X-5.2687 Y-0.4936
N9535 X-5.2589 Y-0.4976
N9540 X-5.256 Y-0.499
N9545 X-5.2491 Y-0.5023
N9550 X-5.2393 Y-0.5077
N9555 X-5.2376 Y-0.5088
N9560 X-5.2295 Y-0.514
N9565 X-5.2231 Y-0.5186
N9570 X-5.2198 Y-0.5211
N9575 X-5.211 Y-0.5283
N9580 X-5.21 Y-0.5293
N9585 X-5.2007 Y-0.5381
N9590 X-5.2002 Y-0.5387
N9595 X-5.1918 Y-0.5479
N9600 X-5.1904 Y-0.5497
N9605 X-5.1841 Y-0.5577
N9610 X-5.1806 Y-0.5626
N9615 X-5.1773 Y-0.5675
N9620 X-5.1714 Y-0.5773
N9625 X-5.1708 Y-0.5785
N9630 X-5.1663 Y-0.5871
N9635 X-5.164 Y-0.5915
N9640 X-5.1626 Y-0.5937
N9645 X-5.1618 Y-0.5948
N9650 X-5.161 Y-0.5959
N9655 X-5.1601 Y-0.5969
N9660 X-5.1579 Y-0.5992
N9665 X-5.1556 Y-0.601
N9670 X-5.1545 Y-0.6018
N9675 X-5.1534 Y-0.6026
N9680 X-5.1512 Y-0.6038
N9685 X-5.1471 Y-0.6056
N9690 X-5.1451 Y-0.6062
N9695 X-5.1431 Y-0.6067
N9700 X-5.1414 Y-0.607
N9705 X-5.1365 Y-0.6074
N9710 X-5.1316 Y-0.6075
N9715 X-3.5615
N9720 G3 X-3.524 Y-0.57 I0. J0.0375 F2.
N9725 X-3.5243 Y-0.5658 I-0.0375 J0. F15.
N9730 G1 X-3.5429 Y-0.3992
N9735 G3 X-3.6958 Y-0.328 I-0.0982 J-0.011
N9740 X-3.6969 Y-0.3287 I0.0547 J-0.0822 F2.
N9745 X-3.5852 Y-0.4917 Z-0.9109 I0.0558 J-0.0815
N9750 X-3.6969 Y-0.3287 Z-0.9217 I-0.0558 J0.0815
N9755 X-3.5852 Y-0.4917 Z-0.9325 I0.0558 J-0.0815
N9760 X-3.6969 Y-0.3287 Z-0.9434 I-0.0558 J0.0815
N9765 X-3.5852 Y-0.4917 Z-0.9542 I0.0558 J-0.0815
N9770 X-3.6969 Y-0.3287 Z-0.965 I-0.0558 J0.0815
N9775 X-3.5852 Y-0.4917 Z-0.9758 I0.0558 J-0.0815
N9780 X-3.6969 Y-0.3287 Z-0.9867 I-0.0558 J0.0815
N9785 X-3.7398 Y-0.4089 Z-0.99 I0.0558 J-0.0815
N9790 Y-0.4102 I0.0988 J-0.0013
N9795 G1 Y-0.4292
N9800 G3 X-3.5615 Y-0.6075 I0.1783 J0.
N9805 G1 X-3.496 F15.
N9810 X-3.4862 Y-0.6074
N9815 X-3.4819 Y-0.6073
N9820 X-3.4797 Y-0.6071
N9825 X-3.4776 Y-0.6067
N9830 X-3.4764 Y-0.6064
N9835 X-3.474 Y-0.6057
N9840 X-3.4715 Y-0.6048
N9845 X-3.4691 Y-0.6036
N9850 X-3.4678 Y-0.6029
N9855 X-3.4666 Y-0.6022
N9860 X-3.4636 Y-0.5999
N9865 X-3.4621 Y-0.5985
N9870 X-3.4605 Y-0.5969
N9875 X-3.4585 Y-0.5943
N9880 X-3.4568 Y-0.5917
N9885 X-3.4556 Y-0.5894
N9890 X-3.4546 Y-0.5871
N9895 X-3.4538 Y-0.5847
N9900 X-3.4533 Y-0.5822
N9905 X-3.4529 Y-0.5798
N9910 X-3.4527 Y-0.5773
N9915 X-3.4525 Y-0.5675
N9920 Y-0.3325
N9925 X-3.4527 Y-0.3227
N9930 X-3.4529 Y-0.3202
N9935 X-3.4533 Y-0.3178
N9940 X-3.4538 Y-0.3153
N9945 X-3.4546 Y-0.3129
N9950 X-3.4556 Y-0.3106
N9955 X-3.4568 Y-0.3083
N9960 X-3.4585 Y-0.3057
N9965 X-3.4605 Y-0.3031
N9970 X-3.4621 Y-0.3015
N9975 X-3.4636 Y-0.3001
N9980 X-3.4666 Y-0.2978
N9985 X-3.4678 Y-0.2971
N9990 X-3.4691 Y-0.2964
N9995 X-3.4715 Y-0.2952
N10000 X-3.474 Y-0.2943
N10005 X-3.4764 Y-0.2936
N10010 X-3.4776 Y-0.2933
N10015 X-3.4797 Y-0.2929
N10020 X-3.4819 Y-0.2927
N10025 X-3.4862 Y-0.2926
N10030 X-3.496 Y-0.2925
N10035 X-5.1414
N10040 X-5.1512
N10045 X-5.156 Y-0.2927
N10050 X-5.1584 Y-0.2929
N10055 X-5.1608 Y-0.2933
N10060 X-5.161
N10065 X-5.1634 Y-0.294
N10070 X-5.1659 Y-0.2948
N10075 X-5.1683 Y-0.2959
N10080 X-5.1708 Y-0.2972
N10085 X-5.1725 Y-0.2984
N10090 X-5.1743 Y-0.2997
N10095 X-5.1761 Y-0.3013
N10100 X-5.1778 Y-0.3031
N10105 X-5.1806 Y-0.3066
N10110 X-5.1853 Y-0.3129
N10115 X-5.1904 Y-0.3193
N10120 X-5.1932 Y-0.3227
N10125 X-5.2002 Y-0.3303
N10130 X-5.2023 Y-0.3325
N10135 X-5.21 Y-0.3397
N10140 X-5.2129 Y-0.3423
N10145 X-5.2198 Y-0.3479
N10150 X-5.2253 Y-0.3521
N10155 X-5.2295 Y-0.355
N10160 X-5.2393 Y-0.3613
N10165 X-5.2404 Y-0.3619
N10170 X-5.2491 Y-0.3667
N10175 X-5.2589 Y-0.3714
N10180 X-5.2596 Y-0.3717
N10185 X-5.2687 Y-0.3754
N10190 X-5.2785 Y-0.3788
N10195 X-5.2877 Y-0.3814
N10200 X-5.2883 Y-0.3816
N10205 X-5.2981 Y-0.3838
N10210 X-5.3079 Y-0.3855
N10215 X-5.3177 Y-0.3867
N10220 X-5.3275 Y-0.3873
N10225 X-5.3373 Y-0.3875
N10230 X-5.7144
N10235 X-5.7168 Y-0.3876
N10240 X-5.7182
N10245 X-5.7183
N10250 X-5.7193 Y-0.3878
N10255 X-5.7242 Y-0.3887
N10260 X-5.7266 Y-0.3894
N10265 X-5.729 Y-0.3904
N10270 X-5.7307 Y-0.3912
N10275 X-5.7327 Y-0.3924
N10280 X-5.7348 Y-0.3938
N10285 X-5.7368 Y-0.3955
N10290 X-5.7388 Y-0.3974
N10295 X-5.7404 Y-0.3992
N10300 X-5.7418 Y-0.401
N10305 X-5.7433 Y-0.4035
N10310 X-5.7446 Y-0.4059
N10315 X-5.7455 Y-0.4084
N10320 X-5.7463 Y-0.4108
N10325 X-5.7468 Y-0.4133
N10330 X-5.7472 Y-0.4157
N10335 X-5.7474 Y-0.4206
N10340 X-5.7475 Y-0.4304
N10345 Y-0.4402
N10350 X-5.7474 Y-0.45
N10355 X-5.747 Y-0.4549
N10360 X-5.7465 Y-0.4573
N10365 X-5.7458 Y-0.4598
N10370 X-5.7449 Y-0.4622
N10375 X-5.7438 Y-0.4647
N10380 X-5.7431 Y-0.4659
N10385 X-5.7424 Y-0.4671
N10390 X-5.7406 Y-0.4696
N10395 X-5.7388 Y-0.4716
N10400 X-5.7364 Y-0.4739
N10405 X-5.7339 Y-0.4758
N10410 X-5.7327 Y-0.4766
N10415 X-5.7315 Y-0.4773
N10420 X-5.729 Y-0.4786
N10425 X-5.7271 Y-0.4794
N10430 X-5.7251 Y-0.48
N10435 X-5.7232 Y-0.4805
N10440 X-5.7193 Y-0.4812
N10445 X-5.7183 Y-0.4814
N10450 X-5.7182
N10455 X-5.7168
N10460 X-5.7144 Y-0.4815
N10465 X-5.3373
N10470 X-5.3275 Y-0.4817
N10475 X-5.3177 Y-0.4823
N10480 X-5.3079 Y-0.4835
N10485 X-5.2981 Y-0.4852
N10490 X-5.2883 Y-0.4874
N10495 X-5.2819 Y-0.4892
N10500 X-5.2785 Y-0.4902
N10505 X-5.2687 Y-0.4936
N10510 X-5.2589 Y-0.4976
N10515 X-5.256 Y-0.499
N10520 X-5.2491 Y-0.5023
N10525 X-5.2393 Y-0.5077
N10530 X-5.2376 Y-0.5088
N10535 X-5.2295 Y-0.514
N10540 X-5.2231 Y-0.5186
N10545 X-5.2198 Y-0.5211
N10550 X-5.211 Y-0.5283
N10555 X-5.21 Y-0.5293
N10560 X-5.2007 Y-0.5381
N10565 X-5.2002 Y-0.5387
N10570 X-5.1918 Y-0.5479
N10575 X-5.1904 Y-0.5497
N10580 X-5.1841 Y-0.5577
N10585 X-5.1806 Y-0.5626
N10590 X-5.1773 Y-0.5675
N10595 X-5.1714 Y-0.5773
N10600 X-5.1708 Y-0.5785
N10605 X-5.1663 Y-0.5871
N10610 X-5.164 Y-0.5915
N10615 X-5.1626 Y-0.5937
N10620 X-5.1618 Y-0.5948
N10625 X-5.161 Y-0.5959
N10630 X-5.1601 Y-0.5969
N10635 X-5.1579 Y-0.5992
N10640 X-5.1556 Y-0.601
N10645 X-5.1545 Y-0.6018
N10650 X-5.1534 Y-0.6026
N10655 X-5.1512 Y-0.6038
N10660 X-5.1471 Y-0.6056
N10665 X-5.1451 Y-0.6062
N10670 X-5.1431 Y-0.6067
N10675 X-5.1414 Y-0.607
N10680 X-5.1365 Y-0.6074
N10685 X-5.1316 Y-0.6075
N10690 X-3.5615
N10695 G3 X-3.524 Y-0.57 I0. J0.0375 F2.
N10700 X-3.5243 Y-0.5658 I-0.0375 J0. F15.
N10705 G1 X-3.5429 Y-0.3992
N10710 G3 X-3.6958 Y-0.328 I-0.0982 J-0.011
N10715 X-3.6969 Y-0.3287 I0.0547 J-0.0822 F2.
N10720 X-3.5852 Y-0.4917 Z-1.0009 I0.0558 J-0.0815
N10725 X-3.6969 Y-0.3287 Z-1.0117 I-0.0558 J0.0815
N10730 X-3.5852 Y-0.4917 Z-1.0225 I0.0558 J-0.0815
N10735 X-3.6969 Y-0.3287 Z-1.0334 I-0.0558 J0.0815
N10740 X-3.5852 Y-0.4917 Z-1.0442 I0.0558 J-0.0815
N10745 X-3.6969 Y-0.3287 Z-1.055 I-0.0558 J0.0815
N10750 X-3.5852 Y-0.4917 Z-1.0658 I0.0558 J-0.0815
N10755 X-3.6969 Y-0.3287 Z-1.0767 I-0.0558 J0.0815
N10760 X-3.7398 Y-0.4089 Z-1.08 I0.0558 J-0.0815
N10765 Y-0.4102 I0.0988 J-0.0013
N10770 G1 Y-0.4292
N10775 G3 X-3.5615 Y-0.6075 I0.1783 J0.
N10780 G1 X-3.496 F15.
N10785 X-3.4862 Y-0.6074
N10790 X-3.4819 Y-0.6073
N10795 X-3.4797 Y-0.6071
N10800 X-3.4776 Y-0.6067
N10805 X-3.4764 Y-0.6064
N10810 X-3.474 Y-0.6057
N10815 X-3.4715 Y-0.6048
N10820 X-3.4691 Y-0.6036
N10825 X-3.4678 Y-0.6029
N10830 X-3.4666 Y-0.6022
N10835 X-3.4636 Y-0.5999
N10840 X-3.4621 Y-0.5985
N10845 X-3.4605 Y-0.5969
N10850 X-3.4585 Y-0.5943
N10855 X-3.4568 Y-0.5917
N10860 X-3.4556 Y-0.5894
N10865 X-3.4546 Y-0.5871
N10870 X-3.4538 Y-0.5847
N10875 X-3.4533 Y-0.5822
N10880 X-3.4529 Y-0.5798
N10885 X-3.4527 Y-0.5773
N10890 X-3.4525 Y-0.5675
N10895 Y-0.3325
N10900 X-3.4527 Y-0.3227
N10905 X-3.4529 Y-0.3202
N10910 X-3.4533 Y-0.3178
N10915 X-3.4538 Y-0.3153
N10920 X-3.4546 Y-0.3129
N10925 X-3.4556 Y-0.3106
N10930 X-3.4568 Y-0.3083
N10935 X-3.4585 Y-0.3057
N10940 X-3.4605 Y-0.3031
N10945 X-3.4621 Y-0.3015
N10950 X-3.4636 Y-0.3001
N10955 X-3.4666 Y-0.2978
N10960 X-3.4678 Y-0.2971
N10965 X-3.4691 Y-0.2964
N10970 X-3.4715 Y-0.2952
N10975 X-3.474 Y-0.2943
N10980 X-3.4764 Y-0.2936
N10985 X-3.4776 Y-0.2933
N10990 X-3.4797 Y-0.2929
N10995 X-3.4819 Y-0.2927
N11000 X-3.4862 Y-0.2926
N11005 X-3.496 Y-0.2925
N11010 X-5.1414
N11015 X-5.1512
N11020 X-5.156 Y-0.2927
N11025 X-5.1584 Y-0.2929
N11030 X-5.1608 Y-0.2933
N11035 X-5.161
N11040 X-5.1634 Y-0.294
N11045 X-5.1659 Y-0.2948
N11050 X-5.1683 Y-0.2959
N11055 X-5.1708 Y-0.2972
N11060 X-5.1725 Y-0.2984
N11065 X-5.1743 Y-0.2997
N11070 X-5.1761 Y-0.3013
N11075 X-5.1778 Y-0.3031
N11080 X-5.1806 Y-0.3066
N11085 X-5.1853 Y-0.3129
N11090 X-5.1904 Y-0.3193
N11095 X-5.1932 Y-0.3227
N11100 X-5.2002 Y-0.3303
N11105 X-5.2023 Y-0.3325
N11110 X-5.21 Y-0.3397
N11115 X-5.2129 Y-0.3423
N11120 X-5.2198 Y-0.3479
N11125 X-5.2253 Y-0.3521
N11130 X-5.2295 Y-0.355
N11135 X-5.2393 Y-0.3613
N11140 X-5.2404 Y-0.3619
N11145 X-5.2491 Y-0.3667
N11150 X-5.2589 Y-0.3714
N11155 X-5.2596 Y-0.3717
N11160 X-5.2687 Y-0.3754
N11165 X-5.2785 Y-0.3788
N11170 X-5.2877 Y-0.3814
N11175 X-5.2883 Y-0.3816
N11180 X-5.2981 Y-0.3838
N11185 X-5.3079 Y-0.3855
N11190 X-5.3177 Y-0.3867
N11195 X-5.3275 Y-0.3873
N11200 X-5.3373 Y-0.3875
N11205 X-5.7095
N11210 X-5.7144
N11215 X-5.7185 Y-0.3877
N11220 X-5.7186
N11225 X-5.7193 Y-0.3878
N11230 X-5.7242 Y-0.3887
N11235 X-5.7266 Y-0.3894
N11240 X-5.729 Y-0.3904
N11245 X-5.7307 Y-0.3912
N11250 X-5.7327 Y-0.3924
N11255 X-5.7348 Y-0.3938
N11260 X-5.7368 Y-0.3955
N11265 X-5.7388 Y-0.3974
N11270 X-5.7404 Y-0.3992
N11275 X-5.7418 Y-0.401
N11280 X-5.7433 Y-0.4035
N11285 X-5.7446 Y-0.4059
N11290 X-5.7455 Y-0.4084
N11295 X-5.7463 Y-0.4108
N11300 X-5.7468 Y-0.4133
N11305 X-5.7472 Y-0.4157
N11310 X-5.7474 Y-0.4206
N11315 X-5.7475 Y-0.4304
N11320 Y-0.4402
N11325 X-5.7474 Y-0.45
N11330 X-5.747 Y-0.4549
N11335 X-5.7465 Y-0.4573
N11340 X-5.7458 Y-0.4598
N11345 X-5.7449 Y-0.4622
N11350 X-5.7438 Y-0.4647
N11355 X-5.7431 Y-0.4659
N11360 X-5.7424 Y-0.4671
N11365 X-5.7406 Y-0.4696
N11370 X-5.7388 Y-0.4716
N11375 X-5.7364 Y-0.4739
N11380 X-5.7339 Y-0.4758
N11385 X-5.7327 Y-0.4766
N11390 X-5.7315 Y-0.4773
N11395 X-5.729 Y-0.4786
N11400 X-5.7271 Y-0.4794
N11405 X-5.7251 Y-0.48
N11410 X-5.7232 Y-0.4805
N11415 X-5.7193 Y-0.4812
N11420 X-5.7186 Y-0.4813
N11425 X-5.7185
N11430 X-5.7144 Y-0.4815
N11435 X-5.7095
N11440 X-5.3373
N11445 X-5.3275 Y-0.4817
N11450 X-5.3177 Y-0.4823
N11455 X-5.3079 Y-0.4835
N11460 X-5.2981 Y-0.4852
N11465 X-5.2883 Y-0.4874
N11470 X-5.2819 Y-0.4892
N11475 X-5.2785 Y-0.4902
N11480 X-5.2687 Y-0.4936
N11485 X-5.2589 Y-0.4976
N11490 X-5.256 Y-0.499
N11495 X-5.2491 Y-0.5023
N11500 X-5.2393 Y-0.5077
N11505 X-5.2376 Y-0.5088
N11510 X-5.2295 Y-0.514
N11515 X-5.2231 Y-0.5186
N11520 X-5.2198 Y-0.5211
N11525 X-5.211 Y-0.5283
N11530 X-5.21 Y-0.5293
N11535 X-5.2007 Y-0.5381
N11540 X-5.2002 Y-0.5387
N11545 X-5.1918 Y-0.5479
N11550 X-5.1904 Y-0.5497
N11555 X-5.1841 Y-0.5577
N11560 X-5.1806 Y-0.5626
N11565 X-5.1773 Y-0.5675
N11570 X-5.1714 Y-0.5773
N11575 X-5.1708 Y-0.5785
N11580 X-5.1663 Y-0.5871
N11585 X-5.164 Y-0.5915
N11590 X-5.1626 Y-0.5937
N11595 X-5.1618 Y-0.5948
N11600 X-5.161 Y-0.5959
N11605 X-5.1601 Y-0.5969
N11610 X-5.1579 Y-0.5992
N11615 X-5.1556 Y-0.601
N11620 X-5.1545 Y-0.6018
N11625 X-5.1534 Y-0.6026
N11630 X-5.1512 Y-0.6038
N11635 X-5.1471 Y-0.6056
N11640 X-5.1451 Y-0.6062
N11645 X-5.1431 Y-0.6067
N11650 X-5.1414 Y-0.607
N11655 X-5.1365 Y-0.6074
N11660 X-5.1316 Y-0.6075
N11665 X-3.5615
N11670 G3 X-3.524 Y-0.57 I0. J0.0375 F2.
N11675 X-3.5243 Y-0.5658 I-0.0375 J0. F15.
N11680 G1 X-3.5429 Y-0.3992
N11685 G3 X-3.6958 Y-0.328 I-0.0982 J-0.011
N11690 X-3.6969 Y-0.3287 I0.0547 J-0.0822 F2.
N11695 X-3.5852 Y-0.4917 Z-1.0909 I0.0558 J-0.0815
N11700 X-3.6969 Y-0.3287 Z-1.1017 I-0.0558 J0.0815
N11705 X-3.5852 Y-0.4917 Z-1.1125 I0.0558 J-0.0815
N11710 X-3.6969 Y-0.3287 Z-1.1234 I-0.0558 J0.0815
N11715 X-3.5852 Y-0.4917 Z-1.1342 I0.0558 J-0.0815
N11720 X-3.6969 Y-0.3287 Z-1.145 I-0.0558 J0.0815
N11725 X-3.5852 Y-0.4917 Z-1.1558 I0.0558 J-0.0815
N11730 X-3.6969 Y-0.3287 Z-1.1667 I-0.0558 J0.0815
N11735 X-3.7398 Y-0.4089 Z-1.17 I0.0558 J-0.0815
N11740 Y-0.4102 I0.0988 J-0.0013
N11745 G1 Y-0.4292
N11750 G3 X-3.5615 Y-0.6075 I0.1783 J0.
N11755 G1 X-3.496 F15.
N11760 X-3.4862 Y-0.6074
N11765 X-3.4819 Y-0.6073
N11770 X-3.4797 Y-0.6071
N11775 X-3.4776 Y-0.6067
N11780 X-3.4764 Y-0.6064
N11785 X-3.474 Y-0.6057
N11790 X-3.4715 Y-0.6048
N11795 X-3.4691 Y-0.6036
N11800 X-3.4678 Y-0.6029
N11805 X-3.4666 Y-0.6022
N11810 X-3.4636 Y-0.5999
N11815 X-3.4621 Y-0.5985
N11820 X-3.4605 Y-0.5969
N11825 X-3.4585 Y-0.5943
N11830 X-3.4568 Y-0.5917
N11835 X-3.4556 Y-0.5894
N11840 X-3.4546 Y-0.5871
N11845 X-3.4538 Y-0.5847
N11850 X-3.4533 Y-0.5822
N11855 X-3.4529 Y-0.5798
N11860 X-3.4527 Y-0.5773
N11865 X-3.4525 Y-0.5675
N11870 Y-0.3325
N11875 X-3.4527 Y-0.3227
N11880 X-3.4529 Y-0.3202
N11885 X-3.4533 Y-0.3178
N11890 X-3.4538 Y-0.3153
N11895 X-3.4546 Y-0.3129
N11900 X-3.4556 Y-0.3106
N11905 X-3.4568 Y-0.3083
N11910 X-3.4585 Y-0.3057
N11915 X-3.4605 Y-0.3031
N11920 X-3.4621 Y-0.3015
N11925 X-3.4636 Y-0.3001
N11930 X-3.4666 Y-0.2978
N11935 X-3.4678 Y-0.2971
N11940 X-3.4691 Y-0.2964
N11945 X-3.4715 Y-0.2952
N11950 X-3.474 Y-0.2943
N11955 X-3.4764 Y-0.2936
N11960 X-3.4776 Y-0.2933
N11965 X-3.4797 Y-0.2929
N11970 X-3.4819 Y-0.2927
N11975 X-3.4862 Y-0.2926
N11980 X-3.496 Y-0.2925
N11985 X-5.1414
N11990 X-5.1512
N11995 X-5.156 Y-0.2927
N12000 X-5.1584 Y-0.2929
N12005 X-5.1608 Y-0.2933
N12010 X-5.161
N12015 X-5.1634 Y-0.294
N12020 X-5.1659 Y-0.2948
N12025 X-5.1683 Y-0.2959
N12030 X-5.1708 Y-0.2972
N12035 X-5.1725 Y-0.2984
N12040 X-5.1743 Y-0.2997
N12045 X-5.1761 Y-0.3013
N12050 X-5.1778 Y-0.3031
N12055 X-5.1806 Y-0.3066
N12060 X-5.1853 Y-0.3129
N12065 X-5.1904 Y-0.3193
N12070 X-5.1932 Y-0.3227
N12075 X-5.2002 Y-0.3303
N12080 X-5.2023 Y-0.3325
N12085 X-5.21 Y-0.3397
N12090 X-5.2129 Y-0.3423
N12095 X-5.2198 Y-0.3479
N12100 X-5.2253 Y-0.3521
N12105 X-5.2295 Y-0.355
N12110 X-5.2393 Y-0.3613
N12115 X-5.2404 Y-0.3619
N12120 X-5.2491 Y-0.3667
N12125 X-5.2589 Y-0.3714
N12130 X-5.2596 Y-0.3717
N12135 X-5.2687 Y-0.3754
N12140 X-5.2785 Y-0.3788
N12145 X-5.2877 Y-0.3814
N12150 X-5.2883 Y-0.3816
N12155 X-5.2981 Y-0.3838
N12160 X-5.3079 Y-0.3855
N12165 X-5.3177 Y-0.3867
N12170 X-5.3275 Y-0.3873
N12175 X-5.3373 Y-0.3875
N12180 X-5.7095
N12185 X-5.7144
N12190 X-5.7186 Y-0.3877
N12195 X-5.7189
N12200 X-5.7193 Y-0.3878
N12205 X-5.7242 Y-0.3887
N12210 X-5.7266 Y-0.3894
N12215 X-5.729 Y-0.3904
N12220 X-5.7307 Y-0.3912
N12225 X-5.7327 Y-0.3924
N12230 X-5.7348 Y-0.3938
N12235 X-5.7368 Y-0.3955
N12240 X-5.7388 Y-0.3974
N12245 X-5.7404 Y-0.3992
N12250 X-5.7418 Y-0.401
N12255 X-5.7433 Y-0.4035
N12260 X-5.7446 Y-0.4059
N12265 X-5.7455 Y-0.4084
N12270 X-5.7463 Y-0.4108
N12275 X-5.7468 Y-0.4133
N12280 X-5.7472 Y-0.4157
N12285 X-5.7474 Y-0.4206
N12290 X-5.7475 Y-0.4304
N12295 Y-0.4402
N12300 X-5.7474 Y-0.45
N12305 X-5.747 Y-0.4549
N12310 X-5.7465 Y-0.4573
N12315 X-5.7458 Y-0.4598
N12320 X-5.7449 Y-0.4622
N12325 X-5.7438 Y-0.4647
N12330 X-5.7431 Y-0.4659
N12335 X-5.7424 Y-0.4671
N12340 X-5.7406 Y-0.4696
N12345 X-5.7388 Y-0.4716
N12350 X-5.7364 Y-0.4739
N12355 X-5.7352 Y-0.4749
N12360 X-5.7339 Y-0.4758
N12365 X-5.7315 Y-0.4773
N12370 X-5.7303 Y-0.478
N12375 X-5.729 Y-0.4786
N12380 X-5.7271 Y-0.4794
N12385 X-5.7251 Y-0.48
N12390 X-5.7232 Y-0.4805
N12395 X-5.7193 Y-0.4812
N12400 X-5.7189 Y-0.4813
N12405 X-5.7186
N12410 X-5.7144 Y-0.4815
N12415 X-5.7095
N12420 X-5.3373
N12425 X-5.3275 Y-0.4817
N12430 X-5.3177 Y-0.4823
N12435 X-5.3079 Y-0.4835
N12440 X-5.2981 Y-0.4852
N12445 X-5.2883 Y-0.4874
N12450 X-5.2819 Y-0.4892
N12455 X-5.2785 Y-0.4902
N12460 X-5.2687 Y-0.4936
N12465 X-5.2589 Y-0.4976
N12470 X-5.256 Y-0.499
N12475 X-5.2491 Y-0.5023
N12480 X-5.2393 Y-0.5077
N12485 X-5.2376 Y-0.5088
N12490 X-5.2295 Y-0.514
N12495 X-5.2231 Y-0.5186
N12500 X-5.2198 Y-0.5211
N12505 X-5.211 Y-0.5283
N12510 X-5.21 Y-0.5293
N12515 X-5.2007 Y-0.5381
N12520 X-5.2002 Y-0.5387
N12525 X-5.1918 Y-0.5479
N12530 X-5.1904 Y-0.5497
N12535 X-5.1841 Y-0.5577
N12540 X-5.1806 Y-0.5626
N12545 X-5.1773 Y-0.5675
N12550 X-5.1714 Y-0.5773
N12555 X-5.1708 Y-0.5785
N12560 X-5.1663 Y-0.5871
N12565 X-5.164 Y-0.5915
N12570 X-5.1626 Y-0.5937
N12575 X-5.1618 Y-0.5948
N12580 X-5.161 Y-0.5959
N12585 X-5.1601 Y-0.5969
N12590 X-5.1579 Y-0.5992
N12595 X-5.1556 Y-0.601
N12600 X-5.1545 Y-0.6018
N12605 X-5.1534 Y-0.6026
N12610 X-5.1512 Y-0.6038
N12615 X-5.1471 Y-0.6056
N12620 X-5.1451 Y-0.6062
N12625 X-5.1431 Y-0.6067
N12630 X-5.1414 Y-0.607
N12635 X-5.1365 Y-0.6074
N12640 X-5.1316 Y-0.6075
N12645 X-3.5615
N12650 G3 X-3.524 Y-0.57 I0. J0.0375 F2.
N12655 X-3.5243 Y-0.5658 I-0.0375 J0. F15.
N12660 G1 X-3.5429 Y-0.3992
N12665 G3 X-3.7392 Y-0.4212 I-0.0982 J-0.011
N12670 X-3.6076 Y-0.5031 I0.0982 J0.011
N12675 X-3.6063 Y-0.5027 I-0.0335 J0.0929 F2.
N12680 X-3.6758 Y-0.3178 Z-1.1809 I-0.0347 J0.0925
N12685 X-3.6063 Y-0.5027 Z-1.1917 I0.0347 J-0.0925
N12690 X-3.6758 Y-0.3178 Z-1.2025 I-0.0347 J0.0925
N12695 X-3.6063 Y-0.5027 Z-1.2134 I0.0347 J-0.0925
N12700 X-3.6758 Y-0.3178 Z-1.2242 I-0.0347 J0.0925
N12705 X-3.6063 Y-0.5027 Z-1.235 I0.0347 J-0.0925
N12710 X-3.6758 Y-0.3178 Z-1.2458 I-0.0347 J0.0925
N12715 X-3.7398 Y-0.4089 Z-1.25 I0.0347 J-0.0925
N12720 Y-0.4102 I0.0988 J-0.0013
N12725 G1 Y-0.4292
N12730 G3 X-3.5615 Y-0.6075 I0.1783 J0.
N12735 G1 X-3.496 F15.
N12740 X-3.4862 Y-0.6074
N12745 X-3.4819 Y-0.6073
N12750 X-3.4797 Y-0.6071
N12755 X-3.4776 Y-0.6067
N12760 X-3.4764 Y-0.6064
N12765 X-3.474 Y-0.6057
N12770 X-3.4715 Y-0.6048
N12775 X-3.4691 Y-0.6036
N12780 X-3.4678 Y-0.6029
N12785 X-3.4666 Y-0.6022
N12790 X-3.4636 Y-0.5999
N12795 X-3.4621 Y-0.5985
N12800 X-3.4605 Y-0.5969
N12805 X-3.4585 Y-0.5943
N12810 X-3.4568 Y-0.5917
N12815 X-3.4556 Y-0.5894
N12820 X-3.4546 Y-0.5871
N12825 X-3.4538 Y-0.5847
N12830 X-3.4533 Y-0.5822
N12835 X-3.4529 Y-0.5798
N12840 X-3.4527 Y-0.5773
N12845 X-3.4525 Y-0.5675
N12850 Y-0.3325
N12855 X-3.4527 Y-0.3227
N12860 X-3.4529 Y-0.3202
N12865 X-3.4533 Y-0.3178
N12870 X-3.4538 Y-0.3153
N12875 X-3.4546 Y-0.3129
N12880 X-3.4556 Y-0.3106
N12885 X-3.4568 Y-0.3083
N12890 X-3.4585 Y-0.3057
N12895 X-3.4605 Y-0.3031
N12900 X-3.4621 Y-0.3015
N12905 X-3.4636 Y-0.3001
N12910 X-3.4666 Y-0.2978
N12915 X-3.4678 Y-0.2971
N12920 X-3.4691 Y-0.2964
N12925 X-3.4715 Y-0.2952
N12930 X-3.474 Y-0.2943
N12935 X-3.4764 Y-0.2936
N12940 X-3.4776 Y-0.2933
N12945 X-3.4797 Y-0.2929
N12950 X-3.4819 Y-0.2927
N12955 X-3.4862 Y-0.2926
N12960 X-3.496 Y-0.2925
N12965 X-5.1414
N12970 X-5.1512
N12975 X-5.156 Y-0.2927
N12980 X-5.1584 Y-0.2929
N12985 X-5.1608 Y-0.2933
N12990 X-5.161
N12995 X-5.1634 Y-0.294
N13000 X-5.1659 Y-0.2948
N13005 X-5.1683 Y-0.2959
N13010 X-5.1708 Y-0.2972
N13015 X-5.1725 Y-0.2984
N13020 X-5.1743 Y-0.2997
N13025 X-5.1761 Y-0.3013
N13030 X-5.1778 Y-0.3031
N13035 X-5.1806 Y-0.3066
N13040 X-5.1853 Y-0.3129
N13045 X-5.1904 Y-0.3193
N13050 X-5.1932 Y-0.3227
N13055 X-5.2002 Y-0.3303
N13060 X-5.2023 Y-0.3325
N13065 X-5.21 Y-0.3397
N13070 X-5.2129 Y-0.3423
N13075 X-5.2198 Y-0.3479
N13080 X-5.2253 Y-0.3521
N13085 X-5.2295 Y-0.355
N13090 X-5.2393 Y-0.3613
N13095 X-5.2404 Y-0.3619
N13100 X-5.2491 Y-0.3667
N13105 X-5.2589 Y-0.3714
N13110 X-5.2596 Y-0.3717
N13115 X-5.2687 Y-0.3754
N13120 X-5.2785 Y-0.3788
N13125 X-5.2877 Y-0.3814
N13130 X-5.2883 Y-0.3816
N13135 X-5.2981 Y-0.3838
N13140 X-5.3079 Y-0.3855
N13145 X-5.3177 Y-0.3867
N13150 X-5.3275 Y-0.3873
N13155 X-5.3373 Y-0.3875
N13160 X-5.7095
N13165 X-5.7144 Y-0.3876
N13170 X-5.7193 Y-0.3878
N13175 X-5.7217 Y-0.3882
N13180 X-5.7242 Y-0.3887
N13185 X-5.7266 Y-0.3894
N13190 X-5.729 Y-0.3904
N13195 X-5.7307 Y-0.3912
N13200 X-5.7327 Y-0.3924
N13205 X-5.7348 Y-0.3938
N13210 X-5.7368 Y-0.3955
N13215 X-5.7378 Y-0.3964
N13220 X-5.7388 Y-0.3974
N13225 X-5.7404 Y-0.3992
N13230 X-5.7418 Y-0.401
N13235 X-5.7433 Y-0.4035
N13240 X-5.7446 Y-0.4059
N13245 X-5.7455 Y-0.4084
N13250 X-5.7463 Y-0.4108
N13255 X-5.7468 Y-0.4133
N13260 X-5.7472 Y-0.4157
N13265 X-5.7474 Y-0.4206
N13270 X-5.7475 Y-0.4304
N13275 Y-0.4402
N13280 X-5.7474 Y-0.45
N13285 X-5.747 Y-0.4549
N13290 X-5.7465 Y-0.4573
N13295 X-5.7458 Y-0.4598
N13300 X-5.7449 Y-0.4622
N13305 X-5.7438 Y-0.4647
N13310 X-5.7423 Y-0.4671
N13315 X-5.7415 Y-0.4684
N13320 X-5.7406 Y-0.4696
N13325 X-5.7388 Y-0.4716
N13330 X-5.7376 Y-0.4728
N13335 X-5.7364 Y-0.4739
N13340 X-5.7339 Y-0.4758
N13345 X-5.7315 Y-0.4773
N13350 X-5.729 Y-0.4786
N13355 X-5.7271 Y-0.4794
N13360 X-5.7251 Y-0.48
N13365 X-5.7232 Y-0.4805
N13370 X-5.7193 Y-0.4812
N13375 X-5.7144 Y-0.4814
N13380 X-5.7095 Y-0.4815
N13385 X-5.3373
N13390 X-5.3275 Y-0.4817
N13395 X-5.3177 Y-0.4823
N13400 X-5.3079 Y-0.4835
N13405 X-5.2981 Y-0.4852
N13410 X-5.2883 Y-0.4874
N13415 X-5.2819 Y-0.4892
N13420 X-5.2785 Y-0.4902
N13425 X-5.2687 Y-0.4936
N13430 X-5.2589 Y-0.4976
N13435 X-5.256 Y-0.499
N13440 X-5.2491 Y-0.5023
N13445 X-5.2393 Y-0.5077
N13450 X-5.2376 Y-0.5088
N13455 X-5.2295 Y-0.514
N13460 X-5.2231 Y-0.5186
N13465 X-5.2198 Y-0.5211
N13470 X-5.211 Y-0.5283
N13475 X-5.21 Y-0.5293
N13480 X-5.2007 Y-0.5381
N13485 X-5.2002 Y-0.5387
N13490 X-5.1918 Y-0.5479
N13495 X-5.1904 Y-0.5497
N13500 X-5.1841 Y-0.5577
N13505 X-5.1806 Y-0.5626
N13510 X-5.1773 Y-0.5675
N13515 X-5.1714 Y-0.5773
N13520 X-5.1708 Y-0.5785
N13525 X-5.1663 Y-0.5871
N13530 X-5.164 Y-0.5915
N13535 X-5.1626 Y-0.5937
N13540 X-5.1618 Y-0.5948
N13545 X-5.161 Y-0.5959
N13550 X-5.1601 Y-0.5969
N13555 X-5.1579 Y-0.5992
N13560 X-5.1556 Y-0.601
N13565 X-5.1545 Y-0.6018
N13570 X-5.1534 Y-0.6026
N13575 X-5.1512 Y-0.6038
N13580 X-5.1471 Y-0.6056
N13585 X-5.1451 Y-0.6062
N13590 X-5.1431 Y-0.6067
N13595 X-5.1414 Y-0.607
N13600 X-5.1365 Y-0.6074
N13605 X-5.1316 Y-0.6075
N13610 X-3.5615
N13615 G3 X-3.5241 Y-0.5684 I0. J0.0375 F2.
N13620 G0 Z0.6
N13630 M9
N13635 G53 Z0.
N13640 M30
%
