%
(1001)
(ENGRAVING BIT 12K RPM 8 MINUTES)
(T4  D=0.125 CR=0. TAPER=20DEG - ZMIN=-0.012 - CHAMFER MILL)
N10 G90 G94 G17 G91.1
N15 G20
N20 G53 G0 Z0.
(ENGRAVE2)
N25 M9
N30 T4 M6
N35 S12000 M3
N40 G54
N45 M8
N55 G0 X0.0369 Y-0.1704
N60 G43 Z0.3 H4
N65 G0 Z0.05
N70 G1 Z0. F5.
N75 X0.0386 Y-0.1718 Z-0.0042 F7.5
N80 X0.0409 Y-0.1737 Z-0.01
N85 X0.042 Y-0.1736
N90 X0.0443 Y-0.1705 Z-0.0021
N95 X0.0449 Y-0.1697 Z0.
N100 X0.0443 Y-0.1705 Z-0.0021
N105 X0.042 Y-0.1736 Z-0.01
N110 Y-0.1737
N115 X0.0421 Y-0.174
N120 Y-0.1741
N125 X0.0422 Y-0.1745
N130 X0.0423 Y-0.1749
N135 Y-0.175
N140 X0.0425 Y-0.1753
N145 Y-0.1754
N150 X0.0426 Y-0.1757
N155 X0.0427 Y-0.1758
N160 X0.0428 Y-0.1761
N165 Y-0.1762
N170 X0.043 Y-0.1765
N175 Y-0.1766
N180 X0.0431 Y-0.1769
N185 X0.0432 Y-0.177
N190 X0.0433 Y-0.1773
N195 Y-0.1774
N200 X0.0435 Y-0.1777
N205 X0.0437 Y-0.178
N210 Y-0.1781
N215 X0.0438 Y-0.1784
N220 X0.0439
N225 X0.044 Y-0.1787
N230 X0.0442 Y-0.179
N235 Y-0.1791
N240 X0.0444 Y-0.1794
N245 G3 X0.0448 Y-0.18 I0.0032 J0.0017
N250 G1 X0.045 Y-0.1802
N255 Y-0.1803
N260 X0.0453 Y-0.1805
N265 X0.0455 Y-0.1808
N270 X0.0458 Y-0.1811
N275 X0.046 Y-0.1814
N280 X0.0461
N285 X0.0463 Y-0.1817
N290 X0.0466 Y-0.182
N295 X0.0469 Y-0.1823
N300 X0.0472 Y-0.1826
N305 X0.0473
N310 X0.0475 Y-0.1829
N315 X0.0476
N320 X0.0479 Y-0.1832
N325 X0.048
N330 X0.0482 Y-0.1834
N335 X0.0483 Y-0.1835
N340 X0.0486 Y-0.1837
N345 X0.0487 Y-0.1838
N350 X0.049 Y-0.184
N355 X0.0491
N360 X0.0493 Y-0.1842
N365 X0.0494 Y-0.1843
N370 X0.0497 Y-0.1844
N375 X0.0498 Y-0.1845
N380 X0.0501 Y-0.1847
N385 X0.0504 Y-0.1849
N390 X0.0505
N395 X0.0508 Y-0.1851
N400 X0.0511 Y-0.1852
N405 X0.0512 Y-0.1853
N410 X0.0515 Y-0.1854
N415 X0.0518 Y-0.1856
N420 X0.0522 Y-0.1857
N425 Y-0.1858
N430 X0.0525 Y-0.1859
N435 G3 X0.0529 Y-0.1861 I0.0016 J0.0033
N440 G1 X0.0533 Y-0.1862
N445 X0.0537 Y-0.1864
N450 X0.0541 Y-0.1865
N455 X0.0545 Y-0.1866
N460 Y-0.1867
N465 X0.0549 Y-0.1868
N470 X0.055
N475 X0.0554 Y-0.1869
N480 X0.0558 Y-0.1871
N485 X0.0559
N490 X0.0563 Y-0.1872
N495 X0.0567 Y-0.1873
N500 X0.0568
N505 X0.0572 Y-0.1874
N510 X0.0573 Y-0.1875
N515 X0.0577 Y-0.1876
N520 X0.0578
N525 X0.0582 Y-0.1877
N530 X0.0583
N535 X0.0587
N540 X0.0588 Y-0.1878
N545 X0.0592
N550 X0.0593
N555 X0.0597 Y-0.1879
N560 X0.0598
N565 X0.0602
N570 X0.0607 Y-0.188
N575 X0.0611
N580 X0.0612
N585 X0.0616 Y-0.1881
N590 X0.0621
N595 X0.0625
N600 X0.063
N605 X0.0634
N610 X0.0638 Y-0.1882
N615 X0.0641
N620 X0.0645
N625 X0.0648 Y-0.1881
N630 X0.0652
N635 X0.0656
N640 X0.066
N645 X0.0664
N650 X0.0668 Y-0.188
N655 X0.0672
N660 X0.0676
N665 X0.0677
N670 X0.068 Y-0.1879
N675 X0.0681
N680 X0.0685
N685 X0.0689 Y-0.1878
N690 X0.069
N695 X0.0693 Y-0.1877
N700 X0.0694
N705 X0.0698 Y-0.1876
N710 X0.0702 Y-0.1875
N715 X0.0703
N720 X0.0706 Y-0.1874
N725 X0.0707
N730 X0.071 Y-0.1873
N735 X0.0711
N740 X0.0714 Y-0.1872
N745 X0.0715
N750 X0.0718 Y-0.1871
N755 X0.0719
N760 X0.0722 Y-0.187
N765 X0.0726 Y-0.1869
N770 X0.073 Y-0.1868
N775 X0.0733 Y-0.1867
N780 X0.0737 Y-0.1865
N785 X0.074 Y-0.1864
N790 X0.0743 Y-0.1863
N795 X0.0746 Y-0.1862
N800 X0.0749 Y-0.1861
N805 Y-0.186
N810 X0.0751 Y-0.1859
N815 X0.0752
N820 X0.0754 Y-0.1858
N825 X0.0755
N830 X0.0758 Y-0.1856
N835 X0.0761 Y-0.1855
N840 Y-0.1854
N845 X0.0764 Y-0.1853
N850 X0.0767 Y-0.1851
N855 X0.0768
N860 X0.077 Y-0.1849
N865 X0.0771
N870 X0.0774 Y-0.1847
N875 X0.0777 Y-0.1845
N880 X0.0778 Y-0.1844
N885 X0.078 Y-0.1843
N890 X0.0781 Y-0.1842
N895 X0.0783 Y-0.184
N900 X0.0784
N905 X0.0786 Y-0.1838
N910 X0.0787 Y-0.1837
N915 X0.0789 Y-0.1835
N920 X0.079 Y-0.1834
N925 X0.0792 Y-0.1832
N930 X0.0793
N935 X0.0795 Y-0.183
N940 Y-0.1829
N945 X0.0797 Y-0.1827
N950 X0.0798
N955 X0.08 Y-0.1825
N960 X0.0802 Y-0.1822
N965 X0.0804 Y-0.182
N970 X0.0806 Y-0.1818
N975 X0.0808 Y-0.1815
N980 G3 X0.0812 Y-0.181 I-0.0027 J0.0024
N985 G1 X0.0813 Y-0.1808
N990 X0.0815 Y-0.1806
N995 X0.0816 Y-0.1804
N1000 X0.0818 Y-0.1801
N1005 X0.0819 Y-0.1799
N1010 Y-0.1798
N1015 X0.0821 Y-0.1796
N1020 X0.0822 Y-0.1793
N1025 X0.0823
N1030 X0.0824 Y-0.179
N1035 X0.0825 Y-0.1787
N1040 X0.0826 Y-0.1786
N1045 X0.0827 Y-0.1784
N1050 Y-0.1783
N1055 X0.0828 Y-0.1781
N1060 Y-0.178
N1065 X0.0829 Y-0.1777
N1070 X0.083 Y-0.1776
N1075 Y-0.1774
N1080 X0.0831 Y-0.1772
N1085 Y-0.177
N1090 X0.0832 Y-0.1769
N1095 Y-0.1766
N1100 X0.0833 Y-0.1765
N1105 Y-0.1763
N1110 Y-0.1762
N1115 X0.0834 Y-0.1759
N1120 Y-0.1756
N1125 X0.0835 Y-0.1753
N1130 Y-0.1752
N1135 Y-0.175
N1140 Y-0.1747
N1145 Y-0.1744
N1150 X0.0836
N1155 Y-0.1741
N1160 Y-0.1739
N1165 G3 Y-0.1733 I-0.0036 J0.0003
N1170 G1 Y-0.1731
N1175 Y-0.1728
N1180 X0.0835 Y-0.1726
N1185 Y-0.1725
N1190 Y-0.1723
N1195 Y-0.172
N1200 Y-0.1717
N1205 X0.0834 Y-0.1716
N1210 Y-0.1714
N1215 Y-0.1713
N1220 Y-0.1711
N1225 X0.0833 Y-0.171
N1230 Y-0.1708
N1235 Y-0.1707
N1240 X0.0832 Y-0.1704
N1245 Y-0.1703
N1250 X0.0831 Y-0.1701
N1255 Y-0.1699
N1260 X0.083 Y-0.1697
N1265 Y-0.1696
N1270 X0.0829 Y-0.1694
N1275 X0.0828 Y-0.1692
N1280 Y-0.169
N1285 X0.0827 Y-0.1689
N1290 X0.0826 Y-0.1687
N1295 Y-0.1686
N1300 X0.0825 Y-0.1684
N1305 X0.0824 Y-0.1683
N1310 X0.0823 Y-0.1681
N1315 Y-0.168
N1320 X0.0822 Y-0.1678
N1325 X0.0821 Y-0.1677
N1330 X0.082 Y-0.1675
N1335 Y-0.1674
N1340 X0.0818 Y-0.1672
N1345 X0.0817 Y-0.167
N1350 X0.0815 Y-0.1668
N1355 Y-0.1667
N1360 X0.0814 Y-0.1665
N1365 X0.0813 Y-0.1663
N1370 G3 X0.0808 Y-0.1658 I-0.0031 J-0.002
N1375 G1 X0.0806 Y-0.1655
N1380 X0.0804 Y-0.1653
N1385 X0.0802 Y-0.1651
N1390 X0.0801
N1395 X0.0799 Y-0.1649
N1400 Y-0.1648
N1405 X0.0797 Y-0.1646
N1410 X0.0796
N1415 X0.0794 Y-0.1644
N1420 X0.0792 Y-0.1642
N1425 X0.0791 Y-0.1641
N1430 X0.0789 Y-0.1639
N1435 X0.0788
N1440 X0.0786 Y-0.1637
N1445 X0.0785 Y-0.1636
N1450 X0.0783 Y-0.1634
N1455 X0.0782
N1460 X0.0779 Y-0.1632
N1465 X0.0778 Y-0.1631
N1470 X0.0776 Y-0.163
N1475 X0.0775 Y-0.1629
N1480 X0.0772 Y-0.1628
N1485 Y-0.1627
N1490 X0.0769 Y-0.1626
N1495 X0.0768 Y-0.1625
N1500 X0.0766 Y-0.1624
N1505 X0.0765 Y-0.1623
N1510 X0.0762 Y-0.1622
N1515 X0.0759 Y-0.162
N1520 X0.0756 Y-0.1619
N1525 X0.0755
N1530 X0.0753 Y-0.1617
N1535 X0.0752
N1540 X0.075 Y-0.1616
N1545 X0.0749
N1550 X0.0747 Y-0.1615
N1555 X0.0746
N1560 X0.0744 Y-0.1614
N1565 X0.0743 Y-0.1613
N1570 X0.0741 Y-0.1612
N1575 X0.0738 Y-0.1611
N1580 X0.0735 Y-0.161
N1585 X0.073 Y-0.1609
N1590 X0.0726 Y-0.1607
N1595 X0.0721 Y-0.1606
N1600 X0.0716 Y-0.1604
N1605 X0.0711 Y-0.1603
N1610 X0.0706 Y-0.1601
N1615 X0.0701 Y-0.16
N1620 X0.0697 Y-0.1598
N1625 X0.0696
N1630 X0.0692 Y-0.1597
N1635 X0.0691
N1640 X0.0687 Y-0.1595
N1645 X0.0686
N1650 X0.0682 Y-0.1594
N1655 X0.0681
N1660 X0.0677 Y-0.1593
N1665 X0.0676
N1670 X0.0672 Y-0.1591
N1675 X0.0671
N1680 X0.0667 Y-0.159
N1685 X0.0662 Y-0.1589
N1690 X0.0657 Y-0.1588
N1695 X0.0652 Y-0.1586
N1700 X0.0647 Y-0.1585
N1705 X0.0642 Y-0.1584
N1710 X0.0637 Y-0.1583
N1715 X0.0632 Y-0.1582
N1720 X0.0627 Y-0.158
N1725 X0.0618 Y-0.1578
N1730 X0.0613 Y-0.1577
N1735 X0.0607 Y-0.1576
N1740 X0.0602 Y-0.1574
N1745 X0.0597 Y-0.1573
N1750 X0.0592 Y-0.1572
N1755 X0.0587 Y-0.1571
N1760 X0.0582 Y-0.1569
N1765 X0.0577 Y-0.1568
N1770 X0.0572 Y-0.1566
N1775 X0.0567 Y-0.1565
N1780 X0.0562 Y-0.1564
N1785 X0.0557 Y-0.1562
N1790 X0.0552 Y-0.1561
N1795 X0.0548 Y-0.1559
N1800 X0.0543 Y-0.1557
N1805 X0.0538 Y-0.1556
N1810 X0.0533 Y-0.1554
N1815 X0.0529 Y-0.1552
N1820 X0.0524 Y-0.155
N1825 X0.0519 Y-0.1548
N1830 X0.0514 Y-0.1546
N1835 X0.0509 Y-0.1544
N1840 X0.0504 Y-0.1542
N1845 X0.0501 Y-0.1541
N1850 X0.05 Y-0.154
N1855 X0.0497 Y-0.1538
N1860 X0.0494 Y-0.1536
N1865 X0.049 Y-0.1534
N1870 X0.0488 Y-0.1532
N1875 X0.0485 Y-0.1531
N1880 X0.0482 Y-0.1529
N1885 X0.0479 Y-0.1527
N1890 X0.0477 Y-0.1525
N1895 X0.0475 Y-0.1524
N1900 X0.0472 Y-0.1522
N1905 X0.047 Y-0.152
N1910 X0.0468 Y-0.1518
N1915 X0.0466 Y-0.1517
N1920 X0.0464 Y-0.1515
N1925 X0.0462 Y-0.1512
N1930 X0.046 Y-0.151
N1935 X0.0458 Y-0.1508
N1940 X0.0456 Y-0.1505
N1945 X0.0454 Y-0.1503
N1950 X0.0452 Y-0.15
N1955 X0.0449 Y-0.1497
N1960 X0.0447 Y-0.1494
N1965 Y-0.1493
N1970 X0.0445 Y-0.149
N1975 X0.0444 Y-0.1488
N1980 X0.0442 Y-0.1485
N1985 X0.0441 Y-0.1482
N1990 X0.044 Y-0.1479
N1995 X0.0438 Y-0.1477
N2000 X0.0437 Y-0.1474
N2005 X0.0436 Y-0.1472
N2010 Y-0.147
N2015 X0.0435 Y-0.1467
N2020 X0.0434 Y-0.1465
N2025 Y-0.1463
N2030 X0.0433 Y-0.1461
N2035 Y-0.1458
N2040 X0.0432 Y-0.1456
N2045 Y-0.1453
N2050 X0.0431 Y-0.145
N2055 Y-0.1447
N2060 Y-0.1444
N2065 Y-0.1441
N2070 X0.043 Y-0.1438
N2075 Y-0.1434
N2080 Y-0.1433
N2085 Y-0.1432
N2090 X0.0431 Y-0.1428
N2095 Y-0.1424
N2100 Y-0.142
N2105 X0.0432 Y-0.1417
N2110 Y-0.1414
N2115 Y-0.141
N2120 X0.0433 Y-0.1407
N2125 Y-0.1404
N2130 X0.0434 Y-0.1401
N2135 X0.0435 Y-0.1399
N2140 Y-0.1396
N2145 X0.0436 Y-0.1394
N2150 X0.0437 Y-0.1391
N2155 X0.0438 Y-0.1388
N2160 X0.044 Y-0.1385
N2165 X0.0441 Y-0.1383
N2170 X0.0442 Y-0.138
N2175 X0.0444 Y-0.1377
N2180 X0.0446 Y-0.1373
N2185 X0.0447 Y-0.137
N2190 X0.0449 Y-0.1367
N2195 X0.0451 Y-0.1363
N2200 X0.0452 Y-0.1362
N2205 X0.0453 Y-0.1361
N2210 X0.0455 Y-0.1358
N2215 X0.0458 Y-0.1355
N2220 X0.046 Y-0.1351
N2225 X0.0463 Y-0.1349
N2230 X0.0465 Y-0.1346
N2235 X0.0468 Y-0.1343
N2240 X0.047 Y-0.1341
N2245 X0.0472 Y-0.1338
N2250 X0.0475 Y-0.1336
N2255 X0.0477 Y-0.1334
N2260 X0.0479 Y-0.1332
N2265 X0.0482 Y-0.133
N2270 X0.0484 Y-0.1328
N2275 X0.0487 Y-0.1327
N2280 X0.049 Y-0.1325
N2285 X0.0493 Y-0.1323
N2290 X0.0496 Y-0.1321
N2295 X0.0499 Y-0.1319
N2300 X0.0503 Y-0.1318
N2305 X0.0506 Y-0.1316
N2310 X0.051 Y-0.1314
N2315 X0.0514 Y-0.1312
N2320 X0.0516 Y-0.1311
N2325 X0.0519 Y-0.131
N2330 X0.0523 Y-0.1309
N2335 X0.0528 Y-0.1307
N2340 X0.0533 Y-0.1306
N2345 X0.0537 Y-0.1304
N2350 X0.0542 Y-0.1303
N2355 X0.0546 Y-0.1301
N2360 X0.055 Y-0.13
N2365 X0.0554 Y-0.1299
N2370 X0.0559 Y-0.1298
N2375 X0.0563 Y-0.1297
N2380 X0.0567 Y-0.1296
N2385 X0.0571
N2390 X0.0575 Y-0.1295
N2395 X0.0579
N2400 X0.0584 Y-0.1294
N2405 X0.0588
N2410 X0.0593 Y-0.1293
N2415 X0.0597
N2420 X0.0602
N2425 X0.0607 Y-0.1292
N2430 X0.0612
N2435 X0.0617
N2440 X0.062
N2445 X0.0624
N2450 X0.063
N2455 X0.0635
N2460 X0.064 Y-0.1293
N2465 X0.0645
N2470 X0.065
N2475 X0.0655 Y-0.1294
N2480 X0.066
N2485 X0.0665 Y-0.1295
N2490 X0.0669
N2495 X0.0674 Y-0.1296
N2500 X0.0678 Y-0.1297
N2505 X0.0683
N2510 X0.0687 Y-0.1298
N2515 X0.0691 Y-0.1299
N2520 X0.0696 Y-0.1301
N2525 X0.0701 Y-0.1302
N2530 X0.0705 Y-0.1303
N2535 X0.071 Y-0.1305
N2540 X0.0715 Y-0.1306
N2545 X0.072 Y-0.1308
N2550 X0.0724 Y-0.131
N2555 X0.0729 Y-0.1311
N2560 X0.0732 Y-0.1312
N2565 X0.0735 Y-0.1314
N2570 X0.0739 Y-0.1316
N2575 X0.0743 Y-0.1317
N2580 X0.0746 Y-0.1319
N2585 X0.075 Y-0.1321
N2590 X0.0753 Y-0.1323
N2595 X0.0757 Y-0.1325
N2600 X0.076 Y-0.1327
N2605 X0.0763 Y-0.1329
N2610 X0.0766 Y-0.1331
N2615 X0.0769 Y-0.1333
N2620 X0.0771 Y-0.1335
N2625 X0.0774 Y-0.1337
N2630 X0.0776 Y-0.1339
N2635 X0.0779 Y-0.1341
N2640 X0.0781 Y-0.1344
N2645 X0.0784 Y-0.1346
N2650 X0.0786 Y-0.1349
N2655 X0.0789 Y-0.1352
N2660 X0.0791 Y-0.1355
N2665 X0.0794 Y-0.1359
N2670 X0.0797 Y-0.1362
N2675 X0.0799 Y-0.1365
N2680 X0.08 Y-0.1367
N2685 X0.0801 Y-0.1368
N2690 X0.0803 Y-0.1372
N2695 X0.0805 Y-0.1376
N2700 X0.0807 Y-0.1379
N2705 X0.0809 Y-0.1383
N2710 X0.0811 Y-0.1386
N2715 X0.0813 Y-0.139
N2720 X0.0814 Y-0.1393
N2725 X0.0816 Y-0.1396
N2730 X0.0817 Y-0.14
N2735 X0.0818 Y-0.1403
N2740 X0.0819 Y-0.1406
N2745 X0.082 Y-0.1409
N2750 X0.0821 Y-0.1412
N2755 Y-0.1415
N2760 X0.0839 Y-0.1428 Z-0.0059
N2765 X0.0862 Y-0.1448 Z0.
N2770 X0.0839 Y-0.1428 Z-0.0059
N2775 X0.0821 Y-0.1415 Z-0.01
N2780 X0.081
N2785 X0.0789 Y-0.1444 Z-0.0027
N2790 X0.0781 Y-0.1454 Z0.
N2795 X0.0789 Y-0.1444 Z-0.0027
N2800 X0.081 Y-0.1415 Z-0.01
N2805 Y-0.1414
N2810 X0.0809 Y-0.141
N2815 X0.0808 Y-0.1409
N2820 X0.0807 Y-0.1405
N2825 Y-0.1403
N2830 X0.0805 Y-0.1399
N2835 Y-0.1398
N2840 X0.0803 Y-0.1394
N2845 Y-0.1392
N2850 X0.0801 Y-0.1389
N2855 X0.08 Y-0.1387
N2860 X0.0798 Y-0.1383
N2865 X0.0797 Y-0.1382
N2870 X0.0795 Y-0.1378
N2875 X0.0794 Y-0.1377
N2880 X0.0792 Y-0.1373
N2885 X0.0791 Y-0.1372
N2890 X0.0789 Y-0.1368
N2895 X0.0788 Y-0.1367
N2900 X0.0786 Y-0.1364
N2905 X0.0785 Y-0.1363
N2910 X0.0782 Y-0.1359
N2915 Y-0.1358
N2920 X0.0779 Y-0.1355
N2925 X0.0778
N2930 X0.0776 Y-0.1351
N2935 X0.0775
N2940 X0.0772 Y-0.1347
N2945 X0.0769 Y-0.1344
N2950 X0.0766 Y-0.134
N2955 X0.0762 Y-0.1337
N2960 G3 X0.0755 Y-0.1331 I-0.0027 J-0.0025
N2965 G1 X0.075 Y-0.1328
N2970 X0.0746 Y-0.1325
N2975 X0.0741 Y-0.1323
N2980 X0.0737 Y-0.132
N2985 X0.0736
N2990 X0.0732 Y-0.1317
N2995 X0.0731
N3000 X0.0727 Y-0.1315
N3005 X0.0726
N3010 X0.0722 Y-0.1312
N3015 X0.0721
N3020 X0.0716 Y-0.131
N3025 X0.0715 Y-0.1309
N3030 X0.0711 Y-0.1308
N3035 X0.0709 Y-0.1307
N3040 X0.0705 Y-0.1305
N3045 X0.0703
N3050 X0.0699 Y-0.1303
N3055 X0.0697
N3060 X0.0693 Y-0.1302
N3065 X0.0691 Y-0.1301
N3070 X0.0687 Y-0.13
N3075 X0.0685
N3080 X0.0681 Y-0.1299
N3085 X0.0679
N3090 X0.0675 Y-0.1298
N3095 X0.0674
N3100 X0.0669 Y-0.1297
N3105 X0.0668
N3110 X0.0663 Y-0.1296
N3115 X0.0662
N3120 X0.0657
N3125 X0.0652 Y-0.1295
N3130 X0.0651
N3135 X0.0646
N3140 X0.0641
N3145 X0.064
N3150 X0.0635
N3155 X0.063 Y-0.1294
N3160 X0.0625
N3165 X0.0623
N3170 X0.0618
N3175 X0.0613
N3180 X0.0608 Y-0.1295
N3185 X0.0603
N3190 X0.0602
N3195 X0.0597
N3200 X0.0592
N3205 X0.0591
N3210 X0.0586 Y-0.1296
N3215 X0.0585
N3220 X0.0581
N3225 X0.058
N3230 X0.0575 Y-0.1297
N3235 X0.0574
N3240 X0.0569 Y-0.1298
N3245 X0.0568
N3250 X0.0563 Y-0.1299
N3255 X0.0562
N3260 X0.0557 Y-0.13
N3265 X0.0556
N3270 X0.0551 Y-0.1302
N3275 X0.055
N3280 X0.0545 Y-0.1303
N3285 X0.0544 Y-0.1304
N3290 X0.0539 Y-0.1305
N3295 X0.0538 Y-0.1306
N3300 X0.0533 Y-0.1308
N3305 X0.0532
N3310 X0.0528 Y-0.131
N3315 X0.0527
N3320 X0.0522 Y-0.1312
N3325 Y-0.1313
N3330 X0.0517 Y-0.1315
N3335 X0.0512 Y-0.1317
N3340 Y-0.1318
N3345 X0.0507 Y-0.132
N3350 X0.0502 Y-0.1322
N3355 X0.0498 Y-0.1325
N3360 X0.0493 Y-0.1327
N3365 G3 X0.0486 Y-0.1333 I0.0018 J-0.0032
N3370 G1 X0.0484 Y-0.1335
N3375 X0.0483
N3380 X0.0481 Y-0.1337
N3385 Y-0.1338
N3390 X0.0478 Y-0.134
N3395 X0.0476 Y-0.1343
N3400 X0.0475
N3405 X0.0473 Y-0.1346
N3410 X0.0472
N3415 X0.047 Y-0.1349
N3420 X0.0469
N3425 X0.0467 Y-0.1352
N3430 X0.0466 Y-0.1353
N3435 X0.0464 Y-0.1355
N3440 X0.0463 Y-0.1356
N3445 X0.0461 Y-0.1359
N3450 Y-0.136
N3455 X0.0459 Y-0.1363
N3460 X0.0458 Y-0.1364
N3465 X0.0456 Y-0.1367
N3470 X0.0455 Y-0.1369
N3475 X0.0453 Y-0.1371
N3480 X0.0452 Y-0.1373
N3485 X0.0451 Y-0.1376
N3490 X0.045 Y-0.1378
N3495 X0.0449 Y-0.1381
N3500 X0.0448 Y-0.1383
N3505 X0.0447 Y-0.1386
N3510 Y-0.1387
N3515 X0.0446 Y-0.139
N3520 X0.0445 Y-0.1392
N3525 X0.0444 Y-0.1395
N3530 Y-0.1396
N3535 X0.0443 Y-0.1399
N3540 Y-0.14
N3545 Y-0.1404
N3550 X0.0442
N3555 Y-0.1408
N3560 X0.0441 Y-0.1412
N3565 Y-0.1415
N3570 Y-0.1416
N3575 X0.044 Y-0.1419
N3580 Y-0.1423
N3585 G3 Y-0.1431 I0.0036 J-0.0005
N3590 G1 Y-0.1433
N3595 Y-0.1434
N3600 Y-0.1436
N3605 Y-0.1437
N3610 Y-0.1439
N3615 Y-0.144
N3620 X0.0441 Y-0.1442
N3625 Y-0.1443
N3630 Y-0.1446
N3635 Y-0.1447
N3640 X0.0442 Y-0.1449
N3645 Y-0.145
N3650 Y-0.1453
N3655 X0.0443 Y-0.1454
N3660 Y-0.1456
N3665 Y-0.1458
N3670 X0.0444 Y-0.146
N3675 Y-0.1462
N3680 X0.0445 Y-0.1464
N3685 X0.0446 Y-0.1466
N3690 X0.0447 Y-0.1468
N3695 Y-0.147
N3700 X0.0448 Y-0.1472
N3705 X0.0449 Y-0.1474
N3710 X0.045 Y-0.1477
N3715 X0.0451 Y-0.1478
N3720 X0.0452 Y-0.148
N3725 X0.0453 Y-0.1482
N3730 X0.0454 Y-0.1484
N3735 X0.0455 Y-0.1486
N3740 X0.0457 Y-0.1488
N3745 Y-0.1489
N3750 X0.0459 Y-0.1491
N3755 Y-0.1492
N3760 X0.0461 Y-0.1494
N3765 X0.0462 Y-0.1495
N3770 X0.0463 Y-0.1497
N3775 X0.0464 Y-0.1498
N3780 X0.0466 Y-0.15
N3785 X0.0468 Y-0.1502
N3790 Y-0.1503
N3795 X0.047 Y-0.1505
N3800 X0.0472 Y-0.1507
N3805 X0.0474 Y-0.1509
N3810 G3 X0.0483 Y-0.1516 I0.0027 J0.0024
N3815 G1 X0.0488 Y-0.1519
N3820 X0.0493 Y-0.1522
N3825 X0.0498 Y-0.1525
N3830 X0.0499
N3835 X0.0504 Y-0.1528
N3840 X0.0509 Y-0.153
N3845 X0.051 Y-0.1531
N3850 X0.0515 Y-0.1533
N3855 X0.052 Y-0.1536
N3860 X0.0521
N3865 X0.0526 Y-0.1539
N3870 X0.0527
N3875 X0.0532 Y-0.1541
N3880 X0.0533 Y-0.1542
N3885 X0.0538 Y-0.1544
N3890 X0.0539
N3895 X0.0544 Y-0.1546
N3900 X0.0545
N3905 X0.0551 Y-0.1548
N3910 X0.0557 Y-0.155
N3915 X0.0563 Y-0.1552
N3920 X0.0569 Y-0.1554
N3925 X0.0575 Y-0.1555
N3930 Y-0.1556
N3935 X0.0581 Y-0.1557
N3940 X0.0587 Y-0.1558
N3945 Y-0.1559
N3950 X0.0593 Y-0.156
N3955 X0.0599 Y-0.1561
N3960 X0.0604 Y-0.1563
N3965 X0.0605
N3970 X0.061 Y-0.1564
N3975 X0.0616 Y-0.1565
N3980 X0.0621 Y-0.1566
N3985 X0.0627 Y-0.1567
N3990 X0.0633 Y-0.1569
N3995 X0.0639 Y-0.157
N4000 X0.0645 Y-0.1572
N4005 X0.0651 Y-0.1573
N4010 X0.0657 Y-0.1574
N4015 X0.0663 Y-0.1576
N4020 X0.0669 Y-0.1577
N4025 X0.0675 Y-0.1578
N4030 X0.068 Y-0.158
N4035 X0.0686 Y-0.1581
N4040 X0.0692 Y-0.1583
N4045 X0.0697 Y-0.1585
N4050 X0.0703 Y-0.1586
N4055 X0.0708 Y-0.1588
N4060 X0.0714 Y-0.159
N4065 X0.072 Y-0.1592
N4070 X0.0725 Y-0.1593
N4075 X0.0731 Y-0.1595
N4080 X0.0737 Y-0.1597
N4085 X0.0742 Y-0.1599
N4090 X0.0748 Y-0.1601
N4095 X0.0754 Y-0.1604
N4100 X0.0757 Y-0.1605
N4105 X0.0759 Y-0.1606
N4110 X0.0763 Y-0.1608
N4115 X0.0767 Y-0.161
N4120 X0.0771 Y-0.1612
N4125 X0.0774 Y-0.1614
N4130 X0.0778 Y-0.1616
N4135 X0.0781 Y-0.1618
N4140 X0.0784 Y-0.162
N4145 X0.0787 Y-0.1622
N4150 X0.079 Y-0.1623
N4155 X0.0793 Y-0.1625
N4160 X0.0796 Y-0.1627
N4165 X0.0798 Y-0.1629
N4170 X0.0801 Y-0.1632
N4175 X0.0803 Y-0.1634
N4180 X0.0806 Y-0.1636
N4185 X0.0808 Y-0.1639
N4190 X0.0811 Y-0.1642
N4195 X0.0813 Y-0.1644
N4200 X0.0816 Y-0.1647
N4205 X0.0819 Y-0.1651
N4210 X0.0821 Y-0.1654
N4215 X0.0824 Y-0.1657
N4220 X0.0825 Y-0.1658
N4225 Y-0.1659
N4230 X0.0827 Y-0.1662
N4235 X0.0829 Y-0.1665
N4240 X0.0831 Y-0.1669
N4245 X0.0832 Y-0.1672
N4250 X0.0834 Y-0.1675
N4255 X0.0835 Y-0.1678
N4260 X0.0837 Y-0.1681
N4265 X0.0838 Y-0.1683
N4270 X0.0839 Y-0.1686
N4275 X0.084 Y-0.1689
N4280 Y-0.1691
N4285 X0.0841 Y-0.1694
N4290 X0.0842 Y-0.1696
N4295 Y-0.1699
N4300 X0.0843 Y-0.1702
N4305 Y-0.1705
N4310 X0.0844 Y-0.1709
N4315 Y-0.1712
N4320 Y-0.1716
N4325 X0.0845 Y-0.1719
N4330 Y-0.1723
N4335 Y-0.1727
N4340 Y-0.1729
N4345 Y-0.173
N4350 Y-0.1734
N4355 Y-0.1738
N4360 X0.0844 Y-0.1742
N4365 Y-0.1746
N4370 X0.0843 Y-0.175
N4375 Y-0.1753
N4380 X0.0842 Y-0.1757
N4385 Y-0.176
N4390 X0.0841 Y-0.1763
N4395 X0.084 Y-0.1766
N4400 X0.0839 Y-0.1769
N4405 Y-0.1772
N4410 X0.0837 Y-0.1775
N4415 X0.0836 Y-0.1778
N4420 X0.0835 Y-0.1781
N4425 X0.0834 Y-0.1784
N4430 X0.0832 Y-0.1787
N4435 X0.083 Y-0.179
N4440 X0.0829 Y-0.1794
N4445 X0.0827 Y-0.1797
N4450 X0.0825 Y-0.1801
N4455 X0.0823 Y-0.1804
N4460 X0.0822 Y-0.1806
N4465 X0.0821 Y-0.1807
N4470 X0.0818 Y-0.1811
N4475 X0.0815 Y-0.1814
N4480 X0.0813 Y-0.1818
N4485 X0.081 Y-0.1821
N4490 X0.0807 Y-0.1824
N4495 X0.0805 Y-0.1827
N4500 X0.0802 Y-0.183
N4505 X0.08 Y-0.1832
N4510 X0.0797 Y-0.1835
N4515 X0.0794 Y-0.1837
N4520 X0.0792 Y-0.1839
N4525 X0.0789 Y-0.1841
N4530 X0.0786 Y-0.1844
N4535 X0.0783 Y-0.1846
N4540 X0.078 Y-0.1848
N4545 X0.0777 Y-0.185
N4550 X0.0774 Y-0.1852
N4555 X0.077 Y-0.1854
N4560 X0.0766 Y-0.1856
N4565 X0.0763 Y-0.1858
N4570 X0.0759 Y-0.186
N4575 X0.0755 Y-0.1862
N4580 X0.0753 Y-0.1863
N4585 X0.075 Y-0.1865
N4590 X0.0745 Y-0.1866
N4595 X0.074 Y-0.1868
N4600 X0.0735 Y-0.187
N4605 X0.0731 Y-0.1871
N4610 X0.0726 Y-0.1873
N4615 X0.0722 Y-0.1875
N4620 X0.0717 Y-0.1876
N4625 X0.0713 Y-0.1877
N4630 X0.0708 Y-0.1878
N4635 X0.0704 Y-0.1879
N4640 X0.07 Y-0.188
N4645 X0.0696 Y-0.1881
N4650 X0.0691 Y-0.1882
N4655 X0.0687
N4660 X0.0682 Y-0.1883
N4665 X0.0677
N4670 X0.0673 Y-0.1884
N4675 X0.0668
N4680 X0.0663
N4685 X0.0658 Y-0.1885
N4690 X0.0653
N4695 X0.0647
N4700 X0.0643
N4705 X0.0638
N4710 X0.0632
N4715 X0.0626
N4720 X0.062
N4725 X0.0614 Y-0.1884
N4730 X0.0608
N4735 X0.0602
N4740 X0.0597 Y-0.1883
N4745 X0.0591
N4750 X0.0586 Y-0.1882
N4755 X0.058 Y-0.1881
N4760 X0.0575 Y-0.188
N4765 X0.057
N4770 X0.0564 Y-0.1878
N4775 X0.0559 Y-0.1877
N4780 X0.0554 Y-0.1876
N4785 X0.0548 Y-0.1874
N4790 X0.0543 Y-0.1873
N4795 X0.0537 Y-0.1871
N4800 X0.0532 Y-0.1869
N4805 X0.0526 Y-0.1868
N4810 X0.052 Y-0.1866
N4815 X0.0514 Y-0.1864
N4820 X0.0511 Y-0.1863
N4825 X0.0509 Y-0.1862
N4830 X0.0505 Y-0.1859
N4835 X0.05 Y-0.1857
N4840 X0.0496 Y-0.1855
N4845 X0.0492 Y-0.1853
N4850 X0.0488 Y-0.185
N4855 X0.0484 Y-0.1848
N4860 X0.0481 Y-0.1846
N4865 X0.0477 Y-0.1844
N4870 X0.0474 Y-0.1841
N4875 X0.0471 Y-0.1839
N4880 X0.0468 Y-0.1837
N4885 X0.0465 Y-0.1834
N4890 X0.0462 Y-0.1832
N4895 X0.0459 Y-0.1829
N4900 X0.0457 Y-0.1826
N4905 X0.0454 Y-0.1823
N4910 X0.0451 Y-0.182
N4915 X0.0448 Y-0.1816
N4920 X0.0445 Y-0.1813
N4925 X0.0442 Y-0.1809
N4930 X0.0439 Y-0.1805
N4935 X0.0436 Y-0.1801
N4940 X0.0435 Y-0.18
N4945 X0.0434 Y-0.1798
N4950 X0.0431 Y-0.1793
N4955 X0.0429 Y-0.1789
N4960 X0.0427 Y-0.1785
N4965 X0.0425 Y-0.1781
N4970 X0.0422 Y-0.1777
N4975 X0.0421 Y-0.1773
N4980 X0.0419 Y-0.1769
N4985 X0.0417 Y-0.1765
N4990 X0.0416 Y-0.1761
N4995 X0.0414 Y-0.1757
N5000 X0.0413 Y-0.1754
N5005 X0.0412 Y-0.175
N5010 X0.0411 Y-0.1746
N5015 X0.041 Y-0.1742
N5020 Y-0.1738
N5025 X0.0409 Y-0.1737
N5030 G0 Z0.1
N5035 X0.0369 Y-0.3911
N5040 Z0.05
N5045 G1 Z0. F5.
N5050 X0.0405 Y-0.3875 Z-0.01 F7.5
N5055 Y-0.3303
N5060 X0.0369 Y-0.3267 Z0.
N5065 X0.0405 Y-0.3303 Z-0.01
N5070 X0.0437
N5075 X0.0456 Y-0.3267 Z0.
N5080 X0.0437 Y-0.3303 Z-0.01
N5085 X0.0765 Y-0.3793
N5090 G3 X0.0831 Y-0.3773 I0.003 J0.002
N5095 G1 Y-0.3303
N5100 X0.0795 Y-0.3267 Z0.
N5105 X0.0831 Y-0.3303 Z-0.01
N5110 X0.084
N5115 X0.0876 Y-0.3267 Z0.
N5120 X0.084 Y-0.3303 Z-0.01
N5125 Y-0.3875
N5130 X0.0876 Y-0.3911 Z0.
N5135 X0.084 Y-0.3875 Z-0.01
N5140 X0.0809
N5145 X0.0789 Y-0.3911 Z0.
N5150 X0.0809 Y-0.3875 Z-0.01
N5155 X0.0481 Y-0.3385
N5160 G3 X0.0414 Y-0.3405 I-0.003 J-0.002
N5165 G1 Y-0.3875
N5170 X0.0405
N5175 X0.0414
N5180 X0.0451 Y-0.3911 Z0.
N5185 G0 Z0.1
N5190 X0.0369 Y-0.0911
N5195 Z0.05
N5200 G1 Z0. F5.
N5205 X0.0405 Y-0.0875 Z-0.01 F7.5
N5210 X0.0415
N5215 X0.0451 Y-0.0911 Z0.
N5220 X0.0415 Y-0.0875 Z-0.01
N5225 Y-0.0363
N5230 G2 X0.0486 Y-0.0351 I0.0036 J0.
N5235 G1 X0.0574 Y-0.0611
N5240 X0.0471 Y-0.0303
N5245 X0.0497 Y-0.0267 Z0.
N5250 X0.0471 Y-0.0303 Z-0.01
N5255 X0.0405
N5260 X0.0369 Y-0.0267 Z0.
N5265 X0.0405 Y-0.0303 Z-0.01
N5270 Y-0.0875
N5275 Y-0.0303
N5280 X0.0471
N5285 X0.0574 Y-0.0611
N5290 X0.064 Y-0.0809 Z-0.0098
N5295 X0.0647 Y-0.083 Z-0.0097
N5300 X0.0652 Y-0.0841 Z-0.01
N5305 G3 X0.0697 Y-0.0851 I0.0028 J0.0023
N5310 G1 X0.0689 Y-0.0875
N5315 X0.0714 Y-0.0911 Z0.
N5320 X0.0689 Y-0.0875 Z-0.01
N5325 X0.0664
N5330 X0.0638 Y-0.0911 Z0.
N5335 X0.0664 Y-0.0875 Z-0.01
N5340 X0.0652 Y-0.0841
N5345 X0.0664 Y-0.0875
N5350 X0.0689
N5355 X0.0697 Y-0.0851
N5360 X0.0705 Y-0.084 Z-0.0089
N5365 X0.071 Y-0.0829 Z-0.0086
N5370 X0.0717 Y-0.0807
N5375 X0.0871 Y-0.0361 Z-0.0089
N5380 X0.0876 Y-0.0351 Z-0.0092
N5385 X0.0882 Y-0.0341 Z-0.01
N5390 X0.0895 Y-0.0303
N5395 X0.0869 Y-0.0267 Z0.
N5400 X0.0895 Y-0.0303 Z-0.01
N5405 X0.0947
N5410 X0.0984 Y-0.0267 Z0.
N5415 X0.0947 Y-0.0303 Z-0.01
N5420 Y-0.0875
N5425 X0.0984 Y-0.0911 Z0.
N5430 X0.0947 Y-0.0875 Z-0.01
N5435 X0.0938
N5440 X0.0902 Y-0.0911 Z0.
N5445 X0.0938 Y-0.0875 Z-0.01
N5450 Y-0.0372
N5455 G3 X0.0882 Y-0.0341 I-0.0036 J0.
N5460 G0 Z0.1
N5465 X0.0844 Y-0.4497
N5470 Z0.05
N5475 G1 Z-0.0001 F5.
N5480 X0.0866 Y-0.4454 Z-0.01 F7.5
N5485 X0.0864 Y-0.4449
N5490 Y-0.4448
N5495 X0.0862 Y-0.4443
N5500 X0.0861
N5505 X0.0859 Y-0.4438
N5510 Y-0.4437
N5515 X0.0856 Y-0.4433
N5520 Y-0.4432
N5525 X0.0853 Y-0.4427
N5530 Y-0.4426
N5535 X0.085 Y-0.4422
N5540 Y-0.4421
N5545 X0.0847 Y-0.4417
N5550 X0.0846 Y-0.4415
N5555 X0.0843 Y-0.4411
N5560 X0.0842 Y-0.441
N5565 X0.0839 Y-0.4406
N5570 Y-0.4405
N5575 X0.0835 Y-0.4401
N5580 X0.0832 Y-0.4397
N5585 X0.0831 Y-0.4396
N5590 X0.0827 Y-0.4392
N5595 X0.0824 Y-0.4388
N5600 X0.0823 Y-0.4387
N5605 X0.0819 Y-0.4384
N5610 Y-0.4383
N5615 X0.0816 Y-0.438
N5620 X0.0815 Y-0.4379
N5625 X0.0812 Y-0.4376
N5630 X0.0811
N5635 X0.0808 Y-0.4372
N5640 X0.0804 Y-0.4368
N5645 G3 X0.0797 Y-0.4363 I-0.0025 J-0.0026
N5650 G1 X0.0793 Y-0.4361
N5655 X0.0789 Y-0.4358
N5660 X0.0784 Y-0.4356
N5665 X0.078 Y-0.4353
N5670 X0.0775 Y-0.4351
N5675 Y-0.435
N5680 X0.0771 Y-0.4348
N5685 X0.077
N5690 X0.0766 Y-0.4346
N5695 X0.0765 Y-0.4345
N5700 X0.0761 Y-0.4343
N5705 X0.076
N5710 X0.0755 Y-0.4341
N5715 X0.0754
N5720 X0.075 Y-0.4339
N5725 X0.0749 Y-0.4338
N5730 X0.0744 Y-0.4337
N5735 X0.0743 Y-0.4336
N5740 X0.0738 Y-0.4335
N5745 X0.0737
N5750 X0.0733 Y-0.4333
N5755 X0.0731
N5760 X0.0727 Y-0.4332
N5765 X0.0726
N5770 X0.0721 Y-0.4331
N5775 X0.072
N5780 X0.0715 Y-0.433
N5785 X0.071 Y-0.4329
N5790 X0.0709
N5795 X0.0704 Y-0.4328
N5800 X0.0699
N5805 X0.0698
N5810 X0.0694 Y-0.4327
N5815 X0.0693
N5820 X0.0688
N5825 X0.0683
N5830 X0.0678 Y-0.4326
N5835 X0.0673
N5840 X0.0671
N5845 X0.0673
N5850 X0.0678
N5855 X0.0686 Y-0.4327
N5860 X0.0692
N5865 X0.0699 Y-0.4328
N5870 X0.0706
N5875 X0.0712 Y-0.4329
N5880 X0.0719 Y-0.433
N5885 X0.0725 Y-0.4331
N5890 X0.0731 Y-0.4332
N5895 X0.0737 Y-0.4333
N5900 X0.0743 Y-0.4334
N5905 X0.0748 Y-0.4336
N5910 X0.0754 Y-0.4337
N5915 X0.0759 Y-0.4339
N5920 X0.0764 Y-0.4341
N5925 X0.077 Y-0.4344
N5930 X0.0776 Y-0.4347
N5935 X0.0781 Y-0.4349
N5940 X0.0787 Y-0.4352
N5945 X0.0793 Y-0.4356
N5950 X0.0799 Y-0.4359
N5955 X0.0805 Y-0.4363
N5960 X0.0811 Y-0.4366
N5965 X0.0814 Y-0.4368
N5970 X0.0816 Y-0.437
N5975 X0.0822 Y-0.4375
N5980 X0.0827 Y-0.438
N5985 X0.0831 Y-0.4384
N5990 X0.0836 Y-0.4389
N5995 X0.0841 Y-0.4393
N6000 X0.0845 Y-0.4398
N6005 X0.0849 Y-0.4402
N6010 X0.0853 Y-0.4407
N6015 X0.0856 Y-0.4411
N6020 X0.086 Y-0.4416
N6025 X0.0863 Y-0.442
N6030 X0.0866 Y-0.4425
N6035 X0.0868 Y-0.443
N6040 X0.0871 Y-0.4435
N6045 X0.0874 Y-0.444
N6050 X0.0876 Y-0.4446
N6055 X0.0879 Y-0.4451
N6060 X0.0911 Y-0.4468 Z-0.0035
N6065 X0.0927 Y-0.4477 Z0.
N6070 X0.0911 Y-0.4468 Z-0.0035
N6075 X0.0879 Y-0.4451 Z-0.01
N6080 X0.0866 Y-0.4454
N6085 X0.0879 Y-0.4451
N6090 X0.0876 Y-0.4446
N6095 X0.0874 Y-0.444
N6100 X0.0871 Y-0.4435
N6105 X0.0868 Y-0.443
N6110 X0.0866 Y-0.4425
N6115 X0.0863 Y-0.442
N6120 X0.086 Y-0.4416
N6125 X0.0856 Y-0.4411
N6130 X0.0853 Y-0.4407
N6135 X0.0849 Y-0.4402
N6140 X0.0845 Y-0.4398
N6145 X0.0841 Y-0.4393
N6150 X0.0836 Y-0.4389
N6155 X0.0831 Y-0.4384
N6160 X0.0827 Y-0.438
N6165 X0.0822 Y-0.4375
N6170 X0.0816 Y-0.437
N6175 X0.0814 Y-0.4368
N6180 X0.0811 Y-0.4366
N6185 X0.0805 Y-0.4363
N6190 X0.0799 Y-0.4359
N6195 X0.0793 Y-0.4356
N6200 X0.0787 Y-0.4352
N6205 X0.0781 Y-0.4349
N6210 X0.0776 Y-0.4347
N6215 X0.077 Y-0.4344
N6220 X0.0764 Y-0.4341
N6225 X0.0759 Y-0.4339
N6230 X0.0754 Y-0.4337
N6235 X0.0748 Y-0.4336
N6240 X0.0743 Y-0.4334
N6245 X0.0737 Y-0.4333
N6250 X0.0731 Y-0.4332
N6255 X0.0725 Y-0.4331
N6260 X0.0719 Y-0.433
N6265 X0.0712 Y-0.4329
N6270 X0.0706 Y-0.4328
N6275 X0.0699
N6280 X0.0692 Y-0.4327
N6285 X0.0686
N6290 X0.0678 Y-0.4326
N6295 X0.0673
N6300 X0.0671
N6305 X0.0646 Y-0.4328
N6310 X0.0618 Y-0.4331
N6315 X0.0597 Y-0.4335
N6320 X0.0583 Y-0.434
N6325 X0.0577 Y-0.4342
N6330 X0.0572 Y-0.4344
N6335 X0.0571 Y-0.4345
N6340 X0.0566 Y-0.4347
N6345 X0.0565
N6350 X0.0561 Y-0.4349
N6355 X0.056 Y-0.435
N6360 X0.0555 Y-0.4352
N6365 X0.0554 Y-0.4353
N6370 X0.0549 Y-0.4355
N6375 X0.0544 Y-0.4358
N6380 X0.0539 Y-0.4361
N6385 X0.0534 Y-0.4364
N6390 X0.0529 Y-0.4366
N6395 G3 X0.0523 Y-0.437 I0.0018 J-0.0032
N6400 G1 X0.052 Y-0.4374
N6405 X0.0516 Y-0.4377
N6410 X0.0515
N6415 X0.0511 Y-0.4381
N6420 X0.0508 Y-0.4384
N6425 X0.0507
N6430 X0.0503 Y-0.4388
N6435 X0.0499 Y-0.4392
N6440 X0.0495 Y-0.4395
N6445 Y-0.4396
N6450 X0.0491 Y-0.44
N6455 X0.0487 Y-0.4404
N6460 X0.0486 Y-0.4405
N6465 X0.0483 Y-0.4409
N6470 X0.0482
N6475 X0.0479 Y-0.4413
N6480 X0.0478 Y-0.4414
N6485 X0.0475 Y-0.4418
N6490 X0.0474 Y-0.4419
N6495 X0.0472 Y-0.4423
N6500 X0.0471 Y-0.4425
N6505 X0.0468 Y-0.4429
N6510 Y-0.443
N6515 X0.0465 Y-0.4434
N6520 Y-0.4435
N6525 X0.0462 Y-0.4439
N6530 Y-0.444
N6535 X0.0459 Y-0.4445
N6540 X0.0457 Y-0.445
N6545 X0.0456
N6550 X0.0454 Y-0.4455
N6555 Y-0.4456
N6560 X0.0452 Y-0.446
N6565 Y-0.4461
N6570 X0.045 Y-0.4465
N6575 X0.0448 Y-0.447
N6580 X0.0447
N6585 X0.0445 Y-0.4475
N6590 X0.0443 Y-0.448
N6595 X0.0442 Y-0.4484
N6600 X0.0441 Y-0.4489
N6605 X0.0439 Y-0.4494
N6610 X0.0438 Y-0.4499
N6615 X0.0436 Y-0.4504
N6620 X0.0435 Y-0.451
N6625 X0.0433 Y-0.4515
N6630 X0.0432 Y-0.452
N6635 Y-0.4521
N6640 X0.0431 Y-0.4526
N6645 X0.0429 Y-0.4531
N6650 Y-0.4532
N6655 X0.0428 Y-0.4537
N6660 Y-0.4538
N6665 X0.0427 Y-0.4543
N6670 X0.0426 Y-0.4549
N6675 X0.0425 Y-0.4554
N6680 Y-0.4555
N6685 X0.0424 Y-0.456
N6690 Y-0.4561
N6695 Y-0.4566
N6700 Y-0.4567
N6705 X0.0423 Y-0.4572
N6710 Y-0.4578
N6715 X0.0422 Y-0.4583
N6720 Y-0.4584
N6725 Y-0.4589
N6730 X0.0421 Y-0.4594
N6735 Y-0.4595
N6740 Y-0.46
N6745 Y-0.4605
N6750 Y-0.4611
N6755 Y-0.4616
N6760 Y-0.4618
N6765 Y-0.4625
N6770 Y-0.4631
N6775 Y-0.4637
N6780 Y-0.4643
N6785 Y-0.4644
N6790 X0.0422 Y-0.465
N6795 Y-0.4656
N6800 Y-0.4663
N6805 X0.0423 Y-0.4669
N6810 Y-0.467
N6815 X0.0424 Y-0.4676
N6820 Y-0.4682
N6825 Y-0.4683
N6830 X0.0425 Y-0.4689
N6835 Y-0.469
N6840 X0.0426 Y-0.4696
N6845 X0.0427 Y-0.4702
N6850 Y-0.4703
N6855 X0.0429 Y-0.4709
N6860 Y-0.471
N6865 X0.043 Y-0.4716
N6870 Y-0.4717
N6875 X0.0432 Y-0.4722
N6880 Y-0.4723
N6885 X0.0433 Y-0.4729
N6890 X0.0435 Y-0.4735
N6895 Y-0.4736
N6900 X0.0437 Y-0.4742
N6905 X0.0438 Y-0.4748
N6910 X0.0439
N6915 X0.044 Y-0.4754
N6920 X0.0442 Y-0.476
N6925 X0.0444 Y-0.4766
N6930 X0.0446 Y-0.4772
N6935 G3 X0.0448 Y-0.4776 I0.0035 J0.0011
N6940 G1 X0.045 Y-0.4781
N6945 X0.0452 Y-0.4786
N6950 X0.0454 Y-0.4791
N6955 X0.0455
N6960 X0.0457 Y-0.4795
N6965 Y-0.4796
N6970 X0.0459 Y-0.48
N6975 X0.046 Y-0.4801
N6980 X0.0462 Y-0.4805
N6985 Y-0.4806
N6990 X0.0465 Y-0.481
N6995 Y-0.4811
N7000 X0.0468 Y-0.4815
N7005 Y-0.4816
N7010 X0.0471 Y-0.482
N7015 Y-0.4821
N7020 X0.0474 Y-0.4825
N7025 X0.0475 Y-0.4826
N7030 X0.0478 Y-0.483
N7035 X0.0479 Y-0.4832
N7040 X0.0482 Y-0.4836
N7045 X0.0486 Y-0.484
N7050 X0.0487 Y-0.4841
N7055 X0.049 Y-0.4845
N7060 X0.0491 Y-0.4846
N7065 X0.0494 Y-0.4849
N7070 X0.0495 Y-0.485
N7075 X0.0499 Y-0.4854
N7080 X0.0503 Y-0.4858
N7085 X0.0504
N7090 X0.0508 Y-0.4862
N7095 X0.0512 Y-0.4865
N7100 X0.0513 Y-0.4866
N7105 X0.0517 Y-0.4869
N7110 X0.0521 Y-0.4872
N7115 X0.0525 Y-0.4876
N7120 X0.053 Y-0.4879
N7125 X0.0534 Y-0.4882
N7130 G3 X0.0539 Y-0.4885 I0.0022 J0.0029
N7135 G1 X0.0547 Y-0.4889
N7140 X0.0548
N7145 X0.0552 Y-0.4892
N7150 X0.0556 Y-0.4894
N7155 X0.0557
N7160 X0.0561 Y-0.4896
N7165 X0.0562
N7170 X0.0566 Y-0.4898
N7175 X0.0567 Y-0.4899
N7180 X0.0571 Y-0.49
N7185 X0.0572 Y-0.4901
N7190 X0.0576 Y-0.4903
N7195 X0.0577
N7200 X0.0581 Y-0.4905
N7205 X0.0582
N7210 X0.0587 Y-0.4907
N7215 X0.0588
N7220 X0.0592 Y-0.4908
N7225 X0.0593 Y-0.4909
N7230 X0.0598 Y-0.491
N7235 X0.0599
N7240 X0.0603 Y-0.4912
N7245 X0.0605
N7250 X0.0609 Y-0.4913
N7255 X0.061
N7260 X0.0615 Y-0.4914
N7265 X0.0616
N7270 X0.062 Y-0.4915
N7275 X0.0621
N7280 X0.0626 Y-0.4916
N7285 X0.0627
N7290 X0.0631 Y-0.4917
N7295 X0.0632
N7300 X0.0637
N7305 X0.0642 Y-0.4918
N7310 X0.0647
N7315 X0.0648
N7320 X0.0652
N7325 X0.0653
N7330 X0.0657 Y-0.4919
N7335 X0.0651 Y-0.4918
N7340 X0.0644
N7345 X0.0637
N7350 X0.063 Y-0.4917
N7355 X0.0624
N7360 X0.0617 Y-0.4916
N7365 X0.0611 Y-0.4915
N7370 X0.0604 Y-0.4914
N7375 X0.0598 Y-0.4913
N7380 X0.0592 Y-0.4911
N7385 X0.0586 Y-0.491
N7390 X0.0581 Y-0.4908
N7395 X0.0575 Y-0.4906
N7400 X0.0569 Y-0.4904
N7405 X0.0563 Y-0.4902
N7410 X0.0557 Y-0.4899
N7415 X0.0551 Y-0.4896
N7420 X0.0544 Y-0.4894
N7425 X0.0538 Y-0.4891
N7430 X0.0531 Y-0.4887
N7435 X0.0525 Y-0.4884
N7440 X0.0522 Y-0.4883
N7445 X0.0519 Y-0.4881
N7450 X0.0514 Y-0.4877
N7455 X0.0509 Y-0.4873
N7460 X0.0504 Y-0.4869
N7465 X0.05 Y-0.4865
N7470 X0.0495 Y-0.4861
N7475 X0.0491 Y-0.4857
N7480 X0.0486 Y-0.4853
N7485 X0.0482 Y-0.4849
N7490 X0.0479 Y-0.4845
N7495 X0.0475 Y-0.4841
N7500 X0.0472 Y-0.4837
N7505 X0.0468 Y-0.4833
N7510 X0.0465 Y-0.4828
N7515 X0.0462 Y-0.4824
N7520 X0.0459 Y-0.4819
N7525 X0.0456 Y-0.4814
N7530 X0.0453 Y-0.4809
N7535 X0.045 Y-0.4803
N7540 X0.0447 Y-0.4798
N7545 X0.0444 Y-0.4792
N7550 X0.0441 Y-0.4786
N7555 X0.0438 Y-0.478
N7560 X0.0436 Y-0.4776
N7565 X0.0435 Y-0.4771
N7570 X0.0432 Y-0.4764
N7575 X0.043 Y-0.4758
N7580 X0.0427 Y-0.4751
N7585 X0.0425 Y-0.4744
N7590 X0.0423 Y-0.4738
N7595 X0.0421 Y-0.4731
N7600 X0.0419 Y-0.4724
N7605 X0.0417 Y-0.4718
N7610 X0.0416 Y-0.4712
N7615 X0.0414 Y-0.4705
N7620 X0.0413 Y-0.4699
N7625 X0.0412 Y-0.4693
N7630 X0.0411 Y-0.4686
N7635 X0.041 Y-0.4679
N7640 X0.0409 Y-0.4673
N7645 X0.0408 Y-0.4666
N7650 Y-0.4659
N7655 X0.0407 Y-0.4652
N7660 Y-0.4645
N7665 X0.0406 Y-0.4638
N7670 Y-0.4631
N7675 Y-0.4624
N7680 X0.0405 Y-0.4618
N7685 X0.0406 Y-0.4612
N7690 Y-0.4604
N7695 Y-0.4597
N7700 X0.0407 Y-0.459
N7705 Y-0.4582
N7710 X0.0408 Y-0.4575
N7715 Y-0.4568
N7720 X0.0409 Y-0.4562
N7725 X0.041 Y-0.4555
N7730 X0.0411 Y-0.4548
N7735 X0.0412 Y-0.4542
N7740 X0.0413 Y-0.4535
N7745 X0.0415 Y-0.4529
N7750 X0.0416 Y-0.4523
N7755 X0.0418 Y-0.4516
N7760 X0.042 Y-0.451
N7765 X0.0422 Y-0.4504
N7770 X0.0425 Y-0.4497
N7775 X0.0427 Y-0.449
N7780 X0.043 Y-0.4484
N7785 X0.0432 Y-0.4477
N7790 X0.0435 Y-0.447
N7795 X0.0438 Y-0.4463
N7800 X0.044 Y-0.4459
N7805 X0.0442 Y-0.4455
N7810 X0.0445 Y-0.445
N7815 X0.0449 Y-0.4444
N7820 X0.0452 Y-0.4439
N7825 X0.0455 Y-0.4434
N7830 X0.0459 Y-0.4429
N7835 X0.0462 Y-0.4424
N7840 X0.0466 Y-0.4419
N7845 X0.0469 Y-0.4415
N7850 X0.0472 Y-0.441
N7855 X0.0476 Y-0.4406
N7860 X0.048 Y-0.4402
N7865 X0.0483 Y-0.4399
N7870 X0.0487 Y-0.4395
N7875 X0.0491 Y-0.4391
N7880 X0.0496 Y-0.4388
N7885 X0.05 Y-0.4384
N7890 X0.0505 Y-0.4381
N7895 X0.051 Y-0.4377
N7900 X0.0515 Y-0.4373
N7905 X0.052 Y-0.437
N7910 X0.0525 Y-0.4366
N7915 X0.0531 Y-0.4363
N7920 X0.0534 Y-0.4361
N7925 X0.0538 Y-0.4359
N7930 X0.0544 Y-0.4356
N7935 X0.055 Y-0.4353
N7940 X0.0556 Y-0.4351
N7945 X0.0562 Y-0.4348
N7950 X0.0568 Y-0.4346
N7955 X0.0574 Y-0.4343
N7960 X0.0577 Y-0.4342
N7965 X0.0574 Y-0.4343
N7970 X0.0568 Y-0.4346
N7975 X0.0562 Y-0.4348
N7980 X0.0556 Y-0.4351
N7985 X0.055 Y-0.4353
N7990 X0.0544 Y-0.4356
N7995 X0.0538 Y-0.4359
N8000 X0.0534 Y-0.4361
N8005 X0.0531 Y-0.4363
N8010 X0.0525 Y-0.4366
N8015 X0.052 Y-0.437
N8020 X0.0515 Y-0.4373
N8025 X0.051 Y-0.4377
N8030 X0.0505 Y-0.4381
N8035 X0.05 Y-0.4384
N8040 X0.0496 Y-0.4388
N8045 X0.0491 Y-0.4391
N8050 X0.0487 Y-0.4395
N8055 X0.0483 Y-0.4399
N8060 X0.048 Y-0.4402
N8065 X0.0476 Y-0.4406
N8070 X0.0472 Y-0.441
N8075 X0.0469 Y-0.4415
N8080 X0.0466 Y-0.4419
N8085 X0.0462 Y-0.4424
N8090 X0.0459 Y-0.4429
N8095 X0.0455 Y-0.4434
N8100 X0.0452 Y-0.4439
N8105 X0.0449 Y-0.4444
N8110 X0.0445 Y-0.445
N8115 X0.0442 Y-0.4455
N8120 X0.044 Y-0.4459
N8125 X0.0438 Y-0.4463
N8130 X0.0435 Y-0.447
N8135 X0.0432 Y-0.4477
N8140 X0.043 Y-0.4484
N8145 X0.0427 Y-0.449
N8150 X0.0425 Y-0.4497
N8155 X0.0422 Y-0.4504
N8160 X0.042 Y-0.451
N8165 X0.0418 Y-0.4516
N8170 X0.0416 Y-0.4523
N8175 X0.0415 Y-0.4529
N8180 X0.0413 Y-0.4535
N8185 X0.0412 Y-0.4542
N8190 X0.0411 Y-0.4548
N8195 X0.041 Y-0.4555
N8200 X0.0409 Y-0.4562
N8205 X0.0408 Y-0.4568
N8210 Y-0.4575
N8215 X0.0407 Y-0.4582
N8220 Y-0.459
N8225 X0.0406 Y-0.4597
N8230 Y-0.4604
N8235 Y-0.4612
N8240 X0.0405 Y-0.4618
N8245 X0.0406 Y-0.4624
N8250 Y-0.4631
N8255 Y-0.4638
N8260 X0.0407 Y-0.4645
N8265 Y-0.4652
N8270 X0.0408 Y-0.4659
N8275 Y-0.4666
N8280 X0.0409 Y-0.4673
N8285 X0.041 Y-0.4679
N8290 X0.0411 Y-0.4686
N8295 X0.0412 Y-0.4693
N8300 X0.0413 Y-0.4699
N8305 X0.0414 Y-0.4705
N8310 X0.0416 Y-0.4712
N8315 X0.0417 Y-0.4718
N8320 X0.0419 Y-0.4724
N8325 X0.0421 Y-0.4731
N8330 X0.0423 Y-0.4738
N8335 X0.0425 Y-0.4744
N8340 X0.0427 Y-0.4751
N8345 X0.043 Y-0.4758
N8350 X0.0432 Y-0.4764
N8355 X0.0435 Y-0.4771
N8360 X0.0436 Y-0.4776
N8365 X0.0438 Y-0.478
N8370 X0.0441 Y-0.4786
N8375 X0.0444 Y-0.4792
N8380 X0.0447 Y-0.4798
N8385 X0.045 Y-0.4803
N8390 X0.0453 Y-0.4809
N8395 X0.0456 Y-0.4814
N8400 X0.0459 Y-0.4819
N8405 X0.0462 Y-0.4824
N8410 X0.0465 Y-0.4828
N8415 X0.0468 Y-0.4833
N8420 X0.0472 Y-0.4837
N8425 X0.0475 Y-0.4841
N8430 X0.0479 Y-0.4845
N8435 X0.0482 Y-0.4849
N8440 X0.0486 Y-0.4853
N8445 X0.0491 Y-0.4857
N8450 X0.0495 Y-0.4861
N8455 X0.05 Y-0.4865
N8460 X0.0504 Y-0.4869
N8465 X0.0509 Y-0.4873
N8470 X0.0514 Y-0.4877
N8475 X0.0519 Y-0.4881
N8480 X0.0522 Y-0.4883
N8485 X0.0525 Y-0.4884
N8490 X0.0531 Y-0.4887
N8495 X0.0538 Y-0.4891
N8500 X0.0544 Y-0.4894
N8505 X0.0551 Y-0.4896
N8510 X0.0557 Y-0.4899
N8515 X0.0563 Y-0.4902
N8520 X0.0569 Y-0.4904
N8525 X0.0575 Y-0.4906
N8530 X0.0581 Y-0.4908
N8535 X0.0586 Y-0.491
N8540 X0.0592 Y-0.4911
N8545 X0.0598 Y-0.4913
N8550 X0.0604 Y-0.4914
N8555 X0.0611 Y-0.4915
N8560 X0.0617 Y-0.4916
N8565 X0.0624 Y-0.4917
N8570 X0.063
N8575 X0.0637 Y-0.4918
N8580 X0.0644
N8585 X0.0651
N8590 X0.0657 Y-0.4919
N8595 X0.0658
N8600 X0.0667
N8605 X0.0673
N8610 X0.0678 Y-0.4918
N8615 X0.0679
N8620 X0.0684
N8625 X0.069 Y-0.4917
N8630 X0.0691
N8635 X0.0696
N8640 X0.0702 Y-0.4916
N8645 X0.0703
N8650 X0.0708 Y-0.4915
N8655 X0.0709
N8660 X0.0714 Y-0.4914
N8665 X0.0715
N8670 X0.0721 Y-0.4913
N8675 X0.0722
N8680 X0.0727 Y-0.4911
N8685 X0.0728
N8690 X0.0733 Y-0.491
N8695 X0.0735 Y-0.4909
N8700 X0.074 Y-0.4908
N8705 X0.0742 Y-0.4907
N8710 X0.0747 Y-0.4905
N8715 X0.0748
N8720 X0.0753 Y-0.4903
N8725 X0.0754 Y-0.4902
N8730 X0.0759 Y-0.49
N8735 X0.076
N8740 X0.0765 Y-0.4897
N8745 X0.0766
N8750 X0.0771 Y-0.4894
N8755 X0.0772
N8760 X0.0776 Y-0.4891
N8765 X0.0777
N8770 X0.0782 Y-0.4888
N8775 Y-0.4887
N8780 X0.0787 Y-0.4884
N8785 X0.0792 Y-0.4881
N8790 X0.0797 Y-0.4878
N8795 X0.0802 Y-0.4875
N8800 X0.0806 Y-0.4872
N8805 G3 X0.0813 Y-0.4866 I-0.002 J0.003
N8810 G1 X0.0817 Y-0.4862
N8815 X0.0821 Y-0.4858
N8820 Y-0.4857
N8825 X0.0825 Y-0.4853
N8830 X0.0829 Y-0.4848
N8835 X0.083
N8840 X0.0834 Y-0.4843
N8845 X0.0838 Y-0.4838
N8850 X0.0842 Y-0.4833
N8855 X0.0843 Y-0.4832
N8860 X0.0846 Y-0.4828
N8865 X0.0847 Y-0.4827
N8870 X0.085 Y-0.4822
N8875 X0.0851 Y-0.4821
N8880 X0.0854 Y-0.4816
N8885 X0.0855 Y-0.4815
N8890 X0.0858 Y-0.481
N8895 X0.0859 Y-0.4809
N8900 X0.0862 Y-0.4804
N8905 Y-0.4803
N8910 X0.0865 Y-0.4797
N8915 X0.0866 Y-0.4796
N8920 X0.0868 Y-0.4791
N8925 X0.0869 Y-0.479
N8930 X0.0871 Y-0.4784
N8935 Y-0.4783
N8940 X0.0873 Y-0.4778
N8945 X0.0874 Y-0.4777
N8950 X0.0876 Y-0.4771
N8955 X0.0878 Y-0.4765
N8960 Y-0.4764
N8965 X0.0879 Y-0.4763
N8970 X0.0853 Y-0.4719 Z0.
N8975 X0.0879 Y-0.4763 Z-0.01
N8980 X0.0892 Y-0.4766
N8985 X0.0938 Y-0.4741 Z-0.0001
N8990 X0.0892 Y-0.4766 Z-0.01
N8995 X0.0889 Y-0.4773
N9000 X0.0887 Y-0.478
N9005 X0.0884 Y-0.4786
N9010 X0.0881 Y-0.4793
N9015 X0.0878 Y-0.4799
N9020 X0.0875 Y-0.4805
N9025 X0.0872 Y-0.481
N9030 X0.0869 Y-0.4816
N9035 X0.0865 Y-0.4821
N9040 X0.0861 Y-0.4826
N9045 X0.0857 Y-0.4832
N9050 X0.0853 Y-0.4837
N9055 X0.0848 Y-0.4842
N9060 X0.0843 Y-0.4847
N9065 X0.0838 Y-0.4853
N9070 X0.0833 Y-0.4858
N9075 X0.0828 Y-0.4864
N9080 X0.0822 Y-0.4869
N9085 X0.0819 Y-0.4872
N9090 X0.0816 Y-0.4874
N9095 X0.0809 Y-0.4878
N9100 X0.0803 Y-0.4882
N9105 X0.0797 Y-0.4886
N9110 X0.0791 Y-0.4889
N9115 X0.0785 Y-0.4893
N9120 X0.0779 Y-0.4896
N9125 X0.0773 Y-0.4899
N9130 X0.0768 Y-0.4902
N9135 X0.0762 Y-0.4904
N9140 X0.0756 Y-0.4906
N9145 X0.0751 Y-0.4908
N9150 X0.0745 Y-0.491
N9155 X0.0739 Y-0.4911
N9160 X0.0733 Y-0.4913
N9165 X0.0726 Y-0.4914
N9170 X0.072 Y-0.4915
N9175 X0.0713 Y-0.4916
N9180 X0.0706 Y-0.4917
N9185 X0.0699
N9190 X0.0692 Y-0.4918
N9195 X0.0685
N9200 X0.0677 Y-0.4919
N9205 X0.0671
N9210 X0.0667
N9215 G0 Z0.1
N9220 X0.0853 Y-0.2685
N9225 Z0.05
N9230 G1 Z0. F5.
N9235 X0.0879 Y-0.2729 Z-0.01 F7.5
N9240 X0.0892 Y-0.2733
N9245 X0.0938 Y-0.2707 Z0.
N9250 X0.0892 Y-0.2733 Z-0.01
N9255 X0.0889 Y-0.274
N9260 X0.0887 Y-0.2746
N9265 X0.0884 Y-0.2753
N9270 X0.0881 Y-0.2759
N9275 X0.0878 Y-0.2765
N9280 X0.0875 Y-0.2771
N9285 X0.0872 Y-0.2777
N9290 X0.0869 Y-0.2782
N9295 X0.0865 Y-0.2787
N9300 X0.0861 Y-0.2793
N9305 X0.0857 Y-0.2798
N9310 X0.0853 Y-0.2803
N9315 X0.0848 Y-0.2809
N9320 X0.0843 Y-0.2814
N9325 X0.0838 Y-0.2819
N9330 X0.0833 Y-0.2825
N9335 X0.0828 Y-0.283
N9340 X0.0822 Y-0.2836
N9345 X0.0819 Y-0.2839
N9350 X0.0816 Y-0.2841
N9355 X0.0809 Y-0.2845
N9360 X0.0803 Y-0.2849
N9365 X0.0797 Y-0.2852
N9370 X0.0791 Y-0.2856
N9375 X0.0785 Y-0.2859
N9380 X0.0779 Y-0.2862
N9385 X0.0773 Y-0.2865
N9390 X0.0768 Y-0.2868
N9395 X0.0762 Y-0.2871
N9400 X0.0756 Y-0.2873
N9405 X0.0751 Y-0.2875
N9410 X0.0745 Y-0.2876
N9415 X0.0739 Y-0.2878
N9420 X0.0733 Y-0.2879
N9425 X0.0726 Y-0.288
N9430 X0.072 Y-0.2881
N9435 X0.0713 Y-0.2882
N9440 X0.0706 Y-0.2883
N9445 X0.0699 Y-0.2884
N9450 X0.0692
N9455 X0.0685 Y-0.2885
N9460 X0.0677
N9465 X0.0671 Y-0.2886
N9470 X0.0667
N9475 X0.0673 Y-0.2885
N9480 X0.0678
N9485 X0.0679
N9490 X0.0684 Y-0.2884
N9495 X0.069
N9500 X0.0696 Y-0.2883
N9505 X0.0697
N9510 X0.0702 Y-0.2882
N9515 X0.0703
N9520 X0.0708
N9525 X0.0709 Y-0.2881
N9530 X0.0714
N9535 X0.0715 Y-0.288
N9540 X0.0721 Y-0.2879
N9545 X0.0722
N9550 X0.0727 Y-0.2878
N9555 X0.0728
N9560 X0.0733 Y-0.2876
N9565 X0.0735
N9570 X0.074 Y-0.2874
N9575 X0.0741
N9580 X0.0747 Y-0.2872
N9585 X0.0748 Y-0.2871
N9590 X0.0753 Y-0.2869
N9595 X0.0754
N9600 X0.0759 Y-0.2867
N9605 X0.076 Y-0.2866
N9610 X0.0765 Y-0.2864
N9615 X0.0766 Y-0.2863
N9620 X0.0771 Y-0.2861
N9625 X0.0772 Y-0.286
N9630 X0.0776 Y-0.2857
N9635 X0.0777
N9640 X0.0782 Y-0.2854
N9645 X0.0787 Y-0.2851
N9650 X0.0792 Y-0.2848
N9655 Y-0.2847
N9660 X0.0797 Y-0.2844
N9665 X0.0802 Y-0.2841
N9670 X0.0806 Y-0.2838
N9675 G3 X0.0812 Y-0.2833 I-0.002 J0.003
N9680 G1 X0.0817 Y-0.2829
N9685 Y-0.2828
N9690 X0.0821 Y-0.2824
N9695 X0.0825 Y-0.2819
N9700 X0.0829 Y-0.2815
N9705 X0.083 Y-0.2814
N9710 X0.0834 Y-0.281
N9715 Y-0.2809
N9720 X0.0838 Y-0.2805
N9725 Y-0.2804
N9730 X0.0842 Y-0.28
N9735 X0.0843 Y-0.2799
N9740 X0.0846 Y-0.2794
N9745 X0.0847 Y-0.2793
N9750 X0.085 Y-0.2789
N9755 X0.0851 Y-0.2788
N9760 X0.0854 Y-0.2783
N9765 X0.0855 Y-0.2782
N9770 X0.0858 Y-0.2777
N9775 X0.0859 Y-0.2775
N9780 X0.0862 Y-0.277
N9785 Y-0.2769
N9790 X0.0865 Y-0.2764
N9795 X0.0866 Y-0.2763
N9800 X0.0868 Y-0.2757
N9805 X0.0869 Y-0.2756
N9810 X0.0871 Y-0.2751
N9815 Y-0.275
N9820 X0.0873 Y-0.2744
N9825 X0.0874 Y-0.2743
N9830 X0.0876 Y-0.2738
N9835 Y-0.2737
N9840 X0.0878 Y-0.2731
N9845 X0.0879 Y-0.2729
N9850 X0.0878 Y-0.2731
N9855 X0.0876 Y-0.2737
N9860 Y-0.2738
N9865 X0.0874 Y-0.2743
N9870 X0.0873 Y-0.2744
N9875 X0.0871 Y-0.275
N9880 Y-0.2751
N9885 X0.0869 Y-0.2756
N9890 X0.0868 Y-0.2757
N9895 X0.0866 Y-0.2763
N9900 X0.0865 Y-0.2764
N9905 X0.0862 Y-0.2769
N9910 Y-0.277
N9915 X0.0859 Y-0.2775
N9920 X0.0858 Y-0.2777
N9925 X0.0855 Y-0.2782
N9930 X0.0854 Y-0.2783
N9935 X0.0851 Y-0.2788
N9940 X0.085 Y-0.2789
N9945 X0.0847 Y-0.2793
N9950 X0.0846 Y-0.2794
N9955 X0.0843 Y-0.2799
N9960 X0.0842 Y-0.28
N9965 X0.0838 Y-0.2804
N9970 Y-0.2805
N9975 X0.0834 Y-0.2809
N9980 Y-0.281
N9985 X0.083 Y-0.2814
N9990 X0.0829 Y-0.2815
N9995 X0.0825 Y-0.2819
N10000 X0.0821 Y-0.2824
N10005 X0.0817 Y-0.2828
N10010 Y-0.2829
N10015 X0.0812 Y-0.2833
N10020 G2 X0.0806 Y-0.2838 I-0.0026 J0.0025
N10025 G1 X0.0802 Y-0.2841
N10030 X0.0797 Y-0.2844
N10035 X0.0792 Y-0.2847
N10040 Y-0.2848
N10045 X0.0787 Y-0.2851
N10050 X0.0782 Y-0.2854
N10055 X0.0777 Y-0.2857
N10060 X0.0776
N10065 X0.0772 Y-0.286
N10070 X0.0771 Y-0.2861
N10075 X0.0766 Y-0.2863
N10080 X0.0765 Y-0.2864
N10085 X0.076 Y-0.2866
N10090 X0.0759 Y-0.2867
N10095 X0.0754 Y-0.2869
N10100 X0.0753
N10105 X0.0748 Y-0.2871
N10110 X0.0747 Y-0.2872
N10115 X0.0741 Y-0.2874
N10120 X0.074
N10125 X0.0735 Y-0.2876
N10130 X0.0733
N10135 X0.0728 Y-0.2878
N10140 X0.0727
N10145 X0.0722 Y-0.2879
N10150 X0.0721
N10155 X0.0715 Y-0.288
N10160 X0.0714 Y-0.2881
N10165 X0.0709
N10170 X0.0708 Y-0.2882
N10175 X0.0703
N10180 X0.0702
N10185 X0.0697 Y-0.2883
N10190 X0.0696
N10195 X0.069 Y-0.2884
N10200 X0.0684
N10205 X0.0679 Y-0.2885
N10210 X0.0678
N10215 X0.0673
N10220 X0.0667 Y-0.2886
N10225 X0.0657 Y-0.2885
N10230 X0.0653
N10235 X0.0652
N10240 X0.0648
N10245 X0.0647 Y-0.2884
N10250 X0.0642
N10255 X0.0637
N10260 X0.0632 Y-0.2883
N10265 X0.0631
N10270 X0.0627 Y-0.2882
N10275 X0.0626
N10280 X0.0621
N10285 X0.062 Y-0.2881
N10290 X0.0616
N10295 X0.0615 Y-0.288
N10300 X0.061
N10305 X0.0609 Y-0.2879
N10310 X0.0605 Y-0.2878
N10315 X0.0603
N10320 X0.0599 Y-0.2877
N10325 X0.0598
N10330 X0.0593 Y-0.2875
N10335 X0.0592
N10340 X0.0587 Y-0.2873
N10345 X0.0586
N10350 X0.0582 Y-0.2871
N10355 X0.0581
N10360 X0.0577 Y-0.2869
N10365 X0.0576
N10370 X0.0572 Y-0.2867
N10375 X0.0571
N10380 X0.0567 Y-0.2865
N10385 X0.0566
N10390 X0.0562 Y-0.2863
N10395 X0.0561 Y-0.2862
N10400 X0.0557 Y-0.286
N10405 X0.0556
N10410 X0.0552 Y-0.2858
N10415 X0.0548 Y-0.2856
N10420 X0.0547
N10425 X0.0543 Y-0.2854
N10430 Y-0.2853
N10435 X0.0539 Y-0.2851
N10440 G2 X0.0534 Y-0.2848 I0.0017 J0.0032
N10445 G1 X0.053 Y-0.2845
N10450 X0.0525 Y-0.2842
N10455 X0.0521 Y-0.2839
N10460 X0.0517 Y-0.2836
N10465 Y-0.2835
N10470 X0.0513 Y-0.2832
N10475 X0.0512
N10480 X0.0508 Y-0.2829
N10485 Y-0.2828
N10490 X0.0504 Y-0.2825
N10495 X0.0503 Y-0.2824
N10500 X0.0499 Y-0.2821
N10505 Y-0.282
N10510 X0.0495 Y-0.2817
N10515 X0.0494 Y-0.2816
N10520 X0.0491 Y-0.2812
N10525 X0.049 Y-0.2811
N10530 X0.0487 Y-0.2808
N10535 X0.0486 Y-0.2807
N10540 X0.0482 Y-0.2803
N10545 Y-0.2802
N10550 X0.0479 Y-0.2798
N10555 X0.0478 Y-0.2797
N10560 X0.0475 Y-0.2793
N10565 X0.0474 Y-0.2792
N10570 X0.0471 Y-0.2788
N10575 Y-0.2787
N10580 X0.0468 Y-0.2783
N10585 Y-0.2782
N10590 X0.0465 Y-0.2778
N10595 Y-0.2777
N10600 X0.0462 Y-0.2772
N10605 X0.046 Y-0.2767
N10610 X0.0459
N10615 X0.0457 Y-0.2762
N10620 X0.0455 Y-0.2757
N10625 X0.0454
N10630 X0.0452 Y-0.2752
N10635 X0.045 Y-0.2748
N10640 X0.0448 Y-0.2743
N10645 G2 X0.0446 Y-0.2738 I0.0033 J0.0016
N10650 G1 X0.0444 Y-0.2733
N10655 Y-0.2732
N10660 X0.0442 Y-0.2727
N10665 Y-0.2726
N10670 X0.044 Y-0.2721
N10675 Y-0.272
N10680 X0.0439 Y-0.2715
N10685 X0.0438 Y-0.2714
N10690 X0.0437 Y-0.2708
N10695 X0.0435 Y-0.2702
N10700 X0.0433 Y-0.2696
N10705 Y-0.2695
N10710 X0.0432 Y-0.2689
N10715 X0.043 Y-0.2683
N10720 Y-0.2682
N10725 X0.0429 Y-0.2676
N10730 X0.0427 Y-0.267
N10735 Y-0.2669
N10740 X0.0426 Y-0.2663
N10745 Y-0.2662
N10750 X0.0425 Y-0.2656
N10755 Y-0.2655
N10760 X0.0424 Y-0.2649
N10765 Y-0.2643
N10770 Y-0.2642
N10775 X0.0423 Y-0.2636
N10780 X0.0422 Y-0.2629
N10785 Y-0.2623
N10790 Y-0.2616
N10795 X0.0421 Y-0.261
N10800 Y-0.2604
N10805 Y-0.2603
N10810 Y-0.2597
N10815 Y-0.2591
N10820 Y-0.2585
N10825 Y-0.2582
N10830 Y-0.2577
N10835 Y-0.2572
N10840 Y-0.2566
N10845 Y-0.2561
N10850 X0.0422 Y-0.2555
N10855 Y-0.255
N10860 X0.0423 Y-0.2544
N10865 Y-0.2539
N10870 Y-0.2538
N10875 X0.0424 Y-0.2533
N10880 Y-0.2532
N10885 Y-0.2527
N10890 X0.0425 Y-0.2522
N10895 Y-0.2521
N10900 X0.0426 Y-0.2516
N10905 Y-0.2515
N10910 X0.0427 Y-0.251
N10915 Y-0.2509
N10920 X0.0428 Y-0.2504
N10925 Y-0.2503
N10930 X0.0429 Y-0.2498
N10935 X0.0431 Y-0.2493
N10940 Y-0.2492
N10945 X0.0432 Y-0.2487
N10950 X0.0433 Y-0.2482
N10955 Y-0.2481
N10960 X0.0435 Y-0.2476
N10965 X0.0436 Y-0.2471
N10970 X0.0438 Y-0.2466
N10975 Y-0.2465
N10980 X0.0439 Y-0.246
N10985 X0.0441 Y-0.2455
N10990 X0.0442 Y-0.245
N10995 G2 X0.0443 Y-0.2446 I0.0035 J-0.001
N11000 G1 X0.0445 Y-0.2442
N11005 X0.0447 Y-0.2437
N11010 X0.0448
N11015 X0.045 Y-0.2432
N11020 X0.0452 Y-0.2427
N11025 X0.0454 Y-0.2422
N11030 Y-0.2421
N11035 X0.0456 Y-0.2417
N11040 X0.0457 Y-0.2416
N11045 X0.0459 Y-0.2412
N11050 Y-0.2411
N11055 X0.0462 Y-0.2407
N11060 Y-0.2406
N11065 X0.0464 Y-0.2401
N11070 X0.0465
N11075 X0.0468 Y-0.2396
N11080 Y-0.2395
N11085 X0.0471 Y-0.2391
N11090 X0.0472 Y-0.239
N11095 X0.0474 Y-0.2386
N11100 X0.0475 Y-0.2385
N11105 X0.0478 Y-0.2381
N11110 X0.0479 Y-0.238
N11115 X0.0482 Y-0.2376
N11120 X0.0483 Y-0.2375
N11125 X0.0486 Y-0.2371
N11130 X0.0487 Y-0.237
N11135 X0.049 Y-0.2367
N11140 X0.0491 Y-0.2366
N11145 X0.0495 Y-0.2363
N11150 Y-0.2362
N11155 X0.0499 Y-0.2358
N11160 X0.0503 Y-0.2355
N11165 Y-0.2354
N11170 X0.0507 Y-0.2351
N11175 X0.0508 Y-0.235
N11180 X0.0511 Y-0.2347
N11185 X0.0512
N11190 X0.0515 Y-0.2344
N11195 X0.0516 Y-0.2343
N11200 X0.052 Y-0.234
N11205 X0.0523 Y-0.2337
N11210 G2 X0.0529 Y-0.2333 I0.0024 J-0.0028
N11215 G1 X0.0534 Y-0.233
N11220 X0.0539 Y-0.2327
N11225 X0.0544 Y-0.2325
N11230 Y-0.2324
N11235 X0.0549 Y-0.2322
N11240 X0.0554 Y-0.2319
N11245 X0.0555
N11250 X0.056 Y-0.2316
N11255 X0.0565 Y-0.2314
N11260 X0.0566 Y-0.2313
N11265 X0.0571 Y-0.2311
N11270 X0.0572
N11275 X0.0577 Y-0.2308
N11280 X0.0574 Y-0.231
N11285 X0.0568 Y-0.2312
N11290 X0.0562 Y-0.2314
N11295 X0.0556 Y-0.2317
N11300 X0.055 Y-0.232
N11305 X0.0544 Y-0.2322
N11310 X0.0538 Y-0.2325
N11315 X0.0534 Y-0.2327
N11320 X0.0531 Y-0.2329
N11325 X0.0525 Y-0.2333
N11330 X0.052 Y-0.2336
N11335 X0.0515 Y-0.234
N11340 X0.051 Y-0.2343
N11345 X0.0505 Y-0.2347
N11350 X0.05 Y-0.2351
N11355 X0.0496 Y-0.2354
N11360 X0.0491 Y-0.2358
N11365 X0.0487 Y-0.2361
N11370 X0.0483 Y-0.2365
N11375 X0.048 Y-0.2369
N11380 X0.0476 Y-0.2373
N11385 X0.0472 Y-0.2377
N11390 X0.0469 Y-0.2381
N11395 X0.0466 Y-0.2386
N11400 X0.0462 Y-0.239
N11405 X0.0459 Y-0.2395
N11410 X0.0455 Y-0.24
N11415 X0.0452 Y-0.2405
N11420 X0.0449 Y-0.2411
N11425 X0.0445 Y-0.2416
N11430 X0.0442 Y-0.2422
N11435 X0.044 Y-0.2425
N11440 X0.0438 Y-0.243
N11445 X0.0435 Y-0.2437
N11450 X0.0432 Y-0.2444
N11455 X0.043 Y-0.245
N11460 X0.0427 Y-0.2457
N11465 X0.0425 Y-0.2464
N11470 X0.0422 Y-0.247
N11475 X0.042 Y-0.2477
N11480 X0.0418 Y-0.2483
N11485 X0.0416 Y-0.2489
N11490 X0.0415 Y-0.2496
N11495 X0.0413 Y-0.2502
N11500 X0.0412 Y-0.2508
N11505 X0.0411 Y-0.2515
N11510 X0.041 Y-0.2521
N11515 X0.0409 Y-0.2528
N11520 X0.0408 Y-0.2535
N11525 Y-0.2542
N11530 X0.0407 Y-0.2549
N11535 Y-0.2556
N11540 X0.0406 Y-0.2563
N11545 Y-0.2571
N11550 Y-0.2578
N11555 X0.0405 Y-0.2584
N11560 X0.0406 Y-0.259
N11565 Y-0.2597
N11570 Y-0.2604
N11575 X0.0407 Y-0.2612
N11580 Y-0.2619
N11585 X0.0408 Y-0.2626
N11590 Y-0.2632
N11595 X0.0409 Y-0.2639
N11600 X0.041 Y-0.2646
N11605 X0.0411 Y-0.2653
N11610 X0.0412 Y-0.2659
N11615 X0.0413 Y-0.2665
N11620 X0.0414 Y-0.2672
N11625 X0.0416 Y-0.2678
N11630 X0.0417 Y-0.2684
N11635 X0.0419 Y-0.2691
N11640 X0.0421 Y-0.2697
N11645 X0.0423 Y-0.2704
N11650 X0.0425 Y-0.2711
N11655 X0.0427 Y-0.2717
N11660 X0.043 Y-0.2724
N11665 X0.0432 Y-0.2731
N11670 X0.0435 Y-0.2738
N11675 X0.0436 Y-0.2743
N11680 X0.0438 Y-0.2747
N11685 X0.0441 Y-0.2753
N11690 X0.0444 Y-0.2758
N11695 X0.0447 Y-0.2764
N11700 X0.045 Y-0.277
N11705 X0.0453 Y-0.2775
N11710 X0.0456 Y-0.278
N11715 X0.0459 Y-0.2785
N11720 X0.0462 Y-0.279
N11725 X0.0465 Y-0.2795
N11730 X0.0468 Y-0.2799
N11735 X0.0472 Y-0.2803
N11740 X0.0475 Y-0.2807
N11745 X0.0479 Y-0.2811
N11750 X0.0482 Y-0.2815
N11755 X0.0486 Y-0.2819
N11760 X0.0491 Y-0.2823
N11765 X0.0495 Y-0.2827
N11770 X0.05 Y-0.2831
N11775 X0.0504 Y-0.2835
N11780 X0.0509 Y-0.2839
N11785 X0.0514 Y-0.2843
N11790 X0.0519 Y-0.2847
N11795 X0.0522 Y-0.2849
N11800 X0.0525 Y-0.2851
N11805 X0.0532 Y-0.2854
N11810 X0.0538 Y-0.2857
N11815 X0.0544 Y-0.286
N11820 X0.0551 Y-0.2863
N11825 X0.0557 Y-0.2866
N11830 X0.0563 Y-0.2868
N11835 X0.0569 Y-0.2871
N11840 X0.0575 Y-0.2873
N11845 X0.0581 Y-0.2875
N11850 X0.0586 Y-0.2876
N11855 X0.0592 Y-0.2878
N11860 X0.0598 Y-0.2879
N11865 X0.0604 Y-0.288
N11870 X0.0611 Y-0.2881
N11875 X0.0617 Y-0.2882
N11880 X0.0624 Y-0.2883
N11885 X0.063 Y-0.2884
N11890 X0.0637
N11895 X0.0644 Y-0.2885
N11900 X0.0651
N11905 X0.0657
N11910 X0.0651
N11915 X0.0644
N11920 X0.0637 Y-0.2884
N11925 X0.063
N11930 X0.0624 Y-0.2883
N11935 X0.0617 Y-0.2882
N11940 X0.0611 Y-0.2881
N11945 X0.0604 Y-0.288
N11950 X0.0598 Y-0.2879
N11955 X0.0592 Y-0.2878
N11960 X0.0586 Y-0.2876
N11965 X0.0581 Y-0.2875
N11970 X0.0575 Y-0.2873
N11975 X0.0569 Y-0.2871
N11980 X0.0563 Y-0.2868
N11985 X0.0557 Y-0.2866
N11990 X0.0551 Y-0.2863
N11995 X0.0544 Y-0.286
N12000 X0.0538 Y-0.2857
N12005 X0.0532 Y-0.2854
N12010 X0.0525 Y-0.2851
N12015 X0.0522 Y-0.2849
N12020 X0.0519 Y-0.2847
N12025 X0.0514 Y-0.2843
N12030 X0.0509 Y-0.2839
N12035 X0.0504 Y-0.2835
N12040 X0.05 Y-0.2831
N12045 X0.0495 Y-0.2827
N12050 X0.0491 Y-0.2823
N12055 X0.0486 Y-0.2819
N12060 X0.0482 Y-0.2815
N12065 X0.0479 Y-0.2811
N12070 X0.0475 Y-0.2807
N12075 X0.0472 Y-0.2803
N12080 X0.0468 Y-0.2799
N12085 X0.0465 Y-0.2795
N12090 X0.0462 Y-0.279
N12095 X0.0459 Y-0.2785
N12100 X0.0456 Y-0.278
N12105 X0.0453 Y-0.2775
N12110 X0.045 Y-0.277
N12115 X0.0447 Y-0.2764
N12120 X0.0444 Y-0.2758
N12125 X0.0441 Y-0.2753
N12130 X0.0438 Y-0.2747
N12135 X0.0436 Y-0.2743
N12140 X0.0435 Y-0.2738
N12145 X0.0432 Y-0.2731
N12150 X0.043 Y-0.2724
N12155 X0.0427 Y-0.2717
N12160 X0.0425 Y-0.2711
N12165 X0.0423 Y-0.2704
N12170 X0.0421 Y-0.2697
N12175 X0.0419 Y-0.2691
N12180 X0.0417 Y-0.2684
N12185 X0.0416 Y-0.2678
N12190 X0.0414 Y-0.2672
N12195 X0.0413 Y-0.2665
N12200 X0.0412 Y-0.2659
N12205 X0.0411 Y-0.2653
N12210 X0.041 Y-0.2646
N12215 X0.0409 Y-0.2639
N12220 X0.0408 Y-0.2632
N12225 Y-0.2626
N12230 X0.0407 Y-0.2619
N12235 Y-0.2612
N12240 X0.0406 Y-0.2604
N12245 Y-0.2597
N12250 Y-0.259
N12255 X0.0405 Y-0.2584
N12260 X0.0406 Y-0.2578
N12265 Y-0.2571
N12270 Y-0.2563
N12275 X0.0407 Y-0.2556
N12280 Y-0.2549
N12285 X0.0408 Y-0.2542
N12290 Y-0.2535
N12295 X0.0409 Y-0.2528
N12300 X0.041 Y-0.2521
N12305 X0.0411 Y-0.2515
N12310 X0.0412 Y-0.2508
N12315 X0.0413 Y-0.2502
N12320 X0.0415 Y-0.2496
N12325 X0.0416 Y-0.2489
N12330 X0.0418 Y-0.2483
N12335 X0.042 Y-0.2477
N12340 X0.0422 Y-0.247
N12345 X0.0425 Y-0.2464
N12350 X0.0427 Y-0.2457
N12355 X0.043 Y-0.245
N12360 X0.0432 Y-0.2444
N12365 X0.0435 Y-0.2437
N12370 X0.0438 Y-0.243
N12375 X0.044 Y-0.2425
N12380 X0.0442 Y-0.2422
N12385 X0.0445 Y-0.2416
N12390 X0.0449 Y-0.2411
N12395 X0.0452 Y-0.2405
N12400 X0.0455 Y-0.24
N12405 X0.0459 Y-0.2395
N12410 X0.0462 Y-0.239
N12415 X0.0466 Y-0.2386
N12420 X0.0469 Y-0.2381
N12425 X0.0472 Y-0.2377
N12430 X0.0476 Y-0.2373
N12435 X0.048 Y-0.2369
N12440 X0.0483 Y-0.2365
N12445 X0.0487 Y-0.2361
N12450 X0.0491 Y-0.2358
N12455 X0.0496 Y-0.2354
N12460 X0.05 Y-0.2351
N12465 X0.0505 Y-0.2347
N12470 X0.051 Y-0.2343
N12475 X0.0515 Y-0.234
N12480 X0.052 Y-0.2336
N12485 X0.0525 Y-0.2333
N12490 X0.0531 Y-0.2329
N12495 X0.0534 Y-0.2327
N12500 X0.0538 Y-0.2325
N12505 X0.0544 Y-0.2322
N12510 X0.055 Y-0.232
N12515 X0.0556 Y-0.2317
N12520 X0.0562 Y-0.2314
N12525 X0.0568 Y-0.2312
N12530 X0.0574 Y-0.231
N12535 X0.0577 Y-0.2308
N12540 X0.0583 Y-0.2306
N12545 X0.0597 Y-0.2302
N12550 X0.0618 Y-0.2297
N12555 X0.0646 Y-0.2294
N12560 X0.0671 Y-0.2293
N12565 X0.0673
N12570 X0.0678
N12575 X0.0683
N12580 X0.0688
N12585 X0.0693 Y-0.2294
N12590 X0.0694
N12595 X0.0698
N12600 X0.0699
N12605 X0.0704 Y-0.2295
N12610 X0.0709
N12615 X0.071
N12620 X0.0714 Y-0.2296
N12625 X0.0715
N12630 X0.072 Y-0.2297
N12635 X0.0721
N12640 X0.0726 Y-0.2298
N12645 X0.0727
N12650 X0.0731 Y-0.2299
N12655 X0.0733 Y-0.23
N12660 X0.0737 Y-0.2301
N12665 X0.0739
N12670 X0.0743 Y-0.2303
N12675 X0.0744
N12680 X0.0749 Y-0.2305
N12685 X0.075
N12690 X0.0754 Y-0.2307
N12695 X0.0755
N12700 X0.076 Y-0.2309
N12705 X0.0761 Y-0.231
N12710 X0.0765 Y-0.2312
N12715 X0.0766
N12720 X0.077 Y-0.2314
N12725 X0.0771 Y-0.2315
N12730 X0.0775 Y-0.2317
N12735 X0.078 Y-0.2319
N12740 Y-0.232
N12745 X0.0784 Y-0.2322
N12750 X0.0785
N12755 X0.0789 Y-0.2325
N12760 X0.0793 Y-0.2327
N12765 X0.0797 Y-0.233
N12770 G2 X0.0804 Y-0.2335 I-0.0019 J-0.0031
N12775 G1 X0.0808 Y-0.2338
N12780 Y-0.2339
N12785 X0.0811 Y-0.2342
N12790 X0.0812
N12795 X0.0815 Y-0.2346
N12800 X0.0816
N12805 X0.0819 Y-0.235
N12810 X0.0823 Y-0.2354
N12815 X0.0827 Y-0.2358
N12820 X0.0828 Y-0.2359
N12825 X0.0831 Y-0.2362
N12830 X0.0832 Y-0.2363
N12835 X0.0835 Y-0.2367
N12840 Y-0.2368
N12845 X0.0839 Y-0.2372
N12850 Y-0.2373
N12855 X0.0842 Y-0.2377
N12860 X0.0843 Y-0.2378
N12865 X0.0846 Y-0.2382
N12870 X0.0847 Y-0.2383
N12875 X0.085 Y-0.2387
N12880 Y-0.2388
N12885 X0.0853 Y-0.2393
N12890 Y-0.2394
N12895 X0.0856 Y-0.2398
N12900 Y-0.2399
N12905 X0.0859 Y-0.2404
N12910 Y-0.2405
N12915 X0.0861 Y-0.2409
N12920 X0.0862 Y-0.241
N12925 X0.0864 Y-0.2415
N12930 X0.0866 Y-0.242
N12935 Y-0.2421
N12940 X0.0879 Y-0.2418
N12945 X0.0911 Y-0.2435 Z-0.0035
N12950 X0.0927 Y-0.2443 Z0.
N12955 X0.0911 Y-0.2435 Z-0.0035
N12960 X0.0879 Y-0.2418 Z-0.01
N12965 X0.0876 Y-0.2412
N12970 X0.0874 Y-0.2407
N12975 X0.0871 Y-0.2401
N12980 X0.0868 Y-0.2396
N12985 X0.0866 Y-0.2391
N12990 X0.0863 Y-0.2387
N12995 X0.086 Y-0.2382
N13000 X0.0856 Y-0.2378
N13005 X0.0853 Y-0.2373
N13010 X0.0849 Y-0.2369
N13015 X0.0845 Y-0.2364
N13020 X0.0841 Y-0.236
N13025 X0.0836 Y-0.2355
N13030 X0.0831 Y-0.2351
N13035 X0.0827 Y-0.2346
N13040 X0.0822 Y-0.2342
N13045 X0.0816 Y-0.2337
N13050 X0.0814 Y-0.2335
N13055 X0.0811 Y-0.2333
N13060 X0.0805 Y-0.2329
N13065 X0.0799 Y-0.2326
N13070 X0.0793 Y-0.2322
N13075 X0.0787 Y-0.2319
N13080 X0.0781 Y-0.2316
N13085 X0.0776 Y-0.2313
N13090 X0.077 Y-0.231
N13095 X0.0764 Y-0.2308
N13100 X0.0759 Y-0.2306
N13105 X0.0754 Y-0.2304
N13110 X0.0748 Y-0.2302
N13115 X0.0743 Y-0.2301
N13120 X0.0737 Y-0.2299
N13125 X0.0731 Y-0.2298
N13130 X0.0725 Y-0.2297
N13135 X0.0719 Y-0.2296
N13140 X0.0713 Y-0.2295
N13145 X0.0706
N13150 X0.0699 Y-0.2294
N13155 X0.0692
N13160 X0.0685 Y-0.2293
N13165 X0.0678
N13170 X0.0673 Y-0.2292
N13175 X0.0671 Y-0.2293
N13180 G0 Z0.1
N13185 X0.0844 Y-0.2463
N13190 Z0.05
N13195 G1 Z-0.0001 F5.
N13200 X0.0866 Y-0.2421 Z-0.01 F7.5
N13205 G0 Z0.1
N13210 X0.0949 Y-0.3911
N13215 Z0.05
N13220 G1 Z0. F5.
N13225 X0.1002 Y-0.3875 Z-0.01 F7.5
N13230 X0.1193 Y-0.3378
N13235 X0.1202 Y-0.3348 Z-0.0094
N13240 X0.121 Y-0.3323 Z-0.009
N13245 X0.1215 Y-0.3313 Z-0.0092
N13250 X0.1221 Y-0.3304 Z-0.01
N13255 Y-0.3303
N13260 X0.1197 Y-0.3267 Z0.
N13265 X0.1221 Y-0.3303 Z-0.01
N13270 X0.1222
N13275 X0.1221 Y-0.3304
N13280 X0.1222 Y-0.3303
N13285 X0.1231 Y-0.3301 Z-0.0095
N13290 X0.124 Z-0.0093
N13295 X0.125 Z-0.0095
N13300 X0.1259 Y-0.3303 Z-0.01
N13305 X0.1264
N13310 X0.1288 Y-0.3267 Z0.
N13315 X0.1264 Y-0.3303 Z-0.01
N13320 X0.1266 Y-0.3309
N13325 G3 X0.1259 Y-0.3303 I-0.0026 J-0.0026
N13330 G2 X0.1266 Y-0.3309 I-0.0019 J-0.0031
N13335 G1 X0.1273 Y-0.3321 Z-0.0096
N13340 X0.1284 Y-0.3353 Z-0.01
N13345 X0.1498 Y-0.3875
N13350 X0.1552 Y-0.3911 Z0.
N13355 X0.1498 Y-0.3875 Z-0.01
N13360 X0.148
N13365 X0.1455 Y-0.3911 Z0.
N13370 X0.148 Y-0.3875 Z-0.01
N13375 X0.1414 Y-0.3703
N13380 G3 X0.138 Y-0.368 I-0.0034 J-0.0013
N13385 G1 X0.1369
N13390 G3 X0.1387 Y-0.3634 I-0.0015 J0.0033
N13395 G1 X0.132 Y-0.3455
N13400 X0.1316 Y-0.3444
N13405 X0.1314 Y-0.3439
N13410 X0.1312 Y-0.3433
N13415 X0.131 Y-0.3428
N13420 X0.1308 Y-0.3423
N13425 X0.1306 Y-0.3417
N13430 X0.1304 Y-0.3412
N13435 X0.1302 Y-0.3406
N13440 X0.13 Y-0.3401
N13445 X0.1298 Y-0.3395
N13450 X0.1296 Y-0.339
N13455 X0.1295 Y-0.3385
N13460 X0.1293 Y-0.3379
N13465 X0.1291 Y-0.3374
N13470 X0.1289 Y-0.3368
N13475 X0.1287 Y-0.3363
N13480 X0.1286 Y-0.3357
N13485 X0.1284 Y-0.3353
N13490 X0.1286 Y-0.3357
N13495 X0.1287 Y-0.3363
N13500 X0.1289 Y-0.3368
N13505 X0.1291 Y-0.3374
N13510 X0.1293 Y-0.3379
N13515 X0.1295 Y-0.3385
N13520 X0.1296 Y-0.339
N13525 X0.1298 Y-0.3395
N13530 X0.13 Y-0.3401
N13535 X0.1302 Y-0.3406
N13540 X0.1304 Y-0.3412
N13545 X0.1306 Y-0.3417
N13550 X0.1308 Y-0.3423
N13555 X0.131 Y-0.3428
N13560 X0.1312 Y-0.3433
N13565 X0.1314 Y-0.3439
N13570 X0.1316 Y-0.3444
N13575 X0.132 Y-0.3455
N13580 X0.1387 Y-0.3634
N13585 G2 X0.1369 Y-0.368 I-0.0034 J-0.0013
N13590 G1 X0.1361 Y-0.3681 Z-0.0097
N13595 X0.1353 Z-0.0095
N13600 X0.1135
N13605 X0.1127 Z-0.0097
N13610 X0.112 Y-0.368 Z-0.01
N13615 G2 X0.1101 Y-0.3634 I0.0015 J0.0033
N13620 G1 X0.1171 Y-0.3445
N13625 X0.1173 Y-0.3441
N13630 X0.1175 Y-0.3436
N13635 X0.1176 Y-0.3431
N13640 X0.1178 Y-0.3426
N13645 X0.118 Y-0.3421
N13650 X0.1181 Y-0.3416
N13655 X0.1183 Y-0.3411
N13660 X0.1185 Y-0.3406
N13665 X0.1186 Y-0.3401
N13670 X0.1188 Y-0.3397
N13675 X0.1189 Y-0.3392
N13680 X0.119 Y-0.3387
N13685 X0.1192 Y-0.3382
N13690 X0.1193 Y-0.3378
N13695 X0.1192 Y-0.3382
N13700 X0.119 Y-0.3387
N13705 X0.1189 Y-0.3392
N13710 X0.1188 Y-0.3397
N13715 X0.1186 Y-0.3401
N13720 X0.1185 Y-0.3406
N13725 X0.1183 Y-0.3411
N13730 X0.1181 Y-0.3416
N13735 X0.118 Y-0.3421
N13740 X0.1178 Y-0.3426
N13745 X0.1176 Y-0.3431
N13750 X0.1175 Y-0.3436
N13755 X0.1173 Y-0.3441
N13760 X0.1171 Y-0.3445
N13765 X0.1101 Y-0.3634
N13770 G3 X0.112 Y-0.368 I0.0034 J-0.0013
N13775 G1 X0.111
N13780 G3 X0.1076 Y-0.3704 I0. J-0.0036
N13785 G1 X0.1014 Y-0.3875
N13790 X0.1002
N13795 X0.1014
N13800 X0.1039 Y-0.3911 Z0.
N13805 G0 Z0.1
N13810 X0.0973 Y-0.4945
N13815 Z0.05
N13820 G1 Z0. F5.
N13825 X0.1026 Y-0.4908 Z-0.01 F7.5
N13830 X0.1217 Y-0.4411
N13835 X0.1226 Y-0.4381 Z-0.0095
N13840 X0.1234 Y-0.4356 Z-0.009
N13845 X0.1239 Y-0.4346 Z-0.0092
N13850 X0.1245 Y-0.4337 Z-0.01
N13855 X0.1246
N13860 X0.1245
N13865 X0.122 Y-0.4301 Z0.
N13870 X0.1245 Y-0.4337 Z-0.01
N13875 X0.1246
N13880 X0.1255 Y-0.4335 Z-0.0095
N13885 X0.1264 Y-0.4334 Z-0.0093
N13890 X0.1273 Y-0.4335 Z-0.0095
N13895 X0.1283 Y-0.4337 Z-0.01
N13900 G2 X0.129 Y-0.4342 I-0.0019 J-0.0031
N13905 G1 X0.1288 Y-0.4337
N13910 X0.1312 Y-0.4301 Z0.
N13915 X0.1288 Y-0.4337 Z-0.01
N13920 X0.1283
N13925 X0.1288
N13930 X0.129 Y-0.4342
N13935 X0.1297 Y-0.4355 Z-0.0096
N13940 X0.1308 Y-0.4387 Z-0.01
N13945 X0.1522 Y-0.4908
N13950 X0.1576 Y-0.4945 Z0.
N13955 X0.1522 Y-0.4908 Z-0.01
N13960 X0.1504
N13965 X0.1479 Y-0.4945 Z0.
N13970 X0.1504 Y-0.4908 Z-0.01
N13975 X0.1437 Y-0.4737
N13980 G3 X0.1403 Y-0.4713 I-0.0034 J-0.0013
N13985 G1 X0.1392
N13990 G3 X0.1411 Y-0.4667 I-0.0015 J0.0033
N13995 G1 X0.1344 Y-0.4489
N14000 X0.1342 Y-0.4483
N14005 X0.134 Y-0.4478
N14010 X0.1338 Y-0.4473
N14015 X0.1336 Y-0.4467
N14020 X0.1334 Y-0.4462
N14025 X0.1332 Y-0.4456
N14030 X0.133 Y-0.4451
N14035 X0.1328 Y-0.4445
N14040 X0.1326 Y-0.444
N14045 X0.1324 Y-0.4434
N14050 X0.1322 Y-0.4429
N14055 X0.132 Y-0.4424
N14060 X0.1318 Y-0.4418
N14065 X0.1316 Y-0.4413
N14070 X0.1315 Y-0.4407
N14075 X0.1313 Y-0.4402
N14080 X0.1311 Y-0.4396
N14085 X0.1309 Y-0.4391
N14090 X0.1308 Y-0.4387
N14095 X0.1309 Y-0.4391
N14100 X0.1311 Y-0.4396
N14105 X0.1313 Y-0.4402
N14110 X0.1315 Y-0.4407
N14115 X0.1316 Y-0.4413
N14120 X0.1318 Y-0.4418
N14125 X0.132 Y-0.4424
N14130 X0.1322 Y-0.4429
N14135 X0.1324 Y-0.4434
N14140 X0.1326 Y-0.444
N14145 X0.1328 Y-0.4445
N14150 X0.133 Y-0.4451
N14155 X0.1332 Y-0.4456
N14160 X0.1334 Y-0.4462
N14165 X0.1336 Y-0.4467
N14170 X0.1338 Y-0.4473
N14175 X0.134 Y-0.4478
N14180 X0.1342 Y-0.4483
N14185 X0.1344 Y-0.4489
N14190 X0.1411 Y-0.4667
N14195 G2 X0.1392 Y-0.4713 I-0.0034 J-0.0013
N14200 G1 X0.1385 Y-0.4714 Z-0.0097
N14205 X0.1377 Y-0.4715 Z-0.0095
N14210 X0.1159
N14215 X0.1151 Y-0.4714 Z-0.0097
N14220 X0.1143 Y-0.4713 Z-0.01
N14225 G2 X0.1125 Y-0.4667 I0.0015 J0.0033
N14230 G1 X0.1195 Y-0.4479
N14235 X0.1197 Y-0.4474
N14240 X0.1199 Y-0.4469
N14245 X0.12 Y-0.4464
N14250 X0.1202 Y-0.4459
N14255 X0.1204 Y-0.4454
N14260 X0.1205 Y-0.445
N14265 X0.1207 Y-0.4445
N14270 X0.1208 Y-0.444
N14275 X0.121 Y-0.4435
N14280 X0.1211 Y-0.443
N14285 X0.1213 Y-0.4425
N14290 X0.1214 Y-0.442
N14295 X0.1216 Y-0.4416
N14300 X0.1217 Y-0.4411
N14305 X0.1216 Y-0.4416
N14310 X0.1214 Y-0.442
N14315 X0.1213 Y-0.4425
N14320 X0.1211 Y-0.443
N14325 X0.121 Y-0.4435
N14330 X0.1208 Y-0.444
N14335 X0.1207 Y-0.4445
N14340 X0.1205 Y-0.445
N14345 X0.1204 Y-0.4454
N14350 X0.1202 Y-0.4459
N14355 X0.12 Y-0.4464
N14360 X0.1199 Y-0.4469
N14365 X0.1197 Y-0.4474
N14370 X0.1195 Y-0.4479
N14375 X0.1125 Y-0.4667
N14380 G3 X0.1143 Y-0.4713 I0.0034 J-0.0013
N14385 G1 X0.1134
N14390 G3 X0.11 Y-0.4737 I0. J-0.0036
N14395 G1 X0.1038 Y-0.4908
N14400 X0.1026
N14405 X0.1038
N14410 X0.1063 Y-0.4945 Z0.
N14415 G0 Z0.1
N14420 X0.0973 Y-0.2911
N14425 Z0.05
N14430 G1 Z0. F5.
N14435 X0.1026 Y-0.2875 Z-0.01 F7.5
N14440 X0.1217 Y-0.2378
N14445 X0.1226 Y-0.2348 Z-0.0095
N14450 X0.1234 Y-0.2323 Z-0.009
N14455 X0.1239 Y-0.2313 Z-0.0092
N14460 X0.1245 Y-0.2304 Z-0.01
N14465 Y-0.2303
N14470 X0.122 Y-0.2267 Z0.
N14475 X0.1245 Y-0.2303 Z-0.01
N14480 X0.1246
N14485 X0.1245 Y-0.2304
N14490 X0.1246 Y-0.2303
N14495 X0.1255 Y-0.2301 Z-0.0095
N14500 X0.1264 Z-0.0093
N14505 X0.1273 Z-0.0095
N14510 X0.1283 Y-0.2303 Z-0.01
N14515 G2 X0.129 Y-0.2309 I-0.0019 J-0.0031
N14520 G1 X0.1288 Y-0.2303
N14525 X0.1312 Y-0.2267 Z0.
N14530 X0.1288 Y-0.2303 Z-0.01
N14535 X0.1283
N14540 X0.1288
N14545 X0.129 Y-0.2309
N14550 X0.1297 Y-0.2321 Z-0.0096
N14555 X0.1302 Y-0.2335 Z-0.0098
N14560 X0.1308 Y-0.2353 Z-0.01
N14565 X0.1522 Y-0.2875
N14570 X0.1576 Y-0.2911 Z0.
N14575 X0.1522 Y-0.2875 Z-0.01
N14580 X0.1504
N14585 X0.1479 Y-0.2911 Z0.
N14590 X0.1504 Y-0.2875 Z-0.01
N14595 X0.1437 Y-0.2703
N14600 G3 X0.1403 Y-0.268 I-0.0034 J-0.0013
N14605 G1 X0.1392
N14610 G3 X0.1411 Y-0.2634 I-0.0015 J0.0033
N14615 G1 X0.1344 Y-0.2455
N14620 X0.1342 Y-0.245
N14625 X0.134 Y-0.2444
N14630 X0.1338 Y-0.2439
N14635 X0.1336 Y-0.2433
N14640 X0.1334 Y-0.2428
N14645 X0.1332 Y-0.2423
N14650 X0.133 Y-0.2417
N14655 X0.1328 Y-0.2412
N14660 X0.1326 Y-0.2406
N14665 X0.1324 Y-0.2401
N14670 X0.1322 Y-0.2395
N14675 X0.132 Y-0.239
N14680 X0.1318 Y-0.2385
N14685 X0.1316 Y-0.2379
N14690 X0.1315 Y-0.2374
N14695 X0.1313 Y-0.2368
N14700 X0.1311 Y-0.2363
N14705 X0.1309 Y-0.2357
N14710 X0.1308 Y-0.2353
N14715 X0.1309 Y-0.2357
N14720 X0.1311 Y-0.2363
N14725 X0.1313 Y-0.2368
N14730 X0.1315 Y-0.2374
N14735 X0.1316 Y-0.2379
N14740 X0.1318 Y-0.2385
N14745 X0.132 Y-0.239
N14750 X0.1322 Y-0.2395
N14755 X0.1324 Y-0.2401
N14760 X0.1326 Y-0.2406
N14765 X0.1328 Y-0.2412
N14770 X0.133 Y-0.2417
N14775 X0.1332 Y-0.2423
N14780 X0.1334 Y-0.2428
N14785 X0.1336 Y-0.2433
N14790 X0.1338 Y-0.2439
N14795 X0.134 Y-0.2444
N14800 X0.1342 Y-0.245
N14805 X0.1344 Y-0.2455
N14810 X0.1411 Y-0.2634
N14815 G2 X0.1392 Y-0.268 I-0.0034 J-0.0013
N14820 G1 X0.1385 Y-0.2681 Z-0.0097
N14825 X0.1377 Z-0.0095
N14830 X0.1159
N14835 X0.1151 Z-0.0097
N14840 X0.1143 Y-0.268 Z-0.01
N14845 G2 X0.1125 Y-0.2634 I0.0015 J0.0033
N14850 G1 X0.1195 Y-0.2445
N14855 X0.1199 Y-0.2436
N14860 X0.12 Y-0.2431
N14865 X0.1202 Y-0.2426
N14870 X0.1204 Y-0.2421
N14875 X0.1205 Y-0.2416
N14880 X0.1207 Y-0.2411
N14885 X0.1208 Y-0.2406
N14890 X0.121 Y-0.2401
N14895 X0.1211 Y-0.2397
N14900 X0.1213 Y-0.2392
N14905 X0.1214 Y-0.2387
N14910 X0.1216 Y-0.2382
N14915 X0.1217 Y-0.2378
N14920 X0.1216 Y-0.2382
N14925 X0.1214 Y-0.2387
N14930 X0.1213 Y-0.2392
N14935 X0.1211 Y-0.2397
N14940 X0.121 Y-0.2401
N14945 X0.1208 Y-0.2406
N14950 X0.1207 Y-0.2411
N14955 X0.1205 Y-0.2416
N14960 X0.1204 Y-0.2421
N14965 X0.1202 Y-0.2426
N14970 X0.12 Y-0.2431
N14975 X0.1199 Y-0.2436
N14980 X0.1195 Y-0.2445
N14985 X0.1125 Y-0.2634
N14990 G3 X0.1143 Y-0.268 I0.0034 J-0.0013
N14995 G1 X0.1134
N15000 G3 X0.11 Y-0.2704 I0. J-0.0036
N15005 G1 X0.1038 Y-0.2875
N15010 X0.1026
N15015 X0.1038
N15020 X0.1063 Y-0.2911 Z0.
N15025 G0 Z0.1
N15030 X0.1 Y-0.1911
N15035 Z0.05
N15040 G1 Z0. F5.
N15045 X0.1036 Y-0.1874 Z-0.01 F7.5
N15050 Y-0.1303
N15055 X0.1 Y-0.1267 Z0.
N15060 X0.1036 Y-0.1303 Z-0.01
N15065 X0.1429
N15070 X0.1466 Y-0.1267 Z0.
N15075 X0.1429 Y-0.1303 Z-0.01
N15080 Y-0.1306
N15085 X0.1466 Y-0.1342 Z0.
N15090 X0.1429 Y-0.1306 Z-0.01
N15095 X0.1085
N15100 G3 X0.1049 Y-0.1343 I0. J-0.0036
N15105 G1 Y-0.154
N15110 G3 X0.1085 Y-0.1576 I0.0036 J0.
N15115 G1 X0.1405
N15120 X0.1442 Y-0.154 Z0.
N15125 X0.1405 Y-0.1576 Z-0.01
N15130 Y-0.1579
N15135 X0.1442 Y-0.1615 Z0.
N15140 X0.1405 Y-0.1579 Z-0.01
N15145 X0.1085
N15150 G3 X0.1049 Y-0.1615 I0. J-0.0036
N15155 G1 Y-0.1835
N15160 G3 X0.1085 Y-0.1871 I0.0036 J0.
N15165 G1 X0.1444
N15170 X0.1481 Y-0.1835 Z0.
N15175 X0.1444 Y-0.1871 Z-0.01
N15180 Y-0.1874
N15185 X0.1481 Y-0.1911 Z0.
N15190 X0.1444 Y-0.1874 Z-0.01
N15195 X0.1036
N15200 G0 Z0.1
N15205 X0.1323 Y-0.0875
N15210 Z0.05
N15215 G1 Z-0.01 F5.
N15220 X0.1328 Y-0.0876 F7.5
N15225 X0.1334 Y-0.0878
N15230 X0.134 Y-0.0879
N15235 X0.1346 Y-0.088
N15240 X0.1352 Y-0.0881
N15245 X0.1358 Y-0.0882
N15250 X0.1365 Y-0.0883
N15255 X0.1371
N15260 X0.1378 Y-0.0884
N15265 X0.1385 Y-0.0885
N15270 X0.1391
N15275 X0.1398
N15280 X0.1403 Y-0.0886
N15285 X0.1408 Y-0.0885
N15290 X0.1415
N15295 X0.1421
N15300 X0.1428 Y-0.0884
N15305 X0.1434
N15310 X0.144 Y-0.0883
N15315 X0.1447 Y-0.0882
N15320 X0.1453 Y-0.0881
N15325 X0.1458
N15330 X0.1464 Y-0.088
N15335 X0.147 Y-0.0878
N15340 X0.1475 Y-0.0877
N15345 X0.1481 Y-0.0876
N15350 X0.1486 Y-0.0874
N15355 X0.1492 Y-0.0872
N15360 X0.1497 Y-0.087
N15365 X0.1503 Y-0.0868
N15370 X0.1509 Y-0.0866
N15375 X0.1514 Y-0.0863
N15380 X0.152 Y-0.0861
N15385 X0.1526 Y-0.0858
N15390 X0.1532 Y-0.0855
N15395 X0.1538 Y-0.0853
N15400 X0.1542 Y-0.0851
N15405 X0.1546 Y-0.0848
N15410 X0.1551 Y-0.0845
N15415 X0.1557 Y-0.0841
N15420 X0.1562 Y-0.0837
N15425 X0.1567 Y-0.0834
N15430 X0.1572 Y-0.083
N15435 X0.1577 Y-0.0826
N15440 X0.1582 Y-0.0823
N15445 X0.1586 Y-0.0819
N15450 X0.1591 Y-0.0815
N15455 X0.1595 Y-0.0811
N15460 X0.1599 Y-0.0807
N15465 X0.1602 Y-0.0803
N15470 X0.1606 Y-0.0799
N15475 X0.1609 Y-0.0795
N15480 X0.1613 Y-0.079
N15485 X0.1616 Y-0.0785
N15490 X0.162 Y-0.078
N15495 X0.1623 Y-0.0775
N15500 X0.1627 Y-0.077
N15505 X0.163 Y-0.0764
N15510 X0.1634 Y-0.0758
N15515 X0.1637 Y-0.0753
N15520 X0.1639 Y-0.0749
N15525 X0.1641 Y-0.0744
N15530 X0.1644 Y-0.0737
N15535 X0.1647 Y-0.073
N15540 X0.165 Y-0.0724
N15545 X0.1653 Y-0.0717
N15550 X0.1655 Y-0.071
N15555 X0.1657 Y-0.0704
N15560 X0.166 Y-0.0697
N15565 X0.1662 Y-0.0691
N15570 X0.1664 Y-0.0685
N15575 X0.1665 Y-0.0678
N15580 X0.1667 Y-0.0672
N15585 X0.1668 Y-0.0666
N15590 X0.1669 Y-0.0659
N15595 X0.167 Y-0.0653
N15600 X0.1671 Y-0.0646
N15605 X0.1672 Y-0.0639
N15610 X0.1673 Y-0.0632
N15615 Y-0.0625
N15620 X0.1674 Y-0.0618
N15625 Y-0.0611
N15630 Y-0.0603
N15635 X0.1675 Y-0.0596
N15640 Y-0.059
N15645 Y-0.0584
N15650 X0.1674 Y-0.0577
N15655 Y-0.057
N15660 Y-0.0562
N15665 X0.1673 Y-0.0555
N15670 Y-0.0548
N15675 X0.1672 Y-0.0541
N15680 X0.1671 Y-0.0535
N15685 X0.167 Y-0.0528
N15690 X0.1669 Y-0.0522
N15695 X0.1668 Y-0.0515
N15700 X0.1667 Y-0.0509
N15705 X0.1666 Y-0.0503
N15710 X0.1664 Y-0.0497
N15715 X0.1662 Y-0.049
N15720 X0.166 Y-0.0484
N15725 X0.1658 Y-0.0478
N15730 X0.1656 Y-0.0471
N15735 X0.1654 Y-0.0465
N15740 X0.1651 Y-0.0458
N15745 X0.1648 Y-0.0451
N15750 X0.1646 Y-0.0445
N15755 X0.1643 Y-0.0438
N15760 X0.1641 Y-0.0433
N15765 X0.1639 Y-0.0429
N15770 X0.1635 Y-0.0424
N15775 X0.1632 Y-0.0418
N15780 X0.1629 Y-0.0412
N15785 X0.1625 Y-0.0407
N15790 X0.1622 Y-0.0402
N15795 X0.1619 Y-0.0397
N15800 X0.1615 Y-0.0392
N15805 X0.1612 Y-0.0387
N15810 X0.1608 Y-0.0382
N15815 X0.1605 Y-0.0378
N15820 X0.1601 Y-0.0374
N15825 X0.1597 Y-0.037
N15830 X0.1594 Y-0.0366
N15835 X0.1589 Y-0.0362
N15840 X0.1585 Y-0.0359
N15845 X0.158 Y-0.0355
N15850 X0.1576 Y-0.0351
N15855 X0.1571 Y-0.0347
N15860 X0.1566 Y-0.0343
N15865 X0.156 Y-0.034
N15870 X0.1555 Y-0.0336
N15875 X0.155 Y-0.0332
N15880 X0.1546 Y-0.033
N15885 X0.1542 Y-0.0328
N15890 X0.1536 Y-0.0324
N15895 X0.153 Y-0.0322
N15900 X0.1524 Y-0.0319
N15905 X0.1518 Y-0.0316
N15910 X0.1512 Y-0.0313
N15915 X0.1506 Y-0.0311
N15920 X0.15 Y-0.0308
N15925 X0.1495 Y-0.0306
N15930 X0.1489 Y-0.0304
N15935 X0.1484 Y-0.0303
N15940 X0.1478 Y-0.0301
N15945 X0.1472 Y-0.03
N15950 X0.1467 Y-0.0298
N15955 X0.1461 Y-0.0297
N15960 X0.1455 Y-0.0296
N15965 X0.1449
N15970 X0.1442 Y-0.0295
N15975 X0.1436 Y-0.0294
N15980 X0.1429
N15985 X0.1423 Y-0.0293
N15990 X0.1416
N15995 X0.1409 Y-0.0292
N16000 X0.1404
N16005 X0.1396 Y-0.0293
N16010 X0.1386
N16015 X0.1376 Y-0.0294
N16020 X0.1366 Y-0.0295
N16025 X0.1357 Y-0.0297
N16030 X0.1347 Y-0.0298
N16035 X0.1338 Y-0.0299
N16040 X0.1329 Y-0.0301
N16045 X0.132 Y-0.0303
N16050 X0.1312 Y-0.0305
N16055 X0.1304 Y-0.0308
N16060 X0.1296 Y-0.0311
N16065 X0.1289 Y-0.0314
N16070 X0.1282 Y-0.0318
N16075 X0.1274 Y-0.0322
N16080 X0.1267 Y-0.0327
N16085 X0.1259 Y-0.0331
N16090 X0.1252 Y-0.0337
N16095 X0.1244 Y-0.0342
N16100 X0.1236 Y-0.0348
N16105 X0.1229 Y-0.0355
N16110 X0.1221 Y-0.0361
N16115 X0.1213 Y-0.0368
N16120 X0.1208 Y-0.0371
N16125 X0.1204 Y-0.0377
N16130 X0.1198 Y-0.0386
N16135 X0.1191 Y-0.0395
N16140 X0.1185 Y-0.0404
N16145 X0.1179 Y-0.0413
N16150 X0.1174 Y-0.0422
N16155 X0.1169 Y-0.0431
N16160 X0.1164 Y-0.044
N16165 X0.1159 Y-0.0448
N16170 X0.1155 Y-0.0457
N16175 X0.1152 Y-0.0466
N16180 X0.1148 Y-0.0475
N16185 X0.1146 Y-0.0484
N16190 X0.1143 Y-0.0493
N16195 X0.1141 Y-0.0503
N16200 X0.1139 Y-0.0512
N16205 X0.1138 Y-0.0523
N16210 X0.1136 Y-0.0533
N16215 X0.1135 Y-0.0544
N16220 X0.1134 Y-0.0554
N16225 Y-0.0565
N16230 X0.1133 Y-0.0576
N16235 X0.1132 Y-0.0588
N16240 Y-0.0597
N16245 Y-0.0602
N16250 X0.1133 Y-0.0609
N16255 Y-0.0616
N16260 Y-0.0623
N16265 X0.1134 Y-0.0629
N16270 X0.1135 Y-0.0636
N16275 Y-0.0642
N16280 X0.1136 Y-0.0648
N16285 X0.1137 Y-0.0654
N16290 X0.1138 Y-0.066
N16295 X0.1139 Y-0.0666
N16300 X0.114 Y-0.0672
N16305 X0.1141 Y-0.0678
N16310 X0.1143 Y-0.0683
N16315 X0.1145 Y-0.0689
N16320 X0.1147 Y-0.0695
N16325 X0.1149 Y-0.0701
N16330 X0.1151 Y-0.0707
N16335 X0.1153 Y-0.0713
N16340 X0.1156 Y-0.0719
N16345 X0.1158 Y-0.0725
N16350 X0.1161 Y-0.0731
N16355 X0.1163 Y-0.0738
N16360 X0.1165 Y-0.0742
N16365 X0.1167 Y-0.0746
N16370 X0.1171 Y-0.0752
N16375 X0.1174 Y-0.0758
N16380 X0.1177 Y-0.0763
N16385 X0.1181 Y-0.0769
N16390 X0.1184 Y-0.0774
N16395 X0.1187 Y-0.0779
N16400 X0.1191 Y-0.0784
N16405 X0.1194 Y-0.0789
N16410 X0.1198 Y-0.0793
N16415 X0.1201 Y-0.0798
N16420 X0.1205 Y-0.0802
N16425 X0.1209 Y-0.0806
N16430 X0.1213 Y-0.081
N16435 X0.1217 Y-0.0814
N16440 X0.1221 Y-0.0817
N16445 X0.1226 Y-0.0821
N16450 X0.123 Y-0.0825
N16455 X0.1235 Y-0.0829
N16460 X0.124 Y-0.0833
N16465 X0.1246 Y-0.0837
N16470 X0.1251 Y-0.0841
N16475 X0.1256 Y-0.0845
N16480 X0.126 Y-0.0847
N16485 X0.1264 Y-0.0849
N16490 X0.127 Y-0.0852
N16495 X0.1276 Y-0.0855
N16500 X0.1282 Y-0.0858
N16505 X0.1288 Y-0.0861
N16510 X0.1294 Y-0.0864
N16515 X0.13 Y-0.0866
N16520 X0.1306 Y-0.0869
N16525 X0.1312 Y-0.0871
N16530 X0.1317 Y-0.0873
N16535 X0.1323 Y-0.0875
N16540 G0 Z0.1
N16545 Y-0.0873
N16550 Z0.05
N16555 G1 Z-0.01 F5.
N16560 X0.132 F7.5
N16565 X0.1319 Y-0.0872
N16570 X0.1312 Y-0.087
N16575 X0.131 Y-0.0869
N16580 X0.1304 Y-0.0867
N16585 X0.1302 Y-0.0866
N16590 X0.1296 Y-0.0863
N16595 X0.1294 Y-0.0862
N16600 X0.1288 Y-0.0859
N16605 X0.1286 Y-0.0858
N16610 X0.128 Y-0.0855
N16615 X0.1279 Y-0.0854
N16620 X0.1273 Y-0.085
N16625 X0.1272 Y-0.0849
N16630 X0.1266 Y-0.0845
N16635 X0.1265
N16640 X0.1259 Y-0.084
N16645 X0.1258
N16650 X0.1252 Y-0.0835
N16655 X0.1251
N16660 X0.1246 Y-0.083
N16665 X0.1245
N16670 X0.124 Y-0.0825
N16675 X0.1239
N16680 X0.1233 Y-0.082
N16685 X0.1228 Y-0.0815
N16690 X0.1227
N16695 X0.1222 Y-0.081
N16700 G2 X0.1216 Y-0.0803 I0.0024 J0.0027
N16705 G1 X0.1211 Y-0.0797
N16710 X0.1206 Y-0.079
N16715 Y-0.0789
N16720 X0.1201 Y-0.0783
N16725 Y-0.0782
N16730 X0.1196 Y-0.0775
N16735 X0.1192 Y-0.0768
N16740 X0.1191 Y-0.0767
N16745 X0.1187 Y-0.076
N16750 X0.1186 Y-0.0759
N16755 X0.1182 Y-0.0752
N16760 Y-0.0751
N16765 X0.1178 Y-0.0744
N16770 X0.1177 Y-0.0743
N16775 X0.1173 Y-0.0736
N16780 Y-0.0734
N16785 X0.1169 Y-0.0727
N16790 Y-0.0726
N16795 X0.1166 Y-0.0718
N16800 X0.1165 Y-0.0717
N16805 X0.1162 Y-0.0709
N16810 Y-0.0707
N16815 X0.116 Y-0.07
N16820 X0.1159 Y-0.0698
N16825 X0.1157 Y-0.069
N16830 Y-0.0689
N16835 X0.1155 Y-0.0681
N16840 Y-0.068
N16845 X0.1153 Y-0.0672
N16850 Y-0.0671
N16855 X0.1152 Y-0.0663
N16860 Y-0.0662
N16865 X0.1151 Y-0.0653
N16870 X0.115 Y-0.0644
N16875 X0.1149 Y-0.0635
N16880 X0.1148 Y-0.0627
N16885 Y-0.0626
N16890 Y-0.0618
N16895 X0.1147 Y-0.0609
N16900 Y-0.0601
N16905 Y-0.0598
N16910 Y-0.0588
N16915 Y-0.0579
N16920 X0.1148 Y-0.0569
N16925 Y-0.0559
N16930 X0.1149 Y-0.0549
N16935 Y-0.0539
N16940 X0.115 Y-0.0529
N16945 Y-0.0528
N16950 X0.1152 Y-0.0519
N16955 Y-0.0518
N16960 X0.1153 Y-0.0509
N16965 Y-0.0508
N16970 X0.1155 Y-0.0499
N16975 Y-0.0498
N16980 X0.1157 Y-0.0489
N16985 X0.1158 Y-0.0487
N16990 X0.116 Y-0.0479
N16995 Y-0.0477
N17000 X0.1163 Y-0.0468
N17005 X0.1164 Y-0.0467
N17010 X0.1167 Y-0.0458
N17015 Y-0.0456
N17020 X0.1171 Y-0.0448
N17025 X0.1172 Y-0.0447
N17030 X0.1176 Y-0.0438
N17035 Y-0.0437
N17040 X0.118 Y-0.0429
N17045 X0.1181 Y-0.0428
N17050 X0.1186 Y-0.042
N17055 Y-0.0419
N17060 X0.1191 Y-0.0411
N17065 X0.1196 Y-0.0403
N17070 X0.1197 Y-0.0402
N17075 X0.1202 Y-0.0394
N17080 X0.1207 Y-0.0386
N17085 X0.1208
N17090 X0.1213 Y-0.0378
N17095 X0.1219 Y-0.037
N17100 G2 X0.1226 Y-0.0363 I0.003 J-0.0021
N17105 G1 X0.1231 Y-0.0358
N17110 X0.1232
N17115 X0.1237 Y-0.0354
N17120 Y-0.0353
N17125 X0.1243 Y-0.0349
N17130 X0.1244
N17135 X0.1249 Y-0.0344
N17140 X0.125
N17145 X0.1256 Y-0.034
N17150 Y-0.0339
N17155 X0.1262 Y-0.0335
N17160 X0.1263
N17165 X0.1269 Y-0.0331
N17170 X0.127 Y-0.033
N17175 X0.1276 Y-0.0326
N17180 X0.1277
N17185 X0.1283 Y-0.0322
N17190 X0.1284
N17195 X0.129 Y-0.0318
N17200 X0.1292
N17205 X0.1298 Y-0.0314
N17210 X0.1299
N17215 X0.1306 Y-0.0311
N17220 X0.1307 Y-0.031
N17225 X0.1314 Y-0.0308
N17230 X0.1316 Y-0.0307
N17235 X0.1322 Y-0.0305
N17240 X0.1324
N17245 X0.133 Y-0.0303
N17250 X0.1332
N17255 X0.1339 Y-0.0301
N17260 X0.134
N17265 X0.1347 Y-0.0299
N17270 X0.1348
N17275 X0.1355 Y-0.0298
N17280 X0.1356
N17285 X0.1363 Y-0.0297
N17290 X0.1364
N17295 X0.1371 Y-0.0296
N17300 X0.1378 Y-0.0295
N17305 X0.1379
N17310 X0.1386 Y-0.0294
N17315 X0.1394 Y-0.0293
N17320 X0.1401
N17325 G2 X0.1407 I0.0003 J-0.0036
N17330 G1 X0.1412
N17335 X0.1417
N17340 X0.1422 Y-0.0294
N17345 X0.1428
N17350 X0.1433 Y-0.0295
N17355 X0.1438
N17360 X0.1439
N17365 X0.1444 Y-0.0296
N17370 X0.1445
N17375 X0.145 Y-0.0297
N17380 X0.1451
N17385 X0.1456 Y-0.0298
N17390 X0.1457
N17395 X0.1461 Y-0.0299
N17400 X0.1463
N17405 X0.1467 Y-0.03
N17410 X0.1469
N17415 X0.1473 Y-0.0302
N17420 X0.1475
N17425 X0.1479 Y-0.0303
N17430 X0.1481 Y-0.0304
N17435 X0.1485 Y-0.0305
N17440 X0.1486 Y-0.0306
N17445 X0.1491 Y-0.0307
N17450 X0.1492 Y-0.0308
N17455 X0.1496 Y-0.031
N17460 X0.1497
N17465 X0.1502 Y-0.0312
N17470 X0.1503
N17475 X0.1507 Y-0.0314
N17480 X0.1508 Y-0.0315
N17485 X0.1512 Y-0.0317
N17490 X0.1513
N17495 X0.1517 Y-0.0319
N17500 X0.1518 Y-0.032
N17505 X0.1522 Y-0.0322
N17510 X0.1527 Y-0.0324
N17515 Y-0.0325
N17520 X0.1532 Y-0.0327
N17525 X0.1536 Y-0.0329
N17530 G2 X0.1541 Y-0.0332 I-0.0017 J-0.0032
N17535 G1 X0.1545 Y-0.0335
N17540 X0.1549 Y-0.0338
N17545 X0.1553 Y-0.0342
N17550 X0.1554
N17555 X0.1558 Y-0.0345
N17560 X0.1562 Y-0.0348
N17565 Y-0.0349
N17570 X0.1566 Y-0.0352
N17575 X0.1567
N17580 X0.1571 Y-0.0356
N17585 X0.1575 Y-0.0359
N17590 X0.1576 Y-0.036
N17595 X0.1579 Y-0.0363
N17600 X0.158 Y-0.0364
N17605 X0.1584 Y-0.0368
N17610 X0.1585 Y-0.0369
N17615 X0.1588 Y-0.0372
N17620 X0.1589 Y-0.0373
N17625 X0.1592 Y-0.0377
N17630 X0.1593 Y-0.0378
N17635 X0.1596 Y-0.0382
N17640 X0.1597 Y-0.0383
N17645 X0.16 Y-0.0387
N17650 X0.1601 Y-0.0388
N17655 X0.1604 Y-0.0392
N17660 Y-0.0393
N17665 X0.1607 Y-0.0397
N17670 X0.161 Y-0.0402
N17675 X0.1611
N17680 X0.1613 Y-0.0407
N17685 X0.1614
N17690 X0.1616 Y-0.0412
N17695 X0.1619 Y-0.0416
N17700 Y-0.0417
N17705 X0.1622 Y-0.0421
N17710 Y-0.0422
N17715 X0.1624 Y-0.0426
N17720 X0.1627 Y-0.0431
N17725 X0.1629 Y-0.0435
N17730 G2 X0.1631 Y-0.044 I-0.0032 J-0.0017
N17735 G1 X0.1633 Y-0.0445
N17740 X0.1635 Y-0.0451
N17745 X0.1637 Y-0.0456
N17750 Y-0.0457
N17755 X0.1639 Y-0.0462
N17760 Y-0.0463
N17765 X0.1641 Y-0.0468
N17770 Y-0.0469
N17775 X0.1643 Y-0.0474
N17780 Y-0.0475
N17785 X0.1645 Y-0.048
N17790 Y-0.0481
N17795 X0.1647 Y-0.0486
N17800 Y-0.0487
N17805 X0.1649 Y-0.0493
N17810 X0.165 Y-0.0499
N17815 X0.1651 Y-0.05
N17820 X0.1652 Y-0.0506
N17825 X0.1653 Y-0.0512
N17830 Y-0.0513
N17835 X0.1654 Y-0.0519
N17840 X0.1655 Y-0.052
N17845 X0.1656 Y-0.0525
N17850 Y-0.0526
N17855 Y-0.0532
N17860 Y-0.0533
N17865 X0.1657 Y-0.0538
N17870 Y-0.0539
N17875 X0.1658 Y-0.0545
N17880 Y-0.0551
N17885 Y-0.0552
N17890 X0.1659 Y-0.0558
N17895 Y-0.0564
N17900 Y-0.057
N17905 X0.166 Y-0.0576
N17910 Y-0.0582
N17915 Y-0.0588
N17920 Y-0.0591
N17925 Y-0.06
N17930 X0.1659 Y-0.0609
N17935 Y-0.0618
N17940 X0.1658 Y-0.0627
N17945 X0.1657 Y-0.0636
N17950 Y-0.0637
N17955 Y-0.0645
N17960 X0.1656 Y-0.0646
N17965 X0.1655 Y-0.0654
N17970 Y-0.0655
N17975 X0.1654 Y-0.0664
N17980 Y-0.0665
N17985 X0.1653 Y-0.0673
N17990 X0.1652 Y-0.0674
N17995 X0.1651 Y-0.0683
N18000 X0.165 Y-0.0684
N18005 X0.1648 Y-0.0692
N18010 Y-0.0694
N18015 X0.1646 Y-0.0702
N18020 X0.1645 Y-0.0703
N18025 X0.1643 Y-0.0711
N18030 X0.1642 Y-0.0713
N18035 X0.1639 Y-0.0721
N18040 X0.1638 Y-0.0722
N18045 X0.1635 Y-0.073
N18050 X0.1634 Y-0.0731
N18055 X0.1631 Y-0.0739
N18060 X0.163 Y-0.074
N18065 X0.1626 Y-0.0747
N18070 Y-0.0748
N18075 X0.1621 Y-0.0756
N18080 Y-0.0757
N18085 X0.1616 Y-0.0764
N18090 Y-0.0765
N18095 X0.1611 Y-0.0772
N18100 Y-0.0773
N18105 X0.1606 Y-0.078
N18110 X0.1601 Y-0.0787
N18115 Y-0.0788
N18120 X0.1596 Y-0.0795
N18125 X0.1591 Y-0.0802
N18130 G2 X0.1585 Y-0.0809 I-0.003 J0.0021
N18135 G1 X0.158 Y-0.0814
N18140 X0.1574 Y-0.0819
N18145 X0.1568 Y-0.0824
N18150 X0.1562 Y-0.0829
N18155 X0.1561
N18160 X0.1556 Y-0.0834
N18165 X0.1555 Y-0.0835
N18170 X0.1549 Y-0.0839
N18175 X0.1548 Y-0.084
N18180 X0.1542 Y-0.0844
N18185 Y-0.0845
N18190 X0.1536 Y-0.0849
N18195 X0.1534 Y-0.085
N18200 X0.1528 Y-0.0854
N18205 X0.1527
N18210 X0.1521 Y-0.0858
N18215 X0.1519 Y-0.0859
N18220 X0.1513 Y-0.0862
N18225 X0.1511 Y-0.0863
N18230 X0.1505 Y-0.0866
N18235 X0.1503 Y-0.0867
N18240 X0.1496 Y-0.0869
N18245 X0.1495 Y-0.087
N18250 X0.1488 Y-0.0872
N18255 X0.1486 Y-0.0873
N18260 X0.1479 Y-0.0875
N18265 X0.1478
N18270 X0.1471 Y-0.0877
N18275 X0.147
N18280 X0.1462 Y-0.0879
N18285 X0.1461
N18290 X0.1454 Y-0.088
N18295 X0.1453
N18300 X0.1446 Y-0.0881
N18305 X0.1445
N18310 X0.1438 Y-0.0882
N18315 X0.1437
N18320 X0.143 Y-0.0883
N18325 X0.1429
N18330 X0.1422 Y-0.0884
N18335 X0.1421
N18340 X0.1414 Y-0.0885
N18345 X0.1406
N18350 G2 X0.14 I-0.0003 J0.0036
N18355 G1 X0.1392
N18360 X0.1385 Y-0.0884
N18365 X0.1384
N18370 X0.1377 Y-0.0883
N18375 X0.1369 Y-0.0882
N18380 X0.1361 Y-0.0881
N18385 X0.136
N18390 X0.1353 Y-0.088
N18395 X0.1352
N18400 X0.1345 Y-0.0879
N18405 X0.1344
N18410 X0.1337 Y-0.0877
N18415 X0.1336
N18420 X0.1329 Y-0.0875
N18425 X0.1327
N18430 X0.1323 Y-0.0873
N18435 G0 Z0.1
N18440 X0.1572 Y-0.3343
N18445 Z0.05
N18450 G1 Z0. F5.
N18455 X0.1608 Y-0.3307 Z-0.01 F7.5
N18460 Y-0.3303
N18465 X0.1572 Y-0.3267 Z0.
N18470 X0.1608 Y-0.3303 Z-0.01
N18475 X0.2046
N18480 X0.2082 Y-0.3267 Z0.
N18485 X0.2046 Y-0.3303 Z-0.01
N18490 Y-0.3307
N18495 X0.2082 Y-0.3343 Z0.
N18500 X0.2046 Y-0.3307 Z-0.01
N18505 X0.1869
N18510 G3 X0.1833 Y-0.3343 I0. J-0.0036
N18515 G1 Y-0.3875
N18520 X0.1869 Y-0.3911 Z0.
N18525 X0.1833 Y-0.3875 Z-0.01
N18530 X0.182
N18535 X0.1784 Y-0.3911 Z0.
N18540 X0.182 Y-0.3875 Z-0.01
N18545 Y-0.3343
N18550 G3 X0.1784 Y-0.3307 I-0.0036 J0.
N18555 G1 X0.1608
N18560 G0 Z0.1
N18565 X0.16 Y-0.1911
N18570 Z0.05
N18575 G1 Z0. F5.
N18580 X0.1636 Y-0.1874 Z-0.01 F7.5
N18585 Y-0.1303
N18590 X0.16 Y-0.1267 Z0.
N18595 X0.1636 Y-0.1303 Z-0.01
N18600 X0.1674
N18605 X0.1685 Y-0.1302 Z-0.0098
N18610 X0.1918 Y-0.1303
N18615 X0.1939 Y-0.1305 Z-0.01
N18620 X0.1941
N18625 X0.1943
N18630 X0.1947 Y-0.1306
N18635 X0.1948 Y-0.1307
N18640 X0.1953 Y-0.1308
N18645 X0.1954
N18650 X0.1959 Y-0.1309
N18655 X0.196 Y-0.131
N18660 X0.1964 Y-0.1311
N18665 X0.1966 Y-0.1312
N18670 X0.197 Y-0.1313
N18675 X0.1971 Y-0.1314
N18680 X0.1976 Y-0.1316
N18685 X0.1977
N18690 X0.1981 Y-0.1318
N18695 X0.1982
N18700 X0.1986 Y-0.1321
N18705 X0.1987
N18710 X0.1991 Y-0.1323
N18715 Y-0.1324
N18720 X0.1996 Y-0.1326
N18725 X0.2 Y-0.1328
N18730 Y-0.1329
N18735 X0.2004 Y-0.1331
N18740 X0.2005
N18745 X0.2009 Y-0.1334
N18750 X0.2013 Y-0.1336
N18755 G2 X0.202 Y-0.1342 I-0.0019 J-0.0031
N18760 G1 X0.2023 Y-0.1345
N18765 X0.2025 Y-0.1348
N18770 X0.2026
N18775 X0.2028 Y-0.1351
N18780 X0.2031 Y-0.1354
N18785 X0.2033 Y-0.1357
N18790 X0.2034 Y-0.1358
N18795 X0.2036 Y-0.136
N18800 X0.2037 Y-0.1361
N18805 X0.2039 Y-0.1364
N18810 X0.204 Y-0.1365
N18815 X0.2042 Y-0.1368
N18820 Y-0.1369
N18825 X0.2044 Y-0.1372
N18830 X0.2045 Y-0.1373
N18835 X0.2047 Y-0.1376
N18840 X0.2048 Y-0.1378
N18845 X0.2049 Y-0.1381
N18850 X0.205 Y-0.1382
N18855 X0.2052 Y-0.1385
N18860 Y-0.1387
N18865 X0.2054 Y-0.139
N18870 Y-0.1392
N18875 X0.2056 Y-0.1395
N18880 Y-0.1397
N18885 X0.2057 Y-0.14
N18890 X0.2058 Y-0.1402
N18895 Y-0.1405
N18900 X0.2059 Y-0.1406
N18905 Y-0.141
N18910 X0.206 Y-0.1411
N18915 Y-0.1414
N18920 Y-0.1415
N18925 X0.2061 Y-0.1419
N18930 X0.2062 Y-0.1423
N18935 Y-0.1424
N18940 Y-0.1427
N18945 Y-0.1428
N18950 X0.2063 Y-0.1431
N18955 Y-0.1432
N18960 Y-0.1435
N18965 Y-0.1439
N18970 G2 Y-0.1445 I-0.0036 J-0.0003
N18975 G1 Y-0.1447
N18980 Y-0.1448
N18985 Y-0.145
N18990 Y-0.1453
N18995 X0.2062 Y-0.1456
N19000 Y-0.1459
N19005 Y-0.1462
N19010 Y-0.1463
N19015 X0.2061 Y-0.1465
N19020 Y-0.1466
N19025 Y-0.1468
N19030 Y-0.1469
N19035 X0.206 Y-0.1472
N19040 Y-0.1473
N19045 Y-0.1475
N19050 X0.2059 Y-0.1476
N19055 Y-0.1479
N19060 X0.2058 Y-0.148
N19065 Y-0.1482
N19070 X0.2057 Y-0.1484
N19075 Y-0.1486
N19080 X0.2056 Y-0.1487
N19085 X0.2055 Y-0.1489
N19090 Y-0.149
N19095 X0.2054 Y-0.1493
N19100 Y-0.1494
N19105 X0.2053 Y-0.1496
N19110 X0.2052 Y-0.1497
N19115 X0.2051 Y-0.1499
N19120 Y-0.15
N19125 X0.205 Y-0.1502
N19130 Y-0.1503
N19135 X0.2049 Y-0.1505
N19140 X0.2048 Y-0.1506
N19145 X0.2047 Y-0.1508
N19150 X0.2046 Y-0.151
N19155 Y-0.1511
N19160 X0.2044 Y-0.1513
N19165 X0.2043 Y-0.1515
N19170 Y-0.1516
N19175 X0.2042 Y-0.1518
N19180 G2 X0.2038 Y-0.1523 I-0.0032 J0.0018
N19185 G1 X0.2037 Y-0.1525
N19190 X0.2035 Y-0.1527
N19195 X0.2033 Y-0.153
N19200 X0.2031 Y-0.1532
N19205 X0.2029 Y-0.1534
N19210 Y-0.1535
N19215 X0.2027 Y-0.1537
N19220 X0.2026
N19225 X0.2025 Y-0.1539
N19230 X0.2024 Y-0.154
N19235 X0.2022 Y-0.1542
N19240 Y-0.1543
N19245 X0.202 Y-0.1544
N19250 X0.2019 Y-0.1545
N19255 X0.2017 Y-0.1547
N19260 X0.2016 Y-0.1548
N19265 X0.2014 Y-0.155
N19270 X0.2013 Y-0.1551
N19275 X0.2011 Y-0.1552
N19280 X0.201 Y-0.1553
N19285 X0.2007 Y-0.1555
N19290 X0.2006
N19295 X0.2004 Y-0.1557
N19300 X0.2003 Y-0.1558
N19305 X0.2001 Y-0.1559
N19310 X0.2 Y-0.156
N19315 X0.1998 Y-0.1561
N19320 X0.1997
N19325 X0.1995 Y-0.1563
N19330 X0.1994
N19335 X0.1991 Y-0.1564
N19340 Y-0.1565
N19345 X0.1988 Y-0.1566
N19350 X0.1986 Y-0.1567
N19355 X0.1985
N19360 X0.1983 Y-0.1569
N19365 X0.1982
N19370 X0.198 Y-0.157
N19375 X0.1977 Y-0.1571
N19380 X0.1975 Y-0.1572
N19385 X0.1979 Y-0.1571
N19390 X0.1984 Y-0.1569
N19395 X0.1989 Y-0.1568
N19400 X0.1993 Y-0.1566
N19405 X0.1998 Y-0.1564
N19410 X0.2002 Y-0.1562
N19415 X0.2006 Y-0.1559
N19420 X0.2011 Y-0.1557
N19425 X0.2015 Y-0.1554
N19430 X0.2019 Y-0.1551
N19435 X0.2024 Y-0.1548
N19440 X0.2029 Y-0.1544
N19445 X0.2033 Y-0.1541
N19450 X0.2038 Y-0.1537
N19455 X0.2043 Y-0.1533
N19460 X0.2044 Y-0.1532
N19465 X0.2045 Y-0.1531
N19470 X0.2048 Y-0.1527
N19475 X0.2051 Y-0.1523
N19480 X0.2054 Y-0.1519
N19485 X0.2057 Y-0.1516
N19490 X0.2059 Y-0.1512
N19495 X0.2062 Y-0.1508
N19500 X0.2064 Y-0.1505
N19505 X0.2066 Y-0.1501
N19510 X0.2067 Y-0.1498
N19515 X0.2069 Y-0.1495
N19520 X0.207 Y-0.1492
N19525 X0.2071 Y-0.1488
N19530 X0.2072 Y-0.1485
N19535 X0.2073 Y-0.1481
N19540 X0.2074 Y-0.1477
N19545 X0.2075 Y-0.1473
N19550 X0.2076 Y-0.1469
N19555 Y-0.1464
N19560 X0.2077 Y-0.146
N19565 Y-0.1455
N19570 X0.2078 Y-0.145
N19575 Y-0.1445
N19580 Y-0.1442
N19585 Y-0.144
N19590 Y-0.1436
N19595 Y-0.1432
N19600 X0.2077 Y-0.1428
N19605 Y-0.1424
N19610 Y-0.1421
N19615 X0.2076 Y-0.1417
N19620 Y-0.1414
N19625 X0.2075 Y-0.1411
N19630 Y-0.1407
N19635 X0.2074 Y-0.1404
N19640 X0.2073 Y-0.1401
N19645 X0.2072 Y-0.1399
N19650 X0.2071 Y-0.1396
N19655 X0.207 Y-0.1393
N19660 X0.2069 Y-0.139
N19665 X0.2068 Y-0.1386
N19670 X0.2066 Y-0.1383
N19675 X0.2065 Y-0.138
N19680 X0.2063 Y-0.1376
N19685 X0.2061 Y-0.1373
N19690 X0.206 Y-0.1369
N19695 X0.2058 Y-0.1366
N19700 X0.2057 Y-0.1364
N19705 X0.2056 Y-0.1363
N19710 X0.2054 Y-0.136
N19715 X0.2052 Y-0.1357
N19720 X0.205 Y-0.1354
N19725 X0.2047 Y-0.1351
N19730 X0.2045 Y-0.1348
N19735 X0.2043 Y-0.1346
N19740 X0.2041 Y-0.1344
N19745 X0.2039 Y-0.1342
N19750 X0.2038 Y-0.134
N19755 X0.2036 Y-0.1338
N19760 X0.2034 Y-0.1336
N19765 X0.2032 Y-0.1335
N19770 X0.203 Y-0.1333
N19775 X0.2028 Y-0.1331
N19780 X0.2025 Y-0.133
N19785 X0.2023 Y-0.1328
N19790 X0.202 Y-0.1327
N19795 X0.2017 Y-0.1325
N19800 X0.2014 Y-0.1324
N19805 X0.2011 Y-0.1322
N19810 X0.2008 Y-0.132
N19815 X0.2004 Y-0.1319
N19820 Y-0.1318
N19825 X0.2001
N19830 X0.1996 Y-0.1316
N19835 X0.1991 Y-0.1315
N19840 X0.1986 Y-0.1313
N19845 X0.1981 Y-0.1312
N19850 X0.1976 Y-0.1311
N19855 X0.1971 Y-0.131
N19860 X0.1966 Y-0.1309
N19865 X0.1961 Y-0.1308
N19870 X0.1957 Y-0.1307
N19875 X0.1952 Y-0.1306
N19880 X0.1947
N19885 X0.1943 Y-0.1305
N19890 X0.1939
N19895 X0.1943
N19900 X0.1947 Y-0.1306
N19905 X0.1952
N19910 X0.1957 Y-0.1307
N19915 X0.1961 Y-0.1308
N19920 X0.1966 Y-0.1309
N19925 X0.1971 Y-0.131
N19930 X0.1976 Y-0.1311
N19935 X0.1981 Y-0.1312
N19940 X0.1986 Y-0.1313
N19945 X0.1991 Y-0.1315
N19950 X0.1996 Y-0.1316
N19955 X0.2001 Y-0.1318
N19960 X0.2004
N19965 Y-0.1319
N19970 X0.2008 Y-0.132
N19975 X0.2011 Y-0.1322
N19980 X0.2014 Y-0.1324
N19985 X0.2017 Y-0.1325
N19990 X0.202 Y-0.1327
N19995 X0.2023 Y-0.1328
N20000 X0.2025 Y-0.133
N20005 X0.2028 Y-0.1331
N20010 X0.203 Y-0.1333
N20015 X0.2032 Y-0.1335
N20020 X0.2034 Y-0.1336
N20025 X0.2036 Y-0.1338
N20030 X0.2038 Y-0.134
N20035 X0.2039 Y-0.1342
N20040 X0.2041 Y-0.1344
N20045 X0.2043 Y-0.1346
N20050 X0.2045 Y-0.1348
N20055 X0.2047 Y-0.1351
N20060 X0.205 Y-0.1354
N20065 X0.2052 Y-0.1357
N20070 X0.2054 Y-0.136
N20075 X0.2056 Y-0.1363
N20080 X0.2057 Y-0.1364
N20085 X0.2058 Y-0.1366
N20090 X0.206 Y-0.1369
N20095 X0.2061 Y-0.1373
N20100 X0.2063 Y-0.1376
N20105 X0.2065 Y-0.138
N20110 X0.2066 Y-0.1383
N20115 X0.2068 Y-0.1386
N20120 X0.2069 Y-0.139
N20125 X0.207 Y-0.1393
N20130 X0.2071 Y-0.1396
N20135 X0.2072 Y-0.1399
N20140 X0.2073 Y-0.1401
N20145 X0.2074 Y-0.1404
N20150 X0.2075 Y-0.1407
N20155 Y-0.1411
N20160 X0.2076 Y-0.1414
N20165 Y-0.1417
N20170 X0.2077 Y-0.1421
N20175 Y-0.1424
N20180 Y-0.1428
N20185 X0.2078 Y-0.1432
N20190 Y-0.1436
N20195 Y-0.144
N20200 Y-0.1442
N20205 Y-0.1445
N20210 Y-0.145
N20215 X0.2077 Y-0.1455
N20220 Y-0.146
N20225 X0.2076 Y-0.1464
N20230 Y-0.1469
N20235 X0.2075 Y-0.1473
N20240 X0.2074 Y-0.1477
N20245 X0.2073 Y-0.1481
N20250 X0.2072 Y-0.1485
N20255 X0.2071 Y-0.1488
N20260 X0.207 Y-0.1492
N20265 X0.2069 Y-0.1495
N20270 X0.2067 Y-0.1498
N20275 X0.2066 Y-0.1501
N20280 X0.2064 Y-0.1505
N20285 X0.2062 Y-0.1508
N20290 X0.2059 Y-0.1512
N20295 X0.2057 Y-0.1516
N20300 X0.2054 Y-0.1519
N20305 X0.2051 Y-0.1523
N20310 X0.2048 Y-0.1527
N20315 X0.2045 Y-0.1531
N20320 X0.2044 Y-0.1532
N20325 X0.2043 Y-0.1533
N20330 X0.2038 Y-0.1537
N20335 X0.2033 Y-0.1541
N20340 X0.2029 Y-0.1544
N20345 X0.2024 Y-0.1548
N20350 X0.2019 Y-0.1551
N20355 X0.2015 Y-0.1554
N20360 X0.2011 Y-0.1557
N20365 X0.2006 Y-0.1559
N20370 X0.2002 Y-0.1562
N20375 X0.1998 Y-0.1564
N20380 X0.1993 Y-0.1566
N20385 X0.1989 Y-0.1568
N20390 X0.1984 Y-0.1569
N20395 X0.1979 Y-0.1571
N20400 X0.1975 Y-0.1572
N20405 X0.1969 Y-0.1574 Z-0.0099
N20410 X0.194 Y-0.158 Z-0.0098
N20415 X0.1923 Y-0.1584
N20420 X0.1917 Y-0.1585 Z-0.01
N20425 X0.1915
N20430 X0.1914
N20435 X0.191 Y-0.1586
N20440 X0.1906
N20445 X0.1902
N20450 X0.1901
N20455 X0.1897 Y-0.1587
N20460 X0.1893
N20465 X0.1889
N20470 X0.1885
N20475 X0.1881
N20480 X0.1877
N20485 X0.1873
N20490 X0.1869
N20495 X0.1868
N20500 X0.1685
N20505 G2 X0.1649 Y-0.1551 I0. J0.0036
N20510 G1 Y-0.1338
N20515 G2 X0.1674 Y-0.1303 I0.0036 J0.
N20520 G3 X0.1649 Y-0.1338 I0.0011 J-0.0035
N20525 G1 Y-0.1551
N20530 G3 X0.1685 Y-0.1587 I0.0036 J0.
N20535 G1 X0.1868
N20540 X0.1869
N20545 X0.1873
N20550 X0.1877
N20555 X0.1881
N20560 X0.1885
N20565 X0.1889
N20570 X0.1893
N20575 X0.1897
N20580 X0.1901 Y-0.1586
N20585 X0.1902
N20590 X0.1906
N20595 X0.191
N20600 X0.1914 Y-0.1585
N20605 X0.1915
N20610 X0.1917
N20615 G3 X0.1897 Y-0.162 I0.0016 J-0.0033
N20620 G1 Y-0.1619
N20625 X0.1896
N20630 X0.1894 Y-0.1618
N20635 X0.1892 Y-0.1616
N20640 G3 X0.1889 Y-0.1614 I-0.0022 J-0.0029
N20645 G1 X0.1886 Y-0.1612
N20650 X0.1884 Y-0.1611
N20655 X0.1883 Y-0.161
N20660 X0.1882
N20665 X0.1881 Y-0.1609
N20670 X0.1879 Y-0.1608
N20675 X0.1877 Y-0.1607
N20680 X0.1875 Y-0.1606
N20685 X0.1873 Y-0.1605
N20690 Y-0.1604
N20695 X0.1871
N20700 Y-0.1603
N20705 X0.1869
N20710 X0.1868 Y-0.1602
N20715 X0.1867
N20720 X0.1866 Y-0.1601
N20725 X0.1864
N20730 Y-0.16
N20735 X0.1862
N20740 Y-0.1599
N20745 X0.186
N20750 X0.1859 Y-0.1598
N20755 X0.1858
N20760 X0.1857
N20765 X0.1856 Y-0.1597
N20770 X0.1855
N20775 X0.1853 Y-0.1596
N20780 X0.1851
N20785 X0.1849 Y-0.1595
N20790 X0.1847 Y-0.1594
N20795 X0.1845
N20800 X0.1844 Y-0.1593
N20805 X0.1842
N20810 G3 X0.1837 Y-0.1592 I-0.001 J-0.0035
N20815 G1 X0.1835 Y-0.1591
N20820 X0.1833
N20825 X0.1832
N20830 X0.183
N20835 X0.1828
N20840 X0.1826 Y-0.159
N20845 X0.1824
N20850 X0.1822
N20855 X0.182
N20860 X0.1819
N20865 X0.1817 Y-0.1589
N20870 X0.1815
N20875 X0.1814
N20880 X0.1812
N20885 X0.181
N20890 X0.1808
N20895 X0.1807
N20900 X0.1805
N20905 X0.1803 Y-0.1588
N20910 X0.1801
N20915 X0.1799
N20920 X0.1797
N20925 X0.1796
N20930 X0.1794
N20935 X0.1792
N20940 X0.179
N20945 X0.1788
N20950 X0.1685
N20955 G3 X0.1649 Y-0.1625 I0. J-0.0036
N20960 G1 Y-0.1874
N20965 X0.1685 Y-0.1911 Z0.
N20970 X0.1649 Y-0.1874 Z-0.01
N20975 X0.1636
N20980 X0.1649
N20985 Y-0.1625
N20990 G2 X0.1685 Y-0.1588 I0.0036 J0.
N20995 G1 X0.1788
N21000 X0.179
N21005 X0.1792
N21010 X0.1794
N21015 X0.1796
N21020 X0.1797
N21025 X0.1799
N21030 X0.1801
N21035 X0.1803
N21040 X0.1805 Y-0.1589
N21045 X0.1807
N21050 X0.1808
N21055 X0.181
N21060 X0.1812
N21065 X0.1814
N21070 X0.1815
N21075 X0.1817
N21080 X0.1819 Y-0.159
N21085 X0.182
N21090 X0.1822
N21095 X0.1824
N21100 X0.1826
N21105 X0.1828 Y-0.1591
N21110 X0.183
N21115 X0.1832
N21120 X0.1833
N21125 X0.1835
N21130 X0.1837 Y-0.1592
N21135 G2 X0.1842 Y-0.1593 I-0.0005 J-0.0036
N21140 G1 X0.1844
N21145 X0.1845 Y-0.1594
N21150 X0.1847
N21155 X0.1849 Y-0.1595
N21160 X0.1851 Y-0.1596
N21165 X0.1853
N21170 X0.1855 Y-0.1597
N21175 X0.1856
N21180 X0.1857 Y-0.1598
N21185 X0.1858
N21190 X0.1859
N21195 X0.186 Y-0.1599
N21200 X0.1862
N21205 Y-0.16
N21210 X0.1864
N21215 Y-0.1601
N21220 X0.1866
N21225 X0.1867 Y-0.1602
N21230 X0.1868
N21235 X0.1869 Y-0.1603
N21240 X0.1871
N21245 Y-0.1604
N21250 X0.1873
N21255 Y-0.1605
N21260 X0.1875 Y-0.1606
N21265 X0.1877 Y-0.1607
N21270 X0.1879 Y-0.1608
N21275 X0.1881 Y-0.1609
N21280 X0.1882 Y-0.161
N21285 X0.1883
N21290 X0.1884 Y-0.1611
N21295 X0.1886 Y-0.1612
N21300 X0.1889 Y-0.1614
N21305 G2 X0.1892 Y-0.1616 I-0.0019 J-0.0031
N21310 G1 X0.1894 Y-0.1618
N21315 X0.1896 Y-0.1619
N21320 X0.1897
N21325 Y-0.162
N21330 X0.1901 Y-0.1627 Z-0.0092
N21335 X0.1907 Y-0.1634 Z-0.0086
N21340 X0.1911 Y-0.1639 Z-0.0084
N21345 X0.1916 Y-0.1643 Z-0.0085
N21350 X0.1923 Y-0.1649 Z-0.0089
N21355 X0.1939 Y-0.1662 Z-0.01
N21360 X0.194 Y-0.1663
N21365 X0.1942 Y-0.1665
N21370 X0.1943 Y-0.1666
N21375 X0.1946 Y-0.167
N21380 X0.1948 Y-0.1673
N21385 X0.1951 Y-0.1677
N21390 X0.1954 Y-0.1681
N21395 X0.1956 Y-0.1684
N21400 X0.1959 Y-0.1688
N21405 X0.1962 Y-0.1692
N21410 X0.1965 Y-0.1696
N21415 X0.1967 Y-0.1699
N21420 Y-0.17
N21425 X0.197 Y-0.1703
N21430 X0.1973 Y-0.1707
N21435 X0.1975 Y-0.1711
N21440 X0.1978 Y-0.1715
N21445 X0.1981 Y-0.1719
N21450 X0.1983 Y-0.1722
N21455 Y-0.1723
N21460 X0.1986 Y-0.1726
N21465 X0.1988 Y-0.173
N21470 X0.1991 Y-0.1734
N21475 X0.1993 Y-0.1738
N21480 X0.1996 Y-0.1742
N21485 X0.1998 Y-0.1746
N21490 X0.2001 Y-0.1749
N21495 X0.2003 Y-0.1753
N21500 X0.2006 Y-0.1757
N21505 X0.208 Y-0.1874
N21510 X0.2061 Y-0.1911 Z0.
N21515 X0.208 Y-0.1874 Z-0.01
N21520 X0.2101
N21525 X0.2167 Y-0.1911 Z0.
N21530 X0.2101 Y-0.1874 Z-0.01
N21535 X0.2025 Y-0.1755
N21540 X0.2023 Y-0.1752
N21545 X0.202 Y-0.1748
N21550 X0.2018 Y-0.1745
N21555 X0.2015 Y-0.1741
N21560 X0.2013 Y-0.1737
N21565 X0.201 Y-0.1734
N21570 X0.2008 Y-0.173
N21575 X0.2005 Y-0.1727
N21580 X0.2003 Y-0.1723
N21585 X0.2 Y-0.172
N21590 X0.1997 Y-0.1717
N21595 X0.1995 Y-0.1713
N21600 X0.1992 Y-0.171
N21605 X0.199 Y-0.1707
N21610 X0.1987 Y-0.1704
N21615 X0.1984 Y-0.1701
N21620 X0.1981 Y-0.1698
N21625 X0.1978 Y-0.1695
N21630 X0.1975 Y-0.1692
N21635 X0.1972 Y-0.1688
N21640 X0.1969 Y-0.1685
N21645 X0.1966 Y-0.1682
N21650 X0.1962 Y-0.1679
N21655 X0.1961 Y-0.1677
N21660 X0.196
N21665 X0.1959 Y-0.1675
N21670 X0.1957 Y-0.1674
N21675 X0.1955 Y-0.1672
N21680 X0.1953 Y-0.1671
N21685 X0.1951 Y-0.167
N21690 X0.1949 Y-0.1668
N21695 X0.1948 Y-0.1667
N21700 X0.1946 Y-0.1666
N21705 X0.1944 Y-0.1665
N21710 X0.1943 Y-0.1664
N21715 X0.1941 Y-0.1663
N21720 X0.194 Y-0.1662
N21725 X0.1939
N21730 G0 Z0.1
N21735 X0.164 Y-0.2911
N21740 Z0.05
N21745 G1 Z0. F5.
N21750 X0.1677 Y-0.2875 Z-0.01 F7.5
N21755 Y-0.2303
N21760 X0.164 Y-0.2267 Z0.
N21765 X0.1677 Y-0.2303 Z-0.01
N21770 X0.1689
N21775 X0.1725 Y-0.2267 Z0.
N21780 X0.1689 Y-0.2303 Z-0.01
N21785 Y-0.2835
N21790 G3 X0.1726 Y-0.2872 I0.0036 J0.
N21795 G1 X0.2006
N21800 X0.2043 Y-0.2835 Z0.
N21805 X0.2006 Y-0.2872 Z-0.01
N21810 Y-0.2875
N21815 X0.2043 Y-0.2911 Z0.
N21820 X0.2006 Y-0.2875 Z-0.01
N21825 X0.1677
N21830 G0 Z0.1
N21835 X0.1645 Y-0.4945
N21840 Z0.05
N21845 G1 Z0. F5.
N21850 X0.1682 Y-0.4908 Z-0.01 F7.5
