%
(1001)
(ENGRAVING BIT 12K RPM 8 MINUTES)
(T4  D=0.125 CR=0. TAPER=20DEG - ZMIN=-0.012 - CHAMFER MILL)
N10 G90 G94 G17 G91.1
N15 G20
N20 G53 G0 Z0.
(ENGRAVE2)
N25 M9
N30 T4 M6
N35 S12000 M3
N40 G54
N45 M8
N55 G0 X-0.3886 Y-0.1704
N60 G43 Z0.3 H4
N65 G0 Z0.05
N70 G1 Z0. F5.
N75 X-0.3869 Y-0.1718 Z-0.0042 F7.5
N80 X-0.3846 Y-0.1737 Z-0.01
N85 X-0.3835 Y-0.1736
N90 X-0.3812 Y-0.1705 Z-0.0021
N95 X-0.3806 Y-0.1697 Z0.
N100 X-0.3812 Y-0.1705 Z-0.0021
N105 X-0.3835 Y-0.1736 Z-0.01
N110 Y-0.1737
N115 X-0.3834 Y-0.174
N120 Y-0.1741
N125 X-0.3833 Y-0.1745
N130 X-0.3832 Y-0.1749
N135 Y-0.175
N140 X-0.383 Y-0.1753
N145 Y-0.1754
N150 X-0.3829 Y-0.1757
N155 X-0.3828 Y-0.1758
N160 X-0.3827 Y-0.1761
N165 Y-0.1762
N170 X-0.3825 Y-0.1765
N175 Y-0.1766
N180 X-0.3824 Y-0.1769
N185 X-0.3823 Y-0.177
N190 X-0.3822 Y-0.1773
N195 Y-0.1774
N200 X-0.382 Y-0.1777
N205 X-0.3818 Y-0.178
N210 Y-0.1781
N215 X-0.3817 Y-0.1784
N220 X-0.3816
N225 X-0.3815 Y-0.1787
N230 X-0.3813 Y-0.179
N235 Y-0.1791
N240 X-0.3811 Y-0.1794
N245 G3 X-0.3807 Y-0.18 I0.0032 J0.0017
N250 G1 X-0.3805 Y-0.1802
N255 Y-0.1803
N260 X-0.3802 Y-0.1805
N265 X-0.38 Y-0.1808
N270 X-0.3797 Y-0.1811
N275 X-0.3795 Y-0.1814
N280 X-0.3794
N285 X-0.3792 Y-0.1817
N290 X-0.3789 Y-0.182
N295 X-0.3786 Y-0.1823
N300 X-0.3783 Y-0.1826
N305 X-0.3782
N310 X-0.378 Y-0.1829
N315 X-0.3779
N320 X-0.3776 Y-0.1832
N325 X-0.3775
N330 X-0.3773 Y-0.1834
N335 X-0.3772 Y-0.1835
N340 X-0.3769 Y-0.1837
N345 X-0.3768 Y-0.1838
N350 X-0.3765 Y-0.184
N355 X-0.3764
N360 X-0.3762 Y-0.1842
N365 X-0.3761 Y-0.1843
N370 X-0.3758 Y-0.1844
N375 X-0.3757 Y-0.1845
N380 X-0.3754 Y-0.1847
N385 X-0.3751 Y-0.1849
N390 X-0.375
N395 X-0.3747 Y-0.1851
N400 X-0.3744 Y-0.1852
N405 X-0.3743 Y-0.1853
N410 X-0.374 Y-0.1854
N415 X-0.3737 Y-0.1856
N420 X-0.3733 Y-0.1857
N425 Y-0.1858
N430 X-0.373 Y-0.1859
N435 G3 X-0.3726 Y-0.1861 I0.0016 J0.0033
N440 G1 X-0.3722 Y-0.1862
N445 X-0.3718 Y-0.1864
N450 X-0.3714 Y-0.1865
N455 X-0.371 Y-0.1866
N460 Y-0.1867
N465 X-0.3706 Y-0.1868
N470 X-0.3705
N475 X-0.3701 Y-0.1869
N480 X-0.3697 Y-0.1871
N485 X-0.3696
N490 X-0.3692 Y-0.1872
N495 X-0.3688 Y-0.1873
N500 X-0.3687
N505 X-0.3683 Y-0.1874
N510 X-0.3682 Y-0.1875
N515 X-0.3678 Y-0.1876
N520 X-0.3677
N525 X-0.3673 Y-0.1877
N530 X-0.3672
N535 X-0.3668
N540 X-0.3667 Y-0.1878
N545 X-0.3663
N550 X-0.3662
N555 X-0.3658 Y-0.1879
N560 X-0.3657
N565 X-0.3653
N570 X-0.3648 Y-0.188
N575 X-0.3644
N580 X-0.3643
N585 X-0.3639 Y-0.1881
N590 X-0.3634
N595 X-0.363
N600 X-0.3625
N605 X-0.3621
N610 X-0.3617 Y-0.1882
N615 X-0.3614
N620 X-0.361
N625 X-0.3607 Y-0.1881
N630 X-0.3603
N635 X-0.3599
N640 X-0.3595
N645 X-0.3591
N650 X-0.3587 Y-0.188
N655 X-0.3583
N660 X-0.3579
N665 X-0.3578
N670 X-0.3575 Y-0.1879
N675 X-0.3574
N680 X-0.357
N685 X-0.3566 Y-0.1878
N690 X-0.3565
N695 X-0.3562 Y-0.1877
N700 X-0.3561
N705 X-0.3557 Y-0.1876
N710 X-0.3553 Y-0.1875
N715 X-0.3552
N720 X-0.3549 Y-0.1874
N725 X-0.3548
N730 X-0.3545 Y-0.1873
N735 X-0.3544
N740 X-0.3541 Y-0.1872
N745 X-0.354
N750 X-0.3537 Y-0.1871
N755 X-0.3536
N760 X-0.3533 Y-0.187
N765 X-0.3529 Y-0.1869
N770 X-0.3525 Y-0.1868
N775 X-0.3522 Y-0.1867
N780 X-0.3518 Y-0.1865
N785 X-0.3515 Y-0.1864
N790 X-0.3512 Y-0.1863
N795 X-0.3509 Y-0.1862
N800 X-0.3506 Y-0.1861
N805 Y-0.186
N810 X-0.3504 Y-0.1859
N815 X-0.3503
N820 X-0.3501 Y-0.1858
N825 X-0.35
N830 X-0.3497 Y-0.1856
N835 X-0.3494 Y-0.1855
N840 Y-0.1854
N845 X-0.3491 Y-0.1853
N850 X-0.3488 Y-0.1851
N855 X-0.3487
N860 X-0.3485 Y-0.1849
N865 X-0.3484
N870 X-0.3481 Y-0.1847
N875 X-0.3478 Y-0.1845
N880 X-0.3477 Y-0.1844
N885 X-0.3475 Y-0.1843
N890 X-0.3474 Y-0.1842
N895 X-0.3472 Y-0.184
N900 X-0.3471
N905 X-0.3469 Y-0.1838
N910 X-0.3468 Y-0.1837
N915 X-0.3466 Y-0.1835
N920 X-0.3465 Y-0.1834
N925 X-0.3463 Y-0.1832
N930 X-0.3462
N935 X-0.346 Y-0.183
N940 Y-0.1829
N945 X-0.3458 Y-0.1827
N950 X-0.3457
N955 X-0.3455 Y-0.1825
N960 X-0.3453 Y-0.1822
N965 X-0.3451 Y-0.182
N970 X-0.3449 Y-0.1818
N975 X-0.3447 Y-0.1815
N980 G3 X-0.3443 Y-0.181 I-0.0027 J0.0024
N985 G1 X-0.3442 Y-0.1808
N990 X-0.344 Y-0.1806
N995 X-0.3439 Y-0.1804
N1000 X-0.3437 Y-0.1801
N1005 X-0.3436 Y-0.1799
N1010 Y-0.1798
N1015 X-0.3434 Y-0.1796
N1020 X-0.3433 Y-0.1793
N1025 X-0.3432
N1030 X-0.3431 Y-0.179
N1035 X-0.343 Y-0.1787
N1040 X-0.3429 Y-0.1786
N1045 X-0.3428 Y-0.1784
N1050 Y-0.1783
N1055 X-0.3427 Y-0.1781
N1060 Y-0.178
N1065 X-0.3426 Y-0.1777
N1070 X-0.3425 Y-0.1776
N1075 Y-0.1774
N1080 X-0.3424 Y-0.1772
N1085 Y-0.177
N1090 X-0.3423 Y-0.1769
N1095 Y-0.1766
N1100 X-0.3422 Y-0.1765
N1105 Y-0.1763
N1110 Y-0.1762
N1115 X-0.3421 Y-0.1759
N1120 Y-0.1756
N1125 X-0.342 Y-0.1753
N1130 Y-0.1752
N1135 Y-0.175
N1140 Y-0.1747
N1145 Y-0.1744
N1150 X-0.3419
N1155 Y-0.1741
N1160 Y-0.1739
N1165 G3 Y-0.1733 I-0.0036 J0.0003
N1170 G1 Y-0.1731
N1175 Y-0.1728
N1180 X-0.342 Y-0.1726
N1185 Y-0.1725
N1190 Y-0.1723
N1195 Y-0.172
N1200 Y-0.1717
N1205 X-0.3421 Y-0.1716
N1210 Y-0.1714
N1215 Y-0.1713
N1220 Y-0.1711
N1225 X-0.3422 Y-0.171
N1230 Y-0.1708
N1235 Y-0.1707
N1240 X-0.3423 Y-0.1704
N1245 Y-0.1703
N1250 X-0.3424 Y-0.1701
N1255 Y-0.1699
N1260 X-0.3425 Y-0.1697
N1265 Y-0.1696
N1270 X-0.3426 Y-0.1694
N1275 X-0.3427 Y-0.1692
N1280 Y-0.169
N1285 X-0.3428 Y-0.1689
N1290 X-0.3429 Y-0.1687
N1295 Y-0.1686
N1300 X-0.343 Y-0.1684
N1305 X-0.3431 Y-0.1683
N1310 X-0.3432 Y-0.1681
N1315 Y-0.168
N1320 X-0.3433 Y-0.1678
N1325 X-0.3434 Y-0.1677
N1330 X-0.3435 Y-0.1675
N1335 Y-0.1674
N1340 X-0.3437 Y-0.1672
N1345 X-0.3438 Y-0.167
N1350 X-0.344 Y-0.1668
N1355 Y-0.1667
N1360 X-0.3441 Y-0.1665
N1365 X-0.3442 Y-0.1663
N1370 G3 X-0.3447 Y-0.1658 I-0.0031 J-0.002
N1375 G1 X-0.3449 Y-0.1655
N1380 X-0.3451 Y-0.1653
N1385 X-0.3453 Y-0.1651
N1390 X-0.3454
N1395 X-0.3456 Y-0.1649
N1400 Y-0.1648
N1405 X-0.3458 Y-0.1646
N1410 X-0.3459
N1415 X-0.3461 Y-0.1644
N1420 X-0.3463 Y-0.1642
N1425 X-0.3464 Y-0.1641
N1430 X-0.3466 Y-0.1639
N1435 X-0.3467
N1440 X-0.3469 Y-0.1637
N1445 X-0.347 Y-0.1636
N1450 X-0.3472 Y-0.1634
N1455 X-0.3473
N1460 X-0.3476 Y-0.1632
N1465 X-0.3477 Y-0.1631
N1470 X-0.3479 Y-0.163
N1475 X-0.348 Y-0.1629
N1480 X-0.3483 Y-0.1628
N1485 Y-0.1627
N1490 X-0.3486 Y-0.1626
N1495 X-0.3487 Y-0.1625
N1500 X-0.3489 Y-0.1624
N1505 X-0.349 Y-0.1623
N1510 X-0.3493 Y-0.1622
N1515 X-0.3496 Y-0.162
N1520 X-0.3499 Y-0.1619
N1525 X-0.35
N1530 X-0.3502 Y-0.1617
N1535 X-0.3503
N1540 X-0.3505 Y-0.1616
N1545 X-0.3506
N1550 X-0.3508 Y-0.1615
N1555 X-0.3509
N1560 X-0.3511 Y-0.1614
N1565 X-0.3512 Y-0.1613
N1570 X-0.3514 Y-0.1612
N1575 X-0.3517 Y-0.1611
N1580 X-0.352 Y-0.161
N1585 X-0.3525 Y-0.1609
N1590 X-0.3529 Y-0.1607
N1595 X-0.3534 Y-0.1606
N1600 X-0.3539 Y-0.1604
N1605 X-0.3544 Y-0.1603
N1610 X-0.3549 Y-0.1601
N1615 X-0.3554 Y-0.16
N1620 X-0.3558 Y-0.1598
N1625 X-0.3559
N1630 X-0.3563 Y-0.1597
N1635 X-0.3564
N1640 X-0.3568 Y-0.1595
N1645 X-0.3569
N1650 X-0.3573 Y-0.1594
N1655 X-0.3574
N1660 X-0.3578 Y-0.1593
N1665 X-0.3579
N1670 X-0.3583 Y-0.1591
N1675 X-0.3584
N1680 X-0.3588 Y-0.159
N1685 X-0.3593 Y-0.1589
N1690 X-0.3598 Y-0.1588
N1695 X-0.3603 Y-0.1586
N1700 X-0.3608 Y-0.1585
N1705 X-0.3613 Y-0.1584
N1710 X-0.3618 Y-0.1583
N1715 X-0.3623 Y-0.1582
N1720 X-0.3628 Y-0.158
N1725 X-0.3637 Y-0.1578
N1730 X-0.3642 Y-0.1577
N1735 X-0.3648 Y-0.1576
N1740 X-0.3653 Y-0.1574
N1745 X-0.3658 Y-0.1573
N1750 X-0.3663 Y-0.1572
N1755 X-0.3668 Y-0.1571
N1760 X-0.3673 Y-0.1569
N1765 X-0.3678 Y-0.1568
N1770 X-0.3683 Y-0.1566
N1775 X-0.3688 Y-0.1565
N1780 X-0.3693 Y-0.1564
N1785 X-0.3698 Y-0.1562
N1790 X-0.3703 Y-0.1561
N1795 X-0.3707 Y-0.1559
N1800 X-0.3712 Y-0.1557
N1805 X-0.3717 Y-0.1556
N1810 X-0.3722 Y-0.1554
N1815 X-0.3726 Y-0.1552
N1820 X-0.3731 Y-0.155
N1825 X-0.3736 Y-0.1548
N1830 X-0.3741 Y-0.1546
N1835 X-0.3746 Y-0.1544
N1840 X-0.3751 Y-0.1542
N1845 X-0.3754 Y-0.1541
N1850 X-0.3755 Y-0.154
N1855 X-0.3758 Y-0.1538
N1860 X-0.3761 Y-0.1536
N1865 X-0.3765 Y-0.1534
N1870 X-0.3767 Y-0.1532
N1875 X-0.377 Y-0.1531
N1880 X-0.3773 Y-0.1529
N1885 X-0.3776 Y-0.1527
N1890 X-0.3778 Y-0.1525
N1895 X-0.378 Y-0.1524
N1900 X-0.3783 Y-0.1522
N1905 X-0.3785 Y-0.152
N1910 X-0.3787 Y-0.1518
N1915 X-0.3789 Y-0.1517
N1920 X-0.3791 Y-0.1515
N1925 X-0.3793 Y-0.1512
N1930 X-0.3795 Y-0.151
N1935 X-0.3797 Y-0.1508
N1940 X-0.3799 Y-0.1505
N1945 X-0.3801 Y-0.1503
N1950 X-0.3803 Y-0.15
N1955 X-0.3806 Y-0.1497
N1960 X-0.3808 Y-0.1494
N1965 Y-0.1493
N1970 X-0.381 Y-0.149
N1975 X-0.3811 Y-0.1488
N1980 X-0.3813 Y-0.1485
N1985 X-0.3814 Y-0.1482
N1990 X-0.3815 Y-0.1479
N1995 X-0.3817 Y-0.1477
N2000 X-0.3818 Y-0.1474
N2005 X-0.3819 Y-0.1472
N2010 Y-0.147
N2015 X-0.382 Y-0.1467
N2020 X-0.3821 Y-0.1465
N2025 Y-0.1463
N2030 X-0.3822 Y-0.1461
N2035 Y-0.1458
N2040 X-0.3823 Y-0.1456
N2045 Y-0.1453
N2050 X-0.3824 Y-0.145
N2055 Y-0.1447
N2060 Y-0.1444
N2065 Y-0.1441
N2070 X-0.3825 Y-0.1438
N2075 Y-0.1434
N2080 Y-0.1433
N2085 Y-0.1432
N2090 X-0.3824 Y-0.1428
N2095 Y-0.1424
N2100 Y-0.142
N2105 X-0.3823 Y-0.1417
N2110 Y-0.1414
N2115 Y-0.141
N2120 X-0.3822 Y-0.1407
N2125 Y-0.1404
N2130 X-0.3821 Y-0.1401
N2135 X-0.382 Y-0.1399
N2140 Y-0.1396
N2145 X-0.3819 Y-0.1394
N2150 X-0.3818 Y-0.1391
N2155 X-0.3817 Y-0.1388
N2160 X-0.3815 Y-0.1385
N2165 X-0.3814 Y-0.1383
N2170 X-0.3813 Y-0.138
N2175 X-0.3811 Y-0.1377
N2180 X-0.3809 Y-0.1373
N2185 X-0.3808 Y-0.137
N2190 X-0.3806 Y-0.1367
N2195 X-0.3804 Y-0.1363
N2200 X-0.3803 Y-0.1362
N2205 X-0.3802 Y-0.1361
N2210 X-0.38 Y-0.1358
N2215 X-0.3797 Y-0.1355
N2220 X-0.3795 Y-0.1351
N2225 X-0.3792 Y-0.1349
N2230 X-0.379 Y-0.1346
N2235 X-0.3787 Y-0.1343
N2240 X-0.3785 Y-0.1341
N2245 X-0.3783 Y-0.1338
N2250 X-0.378 Y-0.1336
N2255 X-0.3778 Y-0.1334
N2260 X-0.3776 Y-0.1332
N2265 X-0.3773 Y-0.133
N2270 X-0.3771 Y-0.1328
N2275 X-0.3768 Y-0.1327
N2280 X-0.3765 Y-0.1325
N2285 X-0.3762 Y-0.1323
N2290 X-0.3759 Y-0.1321
N2295 X-0.3756 Y-0.1319
N2300 X-0.3752 Y-0.1318
N2305 X-0.3749 Y-0.1316
N2310 X-0.3745 Y-0.1314
N2315 X-0.3741 Y-0.1312
N2320 X-0.3739 Y-0.1311
N2325 X-0.3736 Y-0.131
N2330 X-0.3732 Y-0.1309
N2335 X-0.3727 Y-0.1307
N2340 X-0.3722 Y-0.1306
N2345 X-0.3718 Y-0.1304
N2350 X-0.3713 Y-0.1303
N2355 X-0.3709 Y-0.1301
N2360 X-0.3705 Y-0.13
N2365 X-0.3701 Y-0.1299
N2370 X-0.3696 Y-0.1298
N2375 X-0.3692 Y-0.1297
N2380 X-0.3688 Y-0.1296
N2385 X-0.3684
N2390 X-0.368 Y-0.1295
N2395 X-0.3676
N2400 X-0.3671 Y-0.1294
N2405 X-0.3667
N2410 X-0.3662 Y-0.1293
N2415 X-0.3658
N2420 X-0.3653
N2425 X-0.3648 Y-0.1292
N2430 X-0.3643
N2435 X-0.3638
N2440 X-0.3635
N2445 X-0.3631
N2450 X-0.3625
N2455 X-0.362
N2460 X-0.3615 Y-0.1293
N2465 X-0.361
N2470 X-0.3605
N2475 X-0.36 Y-0.1294
N2480 X-0.3595
N2485 X-0.359 Y-0.1295
N2490 X-0.3586
N2495 X-0.3581 Y-0.1296
N2500 X-0.3577 Y-0.1297
N2505 X-0.3572
N2510 X-0.3568 Y-0.1298
N2515 X-0.3564 Y-0.1299
N2520 X-0.3559 Y-0.1301
N2525 X-0.3554 Y-0.1302
N2530 X-0.355 Y-0.1303
N2535 X-0.3545 Y-0.1305
N2540 X-0.354 Y-0.1306
N2545 X-0.3535 Y-0.1308
N2550 X-0.3531 Y-0.131
N2555 X-0.3526 Y-0.1311
N2560 X-0.3523 Y-0.1312
N2565 X-0.352 Y-0.1314
N2570 X-0.3516 Y-0.1316
N2575 X-0.3512 Y-0.1317
N2580 X-0.3509 Y-0.1319
N2585 X-0.3505 Y-0.1321
N2590 X-0.3502 Y-0.1323
N2595 X-0.3498 Y-0.1325
N2600 X-0.3495 Y-0.1327
N2605 X-0.3492 Y-0.1329
N2610 X-0.3489 Y-0.1331
N2615 X-0.3486 Y-0.1333
N2620 X-0.3484 Y-0.1335
N2625 X-0.3481 Y-0.1337
N2630 X-0.3479 Y-0.1339
N2635 X-0.3476 Y-0.1341
N2640 X-0.3474 Y-0.1344
N2645 X-0.3471 Y-0.1346
N2650 X-0.3469 Y-0.1349
N2655 X-0.3466 Y-0.1352
N2660 X-0.3464 Y-0.1355
N2665 X-0.3461 Y-0.1359
N2670 X-0.3458 Y-0.1362
N2675 X-0.3456 Y-0.1365
N2680 X-0.3455 Y-0.1367
N2685 X-0.3454 Y-0.1368
N2690 X-0.3452 Y-0.1372
N2695 X-0.345 Y-0.1376
N2700 X-0.3448 Y-0.1379
N2705 X-0.3446 Y-0.1383
N2710 X-0.3444 Y-0.1386
N2715 X-0.3442 Y-0.139
N2720 X-0.3441 Y-0.1393
N2725 X-0.3439 Y-0.1396
N2730 X-0.3438 Y-0.14
N2735 X-0.3437 Y-0.1403
N2740 X-0.3436 Y-0.1406
N2745 X-0.3435 Y-0.1409
N2750 X-0.3434 Y-0.1412
N2755 Y-0.1415
N2760 X-0.3416 Y-0.1428 Z-0.0059
N2765 X-0.3393 Y-0.1448 Z0.
N2770 X-0.3416 Y-0.1428 Z-0.0059
N2775 X-0.3434 Y-0.1415 Z-0.01
N2780 X-0.3445
N2785 X-0.3466 Y-0.1444 Z-0.0027
N2790 X-0.3474 Y-0.1454 Z0.
N2795 X-0.3466 Y-0.1444 Z-0.0027
N2800 X-0.3445 Y-0.1415 Z-0.01
N2805 Y-0.1414
N2810 X-0.3446 Y-0.141
N2815 X-0.3447 Y-0.1409
N2820 X-0.3448 Y-0.1405
N2825 Y-0.1403
N2830 X-0.345 Y-0.1399
N2835 Y-0.1398
N2840 X-0.3452 Y-0.1394
N2845 Y-0.1392
N2850 X-0.3454 Y-0.1389
N2855 X-0.3455 Y-0.1387
N2860 X-0.3457 Y-0.1383
N2865 X-0.3458 Y-0.1382
N2870 X-0.346 Y-0.1378
N2875 X-0.3461 Y-0.1377
N2880 X-0.3463 Y-0.1373
N2885 X-0.3464 Y-0.1372
N2890 X-0.3466 Y-0.1368
N2895 X-0.3467 Y-0.1367
N2900 X-0.3469 Y-0.1364
N2905 X-0.347 Y-0.1363
N2910 X-0.3473 Y-0.1359
N2915 Y-0.1358
N2920 X-0.3476 Y-0.1355
N2925 X-0.3477
N2930 X-0.3479 Y-0.1351
N2935 X-0.348
N2940 X-0.3483 Y-0.1347
N2945 X-0.3486 Y-0.1344
N2950 X-0.3489 Y-0.134
N2955 X-0.3493 Y-0.1337
N2960 G3 X-0.35 Y-0.1331 I-0.0027 J-0.0025
N2965 G1 X-0.3505 Y-0.1328
N2970 X-0.3509 Y-0.1325
N2975 X-0.3514 Y-0.1323
N2980 X-0.3518 Y-0.132
N2985 X-0.3519
N2990 X-0.3523 Y-0.1317
N2995 X-0.3524
N3000 X-0.3528 Y-0.1315
N3005 X-0.3529
N3010 X-0.3533 Y-0.1312
N3015 X-0.3534
N3020 X-0.3539 Y-0.131
N3025 X-0.354 Y-0.1309
N3030 X-0.3544 Y-0.1308
N3035 X-0.3546 Y-0.1307
N3040 X-0.355 Y-0.1305
N3045 X-0.3552
N3050 X-0.3556 Y-0.1303
N3055 X-0.3558
N3060 X-0.3562 Y-0.1302
N3065 X-0.3564 Y-0.1301
N3070 X-0.3568 Y-0.13
N3075 X-0.357
N3080 X-0.3574 Y-0.1299
N3085 X-0.3576
N3090 X-0.358 Y-0.1298
N3095 X-0.3581
N3100 X-0.3586 Y-0.1297
N3105 X-0.3587
N3110 X-0.3592 Y-0.1296
N3115 X-0.3593
N3120 X-0.3598
N3125 X-0.3603 Y-0.1295
N3130 X-0.3604
N3135 X-0.3609
N3140 X-0.3614
N3145 X-0.3615
N3150 X-0.362
N3155 X-0.3625 Y-0.1294
N3160 X-0.363
N3165 X-0.3632
N3170 X-0.3637
N3175 X-0.3642
N3180 X-0.3647 Y-0.1295
N3185 X-0.3652
N3190 X-0.3653
N3195 X-0.3658
N3200 X-0.3663
N3205 X-0.3664
N3210 X-0.3669 Y-0.1296
N3215 X-0.367
N3220 X-0.3674
N3225 X-0.3675
N3230 X-0.368 Y-0.1297
N3235 X-0.3681
N3240 X-0.3686 Y-0.1298
N3245 X-0.3687
N3250 X-0.3692 Y-0.1299
N3255 X-0.3693
N3260 X-0.3698 Y-0.13
N3265 X-0.3699
N3270 X-0.3704 Y-0.1302
N3275 X-0.3705
N3280 X-0.371 Y-0.1303
N3285 X-0.3711 Y-0.1304
N3290 X-0.3716 Y-0.1305
N3295 X-0.3717 Y-0.1306
N3300 X-0.3722 Y-0.1308
N3305 X-0.3723
N3310 X-0.3727 Y-0.131
N3315 X-0.3728
N3320 X-0.3733 Y-0.1312
N3325 Y-0.1313
N3330 X-0.3738 Y-0.1315
N3335 X-0.3743 Y-0.1317
N3340 Y-0.1318
N3345 X-0.3748 Y-0.132
N3350 X-0.3753 Y-0.1322
N3355 X-0.3757 Y-0.1325
N3360 X-0.3762 Y-0.1327
N3365 G3 X-0.3769 Y-0.1333 I0.0018 J-0.0032
N3370 G1 X-0.3771 Y-0.1335
N3375 X-0.3772
N3380 X-0.3774 Y-0.1337
N3385 Y-0.1338
N3390 X-0.3777 Y-0.134
N3395 X-0.3779 Y-0.1343
N3400 X-0.378
N3405 X-0.3782 Y-0.1346
N3410 X-0.3783
N3415 X-0.3785 Y-0.1349
N3420 X-0.3786
N3425 X-0.3788 Y-0.1352
N3430 X-0.3789 Y-0.1353
N3435 X-0.3791 Y-0.1355
N3440 X-0.3792 Y-0.1356
N3445 X-0.3794 Y-0.1359
N3450 Y-0.136
N3455 X-0.3796 Y-0.1363
N3460 X-0.3797 Y-0.1364
N3465 X-0.3799 Y-0.1367
N3470 X-0.38 Y-0.1369
N3475 X-0.3802 Y-0.1371
N3480 X-0.3803 Y-0.1373
N3485 X-0.3804 Y-0.1376
N3490 X-0.3805 Y-0.1378
N3495 X-0.3806 Y-0.1381
N3500 X-0.3807 Y-0.1383
N3505 X-0.3808 Y-0.1386
N3510 Y-0.1387
N3515 X-0.3809 Y-0.139
N3520 X-0.381 Y-0.1392
N3525 X-0.3811 Y-0.1395
N3530 Y-0.1396
N3535 X-0.3812 Y-0.1399
N3540 Y-0.14
N3545 Y-0.1404
N3550 X-0.3813
N3555 Y-0.1408
N3560 X-0.3814 Y-0.1412
N3565 Y-0.1415
N3570 Y-0.1416
N3575 X-0.3815 Y-0.1419
N3580 Y-0.1423
N3585 G3 Y-0.1431 I0.0036 J-0.0005
N3590 G1 Y-0.1433
N3595 Y-0.1434
N3600 Y-0.1436
N3605 Y-0.1437
N3610 Y-0.1439
N3615 Y-0.144
N3620 X-0.3814 Y-0.1442
N3625 Y-0.1443
N3630 Y-0.1446
N3635 Y-0.1447
N3640 X-0.3813 Y-0.1449
N3645 Y-0.145
N3650 Y-0.1453
N3655 X-0.3812 Y-0.1454
N3660 Y-0.1456
N3665 Y-0.1458
N3670 X-0.3811 Y-0.146
N3675 Y-0.1462
N3680 X-0.381 Y-0.1464
N3685 X-0.3809 Y-0.1466
N3690 X-0.3808 Y-0.1468
N3695 Y-0.147
N3700 X-0.3807 Y-0.1472
N3705 X-0.3806 Y-0.1474
N3710 X-0.3805 Y-0.1477
N3715 X-0.3804 Y-0.1478
N3720 X-0.3803 Y-0.148
N3725 X-0.3802 Y-0.1482
N3730 X-0.3801 Y-0.1484
N3735 X-0.38 Y-0.1486
N3740 X-0.3798 Y-0.1488
N3745 Y-0.1489
N3750 X-0.3796 Y-0.1491
N3755 Y-0.1492
N3760 X-0.3794 Y-0.1494
N3765 X-0.3793 Y-0.1495
N3770 X-0.3792 Y-0.1497
N3775 X-0.3791 Y-0.1498
N3780 X-0.3789 Y-0.15
N3785 X-0.3787 Y-0.1502
N3790 Y-0.1503
N3795 X-0.3785 Y-0.1505
N3800 X-0.3783 Y-0.1507
N3805 X-0.3781 Y-0.1509
N3810 G3 X-0.3772 Y-0.1516 I0.0027 J0.0024
N3815 G1 X-0.3767 Y-0.1519
N3820 X-0.3762 Y-0.1522
N3825 X-0.3757 Y-0.1525
N3830 X-0.3756
N3835 X-0.3751 Y-0.1528
N3840 X-0.3746 Y-0.153
N3845 X-0.3745 Y-0.1531
N3850 X-0.374 Y-0.1533
N3855 X-0.3735 Y-0.1536
N3860 X-0.3734
N3865 X-0.3729 Y-0.1539
N3870 X-0.3728
N3875 X-0.3723 Y-0.1541
N3880 X-0.3722 Y-0.1542
N3885 X-0.3717 Y-0.1544
N3890 X-0.3716
N3895 X-0.3711 Y-0.1546
N3900 X-0.371
N3905 X-0.3704 Y-0.1548
N3910 X-0.3698 Y-0.155
N3915 X-0.3692 Y-0.1552
N3920 X-0.3686 Y-0.1554
N3925 X-0.368 Y-0.1555
N3930 Y-0.1556
N3935 X-0.3674 Y-0.1557
N3940 X-0.3668 Y-0.1558
N3945 Y-0.1559
N3950 X-0.3662 Y-0.156
N3955 X-0.3656 Y-0.1561
N3960 X-0.3651 Y-0.1563
N3965 X-0.365
N3970 X-0.3645 Y-0.1564
N3975 X-0.3639 Y-0.1565
N3980 X-0.3634 Y-0.1566
N3985 X-0.3628 Y-0.1567
N3990 X-0.3622 Y-0.1569
N3995 X-0.3616 Y-0.157
N4000 X-0.361 Y-0.1572
N4005 X-0.3604 Y-0.1573
N4010 X-0.3598 Y-0.1574
N4015 X-0.3592 Y-0.1576
N4020 X-0.3586 Y-0.1577
N4025 X-0.358 Y-0.1578
N4030 X-0.3575 Y-0.158
N4035 X-0.3569 Y-0.1581
N4040 X-0.3563 Y-0.1583
N4045 X-0.3558 Y-0.1585
N4050 X-0.3552 Y-0.1586
N4055 X-0.3547 Y-0.1588
N4060 X-0.3541 Y-0.159
N4065 X-0.3535 Y-0.1592
N4070 X-0.353 Y-0.1593
N4075 X-0.3524 Y-0.1595
N4080 X-0.3518 Y-0.1597
N4085 X-0.3513 Y-0.1599
N4090 X-0.3507 Y-0.1601
N4095 X-0.3501 Y-0.1604
N4100 X-0.3498 Y-0.1605
N4105 X-0.3496 Y-0.1606
N4110 X-0.3492 Y-0.1608
N4115 X-0.3488 Y-0.161
N4120 X-0.3484 Y-0.1612
N4125 X-0.3481 Y-0.1614
N4130 X-0.3477 Y-0.1616
N4135 X-0.3474 Y-0.1618
N4140 X-0.3471 Y-0.162
N4145 X-0.3468 Y-0.1622
N4150 X-0.3465 Y-0.1623
N4155 X-0.3462 Y-0.1625
N4160 X-0.3459 Y-0.1627
N4165 X-0.3457 Y-0.1629
N4170 X-0.3454 Y-0.1632
N4175 X-0.3452 Y-0.1634
N4180 X-0.3449 Y-0.1636
N4185 X-0.3447 Y-0.1639
N4190 X-0.3444 Y-0.1642
N4195 X-0.3442 Y-0.1644
N4200 X-0.3439 Y-0.1647
N4205 X-0.3436 Y-0.1651
N4210 X-0.3434 Y-0.1654
N4215 X-0.3431 Y-0.1657
N4220 X-0.343 Y-0.1658
N4225 Y-0.1659
N4230 X-0.3428 Y-0.1662
N4235 X-0.3426 Y-0.1665
N4240 X-0.3424 Y-0.1669
N4245 X-0.3423 Y-0.1672
N4250 X-0.3421 Y-0.1675
N4255 X-0.342 Y-0.1678
N4260 X-0.3418 Y-0.1681
N4265 X-0.3417 Y-0.1683
N4270 X-0.3416 Y-0.1686
N4275 X-0.3415 Y-0.1689
N4280 Y-0.1691
N4285 X-0.3414 Y-0.1694
N4290 X-0.3413 Y-0.1696
N4295 Y-0.1699
N4300 X-0.3412 Y-0.1702
N4305 Y-0.1705
N4310 X-0.3411 Y-0.1709
N4315 Y-0.1712
N4320 Y-0.1716
N4325 X-0.341 Y-0.1719
N4330 Y-0.1723
N4335 Y-0.1727
N4340 Y-0.1729
N4345 Y-0.173
N4350 Y-0.1734
N4355 Y-0.1738
N4360 X-0.3411 Y-0.1742
N4365 Y-0.1746
N4370 X-0.3412 Y-0.175
N4375 Y-0.1753
N4380 X-0.3413 Y-0.1757
N4385 Y-0.176
N4390 X-0.3414 Y-0.1763
N4395 X-0.3415 Y-0.1766
N4400 X-0.3416 Y-0.1769
N4405 Y-0.1772
N4410 X-0.3418 Y-0.1775
N4415 X-0.3419 Y-0.1778
N4420 X-0.342 Y-0.1781
N4425 X-0.3421 Y-0.1784
N4430 X-0.3423 Y-0.1787
N4435 X-0.3425 Y-0.179
N4440 X-0.3426 Y-0.1794
N4445 X-0.3428 Y-0.1797
N4450 X-0.343 Y-0.1801
N4455 X-0.3432 Y-0.1804
N4460 X-0.3433 Y-0.1806
N4465 X-0.3434 Y-0.1807
N4470 X-0.3437 Y-0.1811
N4475 X-0.344 Y-0.1814
N4480 X-0.3442 Y-0.1818
N4485 X-0.3445 Y-0.1821
N4490 X-0.3448 Y-0.1824
N4495 X-0.345 Y-0.1827
N4500 X-0.3453 Y-0.183
N4505 X-0.3455 Y-0.1832
N4510 X-0.3458 Y-0.1835
N4515 X-0.3461 Y-0.1837
N4520 X-0.3463 Y-0.1839
N4525 X-0.3466 Y-0.1841
N4530 X-0.3469 Y-0.1844
N4535 X-0.3472 Y-0.1846
N4540 X-0.3475 Y-0.1848
N4545 X-0.3478 Y-0.185
N4550 X-0.3481 Y-0.1852
N4555 X-0.3485 Y-0.1854
N4560 X-0.3489 Y-0.1856
N4565 X-0.3492 Y-0.1858
N4570 X-0.3496 Y-0.186
N4575 X-0.35 Y-0.1862
N4580 X-0.3502 Y-0.1863
N4585 X-0.3505 Y-0.1865
N4590 X-0.351 Y-0.1866
N4595 X-0.3515 Y-0.1868
N4600 X-0.352 Y-0.187
N4605 X-0.3524 Y-0.1871
N4610 X-0.3529 Y-0.1873
N4615 X-0.3533 Y-0.1875
N4620 X-0.3538 Y-0.1876
N4625 X-0.3542 Y-0.1877
N4630 X-0.3547 Y-0.1878
N4635 X-0.3551 Y-0.1879
N4640 X-0.3555 Y-0.188
N4645 X-0.3559 Y-0.1881
N4650 X-0.3564 Y-0.1882
N4655 X-0.3568
N4660 X-0.3573 Y-0.1883
N4665 X-0.3578
N4670 X-0.3582 Y-0.1884
N4675 X-0.3587
N4680 X-0.3592
N4685 X-0.3597 Y-0.1885
N4690 X-0.3602
N4695 X-0.3608
N4700 X-0.3612
N4705 X-0.3617
N4710 X-0.3623
N4715 X-0.3629
N4720 X-0.3635
N4725 X-0.3641 Y-0.1884
N4730 X-0.3647
N4735 X-0.3653
N4740 X-0.3658 Y-0.1883
N4745 X-0.3664
N4750 X-0.3669 Y-0.1882
N4755 X-0.3675 Y-0.1881
N4760 X-0.368 Y-0.188
N4765 X-0.3685
N4770 X-0.3691 Y-0.1878
N4775 X-0.3696 Y-0.1877
N4780 X-0.3701 Y-0.1876
N4785 X-0.3707 Y-0.1874
N4790 X-0.3712 Y-0.1873
N4795 X-0.3718 Y-0.1871
N4800 X-0.3723 Y-0.1869
N4805 X-0.3729 Y-0.1868
N4810 X-0.3735 Y-0.1866
N4815 X-0.3741 Y-0.1864
N4820 X-0.3744 Y-0.1863
N4825 X-0.3746 Y-0.1862
N4830 X-0.375 Y-0.1859
N4835 X-0.3755 Y-0.1857
N4840 X-0.3759 Y-0.1855
N4845 X-0.3763 Y-0.1853
N4850 X-0.3767 Y-0.185
N4855 X-0.3771 Y-0.1848
N4860 X-0.3774 Y-0.1846
N4865 X-0.3778 Y-0.1844
N4870 X-0.3781 Y-0.1841
N4875 X-0.3784 Y-0.1839
N4880 X-0.3787 Y-0.1837
N4885 X-0.379 Y-0.1834
N4890 X-0.3793 Y-0.1832
N4895 X-0.3796 Y-0.1829
N4900 X-0.3798 Y-0.1826
N4905 X-0.3801 Y-0.1823
N4910 X-0.3804 Y-0.182
N4915 X-0.3807 Y-0.1816
N4920 X-0.381 Y-0.1813
N4925 X-0.3813 Y-0.1809
N4930 X-0.3816 Y-0.1805
N4935 X-0.3819 Y-0.1801
N4940 X-0.382 Y-0.18
N4945 X-0.3821 Y-0.1798
N4950 X-0.3824 Y-0.1793
N4955 X-0.3826 Y-0.1789
N4960 X-0.3828 Y-0.1785
N4965 X-0.383 Y-0.1781
N4970 X-0.3833 Y-0.1777
N4975 X-0.3834 Y-0.1773
N4980 X-0.3836 Y-0.1769
N4985 X-0.3838 Y-0.1765
N4990 X-0.3839 Y-0.1761
N4995 X-0.3841 Y-0.1757
N5000 X-0.3842 Y-0.1754
N5005 X-0.3843 Y-0.175
N5010 X-0.3844 Y-0.1746
N5015 X-0.3845 Y-0.1742
N5020 Y-0.1738
N5025 X-0.3846 Y-0.1737
N5030 G0 Z0.1
N5035 X-0.3886 Y-0.3911
N5040 Z0.05
N5045 G1 Z0. F5.
N5050 X-0.385 Y-0.3875 Z-0.01 F7.5
N5055 Y-0.3303
N5060 X-0.3886 Y-0.3267 Z0.
N5065 X-0.385 Y-0.3303 Z-0.01
N5070 X-0.3818
N5075 X-0.3799 Y-0.3267 Z0.
N5080 X-0.3818 Y-0.3303 Z-0.01
N5085 X-0.349 Y-0.3793
N5090 G3 X-0.3424 Y-0.3773 I0.003 J0.002
N5095 G1 Y-0.3303
N5100 X-0.346 Y-0.3267 Z0.
N5105 X-0.3424 Y-0.3303 Z-0.01
N5110 X-0.3415
N5115 X-0.3379 Y-0.3267 Z0.
N5120 X-0.3415 Y-0.3303 Z-0.01
N5125 Y-0.3875
N5130 X-0.3379 Y-0.3911 Z0.
N5135 X-0.3415 Y-0.3875 Z-0.01
N5140 X-0.3446
N5145 X-0.3466 Y-0.3911 Z0.
N5150 X-0.3446 Y-0.3875 Z-0.01
N5155 X-0.3774 Y-0.3385
N5160 G3 X-0.3841 Y-0.3405 I-0.003 J-0.002
N5165 G1 Y-0.3875
N5170 X-0.385
N5175 X-0.3841
N5180 X-0.3804 Y-0.3911 Z0.
N5185 G0 Z0.1
N5190 X-0.3886 Y-0.0911
N5195 Z0.05
N5200 G1 Z0. F5.
N5205 X-0.385 Y-0.0875 Z-0.01 F7.5
N5210 Y-0.0303
N5215 X-0.3886 Y-0.0267 Z0.
N5220 X-0.385 Y-0.0303 Z-0.01
N5225 X-0.3784
N5230 X-0.3758 Y-0.0267 Z0.
N5235 X-0.3784 Y-0.0303 Z-0.01
N5240 X-0.3681 Y-0.0611
N5245 X-0.3769 Y-0.0351
N5250 G3 X-0.384 Y-0.0363 I-0.0034 J-0.0012
N5255 G1 Y-0.0875
N5260 X-0.3804 Y-0.0911 Z0.
N5265 X-0.384 Y-0.0875 Z-0.01
N5270 X-0.385
N5275 X-0.384
N5280 Y-0.0363
N5285 G2 X-0.3769 Y-0.0351 I0.0036 J0.
N5290 G1 X-0.3681 Y-0.0611
N5295 X-0.3615 Y-0.0809 Z-0.0098
N5300 X-0.3608 Y-0.083 Z-0.0097
N5305 X-0.3603 Y-0.0841 Z-0.01
N5310 G3 X-0.3558 Y-0.0851 I0.0028 J0.0023
N5315 G1 X-0.3566 Y-0.0875
N5320 X-0.3591
N5325 X-0.3603 Y-0.0841
N5330 X-0.3591 Y-0.0875
N5335 X-0.3617 Y-0.0911 Z0.
N5340 X-0.3591 Y-0.0875 Z-0.01
N5345 X-0.3566
N5350 X-0.3541 Y-0.0911 Z0.
N5355 X-0.3566 Y-0.0875 Z-0.01
N5360 X-0.3558 Y-0.0851
N5365 X-0.355 Y-0.084 Z-0.0089
N5370 X-0.3545 Y-0.0829 Z-0.0086
N5375 X-0.3538 Y-0.0807
N5380 X-0.3384 Y-0.0361 Z-0.0089
N5385 X-0.3379 Y-0.0351 Z-0.0092
N5390 X-0.3373 Y-0.0341 Z-0.01
N5395 X-0.336 Y-0.0303
N5400 X-0.3386 Y-0.0267 Z0.
N5405 X-0.336 Y-0.0303 Z-0.01
N5410 X-0.3308
N5415 X-0.3271 Y-0.0267 Z0.
N5420 X-0.3308 Y-0.0303 Z-0.01
N5425 Y-0.0875
N5430 X-0.3271 Y-0.0911 Z0.
N5435 X-0.3308 Y-0.0875 Z-0.01
N5440 X-0.3317
N5445 X-0.3353 Y-0.0911 Z0.
N5450 X-0.3317 Y-0.0875 Z-0.01
N5455 Y-0.0372
N5460 G3 X-0.3373 Y-0.0341 I-0.0036 J0.
N5465 G0 Z0.1
N5470 X-0.3411 Y-0.4497
N5475 Z0.05
N5480 G1 Z-0.0001 F5.
N5485 X-0.3389 Y-0.4454 Z-0.01 F7.5
N5490 X-0.3376 Y-0.4451
N5495 X-0.3344 Y-0.4468 Z-0.0035
N5500 X-0.3328 Y-0.4477 Z0.
N5505 X-0.3344 Y-0.4468 Z-0.0035
N5510 X-0.3376 Y-0.4451 Z-0.01
N5515 X-0.3379 Y-0.4446
N5520 X-0.3381 Y-0.444
N5525 X-0.3384 Y-0.4435
N5530 X-0.3387 Y-0.443
N5535 X-0.3389 Y-0.4425
N5540 X-0.3392 Y-0.442
N5545 X-0.3395 Y-0.4416
N5550 X-0.3399 Y-0.4411
N5555 X-0.3402 Y-0.4407
N5560 X-0.3406 Y-0.4402
N5565 X-0.341 Y-0.4398
N5570 X-0.3414 Y-0.4393
N5575 X-0.3419 Y-0.4389
N5580 X-0.3424 Y-0.4384
N5585 X-0.3428 Y-0.438
N5590 X-0.3433 Y-0.4375
N5595 X-0.3439 Y-0.437
N5600 X-0.3441 Y-0.4368
N5605 X-0.3444 Y-0.4366
N5610 X-0.345 Y-0.4363
N5615 X-0.3456 Y-0.4359
N5620 X-0.3462 Y-0.4356
N5625 X-0.3468 Y-0.4352
N5630 X-0.3474 Y-0.4349
N5635 X-0.3479 Y-0.4347
N5640 X-0.3485 Y-0.4344
N5645 X-0.3491 Y-0.4341
N5650 X-0.3496 Y-0.4339
N5655 X-0.3501 Y-0.4337
N5660 X-0.3507 Y-0.4336
N5665 X-0.3512 Y-0.4334
N5670 X-0.3518 Y-0.4333
N5675 X-0.3524 Y-0.4332
N5680 X-0.353 Y-0.4331
N5685 X-0.3536 Y-0.433
N5690 X-0.3543 Y-0.4329
N5695 X-0.3549 Y-0.4328
N5700 X-0.3556
N5705 X-0.3563 Y-0.4327
N5710 X-0.3569
N5715 X-0.3577 Y-0.4326
N5720 X-0.3582
N5725 X-0.3584
N5730 X-0.3582
N5735 X-0.3577
N5740 X-0.3572 Y-0.4327
N5745 X-0.3567
N5750 X-0.3562
N5755 X-0.3561
N5760 X-0.3557 Y-0.4328
N5765 X-0.3556
N5770 X-0.3551
N5775 X-0.3546 Y-0.4329
N5780 X-0.3545
N5785 X-0.354 Y-0.433
N5790 X-0.3535 Y-0.4331
N5795 X-0.3534
N5800 X-0.3529 Y-0.4332
N5805 X-0.3528
N5810 X-0.3524 Y-0.4333
N5815 X-0.3522
N5820 X-0.3518 Y-0.4335
N5825 X-0.3517
N5830 X-0.3512 Y-0.4336
N5835 X-0.3511 Y-0.4337
N5840 X-0.3506 Y-0.4338
N5845 X-0.3505 Y-0.4339
N5850 X-0.3501 Y-0.4341
N5855 X-0.35
N5860 X-0.3495 Y-0.4343
N5865 X-0.3494
N5870 X-0.349 Y-0.4345
N5875 X-0.3489 Y-0.4346
N5880 X-0.3485 Y-0.4348
N5885 X-0.3484
N5890 X-0.348 Y-0.435
N5895 Y-0.4351
N5900 X-0.3475 Y-0.4353
N5905 X-0.3471 Y-0.4356
N5910 X-0.3466 Y-0.4358
N5915 X-0.3462 Y-0.4361
N5920 X-0.3458 Y-0.4363
N5925 G2 X-0.3451 Y-0.4368 I-0.0019 J-0.0031
N5930 G1 X-0.3447 Y-0.4372
N5935 X-0.3444 Y-0.4376
N5940 X-0.3443
N5945 X-0.344 Y-0.4379
N5950 X-0.3439 Y-0.438
N5955 X-0.3436 Y-0.4383
N5960 Y-0.4384
N5965 X-0.3432 Y-0.4387
N5970 X-0.3431 Y-0.4388
N5975 X-0.3428 Y-0.4392
N5980 X-0.3424 Y-0.4396
N5985 X-0.3423 Y-0.4397
N5990 X-0.342 Y-0.4401
N5995 X-0.3416 Y-0.4405
N6000 Y-0.4406
N6005 X-0.3413 Y-0.441
N6010 X-0.3412 Y-0.4411
N6015 X-0.3409 Y-0.4415
N6020 X-0.3408 Y-0.4417
N6025 X-0.3405 Y-0.4421
N6030 Y-0.4422
N6035 X-0.3402 Y-0.4426
N6040 Y-0.4427
N6045 X-0.3399 Y-0.4432
N6050 Y-0.4433
N6055 X-0.3396 Y-0.4437
N6060 Y-0.4438
N6065 X-0.3394 Y-0.4443
N6070 X-0.3393
N6075 X-0.3391 Y-0.4448
N6080 Y-0.4449
N6085 X-0.3389 Y-0.4454
N6090 X-0.3391 Y-0.4449
N6095 Y-0.4448
N6100 X-0.3393 Y-0.4443
N6105 X-0.3394
N6110 X-0.3396 Y-0.4438
N6115 Y-0.4437
N6120 X-0.3399 Y-0.4433
N6125 Y-0.4432
N6130 X-0.3402 Y-0.4427
N6135 Y-0.4426
N6140 X-0.3405 Y-0.4422
N6145 Y-0.4421
N6150 X-0.3408 Y-0.4417
N6155 X-0.3409 Y-0.4415
N6160 X-0.3412 Y-0.4411
N6165 X-0.3413 Y-0.441
N6170 X-0.3416 Y-0.4406
N6175 Y-0.4405
N6180 X-0.342 Y-0.4401
N6185 X-0.3423 Y-0.4397
N6190 X-0.3424 Y-0.4396
N6195 X-0.3428 Y-0.4392
N6200 X-0.3431 Y-0.4388
N6205 X-0.3432 Y-0.4387
N6210 X-0.3436 Y-0.4384
N6215 Y-0.4383
N6220 X-0.3439 Y-0.438
N6225 X-0.344 Y-0.4379
N6230 X-0.3443 Y-0.4376
N6235 X-0.3444
N6240 X-0.3447 Y-0.4372
N6245 X-0.3451 Y-0.4368
N6250 G3 X-0.3458 Y-0.4363 I-0.0025 J-0.0026
N6255 G1 X-0.3462 Y-0.4361
N6260 X-0.3466 Y-0.4358
N6265 X-0.3471 Y-0.4356
N6270 X-0.3475 Y-0.4353
N6275 X-0.348 Y-0.4351
N6280 Y-0.435
N6285 X-0.3484 Y-0.4348
N6290 X-0.3485
N6295 X-0.3489 Y-0.4346
N6300 X-0.349 Y-0.4345
N6305 X-0.3494 Y-0.4343
N6310 X-0.3495
N6315 X-0.35 Y-0.4341
N6320 X-0.3501
N6325 X-0.3505 Y-0.4339
N6330 X-0.3506 Y-0.4338
N6335 X-0.3511 Y-0.4337
N6340 X-0.3512 Y-0.4336
N6345 X-0.3517 Y-0.4335
N6350 X-0.3518
N6355 X-0.3522 Y-0.4333
N6360 X-0.3524
N6365 X-0.3528 Y-0.4332
N6370 X-0.3529
N6375 X-0.3534 Y-0.4331
N6380 X-0.3535
N6385 X-0.354 Y-0.433
N6390 X-0.3545 Y-0.4329
N6395 X-0.3546
N6400 X-0.3551 Y-0.4328
N6405 X-0.3556
N6410 X-0.3557
N6415 X-0.3561 Y-0.4327
N6420 X-0.3562
N6425 X-0.3567
N6430 X-0.3572
N6435 X-0.3577 Y-0.4326
N6440 X-0.3582
N6445 X-0.3584
N6450 X-0.3609 Y-0.4328
N6455 X-0.3637 Y-0.4331
N6460 X-0.3658 Y-0.4335
N6465 X-0.3672 Y-0.434
N6470 X-0.3678 Y-0.4342
N6475 X-0.3681 Y-0.4343
N6480 X-0.3687 Y-0.4346
N6485 X-0.3693 Y-0.4348
N6490 X-0.3699 Y-0.4351
N6495 X-0.3705 Y-0.4353
N6500 X-0.3711 Y-0.4356
N6505 X-0.3717 Y-0.4359
N6510 X-0.3721 Y-0.4361
N6515 X-0.3724 Y-0.4363
N6520 X-0.373 Y-0.4366
N6525 X-0.3735 Y-0.437
N6530 X-0.374 Y-0.4373
N6535 X-0.3745 Y-0.4377
N6540 X-0.375 Y-0.4381
N6545 X-0.3755 Y-0.4384
N6550 X-0.3759 Y-0.4388
N6555 X-0.3764 Y-0.4391
N6560 X-0.3768 Y-0.4395
N6565 X-0.3772 Y-0.4399
N6570 X-0.3775 Y-0.4402
N6575 X-0.3779 Y-0.4406
N6580 X-0.3783 Y-0.441
N6585 X-0.3786 Y-0.4415
N6590 X-0.3789 Y-0.4419
N6595 X-0.3793 Y-0.4424
N6600 X-0.3796 Y-0.4429
N6605 X-0.38 Y-0.4434
N6610 X-0.3803 Y-0.4439
N6615 X-0.3806 Y-0.4444
N6620 X-0.381 Y-0.445
N6625 X-0.3813 Y-0.4455
N6630 X-0.3815 Y-0.4459
N6635 X-0.3817 Y-0.4463
N6640 X-0.382 Y-0.447
N6645 X-0.3823 Y-0.4477
N6650 X-0.3825 Y-0.4484
N6655 X-0.3828 Y-0.449
N6660 X-0.383 Y-0.4497
N6665 X-0.3833 Y-0.4504
N6670 X-0.3835 Y-0.451
N6675 X-0.3837 Y-0.4516
N6680 X-0.3839 Y-0.4523
N6685 X-0.384 Y-0.4529
N6690 X-0.3842 Y-0.4535
N6695 X-0.3843 Y-0.4542
N6700 X-0.3844 Y-0.4548
N6705 X-0.3845 Y-0.4555
N6710 X-0.3846 Y-0.4562
N6715 X-0.3847 Y-0.4568
N6720 Y-0.4575
N6725 X-0.3848 Y-0.4582
N6730 Y-0.459
N6735 X-0.3849 Y-0.4597
N6740 Y-0.4604
N6745 Y-0.4612
N6750 X-0.385 Y-0.4618
N6755 X-0.3849 Y-0.4624
N6760 Y-0.4631
N6765 Y-0.4638
N6770 X-0.3848 Y-0.4645
N6775 Y-0.4652
N6780 X-0.3847 Y-0.4659
N6785 Y-0.4666
N6790 X-0.3846 Y-0.4673
N6795 X-0.3845 Y-0.4679
N6800 X-0.3844 Y-0.4686
N6805 X-0.3843 Y-0.4693
N6810 X-0.3842 Y-0.4699
N6815 X-0.3841 Y-0.4705
N6820 X-0.3839 Y-0.4712
N6825 X-0.3838 Y-0.4718
N6830 X-0.3836 Y-0.4724
N6835 X-0.3834 Y-0.4731
N6840 X-0.3832 Y-0.4738
N6845 X-0.383 Y-0.4744
N6850 X-0.3828 Y-0.4751
N6855 X-0.3825 Y-0.4758
N6860 X-0.3823 Y-0.4764
N6865 X-0.382 Y-0.4771
N6870 X-0.3819 Y-0.4776
N6875 X-0.3817 Y-0.478
N6880 X-0.3814 Y-0.4786
N6885 X-0.3811 Y-0.4792
N6890 X-0.3808 Y-0.4798
N6895 X-0.3805 Y-0.4803
N6900 X-0.3802 Y-0.4809
N6905 X-0.3799 Y-0.4814
N6910 X-0.3796 Y-0.4819
N6915 X-0.3793 Y-0.4824
N6920 X-0.379 Y-0.4828
N6925 X-0.3787 Y-0.4833
N6930 X-0.3783 Y-0.4837
N6935 X-0.378 Y-0.4841
N6940 X-0.3776 Y-0.4845
N6945 X-0.3773 Y-0.4849
N6950 X-0.3769 Y-0.4853
N6955 X-0.3764 Y-0.4857
N6960 X-0.376 Y-0.4861
N6965 X-0.3755 Y-0.4865
N6970 X-0.3751 Y-0.4869
N6975 X-0.3746 Y-0.4873
N6980 X-0.3741 Y-0.4877
N6985 X-0.3736 Y-0.4881
N6990 X-0.3733 Y-0.4883
N6995 X-0.373 Y-0.4884
N7000 X-0.3724 Y-0.4887
N7005 X-0.3717 Y-0.4891
N7010 X-0.3711 Y-0.4894
N7015 X-0.3704 Y-0.4896
N7020 X-0.3698 Y-0.4899
N7025 X-0.3692 Y-0.4902
N7030 X-0.3686 Y-0.4904
N7035 X-0.368 Y-0.4906
N7040 X-0.3674 Y-0.4908
N7045 X-0.3669 Y-0.491
N7050 X-0.3663 Y-0.4911
N7055 X-0.3657 Y-0.4913
N7060 X-0.3651 Y-0.4914
N7065 X-0.3644 Y-0.4915
N7070 X-0.3638 Y-0.4916
N7075 X-0.3631 Y-0.4917
N7080 X-0.3625
N7085 X-0.3618 Y-0.4918
N7090 X-0.3611
N7095 X-0.3604
N7100 X-0.3598 Y-0.4919
N7105 X-0.3602 Y-0.4918
N7110 X-0.3603
N7115 X-0.3607
N7120 X-0.3608
N7125 X-0.3613
N7130 X-0.3618 Y-0.4917
N7135 X-0.3623
N7140 X-0.3624
N7145 X-0.3628 Y-0.4916
N7150 X-0.3629
N7155 X-0.3634 Y-0.4915
N7160 X-0.3635
N7165 X-0.3639 Y-0.4914
N7170 X-0.364
N7175 X-0.3645 Y-0.4913
N7180 X-0.3646
N7185 X-0.365 Y-0.4912
N7190 X-0.3652
N7195 X-0.3656 Y-0.491
N7200 X-0.3657
N7205 X-0.3662 Y-0.4909
N7210 X-0.3663 Y-0.4908
N7215 X-0.3667 Y-0.4907
N7220 X-0.3668
N7225 X-0.3673 Y-0.4905
N7230 X-0.3674
N7235 X-0.3678 Y-0.4903
N7240 X-0.3679
N7245 X-0.3683 Y-0.4901
N7250 X-0.3684 Y-0.49
N7255 X-0.3688 Y-0.4899
N7260 X-0.3689 Y-0.4898
N7265 X-0.3693 Y-0.4896
N7270 X-0.3694
N7275 X-0.3698 Y-0.4894
N7280 X-0.3699
N7285 X-0.3703 Y-0.4892
N7290 X-0.3707 Y-0.4889
N7295 X-0.3708
N7300 X-0.3716 Y-0.4885
N7305 G2 X-0.3721 Y-0.4882 I0.0017 J0.0032
N7310 G1 X-0.3725 Y-0.4879
N7315 X-0.373 Y-0.4876
N7320 X-0.3734 Y-0.4872
N7325 X-0.3738 Y-0.4869
N7330 X-0.3742 Y-0.4866
N7335 X-0.3743 Y-0.4865
N7340 X-0.3747 Y-0.4862
N7345 X-0.3751 Y-0.4858
N7350 X-0.3752
N7355 X-0.3756 Y-0.4854
N7360 X-0.376 Y-0.485
N7365 X-0.3761 Y-0.4849
N7370 X-0.3764 Y-0.4846
N7375 X-0.3765 Y-0.4845
N7380 X-0.3768 Y-0.4841
N7385 X-0.3769 Y-0.484
N7390 X-0.3773 Y-0.4836
N7395 X-0.3776 Y-0.4832
N7400 X-0.3777 Y-0.483
N7405 X-0.378 Y-0.4826
N7410 X-0.3781 Y-0.4825
N7415 X-0.3784 Y-0.4821
N7420 Y-0.482
N7425 X-0.3787 Y-0.4816
N7430 Y-0.4815
N7435 X-0.379 Y-0.4811
N7440 Y-0.481
N7445 X-0.3793 Y-0.4806
N7450 Y-0.4805
N7455 X-0.3795 Y-0.4801
N7460 X-0.3796 Y-0.48
N7465 X-0.3798 Y-0.4796
N7470 Y-0.4795
N7475 X-0.38 Y-0.4791
N7480 X-0.3801
N7485 X-0.3803 Y-0.4786
N7490 X-0.3805 Y-0.4781
N7495 X-0.3807 Y-0.4776
N7500 G2 X-0.3809 Y-0.4772 I0.0033 J0.0015
N7505 G1 X-0.3811 Y-0.4766
N7510 X-0.3813 Y-0.476
N7515 X-0.3815 Y-0.4754
N7520 X-0.3816 Y-0.4748
N7525 X-0.3817
N7530 X-0.3818 Y-0.4742
N7535 X-0.382 Y-0.4736
N7540 Y-0.4735
N7545 X-0.3822 Y-0.4729
N7550 X-0.3823 Y-0.4723
N7555 Y-0.4722
N7560 X-0.3825 Y-0.4717
N7565 Y-0.4716
N7570 X-0.3826 Y-0.471
N7575 Y-0.4709
N7580 X-0.3828 Y-0.4703
N7585 Y-0.4702
N7590 X-0.3829 Y-0.4696
N7595 X-0.383 Y-0.469
N7600 Y-0.4689
N7605 X-0.3831 Y-0.4683
N7610 Y-0.4682
N7615 Y-0.4676
N7620 X-0.3832 Y-0.467
N7625 Y-0.4669
N7630 X-0.3833 Y-0.4663
N7635 Y-0.4656
N7640 Y-0.465
N7645 X-0.3834 Y-0.4644
N7650 Y-0.4643
N7655 Y-0.4637
N7660 Y-0.4631
N7665 Y-0.4625
N7670 Y-0.4618
N7675 Y-0.4616
N7680 Y-0.4611
N7685 Y-0.4605
N7690 Y-0.46
N7695 Y-0.4595
N7700 Y-0.4594
N7705 X-0.3833 Y-0.4589
N7710 Y-0.4584
N7715 Y-0.4583
N7720 X-0.3832 Y-0.4578
N7725 Y-0.4572
N7730 X-0.3831 Y-0.4567
N7735 Y-0.4566
N7740 Y-0.4561
N7745 Y-0.456
N7750 X-0.383 Y-0.4555
N7755 Y-0.4554
N7760 X-0.3829 Y-0.4549
N7765 X-0.3828 Y-0.4543
N7770 X-0.3827 Y-0.4538
N7775 Y-0.4537
N7780 X-0.3826 Y-0.4532
N7785 Y-0.4531
N7790 X-0.3824 Y-0.4526
N7795 X-0.3823 Y-0.4521
N7800 Y-0.452
N7805 X-0.3822 Y-0.4515
N7810 X-0.382 Y-0.451
N7815 X-0.3819 Y-0.4504
N7820 X-0.3817 Y-0.4499
N7825 X-0.3816 Y-0.4494
N7830 X-0.3814 Y-0.4489
N7835 X-0.3813 Y-0.4484
N7840 X-0.3812 Y-0.448
N7845 X-0.381 Y-0.4475
N7850 X-0.3808 Y-0.447
N7855 X-0.3807
N7860 X-0.3805 Y-0.4465
N7865 X-0.3803 Y-0.4461
N7870 Y-0.446
N7875 X-0.3801 Y-0.4456
N7880 Y-0.4455
N7885 X-0.3799 Y-0.445
N7890 X-0.3798
N7895 X-0.3796 Y-0.4445
N7900 X-0.3793 Y-0.444
N7905 Y-0.4439
N7910 X-0.379 Y-0.4435
N7915 Y-0.4434
N7920 X-0.3787 Y-0.443
N7925 Y-0.4429
N7930 X-0.3784 Y-0.4425
N7935 X-0.3783 Y-0.4423
N7940 X-0.3781 Y-0.4419
N7945 X-0.378 Y-0.4418
N7950 X-0.3777 Y-0.4414
N7955 X-0.3776 Y-0.4413
N7960 X-0.3773 Y-0.4409
N7965 X-0.3772
N7970 X-0.3769 Y-0.4405
N7975 X-0.3768 Y-0.4404
N7980 X-0.3764 Y-0.44
N7985 X-0.376 Y-0.4396
N7990 Y-0.4395
N7995 X-0.3756 Y-0.4392
N8000 X-0.3752 Y-0.4388
N8005 X-0.3748 Y-0.4384
N8010 X-0.3747
N8015 X-0.3744 Y-0.4381
N8020 X-0.374 Y-0.4377
N8025 X-0.3739
N8030 X-0.3735 Y-0.4374
N8035 X-0.3732 Y-0.437
N8040 G2 X-0.3726 Y-0.4366 I0.0024 J-0.0028
N8045 G1 X-0.3721 Y-0.4364
N8050 X-0.3716 Y-0.4361
N8055 X-0.3711 Y-0.4358
N8060 X-0.3706 Y-0.4355
N8065 X-0.3701 Y-0.4353
N8070 X-0.37 Y-0.4352
N8075 X-0.3695 Y-0.435
N8080 X-0.3694 Y-0.4349
N8085 X-0.369 Y-0.4347
N8090 X-0.3689
N8095 X-0.3684 Y-0.4345
N8100 X-0.3683 Y-0.4344
N8105 X-0.3678 Y-0.4342
N8110 X-0.3683 Y-0.4344
N8115 X-0.3684 Y-0.4345
N8120 X-0.3689 Y-0.4347
N8125 X-0.369
N8130 X-0.3694 Y-0.4349
N8135 X-0.3695 Y-0.435
N8140 X-0.37 Y-0.4352
N8145 X-0.3701 Y-0.4353
N8150 X-0.3706 Y-0.4355
N8155 X-0.3711 Y-0.4358
N8160 X-0.3716 Y-0.4361
N8165 X-0.3721 Y-0.4364
N8170 X-0.3726 Y-0.4366
N8175 G3 X-0.3732 Y-0.437 I0.0018 J-0.0032
N8180 G1 X-0.3735 Y-0.4374
N8185 X-0.3739 Y-0.4377
N8190 X-0.374
N8195 X-0.3744 Y-0.4381
N8200 X-0.3747 Y-0.4384
N8205 X-0.3748
N8210 X-0.3752 Y-0.4388
N8215 X-0.3756 Y-0.4392
N8220 X-0.376 Y-0.4395
N8225 Y-0.4396
N8230 X-0.3764 Y-0.44
N8235 X-0.3768 Y-0.4404
N8240 X-0.3769 Y-0.4405
N8245 X-0.3772 Y-0.4409
N8250 X-0.3773
N8255 X-0.3776 Y-0.4413
N8260 X-0.3777 Y-0.4414
N8265 X-0.378 Y-0.4418
N8270 X-0.3781 Y-0.4419
N8275 X-0.3783 Y-0.4423
N8280 X-0.3784 Y-0.4425
N8285 X-0.3787 Y-0.4429
N8290 Y-0.443
N8295 X-0.379 Y-0.4434
N8300 Y-0.4435
N8305 X-0.3793 Y-0.4439
N8310 Y-0.444
N8315 X-0.3796 Y-0.4445
N8320 X-0.3798 Y-0.445
N8325 X-0.3799
N8330 X-0.3801 Y-0.4455
N8335 Y-0.4456
N8340 X-0.3803 Y-0.446
N8345 Y-0.4461
N8350 X-0.3805 Y-0.4465
N8355 X-0.3807 Y-0.447
N8360 X-0.3808
N8365 X-0.381 Y-0.4475
N8370 X-0.3812 Y-0.448
N8375 X-0.3813 Y-0.4484
N8380 X-0.3814 Y-0.4489
N8385 X-0.3816 Y-0.4494
N8390 X-0.3817 Y-0.4499
N8395 X-0.3819 Y-0.4504
N8400 X-0.382 Y-0.451
N8405 X-0.3822 Y-0.4515
N8410 X-0.3823 Y-0.452
N8415 Y-0.4521
N8420 X-0.3824 Y-0.4526
N8425 X-0.3826 Y-0.4531
N8430 Y-0.4532
N8435 X-0.3827 Y-0.4537
N8440 Y-0.4538
N8445 X-0.3828 Y-0.4543
N8450 X-0.3829 Y-0.4549
N8455 X-0.383 Y-0.4554
N8460 Y-0.4555
N8465 X-0.3831 Y-0.456
N8470 Y-0.4561
N8475 Y-0.4566
N8480 Y-0.4567
N8485 X-0.3832 Y-0.4572
N8490 Y-0.4578
N8495 X-0.3833 Y-0.4583
N8500 Y-0.4584
N8505 Y-0.4589
N8510 X-0.3834 Y-0.4594
N8515 Y-0.4595
N8520 Y-0.46
N8525 Y-0.4605
N8530 Y-0.4611
N8535 Y-0.4616
N8540 Y-0.4618
N8545 Y-0.4625
N8550 Y-0.4631
N8555 Y-0.4637
N8560 Y-0.4643
N8565 Y-0.4644
N8570 X-0.3833 Y-0.465
N8575 Y-0.4656
N8580 Y-0.4663
N8585 X-0.3832 Y-0.4669
N8590 Y-0.467
N8595 X-0.3831 Y-0.4676
N8600 Y-0.4682
N8605 Y-0.4683
N8610 X-0.383 Y-0.4689
N8615 Y-0.469
N8620 X-0.3829 Y-0.4696
N8625 X-0.3828 Y-0.4702
N8630 Y-0.4703
N8635 X-0.3826 Y-0.4709
N8640 Y-0.471
N8645 X-0.3825 Y-0.4716
N8650 Y-0.4717
N8655 X-0.3823 Y-0.4722
N8660 Y-0.4723
N8665 X-0.3822 Y-0.4729
N8670 X-0.382 Y-0.4735
N8675 Y-0.4736
N8680 X-0.3818 Y-0.4742
N8685 X-0.3817 Y-0.4748
N8690 X-0.3816
N8695 X-0.3815 Y-0.4754
N8700 X-0.3813 Y-0.476
N8705 X-0.3811 Y-0.4766
N8710 X-0.3809 Y-0.4772
N8715 G3 X-0.3807 Y-0.4776 I0.0035 J0.0011
N8720 G1 X-0.3805 Y-0.4781
N8725 X-0.3803 Y-0.4786
N8730 X-0.3801 Y-0.4791
N8735 X-0.38
N8740 X-0.3798 Y-0.4795
N8745 Y-0.4796
N8750 X-0.3796 Y-0.48
N8755 X-0.3795 Y-0.4801
N8760 X-0.3793 Y-0.4805
N8765 Y-0.4806
N8770 X-0.379 Y-0.481
N8775 Y-0.4811
N8780 X-0.3787 Y-0.4815
N8785 Y-0.4816
N8790 X-0.3784 Y-0.482
N8795 Y-0.4821
N8800 X-0.3781 Y-0.4825
N8805 X-0.378 Y-0.4826
N8810 X-0.3777 Y-0.483
N8815 X-0.3776 Y-0.4832
N8820 X-0.3773 Y-0.4836
N8825 X-0.3769 Y-0.484
N8830 X-0.3768 Y-0.4841
N8835 X-0.3765 Y-0.4845
N8840 X-0.3764 Y-0.4846
N8845 X-0.3761 Y-0.4849
N8850 X-0.376 Y-0.485
N8855 X-0.3756 Y-0.4854
N8860 X-0.3752 Y-0.4858
N8865 X-0.3751
N8870 X-0.3747 Y-0.4862
N8875 X-0.3743 Y-0.4865
N8880 X-0.3742 Y-0.4866
N8885 X-0.3738 Y-0.4869
N8890 X-0.3734 Y-0.4872
N8895 X-0.373 Y-0.4876
N8900 X-0.3725 Y-0.4879
N8905 X-0.3721 Y-0.4882
N8910 G3 X-0.3716 Y-0.4885 I0.0022 J0.0029
N8915 G1 X-0.3708 Y-0.4889
N8920 X-0.3707
N8925 X-0.3703 Y-0.4892
N8930 X-0.3699 Y-0.4894
N8935 X-0.3698
N8940 X-0.3694 Y-0.4896
N8945 X-0.3693
N8950 X-0.3689 Y-0.4898
N8955 X-0.3688 Y-0.4899
N8960 X-0.3684 Y-0.49
N8965 X-0.3683 Y-0.4901
N8970 X-0.3679 Y-0.4903
N8975 X-0.3678
N8980 X-0.3674 Y-0.4905
N8985 X-0.3673
N8990 X-0.3668 Y-0.4907
N8995 X-0.3667
N9000 X-0.3663 Y-0.4908
N9005 X-0.3662 Y-0.4909
N9010 X-0.3657 Y-0.491
N9015 X-0.3656
N9020 X-0.3652 Y-0.4912
N9025 X-0.365
N9030 X-0.3646 Y-0.4913
N9035 X-0.3645
N9040 X-0.364 Y-0.4914
N9045 X-0.3639
N9050 X-0.3635 Y-0.4915
N9055 X-0.3634
N9060 X-0.3629 Y-0.4916
N9065 X-0.3628
N9070 X-0.3624 Y-0.4917
N9075 X-0.3623
N9080 X-0.3618
N9085 X-0.3613 Y-0.4918
N9090 X-0.3608
N9095 X-0.3607
N9100 X-0.3603
N9105 X-0.3602
N9110 X-0.3598 Y-0.4919
N9115 X-0.3588
N9120 X-0.3582
N9125 X-0.3577 Y-0.4918
N9130 X-0.3576
N9135 X-0.3571
N9140 X-0.3565 Y-0.4917
N9145 X-0.3564
N9150 X-0.3559
N9155 X-0.3553 Y-0.4916
N9160 X-0.3552
N9165 X-0.3547 Y-0.4915
N9170 X-0.3546
N9175 X-0.3541 Y-0.4914
N9180 X-0.354
N9185 X-0.3534 Y-0.4913
N9190 X-0.3533
N9195 X-0.3528 Y-0.4911
N9200 X-0.3527
N9205 X-0.3522 Y-0.491
N9210 X-0.352 Y-0.4909
N9215 X-0.3515 Y-0.4908
N9220 X-0.3513 Y-0.4907
N9225 X-0.3508 Y-0.4905
N9230 X-0.3507
N9235 X-0.3502 Y-0.4903
N9240 X-0.3501 Y-0.4902
N9245 X-0.3496 Y-0.49
N9250 X-0.3495
N9255 X-0.349 Y-0.4897
N9260 X-0.3489
N9265 X-0.3484 Y-0.4894
N9270 X-0.3483
N9275 X-0.3479 Y-0.4891
N9280 X-0.3478
N9285 X-0.3473 Y-0.4888
N9290 Y-0.4887
N9295 X-0.3468 Y-0.4884
N9300 X-0.3463 Y-0.4881
N9305 X-0.3458 Y-0.4878
N9310 X-0.3453 Y-0.4875
N9315 X-0.3449 Y-0.4872
N9320 G3 X-0.3442 Y-0.4866 I-0.002 J0.003
N9325 G1 X-0.3438 Y-0.4862
N9330 X-0.3434 Y-0.4858
N9335 Y-0.4857
N9340 X-0.343 Y-0.4853
N9345 X-0.3426 Y-0.4848
N9350 X-0.3425
N9355 X-0.3421 Y-0.4843
N9360 X-0.3417 Y-0.4838
N9365 X-0.3413 Y-0.4833
N9370 X-0.3412 Y-0.4832
N9375 X-0.3409 Y-0.4828
N9380 X-0.3408 Y-0.4827
N9385 X-0.3405 Y-0.4822
N9390 X-0.3404 Y-0.4821
N9395 X-0.3401 Y-0.4816
N9400 X-0.34 Y-0.4815
N9405 X-0.3397 Y-0.481
N9410 X-0.3396 Y-0.4809
N9415 X-0.3393 Y-0.4804
N9420 Y-0.4803
N9425 X-0.339 Y-0.4797
N9430 X-0.3389 Y-0.4796
N9435 X-0.3387 Y-0.4791
N9440 X-0.3386 Y-0.479
N9445 X-0.3384 Y-0.4784
N9450 Y-0.4783
N9455 X-0.3382 Y-0.4778
N9460 X-0.3381 Y-0.4777
N9465 X-0.3379 Y-0.4771
N9470 X-0.3377 Y-0.4765
N9475 Y-0.4764
N9480 X-0.3376 Y-0.4763
N9485 X-0.3402 Y-0.4719 Z0.
N9490 X-0.3376 Y-0.4763 Z-0.01
N9495 X-0.3363 Y-0.4766
N9500 X-0.3317 Y-0.4741 Z-0.0001
N9505 X-0.3363 Y-0.4766 Z-0.01
N9510 X-0.3366 Y-0.4773
N9515 X-0.3368 Y-0.478
N9520 X-0.3371 Y-0.4786
N9525 X-0.3374 Y-0.4793
N9530 X-0.3377 Y-0.4799
N9535 X-0.338 Y-0.4805
N9540 X-0.3383 Y-0.481
N9545 X-0.3386 Y-0.4816
N9550 X-0.339 Y-0.4821
N9555 X-0.3394 Y-0.4826
N9560 X-0.3398 Y-0.4832
N9565 X-0.3402 Y-0.4837
N9570 X-0.3407 Y-0.4842
N9575 X-0.3412 Y-0.4847
N9580 X-0.3417 Y-0.4853
N9585 X-0.3422 Y-0.4858
N9590 X-0.3427 Y-0.4864
N9595 X-0.3433 Y-0.4869
N9600 X-0.3436 Y-0.4872
N9605 X-0.3439 Y-0.4874
N9610 X-0.3446 Y-0.4878
N9615 X-0.3452 Y-0.4882
N9620 X-0.3458 Y-0.4886
N9625 X-0.3464 Y-0.4889
N9630 X-0.347 Y-0.4893
N9635 X-0.3476 Y-0.4896
N9640 X-0.3482 Y-0.4899
N9645 X-0.3487 Y-0.4902
N9650 X-0.3493 Y-0.4904
N9655 X-0.3499 Y-0.4906
N9660 X-0.3504 Y-0.4908
N9665 X-0.351 Y-0.491
N9670 X-0.3516 Y-0.4911
N9675 X-0.3522 Y-0.4913
N9680 X-0.3529 Y-0.4914
N9685 X-0.3535 Y-0.4915
N9690 X-0.3542 Y-0.4916
N9695 X-0.3549 Y-0.4917
N9700 X-0.3556
N9705 X-0.3563 Y-0.4918
N9710 X-0.357
N9715 X-0.3578 Y-0.4919
N9720 X-0.3584
N9725 X-0.3588
N9730 G0 Z0.1
N9735 X-0.3402 Y-0.2685
N9740 Z0.05
N9745 G1 Z0. F5.
N9750 X-0.3376 Y-0.2729 Z-0.01 F7.5
N9755 X-0.3363 Y-0.2733
N9760 X-0.3317 Y-0.2707 Z-0.0001
N9765 X-0.3363 Y-0.2733 Z-0.01
N9770 X-0.3366 Y-0.274
N9775 X-0.3368 Y-0.2746
N9780 X-0.3371 Y-0.2753
N9785 X-0.3374 Y-0.2759
N9790 X-0.3377 Y-0.2765
N9795 X-0.338 Y-0.2771
N9800 X-0.3383 Y-0.2777
N9805 X-0.3386 Y-0.2782
N9810 X-0.339 Y-0.2787
N9815 X-0.3394 Y-0.2793
N9820 X-0.3398 Y-0.2798
N9825 X-0.3402 Y-0.2803
N9830 X-0.3407 Y-0.2809
N9835 X-0.3412 Y-0.2814
N9840 X-0.3417 Y-0.2819
N9845 X-0.3422 Y-0.2825
N9850 X-0.3427 Y-0.283
N9855 X-0.3433 Y-0.2836
N9860 X-0.3436 Y-0.2839
N9865 X-0.3439 Y-0.2841
N9870 X-0.3446 Y-0.2845
N9875 X-0.3452 Y-0.2849
N9880 X-0.3458 Y-0.2852
N9885 X-0.3464 Y-0.2856
N9890 X-0.347 Y-0.2859
N9895 X-0.3476 Y-0.2862
N9900 X-0.3482 Y-0.2865
N9905 X-0.3487 Y-0.2868
N9910 X-0.3493 Y-0.2871
N9915 X-0.3499 Y-0.2873
N9920 X-0.3504 Y-0.2875
N9925 X-0.351 Y-0.2876
N9930 X-0.3516 Y-0.2878
N9935 X-0.3522 Y-0.2879
N9940 X-0.3529 Y-0.288
N9945 X-0.3535 Y-0.2881
N9950 X-0.3542 Y-0.2882
N9955 X-0.3549 Y-0.2883
N9960 X-0.3556 Y-0.2884
N9965 X-0.3563
N9970 X-0.357 Y-0.2885
N9975 X-0.3578
N9980 X-0.3584 Y-0.2886
N9985 X-0.3588
N9990 X-0.3582 Y-0.2885
N9995 X-0.3577
N10000 X-0.3576
N10005 X-0.3571 Y-0.2884
N10010 X-0.3565
N10015 X-0.3559 Y-0.2883
N10020 X-0.3558
N10025 X-0.3553 Y-0.2882
N10030 X-0.3552
N10035 X-0.3547
N10040 X-0.3546 Y-0.2881
N10045 X-0.3541
N10050 X-0.354 Y-0.288
N10055 X-0.3534 Y-0.2879
N10060 X-0.3533
N10065 X-0.3528 Y-0.2878
N10070 X-0.3527
N10075 X-0.3522 Y-0.2876
N10080 X-0.352
N10085 X-0.3515 Y-0.2874
N10090 X-0.3514
N10095 X-0.3508 Y-0.2872
N10100 X-0.3507 Y-0.2871
N10105 X-0.3502 Y-0.2869
N10110 X-0.3501
N10115 X-0.3496 Y-0.2867
N10120 X-0.3495 Y-0.2866
N10125 X-0.349 Y-0.2864
N10130 X-0.3489 Y-0.2863
N10135 X-0.3484 Y-0.2861
N10140 X-0.3483 Y-0.286
N10145 X-0.3479 Y-0.2857
N10150 X-0.3478
N10155 X-0.3473 Y-0.2854
N10160 X-0.3468 Y-0.2851
N10165 X-0.3463 Y-0.2848
N10170 Y-0.2847
N10175 X-0.3458 Y-0.2844
N10180 X-0.3453 Y-0.2841
N10185 X-0.3449 Y-0.2838
N10190 G3 X-0.3443 Y-0.2833 I-0.002 J0.003
N10195 G1 X-0.3438 Y-0.2829
N10200 Y-0.2828
N10205 X-0.3434 Y-0.2824
N10210 X-0.343 Y-0.2819
N10215 X-0.3426 Y-0.2815
N10220 X-0.3425 Y-0.2814
N10225 X-0.3421 Y-0.281
N10230 Y-0.2809
N10235 X-0.3417 Y-0.2805
N10240 Y-0.2804
N10245 X-0.3413 Y-0.28
N10250 X-0.3412 Y-0.2799
N10255 X-0.3409 Y-0.2794
N10260 X-0.3408 Y-0.2793
N10265 X-0.3405 Y-0.2789
N10270 X-0.3404 Y-0.2788
N10275 X-0.3401 Y-0.2783
N10280 X-0.34 Y-0.2782
N10285 X-0.3397 Y-0.2777
N10290 X-0.3396 Y-0.2775
N10295 X-0.3393 Y-0.277
N10300 Y-0.2769
N10305 X-0.339 Y-0.2764
N10310 X-0.3389 Y-0.2763
N10315 X-0.3387 Y-0.2757
N10320 X-0.3386 Y-0.2756
N10325 X-0.3384 Y-0.2751
N10330 Y-0.275
N10335 X-0.3382 Y-0.2744
N10340 X-0.3381 Y-0.2743
N10345 X-0.3379 Y-0.2738
N10350 Y-0.2737
N10355 X-0.3377 Y-0.2731
N10360 X-0.3376 Y-0.2729
N10365 X-0.3377 Y-0.2731
N10370 X-0.3379 Y-0.2737
N10375 Y-0.2738
N10380 X-0.3381 Y-0.2743
N10385 X-0.3382 Y-0.2744
N10390 X-0.3384 Y-0.275
N10395 Y-0.2751
N10400 X-0.3386 Y-0.2756
N10405 X-0.3387 Y-0.2757
N10410 X-0.3389 Y-0.2763
N10415 X-0.339 Y-0.2764
N10420 X-0.3393 Y-0.2769
N10425 Y-0.277
N10430 X-0.3396 Y-0.2775
N10435 X-0.3397 Y-0.2777
N10440 X-0.34 Y-0.2782
N10445 X-0.3401 Y-0.2783
N10450 X-0.3404 Y-0.2788
N10455 X-0.3405 Y-0.2789
N10460 X-0.3408 Y-0.2793
N10465 X-0.3409 Y-0.2794
N10470 X-0.3412 Y-0.2799
N10475 X-0.3413 Y-0.28
N10480 X-0.3417 Y-0.2804
N10485 Y-0.2805
N10490 X-0.3421 Y-0.2809
N10495 Y-0.281
N10500 X-0.3425 Y-0.2814
N10505 X-0.3426 Y-0.2815
N10510 X-0.343 Y-0.2819
N10515 X-0.3434 Y-0.2824
N10520 X-0.3438 Y-0.2828
N10525 Y-0.2829
N10530 X-0.3443 Y-0.2833
N10535 G2 X-0.3449 Y-0.2838 I-0.0026 J0.0025
N10540 G1 X-0.3453 Y-0.2841
N10545 X-0.3458 Y-0.2844
N10550 X-0.3463 Y-0.2847
N10555 Y-0.2848
N10560 X-0.3468 Y-0.2851
N10565 X-0.3473 Y-0.2854
N10570 X-0.3478 Y-0.2857
N10575 X-0.3479
N10580 X-0.3483 Y-0.286
N10585 X-0.3484 Y-0.2861
N10590 X-0.3489 Y-0.2863
N10595 X-0.349 Y-0.2864
N10600 X-0.3495 Y-0.2866
N10605 X-0.3496 Y-0.2867
N10610 X-0.3501 Y-0.2869
N10615 X-0.3502
N10620 X-0.3507 Y-0.2871
N10625 X-0.3508 Y-0.2872
N10630 X-0.3514 Y-0.2874
N10635 X-0.3515
N10640 X-0.352 Y-0.2876
N10645 X-0.3522
N10650 X-0.3527 Y-0.2878
N10655 X-0.3528
N10660 X-0.3533 Y-0.2879
N10665 X-0.3534
N10670 X-0.354 Y-0.288
N10675 X-0.3541 Y-0.2881
N10680 X-0.3546
N10685 X-0.3547 Y-0.2882
N10690 X-0.3552
N10695 X-0.3553
N10700 X-0.3558 Y-0.2883
N10705 X-0.3559
N10710 X-0.3565 Y-0.2884
N10715 X-0.3571
N10720 X-0.3576 Y-0.2885
N10725 X-0.3577
N10730 X-0.3582
N10735 X-0.3588 Y-0.2886
N10740 X-0.3598 Y-0.2885
N10745 X-0.3604
N10750 X-0.3611
N10755 X-0.3618 Y-0.2884
N10760 X-0.3625
N10765 X-0.3631 Y-0.2883
N10770 X-0.3638 Y-0.2882
N10775 X-0.3644 Y-0.2881
N10780 X-0.3651 Y-0.288
N10785 X-0.3657 Y-0.2879
N10790 X-0.3663 Y-0.2878
N10795 X-0.3669 Y-0.2876
N10800 X-0.3674 Y-0.2875
N10805 X-0.368 Y-0.2873
N10810 X-0.3686 Y-0.2871
N10815 X-0.3692 Y-0.2868
N10820 X-0.3698 Y-0.2866
N10825 X-0.3704 Y-0.2863
N10830 X-0.3711 Y-0.286
N10835 X-0.3717 Y-0.2857
N10840 X-0.3723 Y-0.2854
N10845 X-0.373 Y-0.2851
N10850 X-0.3733 Y-0.2849
N10855 X-0.3736 Y-0.2847
N10860 X-0.3741 Y-0.2843
N10865 X-0.3746 Y-0.2839
N10870 X-0.3751 Y-0.2835
N10875 X-0.3755 Y-0.2831
N10880 X-0.376 Y-0.2827
N10885 X-0.3764 Y-0.2823
N10890 X-0.3769 Y-0.2819
N10895 X-0.3773 Y-0.2815
N10900 X-0.3776 Y-0.2811
N10905 X-0.378 Y-0.2807
N10910 X-0.3783 Y-0.2803
N10915 X-0.3787 Y-0.2799
N10920 X-0.379 Y-0.2795
N10925 X-0.3793 Y-0.279
N10930 X-0.3796 Y-0.2785
N10935 X-0.3799 Y-0.278
N10940 X-0.3802 Y-0.2775
N10945 X-0.3805 Y-0.277
N10950 X-0.3808 Y-0.2764
N10955 X-0.3811 Y-0.2758
N10960 X-0.3814 Y-0.2753
N10965 X-0.3817 Y-0.2747
N10970 X-0.3819 Y-0.2743
N10975 X-0.382 Y-0.2738
N10980 X-0.3823 Y-0.2731
N10985 X-0.3825 Y-0.2724
N10990 X-0.3828 Y-0.2717
N10995 X-0.383 Y-0.2711
N11000 X-0.3832 Y-0.2704
N11005 X-0.3834 Y-0.2697
N11010 X-0.3836 Y-0.2691
N11015 X-0.3838 Y-0.2684
N11020 X-0.3839 Y-0.2678
N11025 X-0.3841 Y-0.2672
N11030 X-0.3842 Y-0.2665
N11035 X-0.3843 Y-0.2659
N11040 X-0.3844 Y-0.2653
N11045 X-0.3845 Y-0.2646
N11050 X-0.3846 Y-0.2639
N11055 X-0.3847 Y-0.2633
N11060 Y-0.2626
N11065 X-0.3848 Y-0.2619
N11070 Y-0.2612
N11075 X-0.3849 Y-0.2604
N11080 Y-0.2597
N11085 Y-0.259
N11090 X-0.385 Y-0.2584
N11095 X-0.3849 Y-0.2578
N11100 Y-0.2571
N11105 Y-0.2563
N11110 X-0.3848 Y-0.2556
N11115 Y-0.2549
N11120 X-0.3847 Y-0.2542
N11125 Y-0.2535
N11130 X-0.3846 Y-0.2528
N11135 X-0.3845 Y-0.2521
N11140 X-0.3844 Y-0.2515
N11145 X-0.3843 Y-0.2508
N11150 X-0.3842 Y-0.2502
N11155 X-0.384 Y-0.2496
N11160 X-0.3839 Y-0.2489
N11165 X-0.3837 Y-0.2483
N11170 X-0.3835 Y-0.2477
N11175 X-0.3833 Y-0.247
N11180 X-0.383 Y-0.2464
N11185 X-0.3828 Y-0.2457
N11190 X-0.3825 Y-0.245
N11195 X-0.3823 Y-0.2444
N11200 X-0.382 Y-0.2437
N11205 X-0.3817 Y-0.243
N11210 X-0.3815 Y-0.2425
N11215 X-0.3813 Y-0.2422
N11220 X-0.381 Y-0.2416
N11225 X-0.3806 Y-0.2411
N11230 X-0.3803 Y-0.2405
N11235 X-0.38 Y-0.24
N11240 X-0.3796 Y-0.2395
N11245 X-0.3793 Y-0.239
N11250 X-0.3789 Y-0.2386
N11255 X-0.3786 Y-0.2381
N11260 X-0.3783 Y-0.2377
N11265 X-0.3779 Y-0.2373
N11270 X-0.3775 Y-0.2369
N11275 X-0.3772 Y-0.2365
N11280 X-0.3768 Y-0.2361
N11285 X-0.3764 Y-0.2358
N11290 X-0.3759 Y-0.2354
N11295 X-0.3755 Y-0.2351
N11300 X-0.375 Y-0.2347
N11305 X-0.3745 Y-0.2343
N11310 X-0.374 Y-0.234
N11315 X-0.3735 Y-0.2336
N11320 X-0.373 Y-0.2333
N11325 X-0.3724 Y-0.2329
N11330 X-0.3721 Y-0.2327
N11335 X-0.3717 Y-0.2325
N11340 X-0.3711 Y-0.2322
N11345 X-0.3705 Y-0.232
N11350 X-0.3699 Y-0.2317
N11355 X-0.3693 Y-0.2314
N11360 X-0.3687 Y-0.2312
N11365 X-0.3681 Y-0.231
N11370 X-0.3678 Y-0.2308
N11375 X-0.3683 Y-0.2311
N11380 X-0.3684
N11385 X-0.3689 Y-0.2313
N11390 X-0.369 Y-0.2314
N11395 X-0.3695 Y-0.2316
N11400 X-0.37 Y-0.2319
N11405 X-0.3701
N11410 X-0.3706 Y-0.2322
N11415 X-0.3711 Y-0.2324
N11420 Y-0.2325
N11425 X-0.3716 Y-0.2327
N11430 X-0.3721 Y-0.233
N11435 X-0.3726 Y-0.2333
N11440 G3 X-0.3732 Y-0.2337 I0.0018 J-0.0032
N11445 G1 X-0.3735 Y-0.234
N11450 X-0.3739 Y-0.2343
N11455 X-0.374 Y-0.2344
N11460 X-0.3743 Y-0.2347
N11465 X-0.3744
N11470 X-0.3747 Y-0.235
N11475 X-0.3748 Y-0.2351
N11480 X-0.3752 Y-0.2354
N11485 Y-0.2355
N11490 X-0.3756 Y-0.2358
N11495 X-0.376 Y-0.2362
N11500 Y-0.2363
N11505 X-0.3764 Y-0.2366
N11510 X-0.3765 Y-0.2367
N11515 X-0.3768 Y-0.237
N11520 X-0.3769 Y-0.2371
N11525 X-0.3772 Y-0.2375
N11530 X-0.3773 Y-0.2376
N11535 X-0.3776 Y-0.238
N11540 X-0.3777 Y-0.2381
N11545 X-0.378 Y-0.2385
N11550 X-0.3781 Y-0.2386
N11555 X-0.3783 Y-0.239
N11560 X-0.3784 Y-0.2391
N11565 X-0.3787 Y-0.2395
N11570 Y-0.2396
N11575 X-0.379 Y-0.2401
N11580 X-0.3791
N11585 X-0.3793 Y-0.2406
N11590 Y-0.2407
N11595 X-0.3796 Y-0.2411
N11600 Y-0.2412
N11605 X-0.3798 Y-0.2416
N11610 X-0.3799 Y-0.2417
N11615 X-0.3801 Y-0.2421
N11620 Y-0.2422
N11625 X-0.3803 Y-0.2427
N11630 X-0.3805 Y-0.2432
N11635 X-0.3807 Y-0.2437
N11640 X-0.3808
N11645 X-0.381 Y-0.2442
N11650 X-0.3812 Y-0.2446
N11655 G3 X-0.3813 Y-0.245 I0.0034 J-0.0014
N11660 G1 X-0.3814 Y-0.2455
N11665 X-0.3816 Y-0.246
N11670 X-0.3817 Y-0.2465
N11675 Y-0.2466
N11680 X-0.3819 Y-0.2471
N11685 X-0.382 Y-0.2476
N11690 X-0.3822 Y-0.2481
N11695 Y-0.2482
N11700 X-0.3823 Y-0.2487
N11705 X-0.3824 Y-0.2492
N11710 Y-0.2493
N11715 X-0.3826 Y-0.2498
N11720 X-0.3827 Y-0.2503
N11725 Y-0.2504
N11730 X-0.3828 Y-0.2509
N11735 Y-0.251
N11740 X-0.3829 Y-0.2515
N11745 Y-0.2516
N11750 X-0.383 Y-0.2521
N11755 Y-0.2522
N11760 X-0.3831 Y-0.2527
N11765 Y-0.2532
N11770 Y-0.2533
N11775 X-0.3832 Y-0.2538
N11780 Y-0.2539
N11785 Y-0.2544
N11790 X-0.3833 Y-0.255
N11795 Y-0.2555
N11800 X-0.3834 Y-0.2561
N11805 Y-0.2566
N11810 Y-0.2572
N11815 Y-0.2577
N11820 Y-0.2582
N11825 Y-0.2585
N11830 Y-0.2591
N11835 Y-0.2597
N11840 Y-0.2603
N11845 Y-0.2604
N11850 Y-0.261
N11855 X-0.3833 Y-0.2616
N11860 Y-0.2623
N11865 Y-0.2629
N11870 X-0.3832 Y-0.2636
N11875 X-0.3831 Y-0.2642
N11880 Y-0.2643
N11885 Y-0.2649
N11890 X-0.383 Y-0.2655
N11895 Y-0.2656
N11900 X-0.3829 Y-0.2662
N11905 Y-0.2663
N11910 X-0.3828 Y-0.2669
N11915 Y-0.267
N11920 X-0.3826 Y-0.2676
N11925 X-0.3825 Y-0.2682
N11930 Y-0.2683
N11935 X-0.3823 Y-0.2689
N11940 X-0.3822 Y-0.2695
N11945 Y-0.2696
N11950 X-0.382 Y-0.2702
N11955 X-0.3818 Y-0.2708
N11960 X-0.3817 Y-0.2714
N11965 X-0.3816 Y-0.2715
N11970 X-0.3815 Y-0.272
N11975 Y-0.2721
N11980 X-0.3813 Y-0.2726
N11985 Y-0.2727
N11990 X-0.3811 Y-0.2732
N11995 Y-0.2733
N12000 X-0.3809 Y-0.2738
N12005 G3 X-0.3807 Y-0.2743 I0.0035 J0.0011
N12010 G1 X-0.3805 Y-0.2748
N12015 X-0.3803 Y-0.2752
N12020 X-0.3801 Y-0.2757
N12025 X-0.38
N12030 X-0.3798 Y-0.2762
N12035 X-0.3796 Y-0.2767
N12040 X-0.3795
N12045 X-0.3793 Y-0.2772
N12050 X-0.379 Y-0.2777
N12055 Y-0.2778
N12060 X-0.3787 Y-0.2782
N12065 Y-0.2783
N12070 X-0.3784 Y-0.2787
N12075 Y-0.2788
N12080 X-0.3781 Y-0.2792
N12085 X-0.378 Y-0.2793
N12090 X-0.3777 Y-0.2797
N12095 X-0.3776 Y-0.2798
N12100 X-0.3773 Y-0.2802
N12105 Y-0.2803
N12110 X-0.3769 Y-0.2807
N12115 X-0.3768 Y-0.2808
N12120 X-0.3765 Y-0.2811
N12125 X-0.3764 Y-0.2812
N12130 X-0.3761 Y-0.2816
N12135 X-0.376 Y-0.2817
N12140 X-0.3756 Y-0.282
N12145 Y-0.2821
N12150 X-0.3752 Y-0.2824
N12155 X-0.3751 Y-0.2825
N12160 X-0.3747 Y-0.2828
N12165 Y-0.2829
N12170 X-0.3743 Y-0.2832
N12175 X-0.3742
N12180 X-0.3738 Y-0.2835
N12185 Y-0.2836
N12190 X-0.3734 Y-0.2839
N12195 X-0.373 Y-0.2842
N12200 X-0.3725 Y-0.2845
N12205 X-0.3721 Y-0.2848
N12210 G3 X-0.3716 Y-0.2851 I0.0022 J0.0029
N12215 G1 X-0.3712 Y-0.2853
N12220 Y-0.2854
N12225 X-0.3708 Y-0.2856
N12230 X-0.3707
N12235 X-0.3703 Y-0.2858
N12240 X-0.3699 Y-0.286
N12245 X-0.3698
N12250 X-0.3694 Y-0.2862
N12255 X-0.3693 Y-0.2863
N12260 X-0.3689 Y-0.2865
N12265 X-0.3688
N12270 X-0.3684 Y-0.2867
N12275 X-0.3683
N12280 X-0.3679 Y-0.2869
N12285 X-0.3678
N12290 X-0.3674 Y-0.2871
N12295 X-0.3673
N12300 X-0.3669 Y-0.2873
N12305 X-0.3668
N12310 X-0.3663 Y-0.2875
N12315 X-0.3662
N12320 X-0.3657 Y-0.2877
N12325 X-0.3656
N12330 X-0.3652 Y-0.2878
N12335 X-0.365
N12340 X-0.3646 Y-0.2879
N12345 X-0.3645 Y-0.288
N12350 X-0.364
N12355 X-0.3639 Y-0.2881
N12360 X-0.3635
N12365 X-0.3634 Y-0.2882
N12370 X-0.3629
N12375 X-0.3628
N12380 X-0.3624 Y-0.2883
N12385 X-0.3623
N12390 X-0.3618 Y-0.2884
N12395 X-0.3613
N12400 X-0.3608
N12405 X-0.3607 Y-0.2885
N12410 X-0.3603
N12415 X-0.3602
N12420 X-0.3598
N12425 X-0.3602
N12430 X-0.3603
N12435 X-0.3607
N12440 X-0.3608 Y-0.2884
N12445 X-0.3613
N12450 X-0.3618
N12455 X-0.3623 Y-0.2883
N12460 X-0.3624
N12465 X-0.3628 Y-0.2882
N12470 X-0.3629
N12475 X-0.3634
N12480 X-0.3635 Y-0.2881
N12485 X-0.3639
N12490 X-0.364 Y-0.288
N12495 X-0.3645
N12500 X-0.3646 Y-0.2879
N12505 X-0.365 Y-0.2878
N12510 X-0.3652
N12515 X-0.3656 Y-0.2877
N12520 X-0.3657
N12525 X-0.3662 Y-0.2875
N12530 X-0.3663
N12535 X-0.3668 Y-0.2873
N12540 X-0.3669
N12545 X-0.3673 Y-0.2871
N12550 X-0.3674
N12555 X-0.3678 Y-0.2869
N12560 X-0.3679
N12565 X-0.3683 Y-0.2867
N12570 X-0.3684
N12575 X-0.3688 Y-0.2865
N12580 X-0.3689
N12585 X-0.3693 Y-0.2863
N12590 X-0.3694 Y-0.2862
N12595 X-0.3698 Y-0.286
N12600 X-0.3699
N12605 X-0.3703 Y-0.2858
N12610 X-0.3707 Y-0.2856
N12615 X-0.3708
N12620 X-0.3712 Y-0.2854
N12625 Y-0.2853
N12630 X-0.3716 Y-0.2851
N12635 G2 X-0.3721 Y-0.2848 I0.0017 J0.0032
N12640 G1 X-0.3725 Y-0.2845
N12645 X-0.373 Y-0.2842
N12650 X-0.3734 Y-0.2839
N12655 X-0.3738 Y-0.2836
N12660 Y-0.2835
N12665 X-0.3742 Y-0.2832
N12670 X-0.3743
N12675 X-0.3747 Y-0.2829
N12680 Y-0.2828
N12685 X-0.3751 Y-0.2825
N12690 X-0.3752 Y-0.2824
N12695 X-0.3756 Y-0.2821
N12700 Y-0.282
N12705 X-0.376 Y-0.2817
N12710 X-0.3761 Y-0.2816
N12715 X-0.3764 Y-0.2812
N12720 X-0.3765 Y-0.2811
N12725 X-0.3768 Y-0.2808
N12730 X-0.3769 Y-0.2807
N12735 X-0.3773 Y-0.2803
N12740 Y-0.2802
N12745 X-0.3776 Y-0.2798
N12750 X-0.3777 Y-0.2797
N12755 X-0.378 Y-0.2793
N12760 X-0.3781 Y-0.2792
N12765 X-0.3784 Y-0.2788
N12770 Y-0.2787
N12775 X-0.3787 Y-0.2783
N12780 Y-0.2782
N12785 X-0.379 Y-0.2778
N12790 Y-0.2777
N12795 X-0.3793 Y-0.2772
N12800 X-0.3795 Y-0.2767
N12805 X-0.3796
N12810 X-0.3798 Y-0.2762
N12815 X-0.38 Y-0.2757
N12820 X-0.3801
N12825 X-0.3803 Y-0.2752
N12830 X-0.3805 Y-0.2748
N12835 X-0.3807 Y-0.2743
N12840 G2 X-0.3809 Y-0.2738 I0.0033 J0.0016
N12845 G1 X-0.3811 Y-0.2733
N12850 Y-0.2732
N12855 X-0.3813 Y-0.2727
N12860 Y-0.2726
N12865 X-0.3815 Y-0.2721
N12870 Y-0.272
N12875 X-0.3816 Y-0.2715
N12880 X-0.3817 Y-0.2714
N12885 X-0.3818 Y-0.2708
N12890 X-0.382 Y-0.2702
N12895 X-0.3822 Y-0.2696
N12900 Y-0.2695
N12905 X-0.3823 Y-0.2689
N12910 X-0.3825 Y-0.2683
N12915 Y-0.2682
N12920 X-0.3826 Y-0.2676
N12925 X-0.3828 Y-0.267
N12930 Y-0.2669
N12935 X-0.3829 Y-0.2663
N12940 Y-0.2662
N12945 X-0.383 Y-0.2656
N12950 Y-0.2655
N12955 X-0.3831 Y-0.2649
N12960 Y-0.2643
N12965 Y-0.2642
N12970 X-0.3832 Y-0.2636
N12975 X-0.3833 Y-0.2629
N12980 Y-0.2623
N12985 Y-0.2616
N12990 X-0.3834 Y-0.261
N12995 Y-0.2604
N13000 Y-0.2603
N13005 Y-0.2597
N13010 Y-0.2591
N13015 Y-0.2585
N13020 Y-0.2582
N13025 Y-0.2577
N13030 Y-0.2572
N13035 Y-0.2566
N13040 Y-0.2561
N13045 X-0.3833 Y-0.2555
N13050 Y-0.255
N13055 X-0.3832 Y-0.2544
N13060 Y-0.2539
N13065 Y-0.2538
N13070 X-0.3831 Y-0.2533
N13075 Y-0.2532
N13080 Y-0.2527
N13085 X-0.383 Y-0.2522
N13090 Y-0.2521
N13095 X-0.3829 Y-0.2516
N13100 Y-0.2515
N13105 X-0.3828 Y-0.251
N13110 Y-0.2509
N13115 X-0.3827 Y-0.2504
N13120 Y-0.2503
N13125 X-0.3826 Y-0.2498
N13130 X-0.3824 Y-0.2493
N13135 Y-0.2492
N13140 X-0.3823 Y-0.2487
N13145 X-0.3822 Y-0.2482
N13150 Y-0.2481
N13155 X-0.382 Y-0.2476
N13160 X-0.3819 Y-0.2471
N13165 X-0.3817 Y-0.2466
N13170 Y-0.2465
N13175 X-0.3816 Y-0.246
N13180 X-0.3814 Y-0.2455
N13185 X-0.3813 Y-0.245
N13190 G2 X-0.3812 Y-0.2446 I0.0035 J-0.001
N13195 G1 X-0.381 Y-0.2442
N13200 X-0.3808 Y-0.2437
N13205 X-0.3807
N13210 X-0.3805 Y-0.2432
N13215 X-0.3803 Y-0.2427
N13220 X-0.3801 Y-0.2422
N13225 Y-0.2421
N13230 X-0.3799 Y-0.2417
N13235 X-0.3798 Y-0.2416
N13240 X-0.3796 Y-0.2412
N13245 Y-0.2411
N13250 X-0.3793 Y-0.2407
N13255 Y-0.2406
N13260 X-0.3791 Y-0.2401
N13265 X-0.379
N13270 X-0.3787 Y-0.2396
N13275 Y-0.2395
N13280 X-0.3784 Y-0.2391
N13285 X-0.3783 Y-0.239
N13290 X-0.3781 Y-0.2386
N13295 X-0.378 Y-0.2385
N13300 X-0.3777 Y-0.2381
N13305 X-0.3776 Y-0.238
N13310 X-0.3773 Y-0.2376
N13315 X-0.3772 Y-0.2375
N13320 X-0.3769 Y-0.2371
N13325 X-0.3768 Y-0.237
N13330 X-0.3765 Y-0.2367
N13335 X-0.3764 Y-0.2366
N13340 X-0.376 Y-0.2363
N13345 Y-0.2362
N13350 X-0.3756 Y-0.2358
N13355 X-0.3752 Y-0.2355
N13360 Y-0.2354
N13365 X-0.3748 Y-0.2351
N13370 X-0.3747 Y-0.235
N13375 X-0.3744 Y-0.2347
N13380 X-0.3743
N13385 X-0.374 Y-0.2344
N13390 X-0.3739 Y-0.2343
N13395 X-0.3735 Y-0.234
N13400 X-0.3732 Y-0.2337
N13405 G2 X-0.3726 Y-0.2333 I0.0024 J-0.0028
N13410 G1 X-0.3721 Y-0.233
N13415 X-0.3716 Y-0.2327
N13420 X-0.3711 Y-0.2325
N13425 Y-0.2324
N13430 X-0.3706 Y-0.2322
N13435 X-0.3701 Y-0.2319
N13440 X-0.37
N13445 X-0.3695 Y-0.2316
N13450 X-0.369 Y-0.2314
N13455 X-0.3689 Y-0.2313
N13460 X-0.3684 Y-0.2311
N13465 X-0.3683
N13470 X-0.3678 Y-0.2308
N13475 X-0.3658 Y-0.2302
N13480 X-0.3637 Y-0.2297
N13485 X-0.3613 Y-0.2294
N13490 X-0.3584 Y-0.2293
N13495 X-0.3582
N13500 X-0.3577
N13505 X-0.3572
N13510 X-0.3567
N13515 X-0.3562 Y-0.2294
N13520 X-0.3561
N13525 X-0.3557
N13530 X-0.3556
N13535 X-0.3551 Y-0.2295
N13540 X-0.3546
N13545 X-0.3545
N13550 X-0.3541 Y-0.2296
N13555 X-0.354
N13560 X-0.3535 Y-0.2297
N13565 X-0.3534
N13570 X-0.3529 Y-0.2298
N13575 X-0.3528
N13580 X-0.3524 Y-0.2299
N13585 X-0.3522 Y-0.23
N13590 X-0.3518 Y-0.2301
N13595 X-0.3516
N13600 X-0.3512 Y-0.2303
N13605 X-0.3511
N13610 X-0.3506 Y-0.2305
N13615 X-0.3505
N13620 X-0.3501 Y-0.2307
N13625 X-0.35
N13630 X-0.3495 Y-0.2309
N13635 X-0.3494 Y-0.231
N13640 X-0.349 Y-0.2312
N13645 X-0.3489
N13650 X-0.3485 Y-0.2314
N13655 X-0.3484 Y-0.2315
N13660 X-0.348 Y-0.2317
N13665 X-0.3475 Y-0.2319
N13670 Y-0.232
N13675 X-0.3471 Y-0.2322
N13680 X-0.347
N13685 X-0.3466 Y-0.2325
N13690 X-0.3462 Y-0.2327
N13695 X-0.3458 Y-0.233
N13700 G2 X-0.3451 Y-0.2335 I-0.0019 J-0.0031
N13705 G1 X-0.3447 Y-0.2338
N13710 Y-0.2339
N13715 X-0.3444 Y-0.2342
N13720 X-0.3443
N13725 X-0.344 Y-0.2346
N13730 X-0.3439
N13735 X-0.3436 Y-0.235
N13740 X-0.3432 Y-0.2354
N13745 X-0.3428 Y-0.2358
N13750 X-0.3427 Y-0.2359
N13755 X-0.3424 Y-0.2362
N13760 X-0.3423 Y-0.2363
N13765 X-0.342 Y-0.2367
N13770 Y-0.2368
N13775 X-0.3416 Y-0.2372
N13780 Y-0.2373
N13785 X-0.3413 Y-0.2377
N13790 X-0.3412 Y-0.2378
N13795 X-0.3409 Y-0.2382
N13800 X-0.3408 Y-0.2383
N13805 X-0.3405 Y-0.2387
N13810 Y-0.2388
N13815 X-0.3402 Y-0.2393
N13820 Y-0.2394
N13825 X-0.3399 Y-0.2398
N13830 Y-0.2399
N13835 X-0.3396 Y-0.2404
N13840 Y-0.2405
N13845 X-0.3394 Y-0.2409
N13850 X-0.3393 Y-0.241
N13855 X-0.3391 Y-0.2415
N13860 X-0.3389 Y-0.242
N13865 Y-0.2421
N13870 X-0.3376 Y-0.2418
N13875 X-0.3344 Y-0.2435 Z-0.0035
N13880 X-0.3328 Y-0.2443 Z0.
N13885 X-0.3344 Y-0.2435 Z-0.0035
N13890 X-0.3376 Y-0.2418 Z-0.01
N13895 X-0.3379 Y-0.2412
N13900 X-0.3381 Y-0.2407
N13905 X-0.3384 Y-0.2401
N13910 X-0.3387 Y-0.2396
N13915 X-0.3389 Y-0.2391
N13920 X-0.3392 Y-0.2387
N13925 X-0.3395 Y-0.2382
N13930 X-0.3399 Y-0.2378
N13935 X-0.3402 Y-0.2373
N13940 X-0.3406 Y-0.2369
N13945 X-0.341 Y-0.2364
N13950 X-0.3414 Y-0.236
N13955 X-0.3419 Y-0.2355
N13960 X-0.3424 Y-0.2351
N13965 X-0.3428 Y-0.2346
N13970 X-0.3433 Y-0.2342
N13975 X-0.3439 Y-0.2337
N13980 X-0.3441 Y-0.2335
N13985 X-0.3444 Y-0.2333
N13990 X-0.345 Y-0.2329
N13995 X-0.3456 Y-0.2326
N14000 X-0.3462 Y-0.2322
N14005 X-0.3468 Y-0.2319
N14010 X-0.3474 Y-0.2316
N14015 X-0.3479 Y-0.2313
N14020 X-0.3485 Y-0.231
N14025 X-0.3491 Y-0.2308
N14030 X-0.3496 Y-0.2306
N14035 X-0.3501 Y-0.2304
N14040 X-0.3507 Y-0.2302
N14045 X-0.3512 Y-0.2301
N14050 X-0.3518 Y-0.2299
N14055 X-0.3524 Y-0.2298
N14060 X-0.353 Y-0.2297
N14065 X-0.3536 Y-0.2296
N14070 X-0.3542 Y-0.2295
N14075 X-0.3549
N14080 X-0.3556 Y-0.2294
N14085 X-0.3563
N14090 X-0.357 Y-0.2293
N14095 X-0.3577
N14100 X-0.3582 Y-0.2292
N14105 X-0.3584 Y-0.2293
N14110 G0 Z0.1
N14115 X-0.3411 Y-0.2463
N14120 Z0.05
N14125 G1 Z-0.0001 F5.
N14130 X-0.3389 Y-0.2421 Z-0.01 F7.5
N14135 G0 Z0.1
N14140 X-0.3306 Y-0.3911
N14145 Z0.05
N14150 G1 Z0. F5.
N14155 X-0.3253 Y-0.3875 Z-0.01 F7.5
N14160 X-0.3062 Y-0.3378
N14165 X-0.3053 Y-0.3348 Z-0.0094
N14170 X-0.3045 Y-0.3323 Z-0.009
N14175 X-0.304 Y-0.3313 Z-0.0092
N14180 X-0.3034 Y-0.3304 Z-0.01
N14185 X-0.3033 Y-0.3303
N14190 X-0.3034
N14195 X-0.3058 Y-0.3267 Z0.
N14200 X-0.3034 Y-0.3303 Z-0.01
N14205 Y-0.3304
N14210 Y-0.3303
N14215 X-0.3033
N14220 X-0.3024 Y-0.3301 Z-0.0095
N14225 X-0.3015 Z-0.0093
N14230 X-0.3005 Z-0.0095
N14235 X-0.2996 Y-0.3303 Z-0.01
N14240 X-0.2991
N14245 X-0.2967 Y-0.3267 Z0.
N14250 X-0.2991 Y-0.3303 Z-0.01
N14255 X-0.2989 Y-0.3309
N14260 G3 X-0.2996 Y-0.3303 I-0.0026 J-0.0026
N14265 G2 X-0.2989 Y-0.3309 I-0.0019 J-0.0031
N14270 G1 X-0.2982 Y-0.3321 Z-0.0096
N14275 X-0.2971 Y-0.3353 Z-0.01
N14280 X-0.2757 Y-0.3875
N14285 X-0.2703 Y-0.3911 Z0.
N14290 X-0.2757 Y-0.3875 Z-0.01
N14295 X-0.2775
N14300 X-0.28 Y-0.3911 Z0.
N14305 X-0.2775 Y-0.3875 Z-0.01
N14310 X-0.2841 Y-0.3703
N14315 G3 X-0.2875 Y-0.368 I-0.0034 J-0.0013
N14320 G1 X-0.2886
N14325 G3 X-0.2868 Y-0.3634 I-0.0015 J0.0033
N14330 G1 X-0.2935 Y-0.3455
N14335 X-0.2939 Y-0.3444
N14340 X-0.2941 Y-0.3439
N14345 X-0.2943 Y-0.3433
N14350 X-0.2945 Y-0.3428
N14355 X-0.2947 Y-0.3423
N14360 X-0.2949 Y-0.3417
N14365 X-0.2951 Y-0.3412
N14370 X-0.2953 Y-0.3406
N14375 X-0.2955 Y-0.3401
N14380 X-0.2957 Y-0.3395
N14385 X-0.2959 Y-0.339
N14390 X-0.296 Y-0.3385
N14395 X-0.2962 Y-0.3379
N14400 X-0.2964 Y-0.3374
N14405 X-0.2966 Y-0.3368
N14410 X-0.2968 Y-0.3363
N14415 X-0.2969 Y-0.3357
N14420 X-0.2971 Y-0.3353
N14425 X-0.2969 Y-0.3357
N14430 X-0.2968 Y-0.3363
N14435 X-0.2966 Y-0.3368
N14440 X-0.2964 Y-0.3374
N14445 X-0.2962 Y-0.3379
N14450 X-0.296 Y-0.3385
N14455 X-0.2959 Y-0.339
N14460 X-0.2957 Y-0.3395
N14465 X-0.2955 Y-0.3401
N14470 X-0.2953 Y-0.3406
N14475 X-0.2951 Y-0.3412
N14480 X-0.2949 Y-0.3417
N14485 X-0.2947 Y-0.3423
N14490 X-0.2945 Y-0.3428
N14495 X-0.2943 Y-0.3433
N14500 X-0.2941 Y-0.3439
N14505 X-0.2939 Y-0.3444
N14510 X-0.2935 Y-0.3455
N14515 X-0.2868 Y-0.3634
N14520 G2 X-0.2886 Y-0.368 I-0.0034 J-0.0013
N14525 G1 X-0.2894 Y-0.3681 Z-0.0097
N14530 X-0.2902 Z-0.0095
N14535 X-0.312
N14540 X-0.3128 Z-0.0097
N14545 X-0.3135 Y-0.368 Z-0.01
N14550 G2 X-0.3154 Y-0.3634 I0.0015 J0.0033
N14555 G1 X-0.3084 Y-0.3445
N14560 X-0.3082 Y-0.3441
N14565 X-0.308 Y-0.3436
N14570 X-0.3079 Y-0.3431
N14575 X-0.3077 Y-0.3426
N14580 X-0.3075 Y-0.3421
N14585 X-0.3074 Y-0.3416
N14590 X-0.3072 Y-0.3411
N14595 X-0.307 Y-0.3406
N14600 X-0.3069 Y-0.3401
N14605 X-0.3067 Y-0.3397
N14610 X-0.3066 Y-0.3392
N14615 X-0.3065 Y-0.3387
N14620 X-0.3063 Y-0.3382
N14625 X-0.3062 Y-0.3378
N14630 X-0.3063 Y-0.3382
N14635 X-0.3065 Y-0.3387
N14640 X-0.3066 Y-0.3392
N14645 X-0.3067 Y-0.3397
N14650 X-0.3069 Y-0.3401
N14655 X-0.307 Y-0.3406
N14660 X-0.3072 Y-0.3411
N14665 X-0.3074 Y-0.3416
N14670 X-0.3075 Y-0.3421
N14675 X-0.3077 Y-0.3426
N14680 X-0.3079 Y-0.3431
N14685 X-0.308 Y-0.3436
N14690 X-0.3082 Y-0.3441
N14695 X-0.3084 Y-0.3445
N14700 X-0.3154 Y-0.3634
N14705 G3 X-0.3135 Y-0.368 I0.0034 J-0.0013
N14710 G1 X-0.3145
N14715 G3 X-0.3179 Y-0.3704 I0. J-0.0036
N14720 G1 X-0.3241 Y-0.3875
N14725 X-0.3253
N14730 X-0.3241
N14735 X-0.3216 Y-0.3911 Z0.
N14740 G0 Z0.1
N14745 X-0.3282 Y-0.4945
N14750 Z0.05
N14755 G1 Z0. F5.
N14760 X-0.3229 Y-0.4908 Z-0.01 F7.5
N14765 X-0.3038 Y-0.4411
N14770 X-0.3039 Y-0.4416
N14775 X-0.3041 Y-0.442
N14780 X-0.3042 Y-0.4425
N14785 X-0.3044 Y-0.443
N14790 X-0.3045 Y-0.4435
N14795 X-0.3047 Y-0.444
N14800 X-0.3048 Y-0.4445
N14805 X-0.305 Y-0.445
N14810 X-0.3051 Y-0.4454
N14815 X-0.3053 Y-0.4459
N14820 X-0.3055 Y-0.4464
N14825 X-0.3056 Y-0.4469
N14830 X-0.3058 Y-0.4474
N14835 X-0.306 Y-0.4479
N14840 X-0.313 Y-0.4667
N14845 G3 X-0.3112 Y-0.4713 I0.0034 J-0.0013
N14850 G1 X-0.3121
N14855 G3 X-0.3155 Y-0.4737 I0. J-0.0036
N14860 G1 X-0.3217 Y-0.4908
N14865 X-0.3229
N14870 X-0.3217
N14875 X-0.3192 Y-0.4945 Z0.
N14880 X-0.3217 Y-0.4908 Z-0.01
N14885 X-0.3155 Y-0.4737
N14890 G2 X-0.3121 Y-0.4713 I0.0034 J-0.0012
N14895 G1 X-0.3112
N14900 X-0.3104 Y-0.4714 Z-0.0097
N14905 X-0.3096 Y-0.4715 Z-0.0095
N14910 X-0.2878
N14915 X-0.287 Y-0.4714 Z-0.0097
N14920 X-0.2863 Y-0.4713 Z-0.01
N14925 X-0.2852
N14930 G2 X-0.2818 Y-0.4737 I0. J-0.0036
N14935 G1 X-0.2751 Y-0.4908
N14940 X-0.2776 Y-0.4945 Z0.
N14945 X-0.2751 Y-0.4908 Z-0.01
N14950 X-0.2733
N14955 X-0.2679 Y-0.4945 Z0.
N14960 X-0.2733 Y-0.4908 Z-0.01
N14965 X-0.2947 Y-0.4387
N14970 X-0.2946 Y-0.4391
N14975 X-0.2944 Y-0.4396
N14980 X-0.2942 Y-0.4402
N14985 X-0.294 Y-0.4407
N14990 X-0.2939 Y-0.4413
N14995 X-0.2937 Y-0.4418
N15000 X-0.2935 Y-0.4424
N15005 X-0.2933 Y-0.4429
N15010 X-0.2931 Y-0.4434
N15015 X-0.2929 Y-0.444
N15020 X-0.2927 Y-0.4445
N15025 X-0.2925 Y-0.4451
N15030 X-0.2923 Y-0.4456
N15035 X-0.2921 Y-0.4462
N15040 X-0.2919 Y-0.4467
N15045 X-0.2917 Y-0.4473
N15050 X-0.2915 Y-0.4478
N15055 X-0.2913 Y-0.4483
N15060 X-0.2911 Y-0.4489
N15065 X-0.2844 Y-0.4667
N15070 G2 X-0.2863 Y-0.4713 I-0.0034 J-0.0013
N15075 G3 X-0.2844 Y-0.4667 I-0.0015 J0.0033
N15080 G1 X-0.2911 Y-0.4489
N15085 X-0.2913 Y-0.4483
N15090 X-0.2915 Y-0.4478
N15095 X-0.2917 Y-0.4473
N15100 X-0.2919 Y-0.4467
N15105 X-0.2921 Y-0.4462
N15110 X-0.2923 Y-0.4456
N15115 X-0.2925 Y-0.4451
N15120 X-0.2927 Y-0.4445
N15125 X-0.2929 Y-0.444
N15130 X-0.2931 Y-0.4434
N15135 X-0.2933 Y-0.4429
N15140 X-0.2935 Y-0.4424
N15145 X-0.2937 Y-0.4418
N15150 X-0.2939 Y-0.4413
N15155 X-0.294 Y-0.4407
N15160 X-0.2942 Y-0.4402
N15165 X-0.2944 Y-0.4396
N15170 X-0.2946 Y-0.4391
N15175 X-0.2947 Y-0.4387
N15180 X-0.2953 Y-0.4369 Z-0.0098
N15185 X-0.2958 Y-0.4355 Z-0.0096
N15190 X-0.2965 Y-0.4342 Z-0.01
N15195 G3 X-0.2972 Y-0.4337 I-0.0026 J-0.0026
N15200 G1 X-0.2967
N15205 X-0.2943 Y-0.4301 Z0.
N15210 X-0.2967 Y-0.4337 Z-0.01
N15215 X-0.2965 Y-0.4342
N15220 X-0.2967 Y-0.4337
N15225 X-0.2972
N15230 X-0.2982 Y-0.4335 Z-0.0095
N15235 X-0.2991 Y-0.4334 Z-0.0093
N15240 X-0.3 Y-0.4335 Z-0.0095
N15245 X-0.3009 Y-0.4337 Z-0.01
N15250 X-0.301
N15255 X-0.3016 Y-0.4346 Z-0.0092
N15260 X-0.3021 Y-0.4356 Z-0.009
N15265 X-0.3024 Y-0.4366 Z-0.0091
N15270 X-0.3038 Y-0.4411 Z-0.01
N15275 X-0.3024 Y-0.4366 Z-0.0091
N15280 X-0.3021 Y-0.4356 Z-0.009
N15285 X-0.3016 Y-0.4346 Z-0.0092
N15290 X-0.301 Y-0.4337 Z-0.01
N15295 X-0.3009
N15300 X-0.301
N15305 X-0.3035 Y-0.4301 Z0.
N15310 G0 Z0.1
N15315 X-0.3282 Y-0.2911
N15320 Z0.05
N15325 G1 Z0. F5.
N15330 X-0.3229 Y-0.2875 Z-0.01 F7.5
N15335 X-0.3038 Y-0.2378
N15340 X-0.3039 Y-0.2382
N15345 X-0.3041 Y-0.2387
N15350 X-0.3042 Y-0.2392
N15355 X-0.3044 Y-0.2397
N15360 X-0.3045 Y-0.2401
N15365 X-0.3047 Y-0.2406
N15370 X-0.3048 Y-0.2411
N15375 X-0.305 Y-0.2416
N15380 X-0.3051 Y-0.2421
N15385 X-0.3053 Y-0.2426
N15390 X-0.3055 Y-0.2431
N15395 X-0.3056 Y-0.2436
N15400 X-0.306 Y-0.2445
N15405 X-0.313 Y-0.2634
N15410 G3 X-0.3112 Y-0.268 I0.0034 J-0.0013
N15415 G1 X-0.3121
N15420 G3 X-0.3155 Y-0.2704 I0. J-0.0036
N15425 G1 X-0.3217 Y-0.2875
N15430 X-0.3229
N15435 X-0.3217
N15440 X-0.3192 Y-0.2911 Z0.
N15445 X-0.3217 Y-0.2875 Z-0.01
N15450 X-0.3155 Y-0.2704
N15455 G2 X-0.3121 Y-0.268 I0.0034 J-0.0012
N15460 G1 X-0.3112
N15465 X-0.3104 Y-0.2681 Z-0.0097
N15470 X-0.3096 Z-0.0095
N15475 X-0.2878
N15480 X-0.287 Z-0.0097
N15485 X-0.2863 Y-0.268 Z-0.01
N15490 X-0.2852
N15495 G2 X-0.2818 Y-0.2703 I0. J-0.0036
N15500 G1 X-0.2751 Y-0.2875
N15505 X-0.2776 Y-0.2911 Z0.
N15510 X-0.2751 Y-0.2875 Z-0.01
N15515 X-0.2733
N15520 X-0.2679 Y-0.2911 Z0.
N15525 X-0.2733 Y-0.2875 Z-0.01
N15530 X-0.2947 Y-0.2353
N15535 X-0.2946 Y-0.2357
N15540 X-0.2944 Y-0.2363
N15545 X-0.2942 Y-0.2368
N15550 X-0.294 Y-0.2374
N15555 X-0.2939 Y-0.2379
N15560 X-0.2937 Y-0.2385
N15565 X-0.2935 Y-0.239
N15570 X-0.2933 Y-0.2395
N15575 X-0.2931 Y-0.2401
N15580 X-0.2929 Y-0.2406
N15585 X-0.2927 Y-0.2412
N15590 X-0.2925 Y-0.2417
N15595 X-0.2923 Y-0.2423
N15600 X-0.2921 Y-0.2428
N15605 X-0.2919 Y-0.2433
N15610 X-0.2917 Y-0.2439
N15615 X-0.2915 Y-0.2444
N15620 X-0.2913 Y-0.245
N15625 X-0.2911 Y-0.2455
N15630 X-0.2844 Y-0.2634
N15635 G2 X-0.2863 Y-0.268 I-0.0034 J-0.0013
N15640 G3 X-0.2844 Y-0.2634 I-0.0015 J0.0033
N15645 G1 X-0.2911 Y-0.2455
N15650 X-0.2913 Y-0.245
N15655 X-0.2915 Y-0.2444
N15660 X-0.2917 Y-0.2439
N15665 X-0.2919 Y-0.2433
N15670 X-0.2921 Y-0.2428
N15675 X-0.2923 Y-0.2423
N15680 X-0.2925 Y-0.2417
N15685 X-0.2927 Y-0.2412
N15690 X-0.2929 Y-0.2406
N15695 X-0.2931 Y-0.2401
N15700 X-0.2933 Y-0.2395
N15705 X-0.2935 Y-0.239
N15710 X-0.2937 Y-0.2385
N15715 X-0.2939 Y-0.2379
N15720 X-0.294 Y-0.2374
N15725 X-0.2942 Y-0.2368
N15730 X-0.2944 Y-0.2363
N15735 X-0.2946 Y-0.2357
N15740 X-0.2947 Y-0.2353
N15745 X-0.2958 Y-0.2321 Z-0.0096
N15750 X-0.2965 Y-0.2309 Z-0.01
N15755 G3 X-0.2972 Y-0.2303 I-0.0026 J-0.0026
N15760 G1 X-0.2967
N15765 X-0.2943 Y-0.2267 Z0.
N15770 X-0.2967 Y-0.2303 Z-0.01
N15775 X-0.2965 Y-0.2309
N15780 X-0.2967 Y-0.2303
N15785 X-0.2972
N15790 X-0.2982 Y-0.2301 Z-0.0095
N15795 X-0.2991 Z-0.0093
N15800 X-0.3 Z-0.0095
N15805 X-0.3009 Y-0.2303 Z-0.01
N15810 X-0.301 Y-0.2304
N15815 X-0.3016 Y-0.2313 Z-0.0092
N15820 X-0.3021 Y-0.2323 Z-0.009
N15825 X-0.3029 Y-0.2348 Z-0.0095
N15830 X-0.3038 Y-0.2378 Z-0.01
N15835 X-0.3029 Y-0.2348 Z-0.0095
N15840 X-0.3021 Y-0.2323 Z-0.009
N15845 X-0.3016 Y-0.2313 Z-0.0092
N15850 X-0.301 Y-0.2304 Z-0.01
N15855 Y-0.2303
N15860 X-0.3009
N15865 X-0.301
N15870 X-0.3035 Y-0.2267 Z0.
N15875 G0 Z0.1
N15880 X-0.3255 Y-0.1911
N15885 Z0.05
N15890 G1 Z0. F5.
N15895 X-0.3219 Y-0.1874 Z-0.01 F7.5
N15900 Y-0.1303
N15905 X-0.3255 Y-0.1267 Z0.
N15910 X-0.3219 Y-0.1303 Z-0.01
N15915 X-0.2826
N15920 X-0.2789 Y-0.1267 Z0.
N15925 X-0.2826 Y-0.1303 Z-0.01
N15930 Y-0.1306
N15935 X-0.2789 Y-0.1342 Z0.
N15940 X-0.2826 Y-0.1306 Z-0.01
N15945 X-0.317
N15950 G3 X-0.3206 Y-0.1343 I0. J-0.0036
N15955 G1 Y-0.154
N15960 G3 X-0.317 Y-0.1576 I0.0036 J0.
N15965 G1 X-0.285
N15970 X-0.2813 Y-0.154 Z0.
N15975 X-0.285 Y-0.1576 Z-0.01
N15980 Y-0.1579
N15985 X-0.2813 Y-0.1615 Z0.
N15990 X-0.285 Y-0.1579 Z-0.01
N15995 X-0.317
N16000 G3 X-0.3206 Y-0.1615 I0. J-0.0036
N16005 G1 Y-0.1835
N16010 G3 X-0.317 Y-0.1871 I0.0036 J0.
N16015 G1 X-0.2811
N16020 X-0.2774 Y-0.1835 Z0.
N16025 X-0.2811 Y-0.1871 Z-0.01
N16030 Y-0.1874
N16035 X-0.2774 Y-0.1911 Z0.
N16040 X-0.2811 Y-0.1874 Z-0.01
N16045 X-0.3219
N16050 G0 Z0.1
N16055 X-0.293 Y-0.0874
N16060 Z0.05
N16065 G1 Z-0.01 F5.
N16070 X-0.2935 Y-0.0873 F7.5
N16075 X-0.2936 Y-0.0872
N16080 X-0.2943 Y-0.087
N16085 X-0.2945 Y-0.0869
N16090 X-0.2951 Y-0.0867
N16095 X-0.2953 Y-0.0866
N16100 X-0.2959 Y-0.0863
N16105 X-0.2961 Y-0.0862
N16110 X-0.2967 Y-0.0859
N16115 X-0.2969 Y-0.0858
N16120 X-0.2975 Y-0.0855
N16125 X-0.2976 Y-0.0854
N16130 X-0.2982 Y-0.085
N16135 X-0.2983 Y-0.0849
N16140 X-0.2989 Y-0.0845
N16145 X-0.299
N16150 X-0.2996 Y-0.084
N16155 X-0.2997
N16160 X-0.3003 Y-0.0835
N16165 X-0.3004
N16170 X-0.3009 Y-0.083
N16175 X-0.301
N16180 X-0.3015 Y-0.0825
N16185 X-0.3016
N16190 X-0.3022 Y-0.082
N16195 X-0.3027 Y-0.0815
N16200 X-0.3028
N16205 X-0.3033 Y-0.081
N16210 G2 X-0.3039 Y-0.0803 I0.0024 J0.0027
N16215 G1 X-0.3044 Y-0.0797
N16220 X-0.3049 Y-0.079
N16225 Y-0.0789
N16230 X-0.3054 Y-0.0783
N16235 Y-0.0782
N16240 X-0.3059 Y-0.0775
N16245 X-0.3063 Y-0.0768
N16250 X-0.3064 Y-0.0767
N16255 X-0.3068 Y-0.076
N16260 X-0.3069 Y-0.0759
N16265 X-0.3073 Y-0.0752
N16270 Y-0.0751
N16275 X-0.3077 Y-0.0744
N16280 X-0.3078 Y-0.0743
N16285 X-0.3082 Y-0.0736
N16290 Y-0.0734
N16295 X-0.3086 Y-0.0727
N16300 Y-0.0726
N16305 X-0.3089 Y-0.0718
N16310 X-0.309 Y-0.0717
N16315 X-0.3093 Y-0.0709
N16320 Y-0.0707
N16325 X-0.3095 Y-0.07
N16330 X-0.3096 Y-0.0698
N16335 X-0.3098 Y-0.069
N16340 Y-0.0689
N16345 X-0.31 Y-0.0681
N16350 Y-0.068
N16355 X-0.3102 Y-0.0672
N16360 Y-0.0671
N16365 X-0.3103 Y-0.0663
N16370 Y-0.0662
N16375 X-0.3104 Y-0.0653
N16380 X-0.3105 Y-0.0644
N16385 X-0.3106 Y-0.0635
N16390 X-0.3107 Y-0.0627
N16395 Y-0.0626
N16400 Y-0.0618
N16405 X-0.3108 Y-0.0609
N16410 Y-0.0601
N16415 Y-0.0598
N16420 Y-0.0588
N16425 Y-0.0579
N16430 X-0.3107 Y-0.0569
N16435 Y-0.0559
N16440 X-0.3106 Y-0.0549
N16445 Y-0.0539
N16450 X-0.3105 Y-0.0529
N16455 Y-0.0528
N16460 X-0.3103 Y-0.0519
N16465 Y-0.0518
N16470 X-0.3102 Y-0.0509
N16475 Y-0.0508
N16480 X-0.31 Y-0.0499
N16485 Y-0.0498
N16490 X-0.3098 Y-0.0489
N16495 X-0.3097 Y-0.0487
N16500 X-0.3095 Y-0.0479
N16505 Y-0.0477
N16510 X-0.3092 Y-0.0468
N16515 X-0.3091 Y-0.0467
N16520 X-0.3088 Y-0.0458
N16525 Y-0.0456
N16530 X-0.3084 Y-0.0448
N16535 X-0.3083 Y-0.0447
N16540 X-0.3079 Y-0.0438
N16545 Y-0.0437
N16550 X-0.3075 Y-0.0429
N16555 X-0.3074 Y-0.0428
N16560 X-0.3069 Y-0.042
N16565 Y-0.0419
N16570 X-0.3064 Y-0.0411
N16575 X-0.3059 Y-0.0403
N16580 X-0.3058 Y-0.0402
N16585 X-0.3053 Y-0.0394
N16590 X-0.3048 Y-0.0386
N16595 X-0.3047
N16600 X-0.3042 Y-0.0378
N16605 X-0.3036 Y-0.037
N16610 G2 X-0.3029 Y-0.0363 I0.003 J-0.0021
N16615 G1 X-0.3024 Y-0.0358
N16620 X-0.3023
N16625 X-0.3018 Y-0.0354
N16630 Y-0.0353
N16635 X-0.3012 Y-0.0349
N16640 X-0.3011
N16645 X-0.3006 Y-0.0344
N16650 X-0.3005
N16655 X-0.2999 Y-0.034
N16660 Y-0.0339
N16665 X-0.2993 Y-0.0335
N16670 X-0.2992
N16675 X-0.2986 Y-0.0331
N16680 X-0.2985 Y-0.033
N16685 X-0.2979 Y-0.0326
N16690 X-0.2978
N16695 X-0.2972 Y-0.0322
N16700 X-0.2971
N16705 X-0.2965 Y-0.0318
N16710 X-0.2963
N16715 X-0.2957 Y-0.0314
N16720 X-0.2956
N16725 X-0.2949 Y-0.0311
N16730 X-0.2948 Y-0.031
N16735 X-0.2941 Y-0.0308
N16740 X-0.2939 Y-0.0307
N16745 X-0.2933 Y-0.0305
N16750 X-0.2931
N16755 X-0.2925 Y-0.0303
N16760 X-0.2923
N16765 X-0.2916 Y-0.0301
N16770 X-0.2915
N16775 X-0.2908 Y-0.0299
N16780 X-0.2907
N16785 X-0.29 Y-0.0298
N16790 X-0.2899
N16795 X-0.2892 Y-0.0297
N16800 X-0.2891
N16805 X-0.2884 Y-0.0296
N16810 X-0.2877 Y-0.0295
N16815 X-0.2876
N16820 X-0.2869 Y-0.0294
N16825 X-0.2861 Y-0.0293
N16830 X-0.2854
N16835 G2 X-0.2848 I0.0003 J-0.0036
N16840 G1 X-0.2843
N16845 X-0.2838
N16850 X-0.2833 Y-0.0294
N16855 X-0.2827
N16860 X-0.2822 Y-0.0295
N16865 X-0.2817
N16870 X-0.2816
N16875 X-0.2811 Y-0.0296
N16880 X-0.281
N16885 X-0.2805 Y-0.0297
N16890 X-0.2804
N16895 X-0.2799 Y-0.0298
N16900 X-0.2798
N16905 X-0.2794 Y-0.0299
N16910 X-0.2792
N16915 X-0.2788 Y-0.03
N16920 X-0.2786
N16925 X-0.2782 Y-0.0302
N16930 X-0.278
N16935 X-0.2776 Y-0.0303
N16940 X-0.2774 Y-0.0304
N16945 X-0.277 Y-0.0305
N16950 X-0.2769 Y-0.0306
N16955 X-0.2764 Y-0.0307
N16960 X-0.2763 Y-0.0308
N16965 X-0.2759 Y-0.031
N16970 X-0.2758
N16975 X-0.2753 Y-0.0312
N16980 X-0.2752
N16985 X-0.2748 Y-0.0314
N16990 X-0.2747 Y-0.0315
N16995 X-0.2743 Y-0.0317
N17000 X-0.2742
N17005 X-0.2738 Y-0.0319
N17010 X-0.2737 Y-0.032
N17015 X-0.2733 Y-0.0322
N17020 X-0.2728 Y-0.0324
N17025 Y-0.0325
N17030 X-0.2723 Y-0.0327
N17035 X-0.2719 Y-0.0329
N17040 G2 X-0.2714 Y-0.0332 I-0.0017 J-0.0032
N17045 G1 X-0.271 Y-0.0335
N17050 X-0.2706 Y-0.0338
N17055 X-0.2702 Y-0.0342
N17060 X-0.2701
N17065 X-0.2697 Y-0.0345
N17070 X-0.2693 Y-0.0348
N17075 Y-0.0349
N17080 X-0.2689 Y-0.0352
N17085 X-0.2688
N17090 X-0.2684 Y-0.0356
N17095 X-0.268 Y-0.0359
N17100 X-0.2679 Y-0.036
N17105 X-0.2676 Y-0.0363
N17110 X-0.2675 Y-0.0364
N17115 X-0.2671 Y-0.0368
N17120 X-0.267 Y-0.0369
N17125 X-0.2667 Y-0.0372
N17130 X-0.2666 Y-0.0373
N17135 X-0.2663 Y-0.0377
N17140 X-0.2662 Y-0.0378
N17145 X-0.2659 Y-0.0382
N17150 X-0.2658 Y-0.0383
N17155 X-0.2655 Y-0.0387
N17160 X-0.2654 Y-0.0388
N17165 X-0.2651 Y-0.0392
N17170 Y-0.0393
N17175 X-0.2648 Y-0.0397
N17180 X-0.2645 Y-0.0402
N17185 X-0.2644
N17190 X-0.2642 Y-0.0407
N17195 X-0.2641
N17200 X-0.2639 Y-0.0412
N17205 X-0.2636 Y-0.0416
N17210 Y-0.0417
N17215 X-0.2633 Y-0.0421
N17220 Y-0.0422
N17225 X-0.2631 Y-0.0426
N17230 X-0.2628 Y-0.0431
N17235 X-0.2626 Y-0.0435
N17240 G2 X-0.2624 Y-0.044 I-0.0032 J-0.0017
N17245 G1 X-0.2622 Y-0.0445
N17250 X-0.262 Y-0.0451
N17255 X-0.2618 Y-0.0456
N17260 Y-0.0457
N17265 X-0.2616 Y-0.0462
N17270 Y-0.0463
N17275 X-0.2614 Y-0.0468
N17280 Y-0.0469
N17285 X-0.2612 Y-0.0474
N17290 Y-0.0475
N17295 X-0.261 Y-0.048
N17300 Y-0.0481
N17305 X-0.2608 Y-0.0486
N17310 Y-0.0487
N17315 X-0.2606 Y-0.0493
N17320 X-0.2605 Y-0.0499
N17325 X-0.2604 Y-0.05
N17330 X-0.2603 Y-0.0506
N17335 X-0.2602 Y-0.0512
N17340 Y-0.0513
N17345 X-0.2601 Y-0.0519
N17350 X-0.26 Y-0.052
N17355 X-0.2599 Y-0.0525
N17360 Y-0.0526
N17365 Y-0.0532
N17370 Y-0.0533
N17375 X-0.2598 Y-0.0538
N17380 Y-0.0539
N17385 X-0.2597 Y-0.0545
N17390 Y-0.0551
N17395 Y-0.0552
N17400 X-0.2596 Y-0.0558
N17405 Y-0.0564
N17410 Y-0.057
N17415 X-0.2595 Y-0.0576
N17420 Y-0.0582
N17425 Y-0.0588
N17430 Y-0.0591
N17435 Y-0.06
N17440 X-0.2596 Y-0.0609
N17445 Y-0.0618
N17450 X-0.2597 Y-0.0627
N17455 X-0.2598 Y-0.0636
N17460 Y-0.0637
N17465 Y-0.0645
N17470 X-0.2599 Y-0.0646
N17475 X-0.26 Y-0.0654
N17480 Y-0.0655
N17485 X-0.2601 Y-0.0664
N17490 Y-0.0665
N17495 X-0.2602 Y-0.0673
N17500 X-0.2603 Y-0.0674
N17505 X-0.2604 Y-0.0683
N17510 X-0.2605 Y-0.0684
N17515 X-0.2607 Y-0.0692
N17520 Y-0.0694
N17525 X-0.2609 Y-0.0702
N17530 X-0.261 Y-0.0703
N17535 X-0.2612 Y-0.0711
N17540 X-0.2613 Y-0.0713
N17545 X-0.2616 Y-0.0721
N17550 X-0.2617 Y-0.0722
N17555 X-0.262 Y-0.073
N17560 X-0.2621 Y-0.0731
N17565 X-0.2624 Y-0.0739
N17570 X-0.2625 Y-0.074
N17575 X-0.2629 Y-0.0747
N17580 Y-0.0748
N17585 X-0.2634 Y-0.0756
N17590 Y-0.0757
N17595 X-0.2639 Y-0.0764
N17600 Y-0.0765
N17605 X-0.2644 Y-0.0772
N17610 Y-0.0773
N17615 X-0.2649 Y-0.078
N17620 X-0.2654 Y-0.0787
N17625 Y-0.0788
N17630 X-0.2659 Y-0.0795
N17635 X-0.2664 Y-0.0802
N17640 G2 X-0.267 Y-0.0809 I-0.003 J0.0021
N17645 G1 X-0.2675 Y-0.0814
N17650 X-0.2681 Y-0.0819
N17655 X-0.2687 Y-0.0824
N17660 X-0.2693 Y-0.0829
N17665 X-0.2694
N17670 X-0.2699 Y-0.0834
N17675 X-0.27 Y-0.0835
N17680 X-0.2706 Y-0.0839
N17685 X-0.2707 Y-0.084
N17690 X-0.2713 Y-0.0844
N17695 Y-0.0845
N17700 X-0.2719 Y-0.0849
N17705 X-0.2721 Y-0.085
N17710 X-0.2727 Y-0.0854
N17715 X-0.2728
N17720 X-0.2734 Y-0.0858
N17725 X-0.2736 Y-0.0859
N17730 X-0.2742 Y-0.0862
N17735 X-0.2744 Y-0.0863
N17740 X-0.275 Y-0.0866
N17745 X-0.2752 Y-0.0867
N17750 X-0.2759 Y-0.0869
N17755 X-0.276 Y-0.087
N17760 X-0.2767 Y-0.0872
N17765 X-0.2769 Y-0.0873
N17770 X-0.2776 Y-0.0875
N17775 X-0.2777
N17780 X-0.2784 Y-0.0877
N17785 X-0.2785
N17790 X-0.2793 Y-0.0879
N17795 X-0.2794
N17800 X-0.2801 Y-0.088
N17805 X-0.2802
N17810 X-0.2809 Y-0.0881
N17815 X-0.281
N17820 X-0.2817 Y-0.0882
N17825 X-0.2818
N17830 X-0.2825 Y-0.0883
N17835 X-0.2826
N17840 X-0.2833 Y-0.0884
N17845 X-0.2834
N17850 X-0.2841 Y-0.0885
N17855 X-0.2849
N17860 G2 X-0.2855 I-0.0003 J0.0036
N17865 G1 X-0.2863
N17870 X-0.287 Y-0.0884
N17875 X-0.2871
N17880 X-0.2878 Y-0.0883
N17885 X-0.2886 Y-0.0882
N17890 X-0.2894 Y-0.0881
N17895 X-0.2895
N17900 X-0.2902 Y-0.088
N17905 X-0.2903
N17910 X-0.291 Y-0.0879
N17915 X-0.2911
N17920 X-0.2918 Y-0.0877
N17925 X-0.2919
N17930 X-0.2926 Y-0.0875
N17935 X-0.2928
N17940 X-0.293 Y-0.0874
N17945 G0 Z0.1
N17950 Y-0.0875
N17955 Z0.05
N17960 G1 Z-0.01 F5.
N17965 X-0.2927 Y-0.0876 F7.5
N17970 X-0.2921 Y-0.0878
N17975 X-0.2915 Y-0.0879
N17980 X-0.2909 Y-0.088
N17985 X-0.2903 Y-0.0881
N17990 X-0.2897 Y-0.0882
N17995 X-0.289 Y-0.0883
N18000 X-0.2884
N18005 X-0.2877 Y-0.0884
N18010 X-0.287 Y-0.0885
N18015 X-0.2864
N18020 X-0.2857
N18025 X-0.2852 Y-0.0886
N18030 X-0.2847 Y-0.0885
N18035 X-0.284
N18040 X-0.2834
N18045 X-0.2827 Y-0.0884
N18050 X-0.2821
N18055 X-0.2815 Y-0.0883
N18060 X-0.2808 Y-0.0882
N18065 X-0.2802 Y-0.0881
N18070 X-0.2797
N18075 X-0.2791 Y-0.088
N18080 X-0.2785 Y-0.0878
N18085 X-0.278 Y-0.0877
N18090 X-0.2774 Y-0.0876
N18095 X-0.2769 Y-0.0874
N18100 X-0.2763 Y-0.0872
N18105 X-0.2758 Y-0.087
N18110 X-0.2752 Y-0.0868
N18115 X-0.2746 Y-0.0866
N18120 X-0.2741 Y-0.0863
N18125 X-0.2735 Y-0.0861
N18130 X-0.2729 Y-0.0858
N18135 X-0.2723 Y-0.0855
N18140 X-0.2717 Y-0.0853
N18145 X-0.2713 Y-0.0851
N18150 X-0.2709 Y-0.0848
N18155 X-0.2704 Y-0.0845
N18160 X-0.2698 Y-0.0841
N18165 X-0.2693 Y-0.0837
N18170 X-0.2688 Y-0.0834
N18175 X-0.2683 Y-0.083
N18180 X-0.2678 Y-0.0826
N18185 X-0.2673 Y-0.0823
N18190 X-0.2669 Y-0.0819
N18195 X-0.2664 Y-0.0815
N18200 X-0.266 Y-0.0811
N18205 X-0.2656 Y-0.0807
N18210 X-0.2653 Y-0.0803
N18215 X-0.2649 Y-0.0799
N18220 X-0.2646 Y-0.0795
N18225 X-0.2642 Y-0.079
N18230 X-0.2639 Y-0.0785
N18235 X-0.2635 Y-0.078
N18240 X-0.2632 Y-0.0775
N18245 X-0.2628 Y-0.077
N18250 X-0.2625 Y-0.0764
N18255 X-0.2621 Y-0.0758
N18260 X-0.2618 Y-0.0753
N18265 X-0.2616 Y-0.0749
N18270 X-0.2614 Y-0.0744
N18275 X-0.2611 Y-0.0737
N18280 X-0.2608 Y-0.073
N18285 X-0.2605 Y-0.0724
N18290 X-0.2602 Y-0.0717
N18295 X-0.26 Y-0.071
N18300 X-0.2598 Y-0.0704
N18305 X-0.2595 Y-0.0697
N18310 X-0.2593 Y-0.0691
N18315 X-0.2591 Y-0.0685
N18320 X-0.259 Y-0.0678
N18325 X-0.2588 Y-0.0672
N18330 X-0.2587 Y-0.0666
N18335 X-0.2586 Y-0.0659
N18340 X-0.2585 Y-0.0653
N18345 X-0.2584 Y-0.0646
N18350 X-0.2583 Y-0.0639
N18355 X-0.2582 Y-0.0632
N18360 Y-0.0625
N18365 X-0.2581 Y-0.0618
N18370 Y-0.0611
N18375 Y-0.0603
N18380 X-0.258 Y-0.0596
N18385 Y-0.059
N18390 Y-0.0584
N18395 X-0.2581 Y-0.0577
N18400 Y-0.057
N18405 Y-0.0562
N18410 X-0.2582 Y-0.0555
N18415 Y-0.0548
N18420 X-0.2583 Y-0.0541
N18425 X-0.2584 Y-0.0535
N18430 X-0.2585 Y-0.0528
N18435 X-0.2586 Y-0.0522
N18440 X-0.2587 Y-0.0515
N18445 X-0.2588 Y-0.0509
N18450 X-0.2589 Y-0.0503
N18455 X-0.2591 Y-0.0497
N18460 X-0.2593 Y-0.049
N18465 X-0.2595 Y-0.0484
N18470 X-0.2597 Y-0.0478
N18475 X-0.2599 Y-0.0471
N18480 X-0.2601 Y-0.0465
N18485 X-0.2604 Y-0.0458
N18490 X-0.2607 Y-0.0451
N18495 X-0.2609 Y-0.0445
N18500 X-0.2612 Y-0.0438
N18505 X-0.2614 Y-0.0433
N18510 X-0.2616 Y-0.0429
N18515 X-0.262 Y-0.0424
N18520 X-0.2623 Y-0.0418
N18525 X-0.2626 Y-0.0412
N18530 X-0.263 Y-0.0407
N18535 X-0.2633 Y-0.0402
N18540 X-0.2636 Y-0.0397
N18545 X-0.264 Y-0.0392
N18550 X-0.2643 Y-0.0387
N18555 X-0.2647 Y-0.0382
N18560 X-0.265 Y-0.0378
N18565 X-0.2654 Y-0.0374
N18570 X-0.2658 Y-0.037
N18575 X-0.2661 Y-0.0366
N18580 X-0.2666 Y-0.0362
N18585 X-0.267 Y-0.0359
N18590 X-0.2675 Y-0.0355
N18595 X-0.2679 Y-0.0351
N18600 X-0.2684 Y-0.0347
N18605 X-0.2689 Y-0.0343
N18610 X-0.2695 Y-0.034
N18615 X-0.27 Y-0.0336
N18620 X-0.2705 Y-0.0332
N18625 X-0.2709 Y-0.033
N18630 X-0.2713 Y-0.0328
N18635 X-0.2719 Y-0.0324
N18640 X-0.2725 Y-0.0322
N18645 X-0.2731 Y-0.0319
N18650 X-0.2737 Y-0.0316
N18655 X-0.2743 Y-0.0313
N18660 X-0.2749 Y-0.0311
N18665 X-0.2755 Y-0.0308
N18670 X-0.276 Y-0.0306
N18675 X-0.2766 Y-0.0304
N18680 X-0.2771 Y-0.0303
N18685 X-0.2777 Y-0.0301
N18690 X-0.2783 Y-0.03
N18695 X-0.2788 Y-0.0298
N18700 X-0.2794 Y-0.0297
N18705 X-0.28 Y-0.0296
N18710 X-0.2806
N18715 X-0.2813 Y-0.0295
N18720 X-0.2819 Y-0.0294
N18725 X-0.2826
N18730 X-0.2832 Y-0.0293
N18735 X-0.2839
N18740 X-0.2846 Y-0.0292
N18745 X-0.2851
N18750 X-0.2859 Y-0.0293
N18755 X-0.2869
N18760 X-0.2879 Y-0.0294
N18765 X-0.2889 Y-0.0295
N18770 X-0.2898 Y-0.0297
N18775 X-0.2908 Y-0.0298
N18780 X-0.2917 Y-0.0299
N18785 X-0.2926 Y-0.0301
N18790 X-0.2935 Y-0.0303
N18795 X-0.2943 Y-0.0305
N18800 X-0.2951 Y-0.0308
N18805 X-0.2959 Y-0.0311
N18810 X-0.2966 Y-0.0314
N18815 X-0.2973 Y-0.0318
N18820 X-0.2981 Y-0.0322
N18825 X-0.2988 Y-0.0327
N18830 X-0.2996 Y-0.0331
N18835 X-0.3003 Y-0.0337
N18840 X-0.3011 Y-0.0342
N18845 X-0.3019 Y-0.0348
N18850 X-0.3026 Y-0.0355
N18855 X-0.3034 Y-0.0361
N18860 X-0.3042 Y-0.0368
N18865 X-0.3047 Y-0.0371
N18870 X-0.3051 Y-0.0377
N18875 X-0.3057 Y-0.0386
N18880 X-0.3064 Y-0.0395
N18885 X-0.307 Y-0.0404
N18890 X-0.3076 Y-0.0413
N18895 X-0.3081 Y-0.0422
N18900 X-0.3086 Y-0.0431
N18905 X-0.3091 Y-0.044
N18910 X-0.3096 Y-0.0448
N18915 X-0.31 Y-0.0457
N18920 X-0.3103 Y-0.0466
N18925 X-0.3107 Y-0.0475
N18930 X-0.3109 Y-0.0484
N18935 X-0.3112 Y-0.0493
N18940 X-0.3114 Y-0.0503
N18945 X-0.3116 Y-0.0512
N18950 X-0.3117 Y-0.0523
N18955 X-0.3119 Y-0.0533
N18960 X-0.312 Y-0.0544
N18965 X-0.3121 Y-0.0554
N18970 Y-0.0565
N18975 X-0.3122 Y-0.0576
N18980 X-0.3123 Y-0.0588
N18985 Y-0.0597
N18990 Y-0.0602
N18995 X-0.3122 Y-0.0609
N19000 Y-0.0616
N19005 Y-0.0623
N19010 X-0.3121 Y-0.0629
N19015 X-0.312 Y-0.0636
N19020 Y-0.0642
N19025 X-0.3119 Y-0.0648
N19030 X-0.3118 Y-0.0654
N19035 X-0.3117 Y-0.066
N19040 X-0.3116 Y-0.0666
N19045 X-0.3115 Y-0.0672
N19050 X-0.3114 Y-0.0678
N19055 X-0.3112 Y-0.0683
N19060 X-0.311 Y-0.0689
N19065 X-0.3108 Y-0.0695
N19070 X-0.3106 Y-0.0701
N19075 X-0.3104 Y-0.0707
N19080 X-0.3102 Y-0.0713
N19085 X-0.3099 Y-0.0719
N19090 X-0.3097 Y-0.0725
N19095 X-0.3094 Y-0.0731
N19100 X-0.3092 Y-0.0738
N19105 X-0.309 Y-0.0742
N19110 X-0.3088 Y-0.0746
N19115 X-0.3084 Y-0.0752
N19120 X-0.3081 Y-0.0758
N19125 X-0.3078 Y-0.0763
N19130 X-0.3074 Y-0.0769
N19135 X-0.3071 Y-0.0774
N19140 X-0.3068 Y-0.0779
N19145 X-0.3064 Y-0.0784
N19150 X-0.3061 Y-0.0789
N19155 X-0.3057 Y-0.0793
N19160 X-0.3054 Y-0.0798
N19165 X-0.305 Y-0.0802
N19170 X-0.3046 Y-0.0806
N19175 X-0.3042 Y-0.081
N19180 X-0.3038 Y-0.0814
N19185 X-0.3034 Y-0.0817
N19190 X-0.3029 Y-0.0821
N19195 X-0.3025 Y-0.0825
N19200 X-0.302 Y-0.0829
N19205 X-0.3015 Y-0.0833
N19210 X-0.3009 Y-0.0837
N19215 X-0.3004 Y-0.0841
N19220 X-0.2999 Y-0.0845
N19225 X-0.2995 Y-0.0847
N19230 X-0.2991 Y-0.0849
N19235 X-0.2985 Y-0.0852
N19240 X-0.2979 Y-0.0855
N19245 X-0.2973 Y-0.0858
N19250 X-0.2967 Y-0.0861
N19255 X-0.2961 Y-0.0864
N19260 X-0.2955 Y-0.0866
N19265 X-0.2949 Y-0.0869
N19270 X-0.2943 Y-0.0871
N19275 X-0.2938 Y-0.0873
N19280 X-0.2932 Y-0.0875
N19285 X-0.293
N19290 G0 Z0.1
N19295 X-0.2683 Y-0.3343
N19300 Z0.05
N19305 G1 Z0. F5.
N19310 X-0.2647 Y-0.3307 Z-0.01 F7.5
N19315 Y-0.3303
N19320 X-0.2683 Y-0.3267 Z0.
N19325 X-0.2647 Y-0.3303 Z-0.01
N19330 X-0.2209
N19335 X-0.2173 Y-0.3267 Z0.
N19340 X-0.2209 Y-0.3303 Z-0.01
N19345 Y-0.3307
N19350 X-0.2173 Y-0.3343 Z0.
N19355 X-0.2209 Y-0.3307 Z-0.01
N19360 X-0.2386
N19365 G3 X-0.2422 Y-0.3343 I0. J-0.0036
N19370 G1 Y-0.3875
N19375 X-0.2386 Y-0.3911 Z0.
N19380 X-0.2422 Y-0.3875 Z-0.01
N19385 X-0.2435
N19390 X-0.2471 Y-0.3911 Z0.
N19395 X-0.2435 Y-0.3875 Z-0.01
N19400 Y-0.3343
N19405 G3 X-0.2471 Y-0.3307 I-0.0036 J0.
N19410 G1 X-0.2647
N19415 G0 Z0.1
N19420 X-0.2655 Y-0.1911
N19425 Z0.05
N19430 G1 Z0. F5.
N19435 X-0.2619 Y-0.1874 Z-0.01 F7.5
N19440 Y-0.1303
N19445 X-0.2655 Y-0.1267 Z0.
N19450 X-0.2619 Y-0.1303 Z-0.01
N19455 X-0.2581
N19460 G3 X-0.2606 Y-0.1338 I0.0011 J-0.0035
N19465 G1 Y-0.1551
N19470 G3 X-0.257 Y-0.1587 I0.0036 J0.
N19475 G1 X-0.2387
N19480 X-0.2386
N19485 X-0.2382
N19490 X-0.2378
N19495 X-0.2374
N19500 X-0.237
N19505 X-0.2366
N19510 X-0.2362
N19515 X-0.2358
N19520 X-0.2354 Y-0.1586
N19525 X-0.2353
N19530 X-0.2349
N19535 X-0.2345
N19540 X-0.2341 Y-0.1585
N19545 X-0.234
N19550 X-0.2338
N19555 G3 X-0.2358 Y-0.162 I0.0016 J-0.0033
N19560 G1 Y-0.1619
N19565 X-0.2359
N19570 X-0.2361 Y-0.1618
N19575 X-0.2363 Y-0.1616
N19580 G3 X-0.2366 Y-0.1614 I-0.0022 J-0.0029
N19585 G1 X-0.2369 Y-0.1612
N19590 X-0.2371 Y-0.1611
N19595 X-0.2372 Y-0.161
N19600 X-0.2373
N19605 X-0.2374 Y-0.1609
N19610 X-0.2376 Y-0.1608
N19615 X-0.2378 Y-0.1607
N19620 X-0.238 Y-0.1606
N19625 X-0.2382 Y-0.1605
N19630 Y-0.1604
N19635 X-0.2384
N19640 Y-0.1603
N19645 X-0.2386
N19650 X-0.2387 Y-0.1602
N19655 X-0.2388
N19660 X-0.2389 Y-0.1601
N19665 X-0.2391
N19670 Y-0.16
N19675 X-0.2393
N19680 Y-0.1599
N19685 X-0.2395
N19690 X-0.2396 Y-0.1598
N19695 X-0.2397
N19700 X-0.2398
N19705 X-0.2399 Y-0.1597
N19710 X-0.24
N19715 X-0.2402 Y-0.1596
N19720 X-0.2404
N19725 X-0.2406 Y-0.1595
N19730 X-0.2408 Y-0.1594
N19735 X-0.241
N19740 X-0.2411 Y-0.1593
N19745 X-0.2413
N19750 G3 X-0.2418 Y-0.1592 I-0.001 J-0.0035
N19755 G1 X-0.242 Y-0.1591
N19760 X-0.2422
N19765 X-0.2423
N19770 X-0.2425
N19775 X-0.2427
N19780 X-0.2429 Y-0.159
N19785 X-0.2431
N19790 X-0.2433
N19795 X-0.2435
N19800 X-0.2436
N19805 X-0.2438 Y-0.1589
N19810 X-0.244
N19815 X-0.2441
N19820 X-0.2443
N19825 X-0.2445
N19830 X-0.2447
N19835 X-0.2448
N19840 X-0.245
N19845 X-0.2452 Y-0.1588
N19850 X-0.2454
N19855 X-0.2456
N19860 X-0.2458
N19865 X-0.2459
N19870 X-0.2461
N19875 X-0.2463
N19880 X-0.2465
N19885 X-0.2467
N19890 X-0.257
N19895 G3 X-0.2606 Y-0.1625 I0. J-0.0036
N19900 G1 Y-0.1874
N19905 X-0.2619
N19910 X-0.2606
N19915 X-0.257 Y-0.1911 Z0.
N19920 X-0.2606 Y-0.1874 Z-0.01
N19925 Y-0.1625
N19930 G2 X-0.257 Y-0.1588 I0.0036 J0.
N19935 G1 X-0.2467
N19940 X-0.2465
N19945 X-0.2463
N19950 X-0.2461
N19955 X-0.2459
N19960 X-0.2458
N19965 X-0.2456
N19970 X-0.2454
N19975 X-0.2452
N19980 X-0.245 Y-0.1589
N19985 X-0.2448
N19990 X-0.2447
N19995 X-0.2445
N20000 X-0.2443
N20005 X-0.2441
N20010 X-0.244
N20015 X-0.2438
N20020 X-0.2436 Y-0.159
N20025 X-0.2435
N20030 X-0.2433
N20035 X-0.2431
N20040 X-0.2429
N20045 X-0.2427 Y-0.1591
N20050 X-0.2425
N20055 X-0.2423
N20060 X-0.2422
N20065 X-0.242
N20070 X-0.2418 Y-0.1592
N20075 G2 X-0.2413 Y-0.1593 I-0.0005 J-0.0036
N20080 G1 X-0.2411
N20085 X-0.241 Y-0.1594
N20090 X-0.2408
N20095 X-0.2406 Y-0.1595
N20100 X-0.2404 Y-0.1596
N20105 X-0.2402
N20110 X-0.24 Y-0.1597
N20115 X-0.2399
N20120 X-0.2398 Y-0.1598
N20125 X-0.2397
N20130 X-0.2396
N20135 X-0.2395 Y-0.1599
N20140 X-0.2393
N20145 Y-0.16
N20150 X-0.2391
N20155 Y-0.1601
N20160 X-0.2389
N20165 X-0.2388 Y-0.1602
N20170 X-0.2387
N20175 X-0.2386 Y-0.1603
N20180 X-0.2384
N20185 Y-0.1604
N20190 X-0.2382
N20195 Y-0.1605
N20200 X-0.238 Y-0.1606
N20205 X-0.2378 Y-0.1607
N20210 X-0.2376 Y-0.1608
N20215 X-0.2374 Y-0.1609
N20220 X-0.2373 Y-0.161
N20225 X-0.2372
N20230 X-0.2371 Y-0.1611
N20235 X-0.2369 Y-0.1612
N20240 X-0.2366 Y-0.1614
N20245 G2 X-0.2363 Y-0.1616 I-0.0019 J-0.0031
N20250 G1 X-0.2361 Y-0.1618
N20255 X-0.2359 Y-0.1619
N20260 X-0.2358
N20265 Y-0.162
N20270 X-0.2357 Y-0.1622 Z-0.0098
N20275 X-0.2352 Y-0.1629 Z-0.009
N20280 X-0.2348 Y-0.1634 Z-0.0086
N20285 X-0.2344 Y-0.1638 Z-0.0085
N20290 X-0.234 Y-0.1643
N20295 X-0.2335 Y-0.1647 Z-0.0087
N20300 X-0.2316 Y-0.1662 Z-0.01
N20305 X-0.2315
N20310 X-0.2314 Y-0.1663
N20315 X-0.2312 Y-0.1664
N20320 X-0.2311 Y-0.1665
N20325 X-0.2309 Y-0.1666
N20330 X-0.2307 Y-0.1667
N20335 X-0.2306 Y-0.1668
N20340 X-0.2304 Y-0.167
N20345 X-0.2302 Y-0.1671
N20350 X-0.23 Y-0.1672
N20355 X-0.2298 Y-0.1674
N20360 X-0.2296 Y-0.1675
N20365 X-0.2295 Y-0.1677
N20370 X-0.2294
N20375 X-0.2293 Y-0.1679
N20380 X-0.2289 Y-0.1682
N20385 X-0.2286 Y-0.1685
N20390 X-0.2283 Y-0.1688
N20395 X-0.228 Y-0.1692
N20400 X-0.2277 Y-0.1695
N20405 X-0.2274 Y-0.1698
N20410 X-0.2271 Y-0.1701
N20415 X-0.2268 Y-0.1704
N20420 X-0.2265 Y-0.1707
N20425 X-0.2263 Y-0.171
N20430 X-0.226 Y-0.1713
N20435 X-0.2258 Y-0.1717
N20440 X-0.2255 Y-0.172
N20445 X-0.2252 Y-0.1723
N20450 X-0.225 Y-0.1727
N20455 X-0.2247 Y-0.173
N20460 X-0.2245 Y-0.1734
N20465 X-0.2242 Y-0.1737
N20470 X-0.224 Y-0.1741
N20475 X-0.2237 Y-0.1745
N20480 X-0.2235 Y-0.1748
N20485 X-0.2232 Y-0.1752
N20490 X-0.223 Y-0.1755
N20495 X-0.2154 Y-0.1874
N20500 X-0.2088 Y-0.1911 Z0.
N20505 X-0.2154 Y-0.1874 Z-0.01
N20510 X-0.2175
N20515 X-0.2194 Y-0.1911 Z0.
N20520 X-0.2175 Y-0.1874 Z-0.01
N20525 X-0.2249 Y-0.1757
N20530 X-0.2252 Y-0.1753
N20535 X-0.2254 Y-0.1749
N20540 X-0.2257 Y-0.1746
N20545 X-0.2259 Y-0.1742
N20550 X-0.2262 Y-0.1738
N20555 X-0.2264 Y-0.1734
N20560 X-0.2267 Y-0.173
N20565 X-0.2269 Y-0.1726
N20570 X-0.2272 Y-0.1723
N20575 Y-0.1722
N20580 X-0.2274 Y-0.1719
N20585 X-0.2277 Y-0.1715
N20590 X-0.228 Y-0.1711
N20595 X-0.2282 Y-0.1707
N20600 X-0.2285 Y-0.1703
N20605 X-0.2288 Y-0.17
N20610 Y-0.1699
N20615 X-0.229 Y-0.1696
N20620 X-0.2293 Y-0.1692
N20625 X-0.2296 Y-0.1688
N20630 X-0.2299 Y-0.1684
N20635 X-0.2301 Y-0.1681
N20640 X-0.2304 Y-0.1677
N20645 X-0.2307 Y-0.1673
N20650 X-0.2309 Y-0.167
N20655 X-0.2312 Y-0.1666
N20660 X-0.2313 Y-0.1665
N20665 X-0.2315 Y-0.1663
N20670 X-0.2316 Y-0.1662
N20675 G0 Z0.1
N20680 X-0.2581 Y-0.1303
N20685 Z0.05
N20690 G1 Z-0.01 F5.
N20695 X-0.257 Y-0.1302 Z-0.0098 F7.5
N20700 X-0.237
N20705 X-0.2366
N20710 X-0.2337 Y-0.1303
N20715 X-0.2316 Y-0.1305 Z-0.01
N20720 X-0.2314
N20725 X-0.2312
N20730 X-0.2308 Y-0.1306
N20735 X-0.2307 Y-0.1307
N20740 X-0.2302 Y-0.1308
N20745 X-0.2301
N20750 X-0.2296 Y-0.1309
N20755 X-0.2295 Y-0.131
N20760 X-0.2291 Y-0.1311
N20765 X-0.2289 Y-0.1312
N20770 X-0.2285 Y-0.1313
N20775 X-0.2284 Y-0.1314
N20780 X-0.2279 Y-0.1316
N20785 X-0.2278
N20790 X-0.2274 Y-0.1318
N20795 X-0.2273
N20800 X-0.2269 Y-0.1321
N20805 X-0.2268
N20810 X-0.2264 Y-0.1323
N20815 Y-0.1324
N20820 X-0.2259 Y-0.1326
N20825 X-0.2255 Y-0.1328
N20830 Y-0.1329
N20835 X-0.2251 Y-0.1331
N20840 X-0.225
N20845 X-0.2246 Y-0.1334
N20850 X-0.2242 Y-0.1336
N20855 G2 X-0.2235 Y-0.1342 I-0.0019 J-0.0031
N20860 G1 X-0.2232 Y-0.1345
N20865 X-0.223 Y-0.1348
N20870 X-0.2229
N20875 X-0.2227 Y-0.1351
N20880 X-0.2224 Y-0.1354
N20885 X-0.2222 Y-0.1357
N20890 X-0.2221 Y-0.1358
N20895 X-0.2219 Y-0.136
N20900 X-0.2218 Y-0.1361
N20905 X-0.2216 Y-0.1364
N20910 X-0.2215 Y-0.1365
N20915 X-0.2213 Y-0.1368
N20920 Y-0.1369
N20925 X-0.2211 Y-0.1372
N20930 X-0.221 Y-0.1373
N20935 X-0.2208 Y-0.1376
N20940 X-0.2207 Y-0.1378
N20945 X-0.2206 Y-0.1381
N20950 X-0.2205 Y-0.1382
N20955 X-0.2203 Y-0.1385
N20960 Y-0.1387
N20965 X-0.2201 Y-0.139
N20970 Y-0.1392
N20975 X-0.2199 Y-0.1395
N20980 Y-0.1397
N20985 X-0.2198 Y-0.14
N20990 X-0.2197 Y-0.1402
N20995 Y-0.1405
N21000 X-0.2196 Y-0.1406
N21005 Y-0.141
N21010 X-0.2195 Y-0.1411
N21015 Y-0.1414
N21020 Y-0.1415
N21025 X-0.2194 Y-0.1419
N21030 X-0.2193 Y-0.1423
N21035 Y-0.1424
N21040 Y-0.1427
N21045 Y-0.1428
N21050 X-0.2192 Y-0.1431
N21055 Y-0.1432
N21060 Y-0.1435
N21065 Y-0.1439
N21070 G2 Y-0.1445 I-0.0036 J-0.0003
N21075 G1 Y-0.1447
N21080 Y-0.1448
N21085 Y-0.145
N21090 Y-0.1453
N21095 X-0.2193 Y-0.1456
N21100 Y-0.1459
N21105 Y-0.1462
N21110 Y-0.1463
N21115 X-0.2194 Y-0.1465
N21120 Y-0.1466
N21125 Y-0.1468
N21130 Y-0.1469
N21135 X-0.2195 Y-0.1472
N21140 Y-0.1473
N21145 Y-0.1475
N21150 X-0.2196 Y-0.1476
N21155 Y-0.1479
N21160 X-0.2197 Y-0.148
N21165 Y-0.1482
N21170 X-0.2198 Y-0.1484
N21175 Y-0.1486
N21180 X-0.2199 Y-0.1487
N21185 X-0.22 Y-0.1489
N21190 Y-0.149
N21195 X-0.2201 Y-0.1493
N21200 Y-0.1494
N21205 X-0.2202 Y-0.1496
N21210 X-0.2203 Y-0.1497
N21215 X-0.2204 Y-0.1499
N21220 Y-0.15
N21225 X-0.2205 Y-0.1502
N21230 Y-0.1503
N21235 X-0.2206 Y-0.1505
N21240 X-0.2207 Y-0.1506
