%
(1001)
(ENGRAVING BIT 12K RPM 10 MINUTES)
(T4  D=0.125 CR=0. TAPER=20DEG - ZMIN=-0.012 - CHAMFER MILL)
N10 G90 G94 G17 G91.1
N15 G20
N20 G53 G0 Z0.
(ENGRAVE2)
N25 M9
N30 T4 M6
N35 S12000 M3
N40 G54
N45 M8
N55 G0 X0.0369 Y-0.1704
N60 G43 Z0.3 H4
N65 G0 Z0.05
N70 G1 Z0. F5.
N75 X0.0386 Y-0.1718 Z-0.0042 F7.5
N80 X0.0409 Y-0.1737 Z-0.01
N85 X0.042 Y-0.1736
N90 X0.0443 Y-0.1705 Z-0.0021
N95 X0.0449 Y-0.1697 Z0.
N100 X0.0443 Y-0.1705 Z-0.0021
N105 X0.042 Y-0.1736 Z-0.01
N110 Y-0.1737
N115 X0.0421 Y-0.174
N120 Y-0.1741
N125 X0.0422 Y-0.1745
N130 X0.0423 Y-0.1749
N135 Y-0.175
N140 X0.0425 Y-0.1753
N145 Y-0.1754
N150 X0.0426 Y-0.1757
N155 X0.0427 Y-0.1758
N160 X0.0428 Y-0.1761
N165 Y-0.1762
N170 X0.043 Y-0.1765
N175 Y-0.1766
N180 X0.0431 Y-0.1769
N185 X0.0432 Y-0.177
N190 X0.0433 Y-0.1773
N195 Y-0.1774
N200 X0.0435 Y-0.1777
N205 X0.0437 Y-0.178
N210 Y-0.1781
N215 X0.0438 Y-0.1784
N220 X0.0439
N225 X0.044 Y-0.1787
N230 X0.0442 Y-0.179
N235 Y-0.1791
N240 X0.0444 Y-0.1794
N245 G3 X0.0448 Y-0.18 I0.0032 J0.0017
N250 G1 X0.045 Y-0.1802
N255 Y-0.1803
N260 X0.0453 Y-0.1805
N265 X0.0455 Y-0.1808
N270 X0.0458 Y-0.1811
N275 X0.046 Y-0.1814
N280 X0.0461
N285 X0.0463 Y-0.1817
N290 X0.0466 Y-0.182
N295 X0.0469 Y-0.1823
N300 X0.0472 Y-0.1826
N305 X0.0473
N310 X0.0475 Y-0.1829
N315 X0.0476
N320 X0.0479 Y-0.1832
N325 X0.048
N330 X0.0482 Y-0.1834
N335 X0.0483 Y-0.1835
N340 X0.0486 Y-0.1837
N345 X0.0487 Y-0.1838
N350 X0.049 Y-0.184
N355 X0.0491
N360 X0.0493 Y-0.1842
N365 X0.0494 Y-0.1843
N370 X0.0497 Y-0.1844
N375 X0.0498 Y-0.1845
N380 X0.0501 Y-0.1847
N385 X0.0504 Y-0.1849
N390 X0.0505
N395 X0.0508 Y-0.1851
N400 X0.0511 Y-0.1852
N405 X0.0512 Y-0.1853
N410 X0.0515 Y-0.1854
N415 X0.0518 Y-0.1856
N420 X0.0522 Y-0.1857
N425 Y-0.1858
N430 X0.0525 Y-0.1859
N435 G3 X0.0529 Y-0.1861 I0.0016 J0.0033
N440 G1 X0.0533 Y-0.1862
N445 X0.0537 Y-0.1864
N450 X0.0541 Y-0.1865
N455 X0.0545 Y-0.1866
N460 Y-0.1867
N465 X0.0549 Y-0.1868
N470 X0.055
N475 X0.0554 Y-0.1869
N480 X0.0558 Y-0.1871
N485 X0.0559
N490 X0.0563 Y-0.1872
N495 X0.0567 Y-0.1873
N500 X0.0568
N505 X0.0572 Y-0.1874
N510 X0.0573 Y-0.1875
N515 X0.0577 Y-0.1876
N520 X0.0578
N525 X0.0582 Y-0.1877
N530 X0.0583
N535 X0.0587
N540 X0.0588 Y-0.1878
N545 X0.0592
N550 X0.0593
N555 X0.0597 Y-0.1879
N560 X0.0598
N565 X0.0602
N570 X0.0607 Y-0.188
N575 X0.0611
N580 X0.0612
N585 X0.0616 Y-0.1881
N590 X0.0621
N595 X0.0625
N600 X0.063
N605 X0.0634
N610 X0.0638 Y-0.1882
N615 X0.0641
N620 X0.0645
N625 X0.0648 Y-0.1881
N630 X0.0652
N635 X0.0656
N640 X0.066
N645 X0.0664
N650 X0.0668 Y-0.188
N655 X0.0672
N660 X0.0676
N665 X0.0677
N670 X0.068 Y-0.1879
N675 X0.0681
N680 X0.0685
N685 X0.0689 Y-0.1878
N690 X0.069
N695 X0.0693 Y-0.1877
N700 X0.0694
N705 X0.0698 Y-0.1876
N710 X0.0702 Y-0.1875
N715 X0.0703
N720 X0.0706 Y-0.1874
N725 X0.0707
N730 X0.071 Y-0.1873
N735 X0.0711
N740 X0.0714 Y-0.1872
N745 X0.0715
N750 X0.0718 Y-0.1871
N755 X0.0719
N760 X0.0722 Y-0.187
N765 X0.0726 Y-0.1869
N770 X0.073 Y-0.1868
N775 X0.0733 Y-0.1867
N780 X0.0737 Y-0.1865
N785 X0.074 Y-0.1864
N790 X0.0743 Y-0.1863
N795 X0.0746 Y-0.1862
N800 X0.0749 Y-0.1861
N805 Y-0.186
N810 X0.0751 Y-0.1859
N815 X0.0752
N820 X0.0754 Y-0.1858
N825 X0.0755
N830 X0.0758 Y-0.1856
N835 X0.0761 Y-0.1855
N840 Y-0.1854
N845 X0.0764 Y-0.1853
N850 X0.0767 Y-0.1851
N855 X0.0768
N860 X0.077 Y-0.1849
N865 X0.0771
N870 X0.0774 Y-0.1847
N875 X0.0777 Y-0.1845
N880 X0.0778 Y-0.1844
N885 X0.078 Y-0.1843
N890 X0.0781 Y-0.1842
N895 X0.0783 Y-0.184
N900 X0.0784
N905 X0.0786 Y-0.1838
N910 X0.0787 Y-0.1837
N915 X0.0789 Y-0.1835
N920 X0.079 Y-0.1834
N925 X0.0792 Y-0.1832
N930 X0.0793
N935 X0.0795 Y-0.183
N940 Y-0.1829
N945 X0.0797 Y-0.1827
N950 X0.0798
N955 X0.08 Y-0.1825
N960 X0.0802 Y-0.1822
N965 X0.0804 Y-0.182
N970 X0.0806 Y-0.1818
N975 X0.0808 Y-0.1815
N980 G3 X0.0812 Y-0.181 I-0.0027 J0.0024
N985 G1 X0.0813 Y-0.1808
N990 X0.0815 Y-0.1806
N995 X0.0816 Y-0.1804
N1000 X0.0818 Y-0.1801
N1005 X0.0819 Y-0.1799
N1010 Y-0.1798
N1015 X0.0821 Y-0.1796
N1020 X0.0822 Y-0.1793
N1025 X0.0823
N1030 X0.0824 Y-0.179
N1035 X0.0825 Y-0.1787
N1040 X0.0826 Y-0.1786
N1045 X0.0827 Y-0.1784
N1050 Y-0.1783
N1055 X0.0828 Y-0.1781
N1060 Y-0.178
N1065 X0.0829 Y-0.1777
N1070 X0.083 Y-0.1776
N1075 Y-0.1774
N1080 X0.0831 Y-0.1772
N1085 Y-0.177
N1090 X0.0832 Y-0.1769
N1095 Y-0.1766
N1100 X0.0833 Y-0.1765
N1105 Y-0.1763
N1110 Y-0.1762
N1115 X0.0834 Y-0.1759
N1120 Y-0.1756
N1125 X0.0835 Y-0.1753
N1130 Y-0.1752
N1135 Y-0.175
N1140 Y-0.1747
N1145 Y-0.1744
N1150 X0.0836
N1155 Y-0.1741
N1160 Y-0.1739
N1165 G3 Y-0.1733 I-0.0036 J0.0003
N1170 G1 Y-0.1731
N1175 Y-0.1728
N1180 X0.0835 Y-0.1726
N1185 Y-0.1725
N1190 Y-0.1723
N1195 Y-0.172
N1200 Y-0.1717
N1205 X0.0834 Y-0.1716
N1210 Y-0.1714
N1215 Y-0.1713
N1220 Y-0.1711
N1225 X0.0833 Y-0.171
N1230 Y-0.1708
N1235 Y-0.1707
N1240 X0.0832 Y-0.1704
N1245 Y-0.1703
N1250 X0.0831 Y-0.1701
N1255 Y-0.1699
N1260 X0.083 Y-0.1697
N1265 Y-0.1696
N1270 X0.0829 Y-0.1694
N1275 X0.0828 Y-0.1692
N1280 Y-0.169
N1285 X0.0827 Y-0.1689
N1290 X0.0826 Y-0.1687
N1295 Y-0.1686
N1300 X0.0825 Y-0.1684
N1305 X0.0824 Y-0.1683
N1310 X0.0823 Y-0.1681
N1315 Y-0.168
N1320 X0.0822 Y-0.1678
N1325 X0.0821 Y-0.1677
N1330 X0.082 Y-0.1675
N1335 Y-0.1674
N1340 X0.0818 Y-0.1672
N1345 X0.0817 Y-0.167
N1350 X0.0815 Y-0.1668
N1355 Y-0.1667
N1360 X0.0814 Y-0.1665
N1365 X0.0813 Y-0.1663
N1370 G3 X0.0808 Y-0.1658 I-0.0031 J-0.002
N1375 G1 X0.0806 Y-0.1655
N1380 X0.0804 Y-0.1653
N1385 X0.0802 Y-0.1651
N1390 X0.0801
N1395 X0.0799 Y-0.1649
N1400 Y-0.1648
N1405 X0.0797 Y-0.1646
N1410 X0.0796
N1415 X0.0794 Y-0.1644
N1420 X0.0792 Y-0.1642
N1425 X0.0791 Y-0.1641
N1430 X0.0789 Y-0.1639
N1435 X0.0788
N1440 X0.0786 Y-0.1637
N1445 X0.0785 Y-0.1636
N1450 X0.0783 Y-0.1634
N1455 X0.0782
N1460 X0.0779 Y-0.1632
N1465 X0.0778 Y-0.1631
N1470 X0.0776 Y-0.163
N1475 X0.0775 Y-0.1629
N1480 X0.0772 Y-0.1628
N1485 Y-0.1627
N1490 X0.0769 Y-0.1626
N1495 X0.0768 Y-0.1625
N1500 X0.0766 Y-0.1624
N1505 X0.0765 Y-0.1623
N1510 X0.0762 Y-0.1622
N1515 X0.0759 Y-0.162
N1520 X0.0756 Y-0.1619
N1525 X0.0755
N1530 X0.0753 Y-0.1617
N1535 X0.0752
N1540 X0.075 Y-0.1616
N1545 X0.0749
N1550 X0.0747 Y-0.1615
N1555 X0.0746
N1560 X0.0744 Y-0.1614
N1565 X0.0743 Y-0.1613
N1570 X0.0741 Y-0.1612
N1575 X0.0738 Y-0.1611
N1580 X0.0735 Y-0.161
N1585 X0.073 Y-0.1609
N1590 X0.0726 Y-0.1607
N1595 X0.0721 Y-0.1606
N1600 X0.0716 Y-0.1604
N1605 X0.0711 Y-0.1603
N1610 X0.0706 Y-0.1601
N1615 X0.0701 Y-0.16
N1620 X0.0697 Y-0.1598
N1625 X0.0696
N1630 X0.0692 Y-0.1597
N1635 X0.0691
N1640 X0.0687 Y-0.1595
N1645 X0.0686
N1650 X0.0682 Y-0.1594
N1655 X0.0681
N1660 X0.0677 Y-0.1593
N1665 X0.0676
N1670 X0.0672 Y-0.1591
N1675 X0.0671
N1680 X0.0667 Y-0.159
N1685 X0.0662 Y-0.1589
N1690 X0.0657 Y-0.1588
N1695 X0.0652 Y-0.1586
N1700 X0.0647 Y-0.1585
N1705 X0.0642 Y-0.1584
N1710 X0.0637 Y-0.1583
N1715 X0.0632 Y-0.1582
N1720 X0.0627 Y-0.158
N1725 X0.0618 Y-0.1578
N1730 X0.0613 Y-0.1577
N1735 X0.0607 Y-0.1576
N1740 X0.0602 Y-0.1574
N1745 X0.0597 Y-0.1573
N1750 X0.0592 Y-0.1572
N1755 X0.0587 Y-0.1571
N1760 X0.0582 Y-0.1569
N1765 X0.0577 Y-0.1568
N1770 X0.0572 Y-0.1566
N1775 X0.0567 Y-0.1565
N1780 X0.0562 Y-0.1564
N1785 X0.0557 Y-0.1562
N1790 X0.0552 Y-0.1561
N1795 X0.0548 Y-0.1559
N1800 X0.0543 Y-0.1557
N1805 X0.0538 Y-0.1556
N1810 X0.0533 Y-0.1554
N1815 X0.0529 Y-0.1552
N1820 X0.0524 Y-0.155
N1825 X0.0519 Y-0.1548
N1830 X0.0514 Y-0.1546
N1835 X0.0509 Y-0.1544
N1840 X0.0504 Y-0.1542
N1845 X0.0501 Y-0.1541
N1850 X0.05 Y-0.154
N1855 X0.0497 Y-0.1538
N1860 X0.0494 Y-0.1536
N1865 X0.049 Y-0.1534
N1870 X0.0488 Y-0.1532
N1875 X0.0485 Y-0.1531
N1880 X0.0482 Y-0.1529
N1885 X0.0479 Y-0.1527
N1890 X0.0477 Y-0.1525
N1895 X0.0475 Y-0.1524
N1900 X0.0472 Y-0.1522
N1905 X0.047 Y-0.152
N1910 X0.0468 Y-0.1518
N1915 X0.0466 Y-0.1517
N1920 X0.0464 Y-0.1515
N1925 X0.0462 Y-0.1512
N1930 X0.046 Y-0.151
N1935 X0.0458 Y-0.1508
N1940 X0.0456 Y-0.1505
N1945 X0.0454 Y-0.1503
N1950 X0.0452 Y-0.15
N1955 X0.0449 Y-0.1497
N1960 X0.0447 Y-0.1494
N1965 Y-0.1493
N1970 X0.0445 Y-0.149
N1975 X0.0444 Y-0.1488
N1980 X0.0442 Y-0.1485
N1985 X0.0441 Y-0.1482
N1990 X0.044 Y-0.1479
N1995 X0.0438 Y-0.1477
N2000 X0.0437 Y-0.1474
N2005 X0.0436 Y-0.1472
N2010 Y-0.147
N2015 X0.0435 Y-0.1467
N2020 X0.0434 Y-0.1465
N2025 Y-0.1463
N2030 X0.0433 Y-0.1461
N2035 Y-0.1458
N2040 X0.0432 Y-0.1456
N2045 Y-0.1453
N2050 X0.0431 Y-0.145
N2055 Y-0.1447
N2060 Y-0.1444
N2065 Y-0.1441
N2070 X0.043 Y-0.1438
N2075 Y-0.1434
N2080 Y-0.1433
N2085 Y-0.1432
N2090 X0.0431 Y-0.1428
N2095 Y-0.1424
N2100 Y-0.142
N2105 X0.0432 Y-0.1417
N2110 Y-0.1414
N2115 Y-0.141
N2120 X0.0433 Y-0.1407
N2125 Y-0.1404
N2130 X0.0434 Y-0.1401
N2135 X0.0435 Y-0.1399
N2140 Y-0.1396
N2145 X0.0436 Y-0.1394
N2150 X0.0437 Y-0.1391
N2155 X0.0438 Y-0.1388
N2160 X0.044 Y-0.1385
N2165 X0.0441 Y-0.1383
N2170 X0.0442 Y-0.138
N2175 X0.0444 Y-0.1377
N2180 X0.0446 Y-0.1373
N2185 X0.0447 Y-0.137
N2190 X0.0449 Y-0.1367
N2195 X0.0451 Y-0.1363
N2200 X0.0452 Y-0.1362
N2205 X0.0453 Y-0.1361
N2210 X0.0455 Y-0.1358
N2215 X0.0458 Y-0.1355
N2220 X0.046 Y-0.1351
N2225 X0.0463 Y-0.1349
N2230 X0.0465 Y-0.1346
N2235 X0.0468 Y-0.1343
N2240 X0.047 Y-0.1341
N2245 X0.0472 Y-0.1338
N2250 X0.0475 Y-0.1336
N2255 X0.0477 Y-0.1334
N2260 X0.0479 Y-0.1332
N2265 X0.0482 Y-0.133
N2270 X0.0484 Y-0.1328
N2275 X0.0487 Y-0.1327
N2280 X0.049 Y-0.1325
N2285 X0.0493 Y-0.1323
N2290 X0.0496 Y-0.1321
N2295 X0.0499 Y-0.1319
N2300 X0.0503 Y-0.1318
N2305 X0.0506 Y-0.1316
N2310 X0.051 Y-0.1314
N2315 X0.0514 Y-0.1312
N2320 X0.0516 Y-0.1311
N2325 X0.0519 Y-0.131
N2330 X0.0523 Y-0.1309
N2335 X0.0528 Y-0.1307
N2340 X0.0533 Y-0.1306
N2345 X0.0537 Y-0.1304
N2350 X0.0542 Y-0.1303
N2355 X0.0546 Y-0.1301
N2360 X0.055 Y-0.13
N2365 X0.0554 Y-0.1299
N2370 X0.0559 Y-0.1298
N2375 X0.0563 Y-0.1297
N2380 X0.0567 Y-0.1296
N2385 X0.0571
N2390 X0.0575 Y-0.1295
N2395 X0.0579
N2400 X0.0584 Y-0.1294
N2405 X0.0588
N2410 X0.0593 Y-0.1293
N2415 X0.0597
N2420 X0.0602
N2425 X0.0607 Y-0.1292
N2430 X0.0612
N2435 X0.0617
N2440 X0.062
N2445 X0.0624
N2450 X0.063
N2455 X0.0635
N2460 X0.064 Y-0.1293
N2465 X0.0645
N2470 X0.065
N2475 X0.0655 Y-0.1294
N2480 X0.066
N2485 X0.0665 Y-0.1295
N2490 X0.0669
N2495 X0.0674 Y-0.1296
N2500 X0.0678 Y-0.1297
N2505 X0.0683
N2510 X0.0687 Y-0.1298
N2515 X0.0691 Y-0.1299
N2520 X0.0696 Y-0.1301
N2525 X0.0701 Y-0.1302
N2530 X0.0705 Y-0.1303
N2535 X0.071 Y-0.1305
N2540 X0.0715 Y-0.1306
N2545 X0.072 Y-0.1308
N2550 X0.0724 Y-0.131
N2555 X0.0729 Y-0.1311
N2560 X0.0732 Y-0.1312
N2565 X0.0735 Y-0.1314
N2570 X0.0739 Y-0.1316
N2575 X0.0743 Y-0.1317
N2580 X0.0746 Y-0.1319
N2585 X0.075 Y-0.1321
N2590 X0.0753 Y-0.1323
N2595 X0.0757 Y-0.1325
N2600 X0.076 Y-0.1327
N2605 X0.0763 Y-0.1329
N2610 X0.0766 Y-0.1331
N2615 X0.0769 Y-0.1333
N2620 X0.0771 Y-0.1335
N2625 X0.0774 Y-0.1337
N2630 X0.0776 Y-0.1339
N2635 X0.0779 Y-0.1341
N2640 X0.0781 Y-0.1344
N2645 X0.0784 Y-0.1346
N2650 X0.0786 Y-0.1349
N2655 X0.0789 Y-0.1352
N2660 X0.0791 Y-0.1355
N2665 X0.0794 Y-0.1359
N2670 X0.0797 Y-0.1362
N2675 X0.0799 Y-0.1365
N2680 X0.08 Y-0.1367
N2685 X0.0801 Y-0.1368
N2690 X0.0803 Y-0.1372
N2695 X0.0805 Y-0.1376
N2700 X0.0807 Y-0.1379
N2705 X0.0809 Y-0.1383
N2710 X0.0811 Y-0.1386
N2715 X0.0813 Y-0.139
N2720 X0.0814 Y-0.1393
N2725 X0.0816 Y-0.1396
N2730 X0.0817 Y-0.14
N2735 X0.0818 Y-0.1403
N2740 X0.0819 Y-0.1406
N2745 X0.082 Y-0.1409
N2750 X0.0821 Y-0.1412
N2755 Y-0.1415
N2760 X0.0839 Y-0.1428 Z-0.0059
N2765 X0.0862 Y-0.1448 Z0.
N2770 X0.0839 Y-0.1428 Z-0.0059
N2775 X0.0821 Y-0.1415 Z-0.01
N2780 X0.081
N2785 X0.0789 Y-0.1444 Z-0.0027
N2790 X0.0781 Y-0.1454 Z0.
N2795 X0.0789 Y-0.1444 Z-0.0027
N2800 X0.081 Y-0.1415 Z-0.01
N2805 Y-0.1414
N2810 X0.0809 Y-0.141
N2815 X0.0808 Y-0.1409
N2820 X0.0807 Y-0.1405
N2825 Y-0.1403
N2830 X0.0805 Y-0.1399
N2835 Y-0.1398
N2840 X0.0803 Y-0.1394
N2845 Y-0.1392
N2850 X0.0801 Y-0.1389
N2855 X0.08 Y-0.1387
N2860 X0.0798 Y-0.1383
N2865 X0.0797 Y-0.1382
N2870 X0.0795 Y-0.1378
N2875 X0.0794 Y-0.1377
N2880 X0.0792 Y-0.1373
N2885 X0.0791 Y-0.1372
N2890 X0.0789 Y-0.1368
N2895 X0.0788 Y-0.1367
N2900 X0.0786 Y-0.1364
N2905 X0.0785 Y-0.1363
N2910 X0.0782 Y-0.1359
N2915 Y-0.1358
N2920 X0.0779 Y-0.1355
N2925 X0.0778
N2930 X0.0776 Y-0.1351
N2935 X0.0775
N2940 X0.0772 Y-0.1347
N2945 X0.0769 Y-0.1344
N2950 X0.0766 Y-0.134
N2955 X0.0762 Y-0.1337
N2960 G3 X0.0755 Y-0.1331 I-0.0027 J-0.0025
N2965 G1 X0.075 Y-0.1328
N2970 X0.0746 Y-0.1325
N2975 X0.0741 Y-0.1323
N2980 X0.0737 Y-0.132
N2985 X0.0736
N2990 X0.0732 Y-0.1317
N2995 X0.0731
N3000 X0.0727 Y-0.1315
N3005 X0.0726
N3010 X0.0722 Y-0.1312
N3015 X0.0721
N3020 X0.0716 Y-0.131
N3025 X0.0715 Y-0.1309
N3030 X0.0711 Y-0.1308
N3035 X0.0709 Y-0.1307
N3040 X0.0705 Y-0.1305
N3045 X0.0703
N3050 X0.0699 Y-0.1303
N3055 X0.0697
N3060 X0.0693 Y-0.1302
N3065 X0.0691 Y-0.1301
N3070 X0.0687 Y-0.13
N3075 X0.0685
N3080 X0.0681 Y-0.1299
N3085 X0.0679
N3090 X0.0675 Y-0.1298
N3095 X0.0674
N3100 X0.0669 Y-0.1297
N3105 X0.0668
N3110 X0.0663 Y-0.1296
N3115 X0.0662
N3120 X0.0657
N3125 X0.0652 Y-0.1295
N3130 X0.0651
N3135 X0.0646
N3140 X0.0641
N3145 X0.064
N3150 X0.0635
N3155 X0.063 Y-0.1294
N3160 X0.0625
N3165 X0.0623
N3170 X0.0618
N3175 X0.0613
N3180 X0.0608 Y-0.1295
N3185 X0.0603
N3190 X0.0602
N3195 X0.0597
N3200 X0.0592
N3205 X0.0591
N3210 X0.0586 Y-0.1296
N3215 X0.0585
N3220 X0.0581
N3225 X0.058
N3230 X0.0575 Y-0.1297
N3235 X0.0574
N3240 X0.0569 Y-0.1298
N3245 X0.0568
N3250 X0.0563 Y-0.1299
N3255 X0.0562
N3260 X0.0557 Y-0.13
N3265 X0.0556
N3270 X0.0551 Y-0.1302
N3275 X0.055
N3280 X0.0545 Y-0.1303
N3285 X0.0544 Y-0.1304
N3290 X0.0539 Y-0.1305
N3295 X0.0538 Y-0.1306
N3300 X0.0533 Y-0.1308
N3305 X0.0532
N3310 X0.0528 Y-0.131
N3315 X0.0527
N3320 X0.0522 Y-0.1312
N3325 Y-0.1313
N3330 X0.0517 Y-0.1315
N3335 X0.0512 Y-0.1317
N3340 Y-0.1318
N3345 X0.0507 Y-0.132
N3350 X0.0502 Y-0.1322
N3355 X0.0498 Y-0.1325
N3360 X0.0493 Y-0.1327
N3365 G3 X0.0486 Y-0.1333 I0.0018 J-0.0032
N3370 G1 X0.0484 Y-0.1335
N3375 X0.0483
N3380 X0.0481 Y-0.1337
N3385 Y-0.1338
N3390 X0.0478 Y-0.134
N3395 X0.0476 Y-0.1343
N3400 X0.0475
N3405 X0.0473 Y-0.1346
N3410 X0.0472
N3415 X0.047 Y-0.1349
N3420 X0.0469
N3425 X0.0467 Y-0.1352
N3430 X0.0466 Y-0.1353
N3435 X0.0464 Y-0.1355
N3440 X0.0463 Y-0.1356
N3445 X0.0461 Y-0.1359
N3450 Y-0.136
N3455 X0.0459 Y-0.1363
N3460 X0.0458 Y-0.1364
N3465 X0.0456 Y-0.1367
N3470 X0.0455 Y-0.1369
N3475 X0.0453 Y-0.1371
N3480 X0.0452 Y-0.1373
N3485 X0.0451 Y-0.1376
N3490 X0.045 Y-0.1378
N3495 X0.0449 Y-0.1381
N3500 X0.0448 Y-0.1383
N3505 X0.0447 Y-0.1386
N3510 Y-0.1387
N3515 X0.0446 Y-0.139
N3520 X0.0445 Y-0.1392
N3525 X0.0444 Y-0.1395
N3530 Y-0.1396
N3535 X0.0443 Y-0.1399
N3540 Y-0.14
N3545 Y-0.1404
N3550 X0.0442
N3555 Y-0.1408
N3560 X0.0441 Y-0.1412
N3565 Y-0.1415
N3570 Y-0.1416
N3575 X0.044 Y-0.1419
N3580 Y-0.1423
N3585 G3 Y-0.1431 I0.0036 J-0.0005
N3590 G1 Y-0.1433
N3595 Y-0.1434
N3600 Y-0.1436
N3605 Y-0.1437
N3610 Y-0.1439
N3615 Y-0.144
N3620 X0.0441 Y-0.1442
N3625 Y-0.1443
N3630 Y-0.1446
N3635 Y-0.1447
N3640 X0.0442 Y-0.1449
N3645 Y-0.145
N3650 Y-0.1453
N3655 X0.0443 Y-0.1454
N3660 Y-0.1456
N3665 Y-0.1458
N3670 X0.0444 Y-0.146
N3675 Y-0.1462
N3680 X0.0445 Y-0.1464
N3685 X0.0446 Y-0.1466
N3690 X0.0447 Y-0.1468
N3695 Y-0.147
N3700 X0.0448 Y-0.1472
N3705 X0.0449 Y-0.1474
N3710 X0.045 Y-0.1477
N3715 X0.0451 Y-0.1478
N3720 X0.0452 Y-0.148
N3725 X0.0453 Y-0.1482
N3730 X0.0454 Y-0.1484
N3735 X0.0455 Y-0.1486
N3740 X0.0457 Y-0.1488
N3745 Y-0.1489
N3750 X0.0459 Y-0.1491
N3755 Y-0.1492
N3760 X0.0461 Y-0.1494
N3765 X0.0462 Y-0.1495
N3770 X0.0463 Y-0.1497
N3775 X0.0464 Y-0.1498
N3780 X0.0466 Y-0.15
N3785 X0.0468 Y-0.1502
N3790 Y-0.1503
N3795 X0.047 Y-0.1505
N3800 X0.0472 Y-0.1507
N3805 X0.0474 Y-0.1509
N3810 G3 X0.0483 Y-0.1516 I0.0027 J0.0024
N3815 G1 X0.0488 Y-0.1519
N3820 X0.0493 Y-0.1522
N3825 X0.0498 Y-0.1525
N3830 X0.0499
N3835 X0.0504 Y-0.1528
N3840 X0.0509 Y-0.153
N3845 X0.051 Y-0.1531
N3850 X0.0515 Y-0.1533
N3855 X0.052 Y-0.1536
N3860 X0.0521
N3865 X0.0526 Y-0.1539
N3870 X0.0527
N3875 X0.0532 Y-0.1541
N3880 X0.0533 Y-0.1542
N3885 X0.0538 Y-0.1544
N3890 X0.0539
N3895 X0.0544 Y-0.1546
N3900 X0.0545
N3905 X0.0551 Y-0.1548
N3910 X0.0557 Y-0.155
N3915 X0.0563 Y-0.1552
N3920 X0.0569 Y-0.1554
N3925 X0.0575 Y-0.1555
N3930 Y-0.1556
N3935 X0.0581 Y-0.1557
N3940 X0.0587 Y-0.1558
N3945 Y-0.1559
N3950 X0.0593 Y-0.156
N3955 X0.0599 Y-0.1561
N3960 X0.0604 Y-0.1563
N3965 X0.0605
N3970 X0.061 Y-0.1564
N3975 X0.0616 Y-0.1565
N3980 X0.0621 Y-0.1566
N3985 X0.0627 Y-0.1567
N3990 X0.0633 Y-0.1569
N3995 X0.0639 Y-0.157
N4000 X0.0645 Y-0.1572
N4005 X0.0651 Y-0.1573
N4010 X0.0657 Y-0.1574
N4015 X0.0663 Y-0.1576
N4020 X0.0669 Y-0.1577
N4025 X0.0675 Y-0.1578
N4030 X0.068 Y-0.158
N4035 X0.0686 Y-0.1581
N4040 X0.0692 Y-0.1583
N4045 X0.0697 Y-0.1585
N4050 X0.0703 Y-0.1586
N4055 X0.0708 Y-0.1588
N4060 X0.0714 Y-0.159
N4065 X0.072 Y-0.1592
N4070 X0.0725 Y-0.1593
N4075 X0.0731 Y-0.1595
N4080 X0.0737 Y-0.1597
N4085 X0.0742 Y-0.1599
N4090 X0.0748 Y-0.1601
N4095 X0.0754 Y-0.1604
N4100 X0.0757 Y-0.1605
N4105 X0.0759 Y-0.1606
N4110 X0.0763 Y-0.1608
N4115 X0.0767 Y-0.161
N4120 X0.0771 Y-0.1612
N4125 X0.0774 Y-0.1614
N4130 X0.0778 Y-0.1616
N4135 X0.0781 Y-0.1618
N4140 X0.0784 Y-0.162
N4145 X0.0787 Y-0.1622
N4150 X0.079 Y-0.1623
N4155 X0.0793 Y-0.1625
N4160 X0.0796 Y-0.1627
N4165 X0.0798 Y-0.1629
N4170 X0.0801 Y-0.1632
N4175 X0.0803 Y-0.1634
N4180 X0.0806 Y-0.1636
N4185 X0.0808 Y-0.1639
N4190 X0.0811 Y-0.1642
N4195 X0.0813 Y-0.1644
N4200 X0.0816 Y-0.1647
N4205 X0.0819 Y-0.1651
N4210 X0.0821 Y-0.1654
N4215 X0.0824 Y-0.1657
N4220 X0.0825 Y-0.1658
N4225 Y-0.1659
N4230 X0.0827 Y-0.1662
N4235 X0.0829 Y-0.1665
N4240 X0.0831 Y-0.1669
N4245 X0.0832 Y-0.1672
N4250 X0.0834 Y-0.1675
N4255 X0.0835 Y-0.1678
N4260 X0.0837 Y-0.1681
N4265 X0.0838 Y-0.1683
N4270 X0.0839 Y-0.1686
N4275 X0.084 Y-0.1689
N4280 Y-0.1691
N4285 X0.0841 Y-0.1694
N4290 X0.0842 Y-0.1696
N4295 Y-0.1699
N4300 X0.0843 Y-0.1702
N4305 Y-0.1705
N4310 X0.0844 Y-0.1709
N4315 Y-0.1712
N4320 Y-0.1716
N4325 X0.0845 Y-0.1719
N4330 Y-0.1723
N4335 Y-0.1727
N4340 Y-0.1729
N4345 Y-0.173
N4350 Y-0.1734
N4355 Y-0.1738
N4360 X0.0844 Y-0.1742
N4365 Y-0.1746
N4370 X0.0843 Y-0.175
N4375 Y-0.1753
N4380 X0.0842 Y-0.1757
N4385 Y-0.176
N4390 X0.0841 Y-0.1763
N4395 X0.084 Y-0.1766
N4400 X0.0839 Y-0.1769
N4405 Y-0.1772
N4410 X0.0837 Y-0.1775
N4415 X0.0836 Y-0.1778
N4420 X0.0835 Y-0.1781
N4425 X0.0834 Y-0.1784
N4430 X0.0832 Y-0.1787
N4435 X0.083 Y-0.179
N4440 X0.0829 Y-0.1794
N4445 X0.0827 Y-0.1797
N4450 X0.0825 Y-0.1801
N4455 X0.0823 Y-0.1804
N4460 X0.0822 Y-0.1806
N4465 X0.0821 Y-0.1807
N4470 X0.0818 Y-0.1811
N4475 X0.0815 Y-0.1814
N4480 X0.0813 Y-0.1818
N4485 X0.081 Y-0.1821
N4490 X0.0807 Y-0.1824
N4495 X0.0805 Y-0.1827
N4500 X0.0802 Y-0.183
N4505 X0.08 Y-0.1832
N4510 X0.0797 Y-0.1835
N4515 X0.0794 Y-0.1837
N4520 X0.0792 Y-0.1839
N4525 X0.0789 Y-0.1841
N4530 X0.0786 Y-0.1844
N4535 X0.0783 Y-0.1846
N4540 X0.078 Y-0.1848
N4545 X0.0777 Y-0.185
N4550 X0.0774 Y-0.1852
N4555 X0.077 Y-0.1854
N4560 X0.0766 Y-0.1856
N4565 X0.0763 Y-0.1858
N4570 X0.0759 Y-0.186
N4575 X0.0755 Y-0.1862
N4580 X0.0753 Y-0.1863
N4585 X0.075 Y-0.1865
N4590 X0.0745 Y-0.1866
N4595 X0.074 Y-0.1868
N4600 X0.0735 Y-0.187
N4605 X0.0731 Y-0.1871
N4610 X0.0726 Y-0.1873
N4615 X0.0722 Y-0.1875
N4620 X0.0717 Y-0.1876
N4625 X0.0713 Y-0.1877
N4630 X0.0708 Y-0.1878
N4635 X0.0704 Y-0.1879
N4640 X0.07 Y-0.188
N4645 X0.0696 Y-0.1881
N4650 X0.0691 Y-0.1882
N4655 X0.0687
N4660 X0.0682 Y-0.1883
N4665 X0.0677
N4670 X0.0673 Y-0.1884
N4675 X0.0668
N4680 X0.0663
N4685 X0.0658 Y-0.1885
N4690 X0.0653
N4695 X0.0647
N4700 X0.0643
N4705 X0.0638
N4710 X0.0632
N4715 X0.0626
N4720 X0.062
N4725 X0.0614 Y-0.1884
N4730 X0.0608
N4735 X0.0602
N4740 X0.0597 Y-0.1883
N4745 X0.0591
N4750 X0.0586 Y-0.1882
N4755 X0.058 Y-0.1881
N4760 X0.0575 Y-0.188
N4765 X0.057
N4770 X0.0564 Y-0.1878
N4775 X0.0559 Y-0.1877
N4780 X0.0554 Y-0.1876
N4785 X0.0548 Y-0.1874
N4790 X0.0543 Y-0.1873
N4795 X0.0537 Y-0.1871
N4800 X0.0532 Y-0.1869
N4805 X0.0526 Y-0.1868
N4810 X0.052 Y-0.1866
N4815 X0.0514 Y-0.1864
N4820 X0.0511 Y-0.1863
N4825 X0.0509 Y-0.1862
N4830 X0.0505 Y-0.1859
N4835 X0.05 Y-0.1857
N4840 X0.0496 Y-0.1855
N4845 X0.0492 Y-0.1853
N4850 X0.0488 Y-0.185
N4855 X0.0484 Y-0.1848
N4860 X0.0481 Y-0.1846
N4865 X0.0477 Y-0.1844
N4870 X0.0474 Y-0.1841
N4875 X0.0471 Y-0.1839
N4880 X0.0468 Y-0.1837
N4885 X0.0465 Y-0.1834
N4890 X0.0462 Y-0.1832
N4895 X0.0459 Y-0.1829
N4900 X0.0457 Y-0.1826
N4905 X0.0454 Y-0.1823
N4910 X0.0451 Y-0.182
N4915 X0.0448 Y-0.1816
N4920 X0.0445 Y-0.1813
N4925 X0.0442 Y-0.1809
N4930 X0.0439 Y-0.1805
N4935 X0.0436 Y-0.1801
N4940 X0.0435 Y-0.18
N4945 X0.0434 Y-0.1798
N4950 X0.0431 Y-0.1793
N4955 X0.0429 Y-0.1789
N4960 X0.0427 Y-0.1785
N4965 X0.0425 Y-0.1781
N4970 X0.0422 Y-0.1777
N4975 X0.0421 Y-0.1773
N4980 X0.0419 Y-0.1769
N4985 X0.0417 Y-0.1765
N4990 X0.0416 Y-0.1761
N4995 X0.0414 Y-0.1757
N5000 X0.0413 Y-0.1754
N5005 X0.0412 Y-0.175
N5010 X0.0411 Y-0.1746
N5015 X0.041 Y-0.1742
N5020 Y-0.1738
N5025 X0.0409 Y-0.1737
N5030 G0 Z0.1
N5035 X0.0369 Y-0.3911
N5040 Z0.05
N5045 G1 Z0. F5.
N5050 X0.0405 Y-0.3875 Z-0.01 F7.5
N5055 Y-0.3303
N5060 X0.0369 Y-0.3267 Z0.
N5065 X0.0405 Y-0.3303 Z-0.01
N5070 X0.0437
N5075 X0.0456 Y-0.3267 Z0.
N5080 X0.0437 Y-0.3303 Z-0.01
N5085 X0.0765 Y-0.3793
N5090 G3 X0.0831 Y-0.3773 I0.003 J0.002
N5095 G1 Y-0.3303
N5100 X0.0795 Y-0.3267 Z0.
N5105 X0.0831 Y-0.3303 Z-0.01
N5110 X0.084
N5115 X0.0876 Y-0.3267 Z0.
N5120 X0.084 Y-0.3303 Z-0.01
N5125 Y-0.3875
N5130 X0.0876 Y-0.3911 Z0.
N5135 X0.084 Y-0.3875 Z-0.01
N5140 X0.0809
N5145 X0.0789 Y-0.3911 Z0.
N5150 X0.0809 Y-0.3875 Z-0.01
N5155 X0.0481 Y-0.3385
N5160 G3 X0.0414 Y-0.3405 I-0.003 J-0.002
N5165 G1 Y-0.3875
N5170 X0.0405
N5175 X0.0414
N5180 X0.0451 Y-0.3911 Z0.
N5185 G0 Z0.1
N5190 X0.0369 Y-0.0911
N5195 Z0.05
N5200 G1 Z0. F5.
N5205 X0.0405 Y-0.0875 Z-0.01 F7.5
N5210 Y-0.0303
N5215 X0.0369 Y-0.0267 Z0.
N5220 X0.0405 Y-0.0303 Z-0.01
N5225 X0.0471
N5230 X0.0497 Y-0.0267 Z0.
N5235 X0.0471 Y-0.0303 Z-0.01
N5240 X0.0574 Y-0.0611
N5245 X0.0486 Y-0.0351
N5250 G3 X0.0415 Y-0.0363 I-0.0034 J-0.0012
N5255 G1 Y-0.0875
N5260 X0.0451 Y-0.0911 Z0.
N5265 X0.0415 Y-0.0875 Z-0.01
N5270 X0.0405
N5275 X0.0415
N5280 Y-0.0363
N5285 G2 X0.0486 Y-0.0351 I0.0036 J0.
N5290 G1 X0.0574 Y-0.0611
N5295 X0.064 Y-0.0809 Z-0.0098
N5300 X0.0647 Y-0.083 Z-0.0097
N5305 X0.0652 Y-0.0841 Z-0.01
N5310 G3 X0.0697 Y-0.0851 I0.0028 J0.0023
N5315 G1 X0.0689 Y-0.0875
N5320 X0.0714 Y-0.0911 Z0.
N5325 X0.0689 Y-0.0875 Z-0.01
N5330 X0.0664
N5335 X0.0652 Y-0.0841
N5340 X0.0664 Y-0.0875
N5345 X0.0638 Y-0.0911 Z0.
N5350 G0 Z0.1
N5355 X0.0844 Y-0.4347
N5360 Z0.05
N5365 G1 Z-0.0001 F5.
N5370 X0.0866 Y-0.4304 Z-0.01 F7.5
N5375 X0.0879 Y-0.4301
N5380 X0.0911 Y-0.4318 Z-0.0035
N5385 X0.0927 Y-0.4327 Z0.
N5390 X0.0911 Y-0.4318 Z-0.0035
N5395 X0.0879 Y-0.4301 Z-0.01
N5400 X0.0876 Y-0.4296
N5405 X0.0874 Y-0.429
N5410 X0.0871 Y-0.4285
N5415 X0.0868 Y-0.428
N5420 X0.0866 Y-0.4275
N5425 X0.0863 Y-0.427
N5430 X0.086 Y-0.4266
N5435 X0.0856 Y-0.4261
N5440 X0.0853 Y-0.4257
N5445 X0.0849 Y-0.4252
N5450 X0.0845 Y-0.4248
N5455 X0.0841 Y-0.4243
N5460 X0.0836 Y-0.4239
N5465 X0.0831 Y-0.4234
N5470 X0.0827 Y-0.423
N5475 X0.0822 Y-0.4225
N5480 X0.0816 Y-0.422
N5485 X0.0814 Y-0.4218
N5490 X0.0811 Y-0.4216
N5495 X0.0805 Y-0.4213
N5500 X0.0799 Y-0.4209
N5505 X0.0793 Y-0.4206
N5510 X0.0787 Y-0.4202
N5515 X0.0781 Y-0.4199
N5520 X0.0776 Y-0.4197
N5525 X0.077 Y-0.4194
N5530 X0.0764 Y-0.4191
N5535 X0.0759 Y-0.4189
N5540 X0.0754 Y-0.4187
N5545 X0.0748 Y-0.4186
N5550 X0.0743 Y-0.4184
N5555 X0.0737 Y-0.4183
N5560 X0.0731 Y-0.4182
N5565 X0.0725 Y-0.4181
N5570 X0.0719 Y-0.418
N5575 X0.0712 Y-0.4179
N5580 X0.0706 Y-0.4178
N5585 X0.0699
N5590 X0.0692 Y-0.4177
N5595 X0.0686
N5600 X0.0678 Y-0.4176
N5605 X0.0673
N5610 X0.0671
N5615 X0.0673
N5620 X0.0678
N5625 X0.0683 Y-0.4177
N5630 X0.0688
N5635 X0.0693
N5640 X0.0694
N5645 X0.0698 Y-0.4178
N5650 X0.0699
N5655 X0.0704
N5660 X0.0709 Y-0.4179
N5665 X0.071
N5670 X0.0715 Y-0.418
N5675 X0.072 Y-0.4181
N5680 X0.0721
N5685 X0.0726 Y-0.4182
N5690 X0.0727
N5695 X0.0731 Y-0.4183
N5700 X0.0733
N5705 X0.0737 Y-0.4185
N5710 X0.0738
N5715 X0.0743 Y-0.4186
N5720 X0.0744 Y-0.4187
N5725 X0.0749 Y-0.4188
N5730 X0.075 Y-0.4189
N5735 X0.0754 Y-0.4191
N5740 X0.0755
N5745 X0.076 Y-0.4193
N5750 X0.0761
N5755 X0.0765 Y-0.4195
N5760 X0.0766 Y-0.4196
N5765 X0.077 Y-0.4198
N5770 X0.0771
N5775 X0.0775 Y-0.42
N5780 Y-0.4201
N5785 X0.078 Y-0.4203
N5790 X0.0784 Y-0.4206
N5795 X0.0789 Y-0.4208
N5800 X0.0793 Y-0.4211
N5805 X0.0797 Y-0.4213
N5810 G2 X0.0804 Y-0.4218 I-0.0019 J-0.0031
N5815 G1 X0.0808 Y-0.4222
N5820 X0.0811 Y-0.4226
N5825 X0.0812
N5830 X0.0815 Y-0.4229
N5835 X0.0816 Y-0.423
N5840 X0.0819 Y-0.4233
N5845 Y-0.4234
N5850 X0.0823 Y-0.4237
N5855 X0.0824 Y-0.4238
N5860 X0.0827 Y-0.4242
N5865 X0.0831 Y-0.4246
N5870 X0.0832 Y-0.4247
N5875 X0.0835 Y-0.4251
N5880 X0.0839 Y-0.4255
N5885 Y-0.4256
N5890 X0.0842 Y-0.426
N5895 X0.0843 Y-0.4261
N5900 X0.0846 Y-0.4265
N5905 X0.0847 Y-0.4267
N5910 X0.085 Y-0.4271
N5915 Y-0.4272
N5920 X0.0853 Y-0.4276
N5925 Y-0.4277
N5930 X0.0856 Y-0.4282
N5935 Y-0.4283
N5940 X0.0859 Y-0.4287
N5945 Y-0.4288
N5950 X0.0861 Y-0.4293
N5955 X0.0862
N5960 X0.0864 Y-0.4298
N5965 Y-0.4299
N5970 X0.0866 Y-0.4304
N5975 X0.0864 Y-0.4299
N5980 Y-0.4298
N5985 X0.0862 Y-0.4293
N5990 X0.0861
N5995 X0.0859 Y-0.4288
N6000 Y-0.4287
N6005 X0.0856 Y-0.4283
N6010 Y-0.4282
N6015 X0.0853 Y-0.4277
N6020 Y-0.4276
N6025 X0.085 Y-0.4272
N6030 Y-0.4271
N6035 X0.0847 Y-0.4267
N6040 X0.0846 Y-0.4265
N6045 X0.0843 Y-0.4261
N6050 X0.0842 Y-0.426
N6055 X0.0839 Y-0.4256
N6060 Y-0.4255
N6065 X0.0835 Y-0.4251
N6070 X0.0832 Y-0.4247
N6075 X0.0831 Y-0.4246
N6080 X0.0827 Y-0.4242
N6085 X0.0824 Y-0.4238
N6090 X0.0823 Y-0.4237
N6095 X0.0819 Y-0.4234
N6100 Y-0.4233
N6105 X0.0816 Y-0.423
N6110 X0.0815 Y-0.4229
N6115 X0.0812 Y-0.4226
N6120 X0.0811
N6125 X0.0808 Y-0.4222
N6130 X0.0804 Y-0.4218
N6135 G3 X0.0797 Y-0.4213 I-0.0025 J-0.0026
N6140 G1 X0.0793 Y-0.4211
N6145 X0.0789 Y-0.4208
N6150 X0.0784 Y-0.4206
N6155 X0.078 Y-0.4203
N6160 X0.0775 Y-0.4201
N6165 Y-0.42
N6170 X0.0771 Y-0.4198
N6175 X0.077
N6180 X0.0766 Y-0.4196
N6185 X0.0765 Y-0.4195
N6190 X0.0761 Y-0.4193
N6195 X0.076
N6200 X0.0755 Y-0.4191
N6205 X0.0754
N6210 X0.075 Y-0.4189
N6215 X0.0749 Y-0.4188
N6220 X0.0744 Y-0.4187
N6225 X0.0743 Y-0.4186
N6230 X0.0738 Y-0.4185
N6235 X0.0737
N6240 X0.0733 Y-0.4183
N6245 X0.0731
N6250 X0.0727 Y-0.4182
N6255 X0.0726
N6260 X0.0721 Y-0.4181
N6265 X0.072
N6270 X0.0715 Y-0.418
N6275 X0.071 Y-0.4179
N6280 X0.0709
N6285 X0.0704 Y-0.4178
N6290 X0.0699
N6295 X0.0698
N6300 X0.0694 Y-0.4177
N6305 X0.0693
N6310 X0.0688
N6315 X0.0683
N6320 X0.0678 Y-0.4176
N6325 X0.0673
N6330 X0.0671
N6335 X0.0646 Y-0.4178
N6340 X0.0618 Y-0.4181
N6345 X0.0597 Y-0.4185
N6350 X0.0583 Y-0.419
N6355 X0.0577 Y-0.4192
N6360 X0.0574 Y-0.4193
N6365 X0.0568 Y-0.4196
N6370 X0.0562 Y-0.4198
N6375 X0.0556 Y-0.4201
N6380 X0.055 Y-0.4203
N6385 X0.0544 Y-0.4206
N6390 X0.0538 Y-0.4209
N6395 X0.0534 Y-0.4211
N6400 X0.0531 Y-0.4213
N6405 X0.0525 Y-0.4216
N6410 X0.052 Y-0.422
N6415 X0.0515 Y-0.4223
N6420 X0.051 Y-0.4227
N6425 X0.0505 Y-0.4231
N6430 X0.05 Y-0.4234
N6435 X0.0496 Y-0.4238
N6440 X0.0491 Y-0.4241
N6445 X0.0487 Y-0.4245
N6450 X0.0483 Y-0.4249
N6455 X0.048 Y-0.4252
N6460 X0.0476 Y-0.4256
N6465 X0.0472 Y-0.426
N6470 X0.0469 Y-0.4265
N6475 X0.0466 Y-0.4269
N6480 X0.0462 Y-0.4274
N6485 X0.0459 Y-0.4279
N6490 X0.0455 Y-0.4284
N6495 X0.0452 Y-0.4289
N6500 X0.0449 Y-0.4294
N6505 X0.0445 Y-0.43
N6510 X0.0442 Y-0.4305
N6515 X0.044 Y-0.4309
N6520 X0.0438 Y-0.4313
N6525 X0.0435 Y-0.432
N6530 X0.0432 Y-0.4327
N6535 X0.043 Y-0.4334
N6540 X0.0427 Y-0.434
N6545 X0.0425 Y-0.4347
N6550 X0.0422 Y-0.4354
N6555 X0.042 Y-0.436
N6560 X0.0418 Y-0.4366
N6565 X0.0416 Y-0.4373
N6570 X0.0415 Y-0.4379
N6575 X0.0413 Y-0.4385
N6580 X0.0412 Y-0.4392
N6585 X0.0411 Y-0.4398
N6590 X0.041 Y-0.4405
N6595 X0.0409 Y-0.4412
N6600 X0.0408 Y-0.4418
N6605 Y-0.4425
N6610 X0.0407 Y-0.4432
N6615 Y-0.444
N6620 X0.0406 Y-0.4447
N6625 Y-0.4454
N6630 Y-0.4462
N6635 X0.0405 Y-0.4468
N6640 X0.0406 Y-0.4474
N6645 Y-0.4481
N6650 Y-0.4488
N6655 X0.0407 Y-0.4495
N6660 Y-0.4502
N6665 X0.0408 Y-0.4509
N6670 Y-0.4516
N6675 X0.0409 Y-0.4523
N6680 X0.041 Y-0.4529
N6685 X0.0411 Y-0.4536
N6690 X0.0412 Y-0.4543
N6695 X0.0413 Y-0.4549
N6700 X0.0414 Y-0.4555
N6705 X0.0416 Y-0.4562
N6710 X0.0417 Y-0.4568
N6715 X0.0419 Y-0.4574
N6720 X0.0421 Y-0.4581
N6725 X0.0423 Y-0.4588
N6730 X0.0425 Y-0.4594
N6735 X0.0427 Y-0.4601
N6740 X0.043 Y-0.4608
N6745 X0.0432 Y-0.4614
N6750 X0.0435 Y-0.4621
N6755 X0.0436 Y-0.4626
N6760 X0.0438 Y-0.463
N6765 X0.0441 Y-0.4636
N6770 X0.0444 Y-0.4642
N6775 X0.0447 Y-0.4648
N6780 X0.045 Y-0.4653
N6785 X0.0453 Y-0.4659
N6790 X0.0456 Y-0.4664
N6795 X0.0459 Y-0.4669
N6800 X0.0462 Y-0.4674
N6805 X0.0465 Y-0.4678
N6810 X0.0468 Y-0.4683
N6815 X0.0472 Y-0.4687
N6820 X0.0475 Y-0.4691
N6825 X0.0479 Y-0.4695
N6830 X0.0482 Y-0.4699
N6835 X0.0486 Y-0.4703
N6840 X0.0491 Y-0.4707
N6845 X0.0495 Y-0.4711
N6850 X0.05 Y-0.4715
N6855 X0.0504 Y-0.4719
N6860 X0.0509 Y-0.4723
N6865 X0.0514 Y-0.4727
N6870 X0.0519 Y-0.4731
N6875 X0.0522 Y-0.4733
N6880 X0.0525 Y-0.4734
N6885 X0.0531 Y-0.4737
N6890 X0.0538 Y-0.4741
N6895 X0.0544 Y-0.4744
N6900 X0.0551 Y-0.4746
N6905 X0.0557 Y-0.4749
N6910 X0.0563 Y-0.4752
N6915 X0.0569 Y-0.4754
N6920 X0.0575 Y-0.4756
N6925 X0.0581 Y-0.4758
N6930 X0.0586 Y-0.476
N6935 X0.0592 Y-0.4761
N6940 X0.0598 Y-0.4763
N6945 X0.0604 Y-0.4764
N6950 X0.0611 Y-0.4765
N6955 X0.0617 Y-0.4766
N6960 X0.0624 Y-0.4767
N6965 X0.063
N6970 X0.0637 Y-0.4768
N6975 X0.0644
N6980 X0.0651
N6985 X0.0657 Y-0.4769
N6990 X0.0653 Y-0.4768
N6995 X0.0652
N7000 X0.0648
N7005 X0.0647
N7010 X0.0642
N7015 X0.0637 Y-0.4767
N7020 X0.0632
N7025 X0.0631
N7030 X0.0627 Y-0.4766
N7035 X0.0626
N7040 X0.0621 Y-0.4765
N7045 X0.062
N7050 X0.0616 Y-0.4764
N7055 X0.0615
N7060 X0.061 Y-0.4763
N7065 X0.0609
N7070 X0.0605 Y-0.4762
N7075 X0.0603
N7080 X0.0599 Y-0.476
N7085 X0.0598
N7090 X0.0593 Y-0.4759
N7095 X0.0592 Y-0.4758
N7100 X0.0588 Y-0.4757
N7105 X0.0587
N7110 X0.0582 Y-0.4755
N7115 X0.0581
N7120 X0.0577 Y-0.4753
N7125 X0.0576
N7130 X0.0572 Y-0.4751
N7135 X0.0571 Y-0.475
N7140 X0.0567 Y-0.4749
N7145 X0.0566 Y-0.4748
N7150 X0.0562 Y-0.4746
N7155 X0.0561
N7160 X0.0557 Y-0.4744
N7165 X0.0556
N7170 X0.0552 Y-0.4742
N7175 X0.0548 Y-0.4739
N7180 X0.0547
N7185 X0.0539 Y-0.4735
N7190 G2 X0.0534 Y-0.4732 I0.0017 J0.0032
N7195 G1 X0.053 Y-0.4729
N7200 X0.0525 Y-0.4726
N7205 X0.0521 Y-0.4722
N7210 X0.0517 Y-0.4719
N7215 X0.0513 Y-0.4716
N7220 X0.0512 Y-0.4715
N7225 X0.0508 Y-0.4712
N7230 X0.0504 Y-0.4708
N7235 X0.0503
N7240 X0.0499 Y-0.4704
N7245 X0.0495 Y-0.47
N7250 X0.0494 Y-0.4699
N7255 X0.0491 Y-0.4696
N7260 X0.049 Y-0.4695
N7265 X0.0487 Y-0.4691
N7270 X0.0486 Y-0.469
N7275 X0.0482 Y-0.4686
N7280 X0.0479 Y-0.4682
N7285 X0.0478 Y-0.468
N7290 X0.0475 Y-0.4676
N7295 X0.0474 Y-0.4675
N7300 X0.0471 Y-0.4671
N7305 Y-0.467
N7310 X0.0468 Y-0.4666
N7315 Y-0.4665
N7320 X0.0465 Y-0.4661
N7325 Y-0.466
N7330 X0.0462 Y-0.4656
N7335 Y-0.4655
N7340 X0.046 Y-0.4651
N7345 X0.0459 Y-0.465
N7350 X0.0457 Y-0.4646
N7355 Y-0.4645
N7360 X0.0455 Y-0.4641
N7365 X0.0454
N7370 X0.0452 Y-0.4636
N7375 X0.045 Y-0.4631
N7380 X0.0448 Y-0.4626
N7385 G2 X0.0446 Y-0.4622 I0.0033 J0.0015
N7390 G1 X0.0444 Y-0.4616
N7395 X0.0442 Y-0.461
N7400 X0.044 Y-0.4604
N7405 X0.0439 Y-0.4598
N7410 X0.0438
N7415 X0.0437 Y-0.4592
N7420 X0.0435 Y-0.4586
N7425 Y-0.4585
N7430 X0.0433 Y-0.4579
N7435 X0.0432 Y-0.4573
N7440 Y-0.4572
N7445 X0.043 Y-0.4567
N7450 Y-0.4566
N7455 X0.0429 Y-0.456
N7460 Y-0.4559
N7465 X0.0427 Y-0.4553
N7470 Y-0.4552
N7475 X0.0426 Y-0.4546
N7480 X0.0425 Y-0.454
N7485 Y-0.4539
N7490 X0.0424 Y-0.4533
N7495 Y-0.4532
N7500 Y-0.4526
N7505 X0.0423 Y-0.452
N7510 Y-0.4519
N7515 X0.0422 Y-0.4513
N7520 Y-0.4506
N7525 Y-0.45
N7530 X0.0421 Y-0.4494
N7535 Y-0.4493
N7540 Y-0.4487
N7545 Y-0.4481
N7550 Y-0.4475
N7555 Y-0.4468
N7560 Y-0.4466
N7565 Y-0.4461
N7570 Y-0.4455
N7575 Y-0.445
N7580 Y-0.4445
N7585 Y-0.4444
N7590 X0.0422 Y-0.4439
N7595 Y-0.4434
N7600 Y-0.4433
N7605 X0.0423 Y-0.4428
N7610 Y-0.4422
N7615 X0.0424 Y-0.4417
N7620 Y-0.4416
N7625 Y-0.4411
N7630 Y-0.441
N7635 X0.0425 Y-0.4405
N7640 Y-0.4404
N7645 X0.0426 Y-0.4399
N7650 X0.0427 Y-0.4393
N7655 X0.0428 Y-0.4388
N7660 Y-0.4387
N7665 X0.0429 Y-0.4382
N7670 Y-0.4381
N7675 X0.0431 Y-0.4376
N7680 X0.0432 Y-0.4371
N7685 Y-0.437
N7690 X0.0433 Y-0.4365
N7695 X0.0435 Y-0.436
N7700 X0.0436 Y-0.4354
N7705 X0.0438 Y-0.4349
N7710 X0.0439 Y-0.4344
N7715 X0.0441 Y-0.4339
N7720 X0.0442 Y-0.4334
N7725 X0.0443 Y-0.433
N7730 X0.0445 Y-0.4325
N7735 X0.0447 Y-0.432
N7740 X0.0448
N7745 X0.045 Y-0.4315
N7750 X0.0452 Y-0.4311
N7755 Y-0.431
N7760 X0.0454 Y-0.4306
N7765 Y-0.4305
N7770 X0.0456 Y-0.43
N7775 X0.0457
N7780 X0.0459 Y-0.4295
N7785 X0.0462 Y-0.429
N7790 Y-0.4289
N7795 X0.0465 Y-0.4285
N7800 Y-0.4284
N7805 X0.0468 Y-0.428
N7810 Y-0.4279
N7815 X0.0471 Y-0.4275
N7820 X0.0472 Y-0.4273
N7825 X0.0474 Y-0.4269
N7830 X0.0475 Y-0.4268
N7835 X0.0478 Y-0.4264
N7840 X0.0479 Y-0.4263
N7845 X0.0482 Y-0.4259
N7850 X0.0483
N7855 X0.0486 Y-0.4255
N7860 X0.0487 Y-0.4254
N7865 X0.0491 Y-0.425
N7870 X0.0495 Y-0.4246
N7875 Y-0.4245
N7880 X0.0499 Y-0.4242
N7885 X0.0503 Y-0.4238
N7890 X0.0507 Y-0.4234
N7895 X0.0508
N7900 X0.0511 Y-0.4231
N7905 X0.0515 Y-0.4227
N7910 X0.0516
N7915 X0.052 Y-0.4224
N7920 X0.0523 Y-0.422
N7925 G2 X0.0529 Y-0.4216 I0.0024 J-0.0028
N7930 G1 X0.0534 Y-0.4214
N7935 X0.0539 Y-0.4211
N7940 X0.0544 Y-0.4208
N7945 X0.0549 Y-0.4205
N7950 X0.0554 Y-0.4203
N7955 X0.0555 Y-0.4202
N7960 X0.056 Y-0.42
N7965 X0.0561 Y-0.4199
N7970 X0.0565 Y-0.4197
N7975 X0.0566
N7980 X0.0571 Y-0.4195
N7985 X0.0572 Y-0.4194
N7990 X0.0577 Y-0.4192
N7995 X0.0572 Y-0.4194
N8000 X0.0571 Y-0.4195
N8005 X0.0566 Y-0.4197
N8010 X0.0565
N8015 X0.0561 Y-0.4199
N8020 X0.056 Y-0.42
N8025 X0.0555 Y-0.4202
N8030 X0.0554 Y-0.4203
N8035 X0.0549 Y-0.4205
N8040 X0.0544 Y-0.4208
N8045 X0.0539 Y-0.4211
N8050 X0.0534 Y-0.4214
N8055 X0.0529 Y-0.4216
N8060 G3 X0.0523 Y-0.422 I0.0018 J-0.0032
N8065 G1 X0.052 Y-0.4224
N8070 X0.0516 Y-0.4227
N8075 X0.0515
N8080 X0.0511 Y-0.4231
N8085 X0.0508 Y-0.4234
N8090 X0.0507
N8095 X0.0503 Y-0.4238
N8100 X0.0499 Y-0.4242
N8105 X0.0495 Y-0.4245
N8110 Y-0.4246
N8115 X0.0491 Y-0.425
N8120 X0.0487 Y-0.4254
N8125 X0.0486 Y-0.4255
N8130 X0.0483 Y-0.4259
N8135 X0.0482
N8140 X0.0479 Y-0.4263
N8145 X0.0478 Y-0.4264
N8150 X0.0475 Y-0.4268
N8155 X0.0474 Y-0.4269
N8160 X0.0472 Y-0.4273
N8165 X0.0471 Y-0.4275
N8170 X0.0468 Y-0.4279
N8175 Y-0.428
N8180 X0.0465 Y-0.4284
N8185 Y-0.4285
N8190 X0.0462 Y-0.4289
N8195 Y-0.429
N8200 X0.0459 Y-0.4295
N8205 X0.0457 Y-0.43
N8210 X0.0456
N8215 X0.0454 Y-0.4305
N8220 Y-0.4306
N8225 X0.0452 Y-0.431
N8230 Y-0.4311
N8235 X0.045 Y-0.4315
N8240 X0.0448 Y-0.432
N8245 X0.0447
N8250 X0.0445 Y-0.4325
N8255 X0.0443 Y-0.433
N8260 X0.0442 Y-0.4334
N8265 X0.0441 Y-0.4339
N8270 X0.0439 Y-0.4344
N8275 X0.0438 Y-0.4349
N8280 X0.0436 Y-0.4354
N8285 X0.0435 Y-0.436
N8290 X0.0433 Y-0.4365
N8295 X0.0432 Y-0.437
N8300 Y-0.4371
N8305 X0.0431 Y-0.4376
N8310 X0.0429 Y-0.4381
N8315 Y-0.4382
N8320 X0.0428 Y-0.4387
N8325 Y-0.4388
N8330 X0.0427 Y-0.4393
N8335 X0.0426 Y-0.4399
N8340 X0.0425 Y-0.4404
N8345 Y-0.4405
N8350 X0.0424 Y-0.441
N8355 Y-0.4411
N8360 Y-0.4416
N8365 Y-0.4417
N8370 X0.0423 Y-0.4422
N8375 Y-0.4428
N8380 X0.0422 Y-0.4433
N8385 Y-0.4434
N8390 Y-0.4439
N8395 X0.0421 Y-0.4444
N8400 Y-0.4445
N8405 Y-0.445
N8410 Y-0.4455
N8415 Y-0.4461
N8420 Y-0.4466
N8425 Y-0.4468
N8430 Y-0.4475
N8435 Y-0.4481
N8440 Y-0.4487
N8445 Y-0.4493
N8450 Y-0.4494
N8455 X0.0422 Y-0.45
N8460 Y-0.4506
N8465 Y-0.4513
N8470 X0.0423 Y-0.4519
N8475 Y-0.452
N8480 X0.0424 Y-0.4526
N8485 Y-0.4532
N8490 Y-0.4533
N8495 X0.0425 Y-0.4539
N8500 Y-0.454
N8505 X0.0426 Y-0.4546
N8510 X0.0427 Y-0.4552
N8515 Y-0.4553
N8520 X0.0429 Y-0.4559
N8525 Y-0.456
N8530 X0.043 Y-0.4566
N8535 Y-0.4567
N8540 X0.0432 Y-0.4572
N8545 Y-0.4573
N8550 X0.0433 Y-0.4579
N8555 X0.0435 Y-0.4585
N8560 Y-0.4586
N8565 X0.0437 Y-0.4592
N8570 X0.0438 Y-0.4598
N8575 X0.0439
N8580 X0.044 Y-0.4604
N8585 X0.0442 Y-0.461
N8590 X0.0444 Y-0.4616
N8595 X0.0446 Y-0.4622
N8600 G3 X0.0448 Y-0.4626 I0.0035 J0.0011
N8605 G1 X0.045 Y-0.4631
N8610 X0.0452 Y-0.4636
N8615 X0.0454 Y-0.4641
N8620 X0.0455
N8625 X0.0457 Y-0.4645
N8630 Y-0.4646
N8635 X0.0459 Y-0.465
N8640 X0.046 Y-0.4651
N8645 X0.0462 Y-0.4655
N8650 Y-0.4656
N8655 X0.0465 Y-0.466
N8660 Y-0.4661
N8665 X0.0468 Y-0.4665
N8670 Y-0.4666
N8675 X0.0471 Y-0.467
N8680 Y-0.4671
N8685 X0.0474 Y-0.4675
N8690 X0.0475 Y-0.4676
N8695 X0.0478 Y-0.468
N8700 X0.0479 Y-0.4682
N8705 X0.0482 Y-0.4686
N8710 X0.0486 Y-0.469
N8715 X0.0487 Y-0.4691
N8720 X0.049 Y-0.4695
N8725 X0.0491 Y-0.4696
N8730 X0.0494 Y-0.4699
N8735 X0.0495 Y-0.47
N8740 X0.0499 Y-0.4704
N8745 X0.0503 Y-0.4708
N8750 X0.0504
N8755 X0.0508 Y-0.4712
N8760 X0.0512 Y-0.4715
N8765 X0.0513 Y-0.4716
N8770 X0.0517 Y-0.4719
N8775 X0.0521 Y-0.4722
N8780 X0.0525 Y-0.4726
N8785 X0.053 Y-0.4729
N8790 X0.0534 Y-0.4732
N8795 G3 X0.0539 Y-0.4735 I0.0022 J0.0029
N8800 G1 X0.0547 Y-0.4739
N8805 X0.0548
N8810 X0.0552 Y-0.4742
N8815 X0.0556 Y-0.4744
N8820 X0.0557
N8825 X0.0561 Y-0.4746
N8830 X0.0562
N8835 X0.0566 Y-0.4748
N8840 X0.0567 Y-0.4749
N8845 X0.0571 Y-0.475
N8850 X0.0572 Y-0.4751
N8855 X0.0576 Y-0.4753
N8860 X0.0577
N8865 X0.0581 Y-0.4755
N8870 X0.0582
N8875 X0.0587 Y-0.4757
N8880 X0.0588
N8885 X0.0592 Y-0.4758
N8890 X0.0593 Y-0.4759
N8895 X0.0598 Y-0.476
N8900 X0.0599
N8905 X0.0603 Y-0.4762
N8910 X0.0605
N8915 X0.0609 Y-0.4763
N8920 X0.061
N8925 X0.0615 Y-0.4764
N8930 X0.0616
N8935 X0.062 Y-0.4765
N8940 X0.0621
N8945 X0.0626 Y-0.4766
N8950 X0.0627
N8955 X0.0631 Y-0.4767
N8960 X0.0632
N8965 X0.0637
N8970 X0.0642 Y-0.4768
N8975 X0.0647
N8980 X0.0648
N8985 X0.0652
N8990 X0.0653
N8995 X0.0657 Y-0.4769
N9000 X0.0667
N9005 X0.0673
N9010 X0.0678 Y-0.4768
N9015 X0.0679
N9020 X0.0684
N9025 X0.069 Y-0.4767
N9030 X0.0691
N9035 X0.0696
N9040 X0.0702 Y-0.4766
N9045 X0.0703
N9050 X0.0708 Y-0.4765
N9055 X0.0709
N9060 X0.0714 Y-0.4764
N9065 X0.0715
N9070 X0.0721 Y-0.4763
N9075 X0.0722
N9080 X0.0727 Y-0.4761
N9085 X0.0728
N9090 X0.0733 Y-0.476
N9095 X0.0735 Y-0.4759
N9100 X0.074 Y-0.4758
N9105 X0.0742 Y-0.4757
N9110 X0.0747 Y-0.4755
N9115 X0.0748
N9120 X0.0753 Y-0.4753
N9125 X0.0754 Y-0.4752
N9130 X0.0759 Y-0.475
N9135 X0.076
N9140 X0.0765 Y-0.4747
N9145 X0.0766
N9150 X0.0771 Y-0.4744
N9155 X0.0772
N9160 X0.0776 Y-0.4741
N9165 X0.0777
N9170 X0.0782 Y-0.4738
N9175 Y-0.4737
N9180 X0.0787 Y-0.4734
N9185 X0.0792 Y-0.4731
N9190 X0.0797 Y-0.4728
N9195 X0.0802 Y-0.4725
N9200 X0.0806 Y-0.4722
N9205 G3 X0.0813 Y-0.4716 I-0.002 J0.003
N9210 G1 X0.0817 Y-0.4712
N9215 X0.0821 Y-0.4708
N9220 Y-0.4707
N9225 X0.0825 Y-0.4703
N9230 X0.0829 Y-0.4698
N9235 X0.083
N9240 X0.0834 Y-0.4693
N9245 X0.0838 Y-0.4688
N9250 X0.0842 Y-0.4683
N9255 X0.0843 Y-0.4682
N9260 X0.0846 Y-0.4678
N9265 X0.0847 Y-0.4677
N9270 X0.085 Y-0.4672
N9275 X0.0851 Y-0.4671
N9280 X0.0854 Y-0.4666
N9285 X0.0855 Y-0.4665
N9290 X0.0858 Y-0.466
N9295 X0.0859 Y-0.4659
N9300 X0.0862 Y-0.4654
N9305 Y-0.4653
N9310 X0.0865 Y-0.4647
N9315 X0.0866 Y-0.4646
N9320 X0.0868 Y-0.4641
N9325 X0.0869 Y-0.464
N9330 X0.0871 Y-0.4634
N9335 Y-0.4633
N9340 X0.0873 Y-0.4628
N9345 X0.0874 Y-0.4627
N9350 X0.0876 Y-0.4621
N9355 X0.0878 Y-0.4615
N9360 Y-0.4614
N9365 X0.0879 Y-0.4613
N9370 X0.0853 Y-0.4569 Z0.
N9375 X0.0879 Y-0.4613 Z-0.01
N9380 X0.0892 Y-0.4616
N9385 X0.0938 Y-0.4591 Z-0.0001
N9390 X0.0892 Y-0.4616 Z-0.01
N9395 X0.0889 Y-0.4623
N9400 X0.0887 Y-0.463
N9405 X0.0884 Y-0.4636
N9410 X0.0881 Y-0.4643
N9415 X0.0878 Y-0.4649
N9420 X0.0875 Y-0.4655
N9425 X0.0872 Y-0.466
N9430 X0.0869 Y-0.4666
N9435 X0.0865 Y-0.4671
N9440 X0.0861 Y-0.4676
N9445 X0.0857 Y-0.4682
N9450 X0.0853 Y-0.4687
N9455 X0.0848 Y-0.4692
N9460 X0.0843 Y-0.4698
N9465 X0.0838 Y-0.4703
N9470 X0.0833 Y-0.4708
N9475 X0.0828 Y-0.4714
N9480 X0.0822 Y-0.4719
N9485 X0.0819 Y-0.4722
N9490 X0.0816 Y-0.4724
N9495 X0.0809 Y-0.4728
N9500 X0.0803 Y-0.4732
N9505 X0.0797 Y-0.4736
N9510 X0.0791 Y-0.4739
N9515 X0.0785 Y-0.4743
N9520 X0.0779 Y-0.4746
N9525 X0.0773 Y-0.4749
N9530 X0.0768 Y-0.4752
N9535 X0.0762 Y-0.4754
N9540 X0.0756 Y-0.4756
N9545 X0.0751 Y-0.4758
N9550 X0.0745 Y-0.476
N9555 X0.0739 Y-0.4761
N9560 X0.0733 Y-0.4763
N9565 X0.0726 Y-0.4764
N9570 X0.072 Y-0.4765
N9575 X0.0713 Y-0.4766
N9580 X0.0706 Y-0.4767
N9585 X0.0699
N9590 X0.0692 Y-0.4768
N9595 X0.0685
N9600 X0.0677 Y-0.4769
N9605 X0.0671
N9610 X0.0667
N9615 G0 Z0.1
N9620 X0.0853 Y-0.2685
N9625 Z0.05
N9630 G1 Z0. F5.
N9635 X0.0879 Y-0.2729 Z-0.01 F7.5
N9640 X0.0892 Y-0.2733
N9645 X0.0938 Y-0.2707 Z-0.0001
N9650 X0.0892 Y-0.2733 Z-0.01
N9655 X0.0889 Y-0.274
N9660 X0.0887 Y-0.2746
N9665 X0.0884 Y-0.2753
N9670 X0.0881 Y-0.2759
N9675 X0.0878 Y-0.2765
N9680 X0.0875 Y-0.2771
N9685 X0.0872 Y-0.2777
N9690 X0.0869 Y-0.2782
N9695 X0.0865 Y-0.2787
N9700 X0.0861 Y-0.2793
N9705 X0.0857 Y-0.2798
N9710 X0.0853 Y-0.2803
N9715 X0.0848 Y-0.2809
N9720 X0.0843 Y-0.2814
N9725 X0.0838 Y-0.2819
N9730 X0.0833 Y-0.2825
N9735 X0.0828 Y-0.283
N9740 X0.0822 Y-0.2836
N9745 X0.0819 Y-0.2839
N9750 X0.0816 Y-0.2841
N9755 X0.0809 Y-0.2845
N9760 X0.0803 Y-0.2849
N9765 X0.0797 Y-0.2852
N9770 X0.0791 Y-0.2856
N9775 X0.0785 Y-0.2859
N9780 X0.0779 Y-0.2862
N9785 X0.0773 Y-0.2865
N9790 X0.0768 Y-0.2868
N9795 X0.0762 Y-0.2871
N9800 X0.0756 Y-0.2873
N9805 X0.0751 Y-0.2875
N9810 X0.0745 Y-0.2876
N9815 X0.0739 Y-0.2878
N9820 X0.0733 Y-0.2879
N9825 X0.0726 Y-0.288
N9830 X0.072 Y-0.2881
N9835 X0.0713 Y-0.2882
N9840 X0.0706 Y-0.2883
N9845 X0.0699 Y-0.2884
N9850 X0.0692
N9855 X0.0685 Y-0.2885
N9860 X0.0677
N9865 X0.0671 Y-0.2886
N9870 X0.0667
N9875 X0.0673 Y-0.2885
N9880 X0.0678
N9885 X0.0679
N9890 X0.0684 Y-0.2884
N9895 X0.069
N9900 X0.0696 Y-0.2883
N9905 X0.0697
N9910 X0.0702 Y-0.2882
N9915 X0.0703
N9920 X0.0708
N9925 X0.0709 Y-0.2881
N9930 X0.0714
N9935 X0.0715 Y-0.288
N9940 X0.0721 Y-0.2879
N9945 X0.0722
N9950 X0.0727 Y-0.2878
N9955 X0.0728
N9960 X0.0733 Y-0.2876
N9965 X0.0735
N9970 X0.074 Y-0.2874
N9975 X0.0741
N9980 X0.0747 Y-0.2872
N9985 X0.0748 Y-0.2871
N9990 X0.0753 Y-0.2869
N9995 X0.0754
N10000 X0.0759 Y-0.2867
N10005 X0.076 Y-0.2866
N10010 X0.0765 Y-0.2864
N10015 X0.0766 Y-0.2863
N10020 X0.0771 Y-0.2861
N10025 X0.0772 Y-0.286
N10030 X0.0776 Y-0.2857
N10035 X0.0777
N10040 X0.0782 Y-0.2854
N10045 X0.0787 Y-0.2851
N10050 X0.0792 Y-0.2848
N10055 Y-0.2847
N10060 X0.0797 Y-0.2844
N10065 X0.0802 Y-0.2841
N10070 X0.0806 Y-0.2838
N10075 G3 X0.0812 Y-0.2833 I-0.002 J0.003
N10080 G1 X0.0817 Y-0.2829
N10085 Y-0.2828
N10090 X0.0821 Y-0.2824
N10095 X0.0825 Y-0.2819
N10100 X0.0829 Y-0.2815
N10105 X0.083 Y-0.2814
N10110 X0.0834 Y-0.281
N10115 Y-0.2809
N10120 X0.0838 Y-0.2805
N10125 Y-0.2804
N10130 X0.0842 Y-0.28
N10135 X0.0843 Y-0.2799
N10140 X0.0846 Y-0.2794
N10145 X0.0847 Y-0.2793
N10150 X0.085 Y-0.2789
N10155 X0.0851 Y-0.2788
N10160 X0.0854 Y-0.2783
N10165 X0.0855 Y-0.2782
N10170 X0.0858 Y-0.2777
N10175 X0.0859 Y-0.2775
N10180 X0.0862 Y-0.277
N10185 Y-0.2769
N10190 X0.0865 Y-0.2764
N10195 X0.0866 Y-0.2763
N10200 X0.0868 Y-0.2757
N10205 X0.0869 Y-0.2756
N10210 X0.0871 Y-0.2751
N10215 Y-0.275
N10220 X0.0873 Y-0.2744
N10225 X0.0874 Y-0.2743
N10230 X0.0876 Y-0.2738
N10235 Y-0.2737
N10240 X0.0878 Y-0.2731
N10245 X0.0879 Y-0.2729
N10250 X0.0878 Y-0.2731
N10255 X0.0876 Y-0.2737
N10260 Y-0.2738
N10265 X0.0874 Y-0.2743
N10270 X0.0873 Y-0.2744
N10275 X0.0871 Y-0.275
N10280 Y-0.2751
N10285 X0.0869 Y-0.2756
N10290 X0.0868 Y-0.2757
N10295 X0.0866 Y-0.2763
N10300 X0.0865 Y-0.2764
N10305 X0.0862 Y-0.2769
N10310 Y-0.277
N10315 X0.0859 Y-0.2775
N10320 X0.0858 Y-0.2777
N10325 X0.0855 Y-0.2782
N10330 X0.0854 Y-0.2783
N10335 X0.0851 Y-0.2788
N10340 X0.085 Y-0.2789
N10345 X0.0847 Y-0.2793
N10350 X0.0846 Y-0.2794
N10355 X0.0843 Y-0.2799
N10360 X0.0842 Y-0.28
N10365 X0.0838 Y-0.2804
N10370 Y-0.2805
N10375 X0.0834 Y-0.2809
N10380 Y-0.281
N10385 X0.083 Y-0.2814
N10390 X0.0829 Y-0.2815
N10395 X0.0825 Y-0.2819
N10400 X0.0821 Y-0.2824
N10405 X0.0817 Y-0.2828
N10410 Y-0.2829
N10415 X0.0812 Y-0.2833
N10420 G2 X0.0806 Y-0.2838 I-0.0026 J0.0025
N10425 G1 X0.0802 Y-0.2841
N10430 X0.0797 Y-0.2844
N10435 X0.0792 Y-0.2847
N10440 Y-0.2848
N10445 X0.0787 Y-0.2851
N10450 X0.0782 Y-0.2854
N10455 X0.0777 Y-0.2857
N10460 X0.0776
N10465 X0.0772 Y-0.286
N10470 X0.0771 Y-0.2861
N10475 X0.0766 Y-0.2863
N10480 X0.0765 Y-0.2864
N10485 X0.076 Y-0.2866
N10490 X0.0759 Y-0.2867
N10495 X0.0754 Y-0.2869
N10500 X0.0753
N10505 X0.0748 Y-0.2871
N10510 X0.0747 Y-0.2872
N10515 X0.0741 Y-0.2874
N10520 X0.074
N10525 X0.0735 Y-0.2876
N10530 X0.0733
N10535 X0.0728 Y-0.2878
N10540 X0.0727
N10545 X0.0722 Y-0.2879
N10550 X0.0721
N10555 X0.0715 Y-0.288
N10560 X0.0714 Y-0.2881
N10565 X0.0709
N10570 X0.0708 Y-0.2882
N10575 X0.0703
N10580 X0.0702
N10585 X0.0697 Y-0.2883
N10590 X0.0696
N10595 X0.069 Y-0.2884
N10600 X0.0684
N10605 X0.0679 Y-0.2885
N10610 X0.0678
N10615 X0.0673
N10620 X0.0667 Y-0.2886
N10625 X0.0657 Y-0.2885
N10630 X0.0651
N10635 X0.0644
N10640 X0.0637 Y-0.2884
N10645 X0.063
N10650 X0.0624 Y-0.2883
N10655 X0.0617 Y-0.2882
N10660 X0.0611 Y-0.2881
N10665 X0.0604 Y-0.288
N10670 X0.0598 Y-0.2879
N10675 X0.0592 Y-0.2878
N10680 X0.0586 Y-0.2876
N10685 X0.0581 Y-0.2875
N10690 X0.0575 Y-0.2873
N10695 X0.0569 Y-0.2871
N10700 X0.0563 Y-0.2868
N10705 X0.0557 Y-0.2866
N10710 X0.0551 Y-0.2863
N10715 X0.0544 Y-0.286
N10720 X0.0538 Y-0.2857
N10725 X0.0532 Y-0.2854
N10730 X0.0525 Y-0.2851
N10735 X0.0522 Y-0.2849
N10740 X0.0519 Y-0.2847
N10745 X0.0514 Y-0.2843
N10750 X0.0509 Y-0.2839
N10755 X0.0504 Y-0.2835
N10760 X0.05 Y-0.2831
N10765 X0.0495 Y-0.2827
N10770 X0.0491 Y-0.2823
N10775 X0.0486 Y-0.2819
N10780 X0.0482 Y-0.2815
N10785 X0.0479 Y-0.2811
N10790 X0.0475 Y-0.2807
N10795 X0.0472 Y-0.2803
N10800 X0.0468 Y-0.2799
N10805 X0.0465 Y-0.2795
N10810 X0.0462 Y-0.279
N10815 X0.0459 Y-0.2785
N10820 X0.0456 Y-0.278
N10825 X0.0453 Y-0.2775
N10830 X0.045 Y-0.277
N10835 X0.0447 Y-0.2764
N10840 X0.0444 Y-0.2758
N10845 X0.0441 Y-0.2753
N10850 X0.0438 Y-0.2747
N10855 X0.0436 Y-0.2743
N10860 X0.0435 Y-0.2738
N10865 X0.0432 Y-0.2731
N10870 X0.043 Y-0.2724
N10875 X0.0427 Y-0.2717
N10880 X0.0425 Y-0.2711
N10885 X0.0423 Y-0.2704
N10890 X0.0421 Y-0.2697
N10895 X0.0419 Y-0.2691
N10900 X0.0417 Y-0.2684
N10905 X0.0416 Y-0.2678
N10910 X0.0414 Y-0.2672
N10915 X0.0413 Y-0.2665
N10920 X0.0412 Y-0.2659
N10925 X0.0411 Y-0.2653
N10930 X0.041 Y-0.2646
N10935 X0.0409 Y-0.2639
N10940 X0.0408 Y-0.2632
N10945 Y-0.2626
N10950 X0.0407 Y-0.2619
N10955 Y-0.2612
N10960 X0.0406 Y-0.2604
N10965 Y-0.2597
N10970 Y-0.259
N10975 X0.0405 Y-0.2584
N10980 X0.0406 Y-0.2578
N10985 Y-0.2571
N10990 Y-0.2563
N10995 X0.0407 Y-0.2556
N11000 Y-0.2549
N11005 X0.0408 Y-0.2542
N11010 Y-0.2535
N11015 X0.0409 Y-0.2528
N11020 X0.041 Y-0.2521
N11025 X0.0411 Y-0.2515
N11030 X0.0412 Y-0.2508
N11035 X0.0413 Y-0.2502
N11040 X0.0415 Y-0.2496
N11045 X0.0416 Y-0.2489
N11050 X0.0418 Y-0.2483
N11055 X0.042 Y-0.2477
N11060 X0.0422 Y-0.247
N11065 X0.0425 Y-0.2464
N11070 X0.0427 Y-0.2457
N11075 X0.043 Y-0.245
N11080 X0.0432 Y-0.2444
N11085 X0.0435 Y-0.2437
N11090 X0.0438 Y-0.243
N11095 X0.044 Y-0.2425
N11100 X0.0442 Y-0.2422
N11105 X0.0445 Y-0.2416
N11110 X0.0449 Y-0.2411
N11115 X0.0452 Y-0.2405
N11120 X0.0455 Y-0.24
N11125 X0.0459 Y-0.2395
N11130 X0.0462 Y-0.239
N11135 X0.0466 Y-0.2386
N11140 X0.0469 Y-0.2381
N11145 X0.0472 Y-0.2377
N11150 X0.0476 Y-0.2373
N11155 X0.048 Y-0.2369
N11160 X0.0483 Y-0.2365
N11165 X0.0487 Y-0.2361
N11170 X0.0491 Y-0.2358
N11175 X0.0496 Y-0.2354
N11180 X0.05 Y-0.2351
N11185 X0.0505 Y-0.2347
N11190 X0.051 Y-0.2343
N11195 X0.0515 Y-0.234
N11200 X0.052 Y-0.2336
N11205 X0.0525 Y-0.2333
N11210 X0.0531 Y-0.2329
N11215 X0.0534 Y-0.2327
N11220 X0.0538 Y-0.2325
N11225 X0.0544 Y-0.2322
N11230 X0.055 Y-0.232
N11235 X0.0556 Y-0.2317
N11240 X0.0562 Y-0.2314
N11245 X0.0568 Y-0.2312
N11250 X0.0574 Y-0.231
N11255 X0.0577 Y-0.2308
N11260 X0.0572 Y-0.2311
N11265 X0.0571
N11270 X0.0566 Y-0.2313
N11275 X0.0565 Y-0.2314
N11280 X0.056 Y-0.2316
N11285 X0.0555 Y-0.2319
N11290 X0.0554
N11295 X0.0549 Y-0.2322
N11300 X0.0544 Y-0.2324
N11305 Y-0.2325
N11310 X0.0539 Y-0.2327
N11315 X0.0534 Y-0.233
N11320 X0.0529 Y-0.2333
N11325 G3 X0.0523 Y-0.2337 I0.0018 J-0.0032
N11330 G1 X0.052 Y-0.234
N11335 X0.0516 Y-0.2343
N11340 X0.0515 Y-0.2344
N11345 X0.0512 Y-0.2347
N11350 X0.0511
N11355 X0.0508 Y-0.235
N11360 X0.0507 Y-0.2351
N11365 X0.0503 Y-0.2354
N11370 Y-0.2355
N11375 X0.0499 Y-0.2358
N11380 X0.0495 Y-0.2362
N11385 Y-0.2363
N11390 X0.0491 Y-0.2366
N11395 X0.049 Y-0.2367
N11400 X0.0487 Y-0.237
N11405 X0.0486 Y-0.2371
N11410 X0.0483 Y-0.2375
N11415 X0.0482 Y-0.2376
N11420 X0.0479 Y-0.238
N11425 X0.0478 Y-0.2381
N11430 X0.0475 Y-0.2385
N11435 X0.0474 Y-0.2386
N11440 X0.0472 Y-0.239
N11445 X0.0471 Y-0.2391
N11450 X0.0468 Y-0.2395
N11455 Y-0.2396
N11460 X0.0465 Y-0.2401
N11465 X0.0464
N11470 X0.0462 Y-0.2406
N11475 Y-0.2407
N11480 X0.0459 Y-0.2411
N11485 Y-0.2412
N11490 X0.0457 Y-0.2416
N11495 X0.0456 Y-0.2417
N11500 X0.0454 Y-0.2421
N11505 Y-0.2422
N11510 X0.0452 Y-0.2427
N11515 X0.045 Y-0.2432
N11520 X0.0448 Y-0.2437
N11525 X0.0447
N11530 X0.0445 Y-0.2442
N11535 X0.0443 Y-0.2446
N11540 G3 X0.0442 Y-0.245 I0.0034 J-0.0014
N11545 G1 X0.0441 Y-0.2455
N11550 X0.0439 Y-0.246
N11555 X0.0438 Y-0.2465
N11560 Y-0.2466
N11565 X0.0436 Y-0.2471
N11570 X0.0435 Y-0.2476
N11575 X0.0433 Y-0.2481
N11580 Y-0.2482
N11585 X0.0432 Y-0.2487
N11590 X0.0431 Y-0.2492
N11595 Y-0.2493
N11600 X0.0429 Y-0.2498
N11605 X0.0428 Y-0.2503
N11610 Y-0.2504
N11615 X0.0427 Y-0.2509
N11620 Y-0.251
N11625 X0.0426 Y-0.2515
N11630 Y-0.2516
N11635 X0.0425 Y-0.2521
N11640 Y-0.2522
N11645 X0.0424 Y-0.2527
N11650 Y-0.2532
N11655 Y-0.2533
N11660 X0.0423 Y-0.2538
N11665 Y-0.2539
N11670 Y-0.2544
N11675 X0.0422 Y-0.255
N11680 Y-0.2555
N11685 X0.0421 Y-0.2561
N11690 Y-0.2566
N11695 Y-0.2572
N11700 Y-0.2577
N11705 Y-0.2582
N11710 Y-0.2585
N11715 Y-0.2591
N11720 Y-0.2597
N11725 Y-0.2603
N11730 Y-0.2604
N11735 Y-0.261
N11740 X0.0422 Y-0.2616
N11745 Y-0.2623
N11750 Y-0.2629
N11755 X0.0423 Y-0.2636
N11760 X0.0424 Y-0.2642
N11765 Y-0.2643
N11770 Y-0.2649
N11775 X0.0425 Y-0.2655
N11780 Y-0.2656
N11785 X0.0426 Y-0.2662
N11790 Y-0.2663
N11795 X0.0427 Y-0.2669
N11800 Y-0.267
N11805 X0.0429 Y-0.2676
N11810 X0.043 Y-0.2682
N11815 Y-0.2683
N11820 X0.0432 Y-0.2689
N11825 X0.0433 Y-0.2695
N11830 Y-0.2696
N11835 X0.0435 Y-0.2702
N11840 X0.0437 Y-0.2708
N11845 X0.0438 Y-0.2714
N11850 X0.0439 Y-0.2715
N11855 X0.044 Y-0.272
N11860 Y-0.2721
N11865 X0.0442 Y-0.2726
N11870 Y-0.2727
N11875 X0.0444 Y-0.2732
N11880 Y-0.2733
N11885 X0.0446 Y-0.2738
N11890 G3 X0.0448 Y-0.2743 I0.0035 J0.0011
N11895 G1 X0.045 Y-0.2748
N11900 X0.0452 Y-0.2752
N11905 X0.0454 Y-0.2757
N11910 X0.0455
N11915 X0.0457 Y-0.2762
N11920 X0.0459 Y-0.2767
N11925 X0.046
N11930 X0.0462 Y-0.2772
N11935 X0.0465 Y-0.2777
N11940 Y-0.2778
N11945 X0.0468 Y-0.2782
N11950 Y-0.2783
N11955 X0.0471 Y-0.2787
N11960 Y-0.2788
N11965 X0.0474 Y-0.2792
N11970 X0.0475 Y-0.2793
N11975 X0.0478 Y-0.2797
N11980 X0.0479 Y-0.2798
N11985 X0.0482 Y-0.2802
N11990 Y-0.2803
N11995 X0.0486 Y-0.2807
N12000 X0.0487 Y-0.2808
N12005 X0.049 Y-0.2811
N12010 X0.0491 Y-0.2812
N12015 X0.0494 Y-0.2816
N12020 X0.0495 Y-0.2817
N12025 X0.0499 Y-0.282
N12030 Y-0.2821
N12035 X0.0503 Y-0.2824
N12040 X0.0504 Y-0.2825
N12045 X0.0508 Y-0.2828
N12050 Y-0.2829
N12055 X0.0512 Y-0.2832
N12060 X0.0513
N12065 X0.0517 Y-0.2835
N12070 Y-0.2836
N12075 X0.0521 Y-0.2839
N12080 X0.0525 Y-0.2842
N12085 X0.053 Y-0.2845
N12090 X0.0534 Y-0.2848
N12095 G3 X0.0539 Y-0.2851 I0.0022 J0.0029
N12100 G1 X0.0543 Y-0.2853
N12105 Y-0.2854
N12110 X0.0547 Y-0.2856
N12115 X0.0548
N12120 X0.0552 Y-0.2858
N12125 X0.0556 Y-0.286
N12130 X0.0557
N12135 X0.0561 Y-0.2862
N12140 X0.0562 Y-0.2863
N12145 X0.0566 Y-0.2865
N12150 X0.0567
N12155 X0.0571 Y-0.2867
N12160 X0.0572
N12165 X0.0576 Y-0.2869
N12170 X0.0577
N12175 X0.0581 Y-0.2871
N12180 X0.0582
N12185 X0.0586 Y-0.2873
N12190 X0.0587
N12195 X0.0592 Y-0.2875
N12200 X0.0593
N12205 X0.0598 Y-0.2877
N12210 X0.0599
N12215 X0.0603 Y-0.2878
N12220 X0.0605
N12225 X0.0609 Y-0.2879
N12230 X0.061 Y-0.288
N12235 X0.0615
N12240 X0.0616 Y-0.2881
N12245 X0.062
N12250 X0.0621 Y-0.2882
N12255 X0.0626
N12260 X0.0627
N12265 X0.0631 Y-0.2883
N12270 X0.0632
N12275 X0.0637 Y-0.2884
N12280 X0.0642
N12285 X0.0647
N12290 X0.0648 Y-0.2885
N12295 X0.0652
N12300 X0.0653
N12305 X0.0657
N12310 X0.0653
N12315 X0.0652
N12320 X0.0648
N12325 X0.0647 Y-0.2884
N12330 X0.0642
N12335 X0.0637
N12340 X0.0632 Y-0.2883
N12345 X0.0631
N12350 X0.0627 Y-0.2882
N12355 X0.0626
N12360 X0.0621
N12365 X0.062 Y-0.2881
N12370 X0.0616
N12375 X0.0615 Y-0.288
N12380 X0.061
N12385 X0.0609 Y-0.2879
N12390 X0.0605 Y-0.2878
N12395 X0.0603
N12400 X0.0599 Y-0.2877
N12405 X0.0598
N12410 X0.0593 Y-0.2875
N12415 X0.0592
N12420 X0.0587 Y-0.2873
N12425 X0.0586
N12430 X0.0582 Y-0.2871
N12435 X0.0581
N12440 X0.0577 Y-0.2869
N12445 X0.0576
N12450 X0.0572 Y-0.2867
N12455 X0.0571
N12460 X0.0567 Y-0.2865
N12465 X0.0566
N12470 X0.0562 Y-0.2863
N12475 X0.0561 Y-0.2862
N12480 X0.0557 Y-0.286
N12485 X0.0556
N12490 X0.0552 Y-0.2858
N12495 X0.0548 Y-0.2856
N12500 X0.0547
N12505 X0.0543 Y-0.2854
N12510 Y-0.2853
N12515 X0.0539 Y-0.2851
N12520 G2 X0.0534 Y-0.2848 I0.0017 J0.0032
N12525 G1 X0.053 Y-0.2845
N12530 X0.0525 Y-0.2842
N12535 X0.0521 Y-0.2839
N12540 X0.0517 Y-0.2836
N12545 Y-0.2835
N12550 X0.0513 Y-0.2832
N12555 X0.0512
N12560 X0.0508 Y-0.2829
N12565 Y-0.2828
N12570 X0.0504 Y-0.2825
N12575 X0.0503 Y-0.2824
N12580 X0.0499 Y-0.2821
N12585 Y-0.282
N12590 X0.0495 Y-0.2817
N12595 X0.0494 Y-0.2816
N12600 X0.0491 Y-0.2812
N12605 X0.049 Y-0.2811
N12610 X0.0487 Y-0.2808
N12615 X0.0486 Y-0.2807
N12620 X0.0482 Y-0.2803
N12625 Y-0.2802
N12630 X0.0479 Y-0.2798
N12635 X0.0478 Y-0.2797
N12640 X0.0475 Y-0.2793
N12645 X0.0474 Y-0.2792
N12650 X0.0471 Y-0.2788
N12655 Y-0.2787
N12660 X0.0468 Y-0.2783
N12665 Y-0.2782
N12670 X0.0465 Y-0.2778
N12675 Y-0.2777
N12680 X0.0462 Y-0.2772
N12685 X0.046 Y-0.2767
N12690 X0.0459
N12695 X0.0457 Y-0.2762
N12700 X0.0455 Y-0.2757
N12705 X0.0454
N12710 X0.0452 Y-0.2752
N12715 X0.045 Y-0.2748
N12720 X0.0448 Y-0.2743
N12725 G2 X0.0446 Y-0.2738 I0.0033 J0.0016
N12730 G1 X0.0444 Y-0.2733
N12735 Y-0.2732
N12740 X0.0442 Y-0.2727
N12745 Y-0.2726
N12750 X0.044 Y-0.2721
N12755 Y-0.272
N12760 X0.0439 Y-0.2715
N12765 X0.0438 Y-0.2714
N12770 X0.0437 Y-0.2708
N12775 X0.0435 Y-0.2702
N12780 X0.0433 Y-0.2696
N12785 Y-0.2695
N12790 X0.0432 Y-0.2689
N12795 X0.043 Y-0.2683
N12800 Y-0.2682
N12805 X0.0429 Y-0.2676
N12810 X0.0427 Y-0.267
N12815 Y-0.2669
N12820 X0.0426 Y-0.2663
N12825 Y-0.2662
N12830 X0.0425 Y-0.2656
N12835 Y-0.2655
N12840 X0.0424 Y-0.2649
N12845 Y-0.2643
N12850 Y-0.2642
N12855 X0.0423 Y-0.2636
N12860 X0.0422 Y-0.2629
N12865 Y-0.2623
N12870 Y-0.2616
N12875 X0.0421 Y-0.261
N12880 Y-0.2604
N12885 Y-0.2603
N12890 Y-0.2597
N12895 Y-0.2591
N12900 Y-0.2585
N12905 Y-0.2582
N12910 Y-0.2577
N12915 Y-0.2572
N12920 Y-0.2566
N12925 Y-0.2561
N12930 X0.0422 Y-0.2555
N12935 Y-0.255
N12940 X0.0423 Y-0.2544
N12945 Y-0.2539
N12950 Y-0.2538
N12955 X0.0424 Y-0.2533
N12960 Y-0.2532
N12965 Y-0.2527
N12970 X0.0425 Y-0.2522
N12975 Y-0.2521
N12980 X0.0426 Y-0.2516
N12985 Y-0.2515
N12990 X0.0427 Y-0.251
N12995 Y-0.2509
N13000 X0.0428 Y-0.2504
N13005 Y-0.2503
N13010 X0.0429 Y-0.2498
N13015 X0.0431 Y-0.2493
N13020 Y-0.2492
N13025 X0.0432 Y-0.2487
N13030 X0.0433 Y-0.2482
N13035 Y-0.2481
N13040 X0.0435 Y-0.2476
N13045 X0.0436 Y-0.2471
N13050 X0.0438 Y-0.2466
N13055 Y-0.2465
N13060 X0.0439 Y-0.246
N13065 X0.0441 Y-0.2455
N13070 X0.0442 Y-0.245
N13075 G2 X0.0443 Y-0.2446 I0.0035 J-0.001
N13080 G1 X0.0445 Y-0.2442
N13085 X0.0447 Y-0.2437
N13090 X0.0448
N13095 X0.045 Y-0.2432
N13100 X0.0452 Y-0.2427
N13105 X0.0454 Y-0.2422
N13110 Y-0.2421
N13115 X0.0456 Y-0.2417
N13120 X0.0457 Y-0.2416
N13125 X0.0459 Y-0.2412
N13130 Y-0.2411
N13135 X0.0462 Y-0.2407
N13140 Y-0.2406
N13145 X0.0464 Y-0.2401
N13150 X0.0465
N13155 X0.0468 Y-0.2396
N13160 Y-0.2395
N13165 X0.0471 Y-0.2391
N13170 X0.0472 Y-0.239
N13175 X0.0474 Y-0.2386
N13180 X0.0475 Y-0.2385
N13185 X0.0478 Y-0.2381
N13190 X0.0479 Y-0.238
N13195 X0.0482 Y-0.2376
N13200 X0.0483 Y-0.2375
N13205 X0.0486 Y-0.2371
N13210 X0.0487 Y-0.237
N13215 X0.049 Y-0.2367
N13220 X0.0491 Y-0.2366
N13225 X0.0495 Y-0.2363
N13230 Y-0.2362
N13235 X0.0499 Y-0.2358
N13240 X0.0503 Y-0.2355
N13245 Y-0.2354
N13250 X0.0507 Y-0.2351
N13255 X0.0508 Y-0.235
N13260 X0.0511 Y-0.2347
N13265 X0.0512
N13270 X0.0515 Y-0.2344
N13275 X0.0516 Y-0.2343
N13280 X0.052 Y-0.234
N13285 X0.0523 Y-0.2337
N13290 G2 X0.0529 Y-0.2333 I0.0024 J-0.0028
N13295 G1 X0.0534 Y-0.233
N13300 X0.0539 Y-0.2327
N13305 X0.0544 Y-0.2325
N13310 Y-0.2324
N13315 X0.0549 Y-0.2322
N13320 X0.0554 Y-0.2319
N13325 X0.0555
N13330 X0.056 Y-0.2316
N13335 X0.0565 Y-0.2314
N13340 X0.0566 Y-0.2313
N13345 X0.0571 Y-0.2311
N13350 X0.0572
N13355 X0.0577 Y-0.2308
N13360 X0.0597 Y-0.2302
N13365 X0.0618 Y-0.2297
N13370 X0.0642 Y-0.2294
N13375 X0.0671 Y-0.2293
N13380 X0.0673
N13385 X0.0678
N13390 X0.0683
N13395 X0.0688
N13400 X0.0693 Y-0.2294
N13405 X0.0694
N13410 X0.0698
N13415 X0.0699
N13420 X0.0704 Y-0.2295
N13425 X0.0709
N13430 X0.071
N13435 X0.0714 Y-0.2296
N13440 X0.0715
N13445 X0.072 Y-0.2297
N13450 X0.0721
N13455 X0.0726 Y-0.2298
N13460 X0.0727
N13465 X0.0731 Y-0.2299
N13470 X0.0733 Y-0.23
N13475 X0.0737 Y-0.2301
N13480 X0.0739
N13485 X0.0743 Y-0.2303
N13490 X0.0744
N13495 X0.0749 Y-0.2305
N13500 X0.075
N13505 X0.0754 Y-0.2307
N13510 X0.0755
N13515 X0.076 Y-0.2309
N13520 X0.0761 Y-0.231
N13525 X0.0765 Y-0.2312
N13530 X0.0766
N13535 X0.077 Y-0.2314
N13540 X0.0771 Y-0.2315
N13545 X0.0775 Y-0.2317
N13550 X0.078 Y-0.2319
N13555 Y-0.232
N13560 X0.0784 Y-0.2322
N13565 X0.0785
N13570 X0.0789 Y-0.2325
N13575 X0.0793 Y-0.2327
N13580 X0.0797 Y-0.233
N13585 G2 X0.0804 Y-0.2335 I-0.0019 J-0.0031
N13590 G1 X0.0808 Y-0.2338
N13595 Y-0.2339
N13600 X0.0811 Y-0.2342
N13605 X0.0812
N13610 X0.0815 Y-0.2346
N13615 X0.0816
N13620 X0.0819 Y-0.235
N13625 X0.0823 Y-0.2354
N13630 X0.0827 Y-0.2358
N13635 X0.0828 Y-0.2359
N13640 X0.0831 Y-0.2362
N13645 X0.0832 Y-0.2363
N13650 X0.0835 Y-0.2367
N13655 Y-0.2368
N13660 X0.0839 Y-0.2372
N13665 Y-0.2373
N13670 X0.0842 Y-0.2377
N13675 X0.0843 Y-0.2378
N13680 X0.0846 Y-0.2382
N13685 X0.0847 Y-0.2383
N13690 X0.085 Y-0.2387
N13695 Y-0.2388
N13700 X0.0853 Y-0.2393
N13705 Y-0.2394
N13710 X0.0856 Y-0.2398
N13715 Y-0.2399
N13720 X0.0859 Y-0.2404
N13725 Y-0.2405
N13730 X0.0861 Y-0.2409
N13735 X0.0862 Y-0.241
N13740 X0.0864 Y-0.2415
N13745 X0.0866 Y-0.242
N13750 Y-0.2421
N13755 X0.0879 Y-0.2418
N13760 X0.0911 Y-0.2435 Z-0.0035
N13765 X0.0927 Y-0.2443 Z0.
N13770 X0.0911 Y-0.2435 Z-0.0035
N13775 X0.0879 Y-0.2418 Z-0.01
N13780 X0.0876 Y-0.2412
N13785 X0.0874 Y-0.2407
N13790 X0.0871 Y-0.2401
N13795 X0.0868 Y-0.2396
N13800 X0.0866 Y-0.2391
N13805 X0.0863 Y-0.2387
N13810 X0.086 Y-0.2382
N13815 X0.0856 Y-0.2378
N13820 X0.0853 Y-0.2373
N13825 X0.0849 Y-0.2369
N13830 X0.0845 Y-0.2364
N13835 X0.0841 Y-0.236
N13840 X0.0836 Y-0.2355
N13845 X0.0831 Y-0.2351
N13850 X0.0827 Y-0.2346
N13855 X0.0822 Y-0.2342
N13860 X0.0816 Y-0.2337
N13865 X0.0814 Y-0.2335
N13870 X0.0811 Y-0.2333
N13875 X0.0805 Y-0.2329
N13880 X0.0799 Y-0.2326
N13885 X0.0793 Y-0.2322
N13890 X0.0787 Y-0.2319
N13895 X0.0781 Y-0.2316
N13900 X0.0776 Y-0.2313
N13905 X0.077 Y-0.231
N13910 X0.0764 Y-0.2308
N13915 X0.0759 Y-0.2306
N13920 X0.0754 Y-0.2304
N13925 X0.0748 Y-0.2302
N13930 X0.0743 Y-0.2301
N13935 X0.0737 Y-0.2299
N13940 X0.0731 Y-0.2298
N13945 X0.0725 Y-0.2297
N13950 X0.0719 Y-0.2296
N13955 X0.0713 Y-0.2295
N13960 X0.0706
N13965 X0.0699 Y-0.2294
N13970 X0.0692
N13975 X0.0685 Y-0.2293
N13980 X0.0678
N13985 X0.0673 Y-0.2292
N13990 X0.0671 Y-0.2293
N13995 G0 Z0.1
N14000 X0.0697 Y-0.0851
N14005 Z0.05
N14010 G1 Z-0.01 F5.
N14015 X0.0705 Y-0.084 Z-0.0089 F7.5
N14020 X0.071 Y-0.0829 Z-0.0086
N14025 X0.0717 Y-0.0807
N14030 X0.0871 Y-0.0361 Z-0.0089
N14035 X0.0876 Y-0.0351 Z-0.0092
N14040 X0.0882 Y-0.0341 Z-0.01
N14045 X0.0895 Y-0.0303
N14050 X0.0869 Y-0.0267 Z0.
N14055 X0.0895 Y-0.0303 Z-0.01
N14060 X0.0947
N14065 X0.0984 Y-0.0267 Z0.
N14070 X0.0947 Y-0.0303 Z-0.01
N14075 Y-0.0875
N14080 X0.0984 Y-0.0911 Z0.
N14085 X0.0947 Y-0.0875 Z-0.01
N14090 X0.0938
N14095 X0.0902 Y-0.0911 Z0.
N14100 X0.0938 Y-0.0875 Z-0.01
N14105 Y-0.0372
N14110 G3 X0.0882 Y-0.0341 I-0.0036 J0.
N14115 G0 Z0.1
N14120 X0.0844 Y-0.2463
N14125 Z0.05
N14130 G1 Z-0.0001 F5.
N14135 X0.0866 Y-0.2421 Z-0.01 F7.5
N14140 G0 Z0.1
N14145 X0.0949 Y-0.3911
N14150 Z0.05
N14155 G1 Z0. F5.
N14160 X0.1002 Y-0.3875 Z-0.01 F7.5
N14165 X0.1193 Y-0.3378
N14170 X0.1202 Y-0.3348 Z-0.0094
N14175 X0.121 Y-0.3323 Z-0.009
N14180 X0.1215 Y-0.3313 Z-0.0092
N14185 X0.1221 Y-0.3304 Z-0.01
N14190 X0.1222 Y-0.3303
N14195 X0.1221
N14200 X0.1197 Y-0.3267 Z0.
N14205 X0.1221 Y-0.3303 Z-0.01
N14210 Y-0.3304
N14215 Y-0.3303
N14220 X0.1222
N14225 X0.1231 Y-0.3301 Z-0.0095
N14230 X0.124 Z-0.0093
N14235 X0.125 Z-0.0095
N14240 X0.1259 Y-0.3303 Z-0.01
N14245 X0.1264
N14250 X0.1288 Y-0.3267 Z0.
N14255 X0.1264 Y-0.3303 Z-0.01
N14260 X0.1266 Y-0.3309
N14265 G3 X0.1259 Y-0.3303 I-0.0026 J-0.0026
N14270 G2 X0.1266 Y-0.3309 I-0.0019 J-0.0031
N14275 G1 X0.1273 Y-0.3321 Z-0.0096
N14280 X0.1284 Y-0.3353 Z-0.01
N14285 X0.1498 Y-0.3875
N14290 X0.1552 Y-0.3911 Z0.
N14295 X0.1498 Y-0.3875 Z-0.01
N14300 X0.148
N14305 X0.1455 Y-0.3911 Z0.
N14310 X0.148 Y-0.3875 Z-0.01
N14315 X0.1414 Y-0.3703
N14320 G3 X0.138 Y-0.368 I-0.0034 J-0.0013
N14325 G1 X0.1369
N14330 G3 X0.1387 Y-0.3634 I-0.0015 J0.0033
N14335 G1 X0.132 Y-0.3455
N14340 X0.1316 Y-0.3444
N14345 X0.1314 Y-0.3439
N14350 X0.1312 Y-0.3433
N14355 X0.131 Y-0.3428
N14360 X0.1308 Y-0.3423
N14365 X0.1306 Y-0.3417
N14370 X0.1304 Y-0.3412
N14375 X0.1302 Y-0.3406
N14380 X0.13 Y-0.3401
N14385 X0.1298 Y-0.3395
N14390 X0.1296 Y-0.339
N14395 X0.1295 Y-0.3385
N14400 X0.1293 Y-0.3379
N14405 X0.1291 Y-0.3374
N14410 X0.1289 Y-0.3368
N14415 X0.1287 Y-0.3363
N14420 X0.1286 Y-0.3357
N14425 X0.1284 Y-0.3353
N14430 X0.1286 Y-0.3357
N14435 X0.1287 Y-0.3363
N14440 X0.1289 Y-0.3368
N14445 X0.1291 Y-0.3374
N14450 X0.1293 Y-0.3379
N14455 X0.1295 Y-0.3385
N14460 X0.1296 Y-0.339
N14465 X0.1298 Y-0.3395
N14470 X0.13 Y-0.3401
N14475 X0.1302 Y-0.3406
N14480 X0.1304 Y-0.3412
N14485 X0.1306 Y-0.3417
N14490 X0.1308 Y-0.3423
N14495 X0.131 Y-0.3428
N14500 X0.1312 Y-0.3433
N14505 X0.1314 Y-0.3439
N14510 X0.1316 Y-0.3444
N14515 X0.132 Y-0.3455
N14520 X0.1387 Y-0.3634
N14525 G2 X0.1369 Y-0.368 I-0.0034 J-0.0013
N14530 G1 X0.1361 Y-0.3681 Z-0.0097
N14535 X0.1353 Z-0.0095
N14540 X0.1135
N14545 X0.1127 Z-0.0097
N14550 X0.112 Y-0.368 Z-0.01
N14555 G2 X0.1101 Y-0.3634 I0.0015 J0.0033
N14560 G1 X0.1171 Y-0.3445
N14565 X0.1173 Y-0.3441
N14570 X0.1175 Y-0.3436
N14575 X0.1176 Y-0.3431
N14580 X0.1178 Y-0.3426
N14585 X0.118 Y-0.3421
N14590 X0.1181 Y-0.3416
N14595 X0.1183 Y-0.3411
N14600 X0.1185 Y-0.3406
N14605 X0.1186 Y-0.3401
N14610 X0.1188 Y-0.3397
N14615 X0.1189 Y-0.3392
N14620 X0.119 Y-0.3387
N14625 X0.1192 Y-0.3382
N14630 X0.1193 Y-0.3378
N14635 X0.1192 Y-0.3382
N14640 X0.119 Y-0.3387
N14645 X0.1189 Y-0.3392
N14650 X0.1188 Y-0.3397
N14655 X0.1186 Y-0.3401
N14660 X0.1185 Y-0.3406
N14665 X0.1183 Y-0.3411
N14670 X0.1181 Y-0.3416
N14675 X0.118 Y-0.3421
N14680 X0.1178 Y-0.3426
N14685 X0.1176 Y-0.3431
N14690 X0.1175 Y-0.3436
N14695 X0.1173 Y-0.3441
N14700 X0.1171 Y-0.3445
N14705 X0.1101 Y-0.3634
N14710 G3 X0.112 Y-0.368 I0.0034 J-0.0013
N14715 G1 X0.111
N14720 G3 X0.1076 Y-0.3704 I0. J-0.0036
N14725 G1 X0.1014 Y-0.3875
N14730 X0.1002
N14735 X0.1014
N14740 X0.1039 Y-0.3911 Z0.
N14745 G0 Z0.1
N14750 X0.0973 Y-0.4795
N14755 Z0.05
N14760 G1 Z0. F5.
N14765 X0.1026 Y-0.4758 Z-0.01 F7.5
N14770 X0.1217 Y-0.4261
N14775 X0.1231 Y-0.4216 Z-0.0091
N14780 X0.1234 Y-0.4206 Z-0.009
N14785 X0.1239 Y-0.4196 Z-0.0092
N14790 X0.1245 Y-0.4187 Z-0.01
N14795 X0.122 Y-0.4151 Z0.
N14800 X0.1245 Y-0.4187 Z-0.01
N14805 X0.1246
N14810 X0.1245
N14815 X0.1246
N14820 X0.1255 Y-0.4185 Z-0.0095
N14825 X0.1264 Y-0.4184 Z-0.0093
N14830 X0.1273 Y-0.4185 Z-0.0095
N14835 X0.1283 Y-0.4187 Z-0.01
N14840 G2 X0.129 Y-0.4192 I-0.0019 J-0.0031
N14845 G1 X0.1288 Y-0.4187
N14850 X0.1312 Y-0.4151 Z0.
N14855 X0.1288 Y-0.4187 Z-0.01
N14860 X0.1283
N14865 X0.1288
N14870 X0.129 Y-0.4192
N14875 X0.1297 Y-0.4205 Z-0.0096
N14880 X0.1308 Y-0.4237 Z-0.01
N14885 X0.1522 Y-0.4758
N14890 X0.1576 Y-0.4795 Z0.
N14895 X0.1522 Y-0.4758 Z-0.01
N14900 X0.1504
N14905 X0.1479 Y-0.4795 Z0.
N14910 X0.1504 Y-0.4758 Z-0.01
N14915 X0.1437 Y-0.4587
N14920 G3 X0.1403 Y-0.4563 I-0.0034 J-0.0013
N14925 G1 X0.1392
N14930 G3 X0.1411 Y-0.4517 I-0.0015 J0.0033
N14935 G1 X0.1344 Y-0.4339
N14940 X0.1342 Y-0.4333
N14945 X0.134 Y-0.4328
N14950 X0.1338 Y-0.4323
N14955 X0.1336 Y-0.4317
N14960 X0.1334 Y-0.4312
N14965 X0.1332 Y-0.4306
N14970 X0.133 Y-0.4301
N14975 X0.1328 Y-0.4295
N14980 X0.1326 Y-0.429
N14985 X0.1324 Y-0.4284
N14990 X0.1322 Y-0.4279
N14995 X0.132 Y-0.4274
N15000 X0.1318 Y-0.4268
N15005 X0.1316 Y-0.4263
N15010 X0.1315 Y-0.4257
N15015 X0.1313 Y-0.4252
N15020 X0.1311 Y-0.4246
N15025 X0.1309 Y-0.4241
N15030 X0.1308 Y-0.4237
N15035 X0.1309 Y-0.4241
N15040 X0.1311 Y-0.4246
N15045 X0.1313 Y-0.4252
N15050 X0.1315 Y-0.4257
N15055 X0.1316 Y-0.4263
N15060 X0.1318 Y-0.4268
N15065 X0.132 Y-0.4274
N15070 X0.1322 Y-0.4279
N15075 X0.1324 Y-0.4284
N15080 X0.1326 Y-0.429
N15085 X0.1328 Y-0.4295
N15090 X0.133 Y-0.4301
N15095 X0.1332 Y-0.4306
N15100 X0.1334 Y-0.4312
N15105 X0.1336 Y-0.4317
N15110 X0.1338 Y-0.4323
N15115 X0.134 Y-0.4328
N15120 X0.1342 Y-0.4333
N15125 X0.1344 Y-0.4339
N15130 X0.1411 Y-0.4517
N15135 G2 X0.1392 Y-0.4563 I-0.0034 J-0.0013
N15140 G1 X0.1385 Y-0.4564 Z-0.0097
N15145 X0.1377 Y-0.4565 Z-0.0095
N15150 X0.1159
N15155 X0.1151 Y-0.4564 Z-0.0097
N15160 X0.1143 Y-0.4563 Z-0.01
N15165 G2 X0.1125 Y-0.4517 I0.0015 J0.0033
N15170 G1 X0.1195 Y-0.4329
N15175 X0.1197 Y-0.4324
N15180 X0.1199 Y-0.4319
N15185 X0.12 Y-0.4314
N15190 X0.1202 Y-0.4309
N15195 X0.1204 Y-0.4304
N15200 X0.1205 Y-0.43
N15205 X0.1207 Y-0.4295
N15210 X0.1208 Y-0.429
N15215 X0.121 Y-0.4285
N15220 X0.1211 Y-0.428
N15225 X0.1213 Y-0.4275
N15230 X0.1214 Y-0.427
N15235 X0.1216 Y-0.4266
N15240 X0.1217 Y-0.4261
N15245 X0.1216 Y-0.4266
N15250 X0.1214 Y-0.427
N15255 X0.1213 Y-0.4275
N15260 X0.1211 Y-0.428
N15265 X0.121 Y-0.4285
N15270 X0.1208 Y-0.429
N15275 X0.1207 Y-0.4295
N15280 X0.1205 Y-0.43
N15285 X0.1204 Y-0.4304
N15290 X0.1202 Y-0.4309
N15295 X0.12 Y-0.4314
N15300 X0.1199 Y-0.4319
N15305 X0.1197 Y-0.4324
N15310 X0.1195 Y-0.4329
N15315 X0.1125 Y-0.4517
N15320 G3 X0.1143 Y-0.4563 I0.0034 J-0.0013
N15325 G1 X0.1134
N15330 G3 X0.11 Y-0.4587 I0. J-0.0036
N15335 G1 X0.1038 Y-0.4758
N15340 X0.1026
N15345 X0.1038
N15350 X0.1063 Y-0.4795 Z0.
N15355 G0 Z0.1
N15360 X0.0973 Y-0.2911
N15365 Z0.05
N15370 G1 Z0. F5.
N15375 X0.1026 Y-0.2875 Z-0.01 F7.5
N15380 X0.1038
N15385 X0.1063 Y-0.2911 Z0.
N15390 X0.1038 Y-0.2875 Z-0.01
N15395 X0.11 Y-0.2704
N15400 G2 X0.1134 Y-0.268 I0.0034 J-0.0012
N15405 G1 X0.1143
N15410 X0.1151 Y-0.2681 Z-0.0097
N15415 X0.1159 Z-0.0095
N15420 X0.1377
N15425 X0.1385 Z-0.0097
N15430 X0.1392 Y-0.268 Z-0.01
N15435 X0.1403
N15440 G2 X0.1437 Y-0.2703 I0. J-0.0036
N15445 G1 X0.1504 Y-0.2875
N15450 X0.1479 Y-0.2911 Z0.
N15455 X0.1504 Y-0.2875 Z-0.01
N15460 X0.1522
N15465 X0.1576 Y-0.2911 Z0.
N15470 X0.1522 Y-0.2875 Z-0.01
N15475 X0.1308 Y-0.2353
N15480 X0.1309 Y-0.2357
N15485 X0.1311 Y-0.2363
N15490 X0.1313 Y-0.2368
N15495 X0.1315 Y-0.2374
N15500 X0.1316 Y-0.2379
N15505 X0.1318 Y-0.2385
N15510 X0.132 Y-0.239
N15515 X0.1322 Y-0.2395
N15520 X0.1324 Y-0.2401
N15525 X0.1326 Y-0.2406
N15530 X0.1328 Y-0.2412
N15535 X0.133 Y-0.2417
N15540 X0.1332 Y-0.2423
N15545 X0.1334 Y-0.2428
N15550 X0.1336 Y-0.2433
N15555 X0.1338 Y-0.2439
N15560 X0.134 Y-0.2444
N15565 X0.1342 Y-0.245
N15570 X0.1344 Y-0.2455
N15575 X0.1411 Y-0.2634
N15580 G2 X0.1392 Y-0.268 I-0.0034 J-0.0013
N15585 G3 X0.1411 Y-0.2634 I-0.0015 J0.0033
N15590 G1 X0.1344 Y-0.2455
N15595 X0.1342 Y-0.245
N15600 X0.134 Y-0.2444
N15605 X0.1338 Y-0.2439
N15610 X0.1336 Y-0.2433
N15615 X0.1334 Y-0.2428
N15620 X0.1332 Y-0.2423
N15625 X0.133 Y-0.2417
N15630 X0.1328 Y-0.2412
N15635 X0.1326 Y-0.2406
N15640 X0.1324 Y-0.2401
N15645 X0.1322 Y-0.2395
N15650 X0.132 Y-0.239
N15655 X0.1318 Y-0.2385
N15660 X0.1316 Y-0.2379
N15665 X0.1315 Y-0.2374
N15670 X0.1313 Y-0.2368
N15675 X0.1311 Y-0.2363
N15680 X0.1309 Y-0.2357
N15685 X0.1308 Y-0.2353
N15690 X0.1297 Y-0.2321 Z-0.0096
N15695 X0.129 Y-0.2309 Z-0.01
N15700 G3 X0.1283 Y-0.2303 I-0.0026 J-0.0026
N15705 G1 X0.1288
N15710 X0.1312 Y-0.2267 Z0.
N15715 X0.1288 Y-0.2303 Z-0.01
N15720 X0.129 Y-0.2309
N15725 X0.1288 Y-0.2303
N15730 X0.1283
N15735 X0.1273 Y-0.2301 Z-0.0095
N15740 X0.1264 Z-0.0093
N15745 X0.1255 Z-0.0095
N15750 X0.1246 Y-0.2303 Z-0.01
N15755 X0.1245 Y-0.2304
N15760 Y-0.2303
N15765 X0.122 Y-0.2267 Z0.
N15770 X0.1245 Y-0.2303 Z-0.01
N15775 X0.1246
N15780 X0.1245
N15785 Y-0.2304
N15790 X0.1239 Y-0.2313 Z-0.0092
N15795 X0.1234 Y-0.2323 Z-0.009
N15800 X0.1226 Y-0.2348 Z-0.0095
N15805 X0.1217 Y-0.2378 Z-0.01
N15810 X0.1216 Y-0.2382
N15815 X0.1214 Y-0.2387
N15820 X0.1213 Y-0.2392
N15825 X0.1211 Y-0.2397
N15830 X0.121 Y-0.2401
N15835 X0.1208 Y-0.2406
N15840 X0.1207 Y-0.2411
N15845 X0.1205 Y-0.2416
N15850 X0.1204 Y-0.2421
N15855 X0.1202 Y-0.2426
N15860 X0.12 Y-0.2431
N15865 X0.1199 Y-0.2436
N15870 X0.1195 Y-0.2445
N15875 X0.1125 Y-0.2634
N15880 G3 X0.1143 Y-0.268 I0.0034 J-0.0013
N15885 G2 X0.1125 Y-0.2634 I0.0015 J0.0033
N15890 G1 X0.1195 Y-0.2445
N15895 X0.1199 Y-0.2436
N15900 X0.12 Y-0.2431
N15905 X0.1202 Y-0.2426
N15910 X0.1204 Y-0.2421
N15915 X0.1205 Y-0.2416
N15920 X0.1207 Y-0.2411
N15925 X0.1208 Y-0.2406
N15930 X0.121 Y-0.2401
N15935 X0.1211 Y-0.2397
N15940 X0.1213 Y-0.2392
N15945 X0.1214 Y-0.2387
N15950 X0.1216 Y-0.2382
N15955 X0.1217 Y-0.2378
N15960 X0.1026 Y-0.2875
N15965 G0 Z0.1
N15970 X0.1 Y-0.1911
N15975 Z0.05
N15980 G1 Z0. F5.
N15985 X0.1036 Y-0.1874 Z-0.01 F7.5
N15990 Y-0.1303
N15995 X0.1 Y-0.1267 Z0.
N16000 X0.1036 Y-0.1303 Z-0.01
N16005 X0.1429
N16010 X0.1466 Y-0.1267 Z0.
N16015 X0.1429 Y-0.1303 Z-0.01
N16020 Y-0.1306
N16025 X0.1466 Y-0.1342 Z0.
N16030 X0.1429 Y-0.1306 Z-0.01
N16035 X0.1085
N16040 G3 X0.1049 Y-0.1343 I0. J-0.0036
N16045 G1 Y-0.154
N16050 G3 X0.1085 Y-0.1576 I0.0036 J0.
N16055 G1 X0.1405
N16060 X0.1442 Y-0.154 Z0.
N16065 X0.1405 Y-0.1576 Z-0.01
N16070 Y-0.1579
N16075 X0.1442 Y-0.1615 Z0.
N16080 X0.1405 Y-0.1579 Z-0.01
N16085 X0.1085
N16090 G3 X0.1049 Y-0.1615 I0. J-0.0036
N16095 G1 Y-0.1835
N16100 G3 X0.1085 Y-0.1871 I0.0036 J0.
N16105 G1 X0.1444
N16110 X0.1481 Y-0.1835 Z0.
N16115 X0.1444 Y-0.1871 Z-0.01
N16120 Y-0.1874
N16125 X0.1481 Y-0.1911 Z0.
N16130 X0.1444 Y-0.1874 Z-0.01
N16135 X0.1036
N16140 G0 Z0.1
N16145 X0.1323 Y-0.0875
N16150 Z0.05
N16155 G1 Z-0.01 F5.
N16160 X0.1328 Y-0.0876 F7.5
N16165 X0.1334 Y-0.0878
N16170 X0.134 Y-0.0879
N16175 X0.1346 Y-0.088
N16180 X0.1352 Y-0.0881
N16185 X0.1358 Y-0.0882
N16190 X0.1365 Y-0.0883
N16195 X0.1371
N16200 X0.1378 Y-0.0884
N16205 X0.1385 Y-0.0885
N16210 X0.1391
N16215 X0.1398
N16220 X0.1403 Y-0.0886
N16225 X0.1408 Y-0.0885
N16230 X0.1415
N16235 X0.1421
N16240 X0.1428 Y-0.0884
N16245 X0.1434
N16250 X0.144 Y-0.0883
N16255 X0.1447 Y-0.0882
N16260 X0.1453 Y-0.0881
N16265 X0.1458
N16270 X0.1464 Y-0.088
N16275 X0.147 Y-0.0878
N16280 X0.1475 Y-0.0877
N16285 X0.1481 Y-0.0876
N16290 X0.1486 Y-0.0874
N16295 X0.1492 Y-0.0872
N16300 X0.1497 Y-0.087
N16305 X0.1503 Y-0.0868
N16310 X0.1509 Y-0.0866
N16315 X0.1514 Y-0.0863
N16320 X0.152 Y-0.0861
N16325 X0.1526 Y-0.0858
N16330 X0.1532 Y-0.0855
N16335 X0.1538 Y-0.0853
N16340 X0.1542 Y-0.0851
N16345 X0.1546 Y-0.0848
N16350 X0.1551 Y-0.0845
N16355 X0.1557 Y-0.0841
N16360 X0.1562 Y-0.0837
N16365 X0.1567 Y-0.0834
N16370 X0.1572 Y-0.083
N16375 X0.1577 Y-0.0826
N16380 X0.1582 Y-0.0823
N16385 X0.1586 Y-0.0819
N16390 X0.1591 Y-0.0815
N16395 X0.1595 Y-0.0811
N16400 X0.1599 Y-0.0807
N16405 X0.1602 Y-0.0803
N16410 X0.1606 Y-0.0799
N16415 X0.1609 Y-0.0795
N16420 X0.1613 Y-0.079
N16425 X0.1616 Y-0.0785
N16430 X0.162 Y-0.078
N16435 X0.1623 Y-0.0775
N16440 X0.1627 Y-0.077
N16445 X0.163 Y-0.0764
N16450 X0.1634 Y-0.0758
N16455 X0.1637 Y-0.0753
N16460 X0.1639 Y-0.0749
N16465 X0.1641 Y-0.0744
N16470 X0.1644 Y-0.0737
N16475 X0.1647 Y-0.073
N16480 X0.165 Y-0.0724
N16485 X0.1653 Y-0.0717
N16490 X0.1655 Y-0.071
N16495 X0.1657 Y-0.0704
N16500 X0.166 Y-0.0697
N16505 X0.1662 Y-0.0691
N16510 X0.1664 Y-0.0685
N16515 X0.1665 Y-0.0678
N16520 X0.1667 Y-0.0672
N16525 X0.1668 Y-0.0666
N16530 X0.1669 Y-0.0659
N16535 X0.167 Y-0.0653
N16540 X0.1671 Y-0.0646
N16545 X0.1672 Y-0.0639
N16550 X0.1673 Y-0.0632
N16555 Y-0.0625
N16560 X0.1674 Y-0.0618
N16565 Y-0.0611
N16570 Y-0.0603
N16575 X0.1675 Y-0.0596
N16580 Y-0.059
N16585 Y-0.0584
N16590 X0.1674 Y-0.0577
N16595 Y-0.057
N16600 Y-0.0562
N16605 X0.1673 Y-0.0555
N16610 Y-0.0548
N16615 X0.1672 Y-0.0541
N16620 X0.1671 Y-0.0535
N16625 X0.167 Y-0.0528
N16630 X0.1669 Y-0.0522
N16635 X0.1668 Y-0.0515
N16640 X0.1667 Y-0.0509
N16645 X0.1666 Y-0.0503
N16650 X0.1664 Y-0.0497
N16655 X0.1662 Y-0.049
N16660 X0.166 Y-0.0484
N16665 X0.1658 Y-0.0478
N16670 X0.1656 Y-0.0471
N16675 X0.1654 Y-0.0465
N16680 X0.1651 Y-0.0458
N16685 X0.1648 Y-0.0451
N16690 X0.1646 Y-0.0445
N16695 X0.1643 Y-0.0438
N16700 X0.1641 Y-0.0433
N16705 X0.1639 Y-0.0429
N16710 X0.1635 Y-0.0424
N16715 X0.1632 Y-0.0418
N16720 X0.1629 Y-0.0412
N16725 X0.1625 Y-0.0407
N16730 X0.1622 Y-0.0402
N16735 X0.1619 Y-0.0397
N16740 X0.1615 Y-0.0392
N16745 X0.1612 Y-0.0387
N16750 X0.1608 Y-0.0382
N16755 X0.1605 Y-0.0378
N16760 X0.1601 Y-0.0374
N16765 X0.1597 Y-0.037
N16770 X0.1594 Y-0.0366
N16775 X0.1589 Y-0.0362
N16780 X0.1585 Y-0.0359
N16785 X0.158 Y-0.0355
N16790 X0.1576 Y-0.0351
N16795 X0.1571 Y-0.0347
N16800 X0.1566 Y-0.0343
N16805 X0.156 Y-0.034
N16810 X0.1555 Y-0.0336
N16815 X0.155 Y-0.0332
N16820 X0.1546 Y-0.033
N16825 X0.1542 Y-0.0328
N16830 X0.1536 Y-0.0324
N16835 X0.153 Y-0.0322
N16840 X0.1524 Y-0.0319
N16845 X0.1518 Y-0.0316
N16850 X0.1512 Y-0.0313
N16855 X0.1506 Y-0.0311
N16860 X0.15 Y-0.0308
N16865 X0.1495 Y-0.0306
N16870 X0.1489 Y-0.0304
N16875 X0.1484 Y-0.0303
N16880 X0.1478 Y-0.0301
N16885 X0.1472 Y-0.03
N16890 X0.1467 Y-0.0298
N16895 X0.1461 Y-0.0297
N16900 X0.1455 Y-0.0296
N16905 X0.1449
N16910 X0.1442 Y-0.0295
N16915 X0.1436 Y-0.0294
N16920 X0.1429
N16925 X0.1423 Y-0.0293
N16930 X0.1416
N16935 X0.1409 Y-0.0292
N16940 X0.1404
N16945 X0.1396 Y-0.0293
N16950 X0.1386
N16955 X0.1376 Y-0.0294
N16960 X0.1366 Y-0.0295
N16965 X0.1357 Y-0.0297
N16970 X0.1347 Y-0.0298
N16975 X0.1338 Y-0.0299
N16980 X0.1329 Y-0.0301
N16985 X0.132 Y-0.0303
N16990 X0.1312 Y-0.0305
N16995 X0.1304 Y-0.0308
N17000 X0.1296 Y-0.0311
N17005 X0.1289 Y-0.0314
N17010 X0.1282 Y-0.0318
N17015 X0.1274 Y-0.0322
N17020 X0.1267 Y-0.0327
N17025 X0.1259 Y-0.0331
N17030 X0.1252 Y-0.0337
N17035 X0.1244 Y-0.0342
N17040 X0.1236 Y-0.0348
N17045 X0.1229 Y-0.0355
N17050 X0.1221 Y-0.0361
N17055 X0.1213 Y-0.0368
N17060 X0.1208 Y-0.0371
N17065 X0.1204 Y-0.0377
N17070 X0.1198 Y-0.0386
N17075 X0.1191 Y-0.0395
N17080 X0.1185 Y-0.0404
N17085 X0.1179 Y-0.0413
N17090 X0.1174 Y-0.0422
N17095 X0.1169 Y-0.0431
N17100 X0.1164 Y-0.044
N17105 X0.1159 Y-0.0448
N17110 X0.1155 Y-0.0457
N17115 X0.1152 Y-0.0466
N17120 X0.1148 Y-0.0475
N17125 X0.1146 Y-0.0484
N17130 X0.1143 Y-0.0493
N17135 X0.1141 Y-0.0503
N17140 X0.1139 Y-0.0512
N17145 X0.1138 Y-0.0523
N17150 X0.1136 Y-0.0533
N17155 X0.1135 Y-0.0544
N17160 X0.1134 Y-0.0554
N17165 Y-0.0565
N17170 X0.1133 Y-0.0576
N17175 X0.1132 Y-0.0588
N17180 Y-0.0597
N17185 Y-0.0602
N17190 X0.1133 Y-0.0609
N17195 Y-0.0616
N17200 Y-0.0623
N17205 X0.1134 Y-0.0629
N17210 X0.1135 Y-0.0636
N17215 Y-0.0642
N17220 X0.1136 Y-0.0648
N17225 X0.1137 Y-0.0654
N17230 X0.1138 Y-0.066
N17235 X0.1139 Y-0.0666
N17240 X0.114 Y-0.0672
N17245 X0.1141 Y-0.0678
N17250 X0.1143 Y-0.0683
N17255 X0.1145 Y-0.0689
N17260 X0.1147 Y-0.0695
N17265 X0.1149 Y-0.0701
N17270 X0.1151 Y-0.0707
N17275 X0.1153 Y-0.0713
N17280 X0.1156 Y-0.0719
N17285 X0.1158 Y-0.0725
N17290 X0.1161 Y-0.0731
N17295 X0.1163 Y-0.0738
N17300 X0.1165 Y-0.0742
N17305 X0.1167 Y-0.0746
N17310 X0.1171 Y-0.0752
N17315 X0.1174 Y-0.0758
N17320 X0.1177 Y-0.0763
N17325 X0.1181 Y-0.0769
N17330 X0.1184 Y-0.0774
N17335 X0.1187 Y-0.0779
N17340 X0.1191 Y-0.0784
N17345 X0.1194 Y-0.0789
N17350 X0.1198 Y-0.0793
N17355 X0.1201 Y-0.0798
N17360 X0.1205 Y-0.0802
N17365 X0.1209 Y-0.0806
N17370 X0.1213 Y-0.081
N17375 X0.1217 Y-0.0814
N17380 X0.1221 Y-0.0817
N17385 X0.1226 Y-0.0821
N17390 X0.123 Y-0.0825
N17395 X0.1235 Y-0.0829
N17400 X0.124 Y-0.0833
N17405 X0.1246 Y-0.0837
N17410 X0.1251 Y-0.0841
N17415 X0.1256 Y-0.0845
N17420 X0.126 Y-0.0847
N17425 X0.1264 Y-0.0849
N17430 X0.127 Y-0.0852
N17435 X0.1276 Y-0.0855
N17440 X0.1282 Y-0.0858
N17445 X0.1288 Y-0.0861
N17450 X0.1294 Y-0.0864
N17455 X0.13 Y-0.0866
N17460 X0.1306 Y-0.0869
N17465 X0.1312 Y-0.0871
N17470 X0.1317 Y-0.0873
N17475 X0.1323 Y-0.0875
N17480 G0 Z0.1
N17485 Y-0.0873
N17490 Z0.05
N17495 G1 Z-0.01 F5.
N17500 X0.1327 Y-0.0875 F7.5
N17505 X0.1329
N17510 X0.1336 Y-0.0877
N17515 X0.1337
N17520 X0.1344 Y-0.0879
N17525 X0.1345
N17530 X0.1352 Y-0.088
N17535 X0.1353
N17540 X0.136 Y-0.0881
N17545 X0.1361
N17550 X0.1369 Y-0.0882
N17555 X0.1377 Y-0.0883
N17560 X0.1384 Y-0.0884
N17565 X0.1385
N17570 X0.1392 Y-0.0885
N17575 X0.14
N17580 G3 X0.1406 I0.0003 J0.0036
N17585 G1 X0.1414
N17590 X0.1421 Y-0.0884
N17595 X0.1422
N17600 X0.1429 Y-0.0883
N17605 X0.143
N17610 X0.1437 Y-0.0882
N17615 X0.1438
N17620 X0.1445 Y-0.0881
N17625 X0.1446
N17630 X0.1453 Y-0.088
N17635 X0.1454
N17640 X0.1461 Y-0.0879
N17645 X0.1462
N17650 X0.147 Y-0.0877
N17655 X0.1471
N17660 X0.1478 Y-0.0875
N17665 X0.1479
N17670 X0.1486 Y-0.0873
N17675 X0.1488 Y-0.0872
N17680 X0.1495 Y-0.087
N17685 X0.1496 Y-0.0869
N17690 X0.1503 Y-0.0867
N17695 X0.1505 Y-0.0866
N17700 X0.1511 Y-0.0863
N17705 X0.1513 Y-0.0862
N17710 X0.1519 Y-0.0859
N17715 X0.1521 Y-0.0858
N17720 X0.1527 Y-0.0854
N17725 X0.1528
N17730 X0.1534 Y-0.085
N17735 X0.1536 Y-0.0849
N17740 X0.1542 Y-0.0845
N17745 Y-0.0844
N17750 X0.1548 Y-0.084
N17755 X0.1549 Y-0.0839
N17760 X0.1555 Y-0.0835
N17765 X0.1556 Y-0.0834
N17770 X0.1561 Y-0.0829
N17775 X0.1562
N17780 X0.1568 Y-0.0824
N17785 X0.1574 Y-0.0819
N17790 X0.158 Y-0.0814
N17795 X0.1585 Y-0.0809
N17800 G3 X0.1591 Y-0.0802 I-0.0024 J0.0027
N17805 G1 X0.1596 Y-0.0795
N17810 X0.1601 Y-0.0788
N17815 Y-0.0787
N17820 X0.1606 Y-0.078
N17825 X0.1611 Y-0.0773
N17830 Y-0.0772
N17835 X0.1616 Y-0.0765
N17840 Y-0.0764
N17845 X0.1621 Y-0.0757
N17850 Y-0.0756
N17855 X0.1626 Y-0.0748
N17860 Y-0.0747
N17865 X0.163 Y-0.074
N17870 X0.1631 Y-0.0739
N17875 X0.1634 Y-0.0731
N17880 X0.1635 Y-0.073
N17885 X0.1638 Y-0.0722
N17890 X0.1639 Y-0.0721
N17895 X0.1642 Y-0.0713
N17900 X0.1643 Y-0.0711
N17905 X0.1645 Y-0.0703
N17910 X0.1646 Y-0.0702
N17915 X0.1648 Y-0.0694
N17920 Y-0.0692
N17925 X0.165 Y-0.0684
N17930 X0.1651 Y-0.0683
N17935 X0.1652 Y-0.0674
N17940 X0.1653 Y-0.0673
N17945 X0.1654 Y-0.0665
N17950 Y-0.0664
N17955 X0.1655 Y-0.0655
N17960 Y-0.0654
N17965 X0.1656 Y-0.0646
N17970 X0.1657 Y-0.0645
N17975 Y-0.0637
N17980 Y-0.0636
N17985 X0.1658 Y-0.0627
N17990 X0.1659 Y-0.0618
N17995 Y-0.0609
N18000 X0.166 Y-0.06
N18005 Y-0.0591
N18010 Y-0.0588
N18015 Y-0.0582
N18020 Y-0.0576
N18025 X0.1659 Y-0.057
N18030 Y-0.0564
N18035 Y-0.0558
N18040 X0.1658 Y-0.0552
N18045 Y-0.0551
N18050 Y-0.0545
N18055 X0.1657 Y-0.0539
N18060 Y-0.0538
N18065 X0.1656 Y-0.0533
N18070 Y-0.0532
N18075 Y-0.0526
N18080 Y-0.0525
N18085 X0.1655 Y-0.052
N18090 X0.1654 Y-0.0519
N18095 X0.1653 Y-0.0513
N18100 Y-0.0512
N18105 X0.1652 Y-0.0506
N18110 X0.1651 Y-0.05
N18115 X0.165 Y-0.0499
N18120 X0.1649 Y-0.0493
N18125 X0.1647 Y-0.0487
N18130 Y-0.0486
N18135 X0.1645 Y-0.0481
N18140 Y-0.048
N18145 X0.1643 Y-0.0475
N18150 Y-0.0474
N18155 X0.1641 Y-0.0469
N18160 Y-0.0468
N18165 X0.1639 Y-0.0463
N18170 Y-0.0462
N18175 X0.1637 Y-0.0457
N18180 Y-0.0456
N18185 X0.1635 Y-0.0451
N18190 X0.1633 Y-0.0445
N18195 X0.1631 Y-0.044
N18200 G3 X0.1629 Y-0.0435 I-0.0034 J-0.0013
N18205 G1 X0.1627 Y-0.0431
N18210 X0.1624 Y-0.0426
N18215 X0.1622 Y-0.0422
N18220 Y-0.0421
N18225 X0.1619 Y-0.0417
N18230 Y-0.0416
N18235 X0.1616 Y-0.0412
N18240 X0.1614 Y-0.0407
N18245 X0.1613
N18250 X0.1611 Y-0.0402
N18255 X0.161
N18260 X0.1607 Y-0.0397
N18265 X0.1604 Y-0.0393
N18270 Y-0.0392
N18275 X0.1601 Y-0.0388
N18280 X0.16 Y-0.0387
N18285 X0.1597 Y-0.0383
N18290 X0.1596 Y-0.0382
N18295 X0.1593 Y-0.0378
N18300 X0.1592 Y-0.0377
N18305 X0.1589 Y-0.0373
N18310 X0.1588 Y-0.0372
N18315 X0.1585 Y-0.0369
N18320 X0.1584 Y-0.0368
N18325 X0.158 Y-0.0364
N18330 X0.1579 Y-0.0363
N18335 X0.1576 Y-0.036
N18340 X0.1575 Y-0.0359
N18345 X0.1571 Y-0.0356
N18350 X0.1567 Y-0.0352
N18355 X0.1566
N18360 X0.1562 Y-0.0349
N18365 Y-0.0348
N18370 X0.1558 Y-0.0345
N18375 X0.1554 Y-0.0342
N18380 X0.1553
N18385 X0.1549 Y-0.0338
N18390 X0.1545 Y-0.0335
N18395 X0.1541 Y-0.0332
N18400 G3 X0.1536 Y-0.0329 I-0.0022 J-0.0029
N18405 G1 X0.1532 Y-0.0327
N18410 X0.1527 Y-0.0325
N18415 Y-0.0324
N18420 X0.1522 Y-0.0322
N18425 X0.1518 Y-0.032
N18430 X0.1517 Y-0.0319
N18435 X0.1513 Y-0.0317
N18440 X0.1512
N18445 X0.1508 Y-0.0315
N18450 X0.1507 Y-0.0314
N18455 X0.1503 Y-0.0312
N18460 X0.1502
N18465 X0.1497 Y-0.031
N18470 X0.1496
N18475 X0.1492 Y-0.0308
N18480 X0.1491 Y-0.0307
N18485 X0.1486 Y-0.0306
N18490 X0.1485 Y-0.0305
N18495 X0.1481 Y-0.0304
N18500 X0.1479 Y-0.0303
N18505 X0.1475 Y-0.0302
N18510 X0.1473
N18515 X0.1469 Y-0.03
N18520 X0.1467
N18525 X0.1463 Y-0.0299
N18530 X0.1461
N18535 X0.1457 Y-0.0298
N18540 X0.1456
N18545 X0.1451 Y-0.0297
N18550 X0.145
N18555 X0.1445 Y-0.0296
N18560 X0.1444
N18565 X0.1439 Y-0.0295
N18570 X0.1438
N18575 X0.1433
N18580 X0.1428 Y-0.0294
N18585 X0.1422
N18590 X0.1417 Y-0.0293
N18595 X0.1412
N18600 X0.1407
N18605 G3 X0.1401 I-0.0002 J-0.0036
N18610 G1 X0.1394
N18615 X0.1386 Y-0.0294
N18620 X0.1379 Y-0.0295
N18625 X0.1378
N18630 X0.1371 Y-0.0296
N18635 X0.1364 Y-0.0297
N18640 X0.1363
N18645 X0.1356 Y-0.0298
N18650 X0.1355
N18655 X0.1348 Y-0.0299
N18660 X0.1347
N18665 X0.134 Y-0.0301
N18670 X0.1339
N18675 X0.1332 Y-0.0303
N18680 X0.133
N18685 X0.1324 Y-0.0305
N18690 X0.1322
N18695 X0.1316 Y-0.0307
N18700 X0.1314 Y-0.0308
N18705 X0.1307 Y-0.031
N18710 X0.1306 Y-0.0311
N18715 X0.1299 Y-0.0314
N18720 X0.1298
N18725 X0.1292 Y-0.0318
N18730 X0.129
N18735 X0.1284 Y-0.0322
N18740 X0.1283
N18745 X0.1277 Y-0.0326
N18750 X0.1276
N18755 X0.127 Y-0.033
N18760 X0.1269 Y-0.0331
N18765 X0.1263 Y-0.0335
N18770 X0.1262
N18775 X0.1256 Y-0.0339
N18780 Y-0.034
N18785 X0.125 Y-0.0344
N18790 X0.1249
N18795 X0.1244 Y-0.0349
N18800 X0.1243
N18805 X0.1237 Y-0.0353
N18810 Y-0.0354
N18815 X0.1232 Y-0.0358
N18820 X0.1231
N18825 X0.1226 Y-0.0363
N18830 G3 X0.1219 Y-0.037 I0.0023 J-0.0028
N18835 G1 X0.1213 Y-0.0378
N18840 X0.1208 Y-0.0386
N18845 X0.1207
N18850 X0.1202 Y-0.0394
N18855 X0.1197 Y-0.0402
N18860 X0.1196 Y-0.0403
N18865 X0.1191 Y-0.0411
N18870 X0.1186 Y-0.0419
N18875 Y-0.042
N18880 X0.1181 Y-0.0428
N18885 X0.118 Y-0.0429
N18890 X0.1176 Y-0.0437
N18895 Y-0.0438
N18900 X0.1172 Y-0.0447
N18905 X0.1171 Y-0.0448
N18910 X0.1167 Y-0.0456
N18915 Y-0.0458
N18920 X0.1164 Y-0.0467
N18925 X0.1163 Y-0.0468
N18930 X0.116 Y-0.0477
N18935 Y-0.0479
N18940 X0.1158 Y-0.0487
N18945 X0.1157 Y-0.0489
N18950 X0.1155 Y-0.0498
N18955 Y-0.0499
N18960 X0.1153 Y-0.0508
N18965 Y-0.0509
N18970 X0.1152 Y-0.0518
N18975 Y-0.0519
N18980 X0.115 Y-0.0528
N18985 Y-0.0529
N18990 X0.1149 Y-0.0539
N18995 Y-0.0549
N19000 X0.1148 Y-0.0559
N19005 Y-0.0569
N19010 X0.1147 Y-0.0579
N19015 Y-0.0588
N19020 Y-0.0598
N19025 Y-0.0601
N19030 Y-0.0609
N19035 X0.1148 Y-0.0618
N19040 Y-0.0626
N19045 Y-0.0627
N19050 X0.1149 Y-0.0635
N19055 X0.115 Y-0.0644
N19060 X0.1151 Y-0.0653
N19065 X0.1152 Y-0.0662
N19070 Y-0.0663
N19075 X0.1153 Y-0.0671
N19080 Y-0.0672
N19085 X0.1155 Y-0.068
N19090 Y-0.0681
N19095 X0.1157 Y-0.0689
N19100 Y-0.069
N19105 X0.1159 Y-0.0698
N19110 X0.116 Y-0.07
N19115 X0.1162 Y-0.0707
N19120 Y-0.0709
N19125 X0.1165 Y-0.0717
N19130 X0.1166 Y-0.0718
N19135 X0.1169 Y-0.0726
N19140 Y-0.0727
N19145 X0.1173 Y-0.0734
N19150 Y-0.0736
N19155 X0.1177 Y-0.0743
N19160 X0.1178 Y-0.0744
N19165 X0.1182 Y-0.0751
N19170 Y-0.0752
N19175 X0.1186 Y-0.0759
N19180 X0.1187 Y-0.076
N19185 X0.1191 Y-0.0767
N19190 X0.1192 Y-0.0768
N19195 X0.1196 Y-0.0775
N19200 X0.1201 Y-0.0782
N19205 Y-0.0783
N19210 X0.1206 Y-0.0789
N19215 Y-0.079
N19220 X0.1211 Y-0.0797
N19225 X0.1216 Y-0.0803
N19230 G3 X0.1222 Y-0.081 I0.003 J0.0021
N19235 G1 X0.1227 Y-0.0815
N19240 X0.1228
N19245 X0.1233 Y-0.082
N19250 X0.1239 Y-0.0825
N19255 X0.124
N19260 X0.1245 Y-0.083
N19265 X0.1246
N19270 X0.1251 Y-0.0835
N19275 X0.1252
N19280 X0.1258 Y-0.084
N19285 X0.1259
N19290 X0.1265 Y-0.0845
N19295 X0.1266
N19300 X0.1272 Y-0.0849
N19305 X0.1273 Y-0.085
N19310 X0.1279 Y-0.0854
N19315 X0.128 Y-0.0855
N19320 X0.1286 Y-0.0858
N19325 X0.1288 Y-0.0859
N19330 X0.1294 Y-0.0862
N19335 X0.1296 Y-0.0863
N19340 X0.1302 Y-0.0866
N19345 X0.1304 Y-0.0867
N19350 X0.131 Y-0.0869
N19355 X0.1312 Y-0.087
N19360 X0.1319 Y-0.0872
N19365 X0.132 Y-0.0873
N19370 X0.1323
N19375 G0 Z0.1
N19380 X0.1572 Y-0.3343
N19385 Z0.05
N19390 G1 Z0. F5.
N19395 X0.1608 Y-0.3307 Z-0.01 F7.5
N19400 Y-0.3303
N19405 X0.1572 Y-0.3267 Z0.
N19410 X0.1608 Y-0.3303 Z-0.01
N19415 X0.2046
N19420 X0.2082 Y-0.3267 Z0.
N19425 X0.2046 Y-0.3303 Z-0.01
N19430 Y-0.3307
N19435 X0.2082 Y-0.3343 Z0.
N19440 X0.2046 Y-0.3307 Z-0.01
N19445 X0.1869
N19450 G3 X0.1833 Y-0.3343 I0. J-0.0036
N19455 G1 Y-0.3875
N19460 X0.1869 Y-0.3911 Z0.
N19465 X0.1833 Y-0.3875 Z-0.01
N19470 X0.182
N19475 X0.1784 Y-0.3911 Z0.
N19480 X0.182 Y-0.3875 Z-0.01
N19485 Y-0.3343
N19490 G3 X0.1784 Y-0.3307 I-0.0036 J0.
N19495 G1 X0.1608
N19500 G0 Z0.1
N19505 X0.16 Y-0.1911
N19510 Z0.05
N19515 G1 Z0. F5.
N19520 X0.1636 Y-0.1874 Z-0.01 F7.5
N19525 Y-0.1303
N19530 X0.16 Y-0.1267 Z0.
N19535 X0.1636 Y-0.1303 Z-0.01
N19540 X0.1674
N19545 X0.1685 Y-0.1302 Z-0.0098
N19550 X0.1885
N19555 X0.1889
N19560 X0.1918 Y-0.1303
N19565 X0.1939 Y-0.1305 Z-0.01
N19570 X0.1941
N19575 X0.1943
N19580 X0.1947 Y-0.1306
N19585 X0.1948 Y-0.1307
N19590 X0.1953 Y-0.1308
N19595 X0.1954
N19600 X0.1959 Y-0.1309
N19605 X0.196 Y-0.131
N19610 X0.1964 Y-0.1311
N19615 X0.1966 Y-0.1312
N19620 X0.197 Y-0.1313
N19625 X0.1971 Y-0.1314
N19630 X0.1976 Y-0.1316
N19635 X0.1977
N19640 X0.1981 Y-0.1318
N19645 X0.1982
N19650 X0.1986 Y-0.1321
N19655 X0.1987
N19660 X0.1991 Y-0.1323
N19665 Y-0.1324
N19670 X0.1996 Y-0.1326
N19675 X0.2 Y-0.1328
N19680 Y-0.1329
N19685 X0.2004 Y-0.1331
N19690 X0.2005
N19695 X0.2009 Y-0.1334
N19700 X0.2013 Y-0.1336
N19705 G2 X0.202 Y-0.1342 I-0.0019 J-0.0031
N19710 G1 X0.2023 Y-0.1345
N19715 X0.2025 Y-0.1348
N19720 X0.2026
N19725 X0.2028 Y-0.1351
N19730 X0.2031 Y-0.1354
N19735 X0.2033 Y-0.1357
N19740 X0.2034 Y-0.1358
N19745 X0.2036 Y-0.136
N19750 X0.2037 Y-0.1361
N19755 X0.2039 Y-0.1364
N19760 X0.204 Y-0.1365
N19765 X0.2042 Y-0.1368
N19770 Y-0.1369
N19775 X0.2044 Y-0.1372
N19780 X0.2045 Y-0.1373
N19785 X0.2047 Y-0.1376
N19790 X0.2048 Y-0.1378
N19795 X0.2049 Y-0.1381
N19800 X0.205 Y-0.1382
N19805 X0.2052 Y-0.1385
N19810 Y-0.1387
N19815 X0.2054 Y-0.139
N19820 Y-0.1392
N19825 X0.2056 Y-0.1395
N19830 Y-0.1397
N19835 X0.2057 Y-0.14
N19840 X0.2058 Y-0.1402
N19845 Y-0.1405
N19850 X0.2059 Y-0.1406
N19855 Y-0.141
N19860 X0.206 Y-0.1411
N19865 Y-0.1414
N19870 Y-0.1415
N19875 X0.2061 Y-0.1419
N19880 X0.2062 Y-0.1423
N19885 Y-0.1424
N19890 Y-0.1427
N19895 Y-0.1428
N19900 X0.2063 Y-0.1431
N19905 Y-0.1432
N19910 Y-0.1435
N19915 Y-0.1439
N19920 G2 Y-0.1445 I-0.0036 J-0.0003
N19925 G1 Y-0.1447
N19930 Y-0.1448
N19935 Y-0.145
N19940 Y-0.1453
N19945 X0.2062 Y-0.1456
N19950 Y-0.1459
N19955 Y-0.1462
N19960 Y-0.1463
N19965 X0.2061 Y-0.1465
N19970 Y-0.1466
N19975 Y-0.1468
N19980 Y-0.1469
N19985 X0.206 Y-0.1472
N19990 Y-0.1473
N19995 Y-0.1475
N20000 X0.2059 Y-0.1476
N20005 Y-0.1479
N20010 X0.2058 Y-0.148
N20015 Y-0.1482
N20020 X0.2057 Y-0.1484
N20025 Y-0.1486
N20030 X0.2056 Y-0.1487
N20035 X0.2055 Y-0.1489
N20040 Y-0.149
N20045 X0.2054 Y-0.1493
N20050 Y-0.1494
N20055 X0.2053 Y-0.1496
N20060 X0.2052 Y-0.1497
N20065 X0.2051 Y-0.1499
N20070 Y-0.15
N20075 X0.205 Y-0.1502
N20080 Y-0.1503
N20085 X0.2049 Y-0.1505
N20090 X0.2048 Y-0.1506
N20095 X0.2047 Y-0.1508
N20100 X0.2046 Y-0.151
N20105 Y-0.1511
N20110 X0.2044 Y-0.1513
N20115 X0.2043 Y-0.1515
N20120 Y-0.1516
N20125 X0.2042 Y-0.1518
N20130 G2 X0.2038 Y-0.1523 I-0.0032 J0.0018
N20135 G1 X0.2037 Y-0.1525
N20140 X0.2035 Y-0.1527
N20145 X0.2033 Y-0.153
N20150 X0.2031 Y-0.1532
N20155 X0.2029 Y-0.1534
N20160 Y-0.1535
N20165 X0.2027 Y-0.1537
N20170 X0.2026
N20175 X0.2025 Y-0.1539
N20180 X0.2024 Y-0.154
N20185 X0.2022 Y-0.1542
N20190 Y-0.1543
N20195 X0.202 Y-0.1544
N20200 X0.2019 Y-0.1545
N20205 X0.2017 Y-0.1547
N20210 X0.2016 Y-0.1548
N20215 X0.2014 Y-0.155
N20220 X0.2013 Y-0.1551
N20225 X0.2011 Y-0.1552
N20230 X0.201 Y-0.1553
N20235 X0.2007 Y-0.1555
N20240 X0.2006
N20245 X0.2004 Y-0.1557
N20250 X0.2003 Y-0.1558
N20255 X0.2001 Y-0.1559
N20260 X0.2 Y-0.156
N20265 X0.1998 Y-0.1561
N20270 X0.1997
N20275 X0.1995 Y-0.1563
N20280 X0.1994
N20285 X0.1991 Y-0.1564
N20290 Y-0.1565
N20295 X0.1988 Y-0.1566
N20300 X0.1986 Y-0.1567
N20305 X0.1985
N20310 X0.1983 Y-0.1569
N20315 X0.1982
N20320 X0.198 Y-0.157
N20325 X0.1977 Y-0.1571
N20330 X0.1975 Y-0.1572
N20335 X0.1979 Y-0.1571
N20340 X0.1984 Y-0.1569
N20345 X0.1989 Y-0.1568
N20350 X0.1993 Y-0.1566
N20355 X0.1998 Y-0.1564
N20360 X0.2002 Y-0.1562
N20365 X0.2006 Y-0.1559
N20370 X0.2011 Y-0.1557
N20375 X0.2015 Y-0.1554
N20380 X0.2019 Y-0.1551
N20385 X0.2024 Y-0.1548
N20390 X0.2029 Y-0.1544
N20395 X0.2033 Y-0.1541
N20400 X0.2038 Y-0.1537
N20405 X0.2043 Y-0.1533
N20410 X0.2044 Y-0.1532
N20415 X0.2045 Y-0.1531
N20420 X0.2048 Y-0.1527
N20425 X0.2051 Y-0.1523
N20430 X0.2054 Y-0.1519
N20435 X0.2057 Y-0.1516
N20440 X0.2059 Y-0.1512
N20445 X0.2062 Y-0.1508
N20450 X0.2064 Y-0.1505
N20455 X0.2066 Y-0.1501
N20460 X0.2067 Y-0.1498
N20465 X0.2069 Y-0.1495
N20470 X0.207 Y-0.1492
N20475 X0.2071 Y-0.1488
N20480 X0.2072 Y-0.1485
N20485 X0.2073 Y-0.1481
N20490 X0.2074 Y-0.1477
N20495 X0.2075 Y-0.1473
N20500 X0.2076 Y-0.1469
N20505 Y-0.1464
N20510 X0.2077 Y-0.146
N20515 Y-0.1455
N20520 X0.2078 Y-0.145
N20525 Y-0.1445
N20530 Y-0.1442
N20535 Y-0.144
N20540 Y-0.1436
N20545 Y-0.1432
N20550 X0.2077 Y-0.1428
N20555 Y-0.1424
N20560 Y-0.1421
N20565 X0.2076 Y-0.1417
N20570 Y-0.1414
N20575 X0.2075 Y-0.1411
N20580 Y-0.1407
N20585 X0.2074 Y-0.1404
N20590 X0.2073 Y-0.1401
N20595 X0.2072 Y-0.1399
N20600 X0.2071 Y-0.1396
N20605 X0.207 Y-0.1393
N20610 X0.2069 Y-0.139
N20615 X0.2068 Y-0.1386
N20620 X0.2066 Y-0.1383
N20625 X0.2065 Y-0.138
N20630 X0.2063 Y-0.1376
N20635 X0.2061 Y-0.1373
N20640 X0.206 Y-0.1369
N20645 X0.2058 Y-0.1366
N20650 X0.2057 Y-0.1364
N20655 X0.2056 Y-0.1363
N20660 X0.2054 Y-0.136
N20665 X0.2052 Y-0.1357
N20670 X0.205 Y-0.1354
N20675 X0.2047 Y-0.1351
N20680 X0.2045 Y-0.1348
N20685 X0.2043 Y-0.1346
N20690 X0.2041 Y-0.1344
N20695 X0.2039 Y-0.1342
N20700 X0.2038 Y-0.134
N20705 X0.2036 Y-0.1338
N20710 X0.2034 Y-0.1336
N20715 X0.2032 Y-0.1335
N20720 X0.203 Y-0.1333
N20725 X0.2028 Y-0.1331
N20730 X0.2025 Y-0.133
N20735 X0.2023 Y-0.1328
N20740 X0.202 Y-0.1327
N20745 X0.2017 Y-0.1325
N20750 X0.2014 Y-0.1324
N20755 X0.2011 Y-0.1322
N20760 X0.2008 Y-0.132
N20765 X0.2004 Y-0.1319
N20770 Y-0.1318
N20775 X0.2001
N20780 X0.1996 Y-0.1316
N20785 X0.1991 Y-0.1315
N20790 X0.1986 Y-0.1313
N20795 X0.1981 Y-0.1312
N20800 X0.1976 Y-0.1311
N20805 X0.1971 Y-0.131
N20810 X0.1966 Y-0.1309
N20815 X0.1961 Y-0.1308
N20820 X0.1957 Y-0.1307
N20825 X0.1952 Y-0.1306
N20830 X0.1947
N20835 X0.1943 Y-0.1305
N20840 X0.1939
N20845 X0.1943
N20850 X0.1947 Y-0.1306
N20855 X0.1952
N20860 X0.1957 Y-0.1307
N20865 X0.1961 Y-0.1308
N20870 X0.1966 Y-0.1309
N20875 X0.1971 Y-0.131
N20880 X0.1976 Y-0.1311
N20885 X0.1981 Y-0.1312
N20890 X0.1986 Y-0.1313
N20895 X0.1991 Y-0.1315
N20900 X0.1996 Y-0.1316
N20905 X0.2001 Y-0.1318
N20910 X0.2004
N20915 Y-0.1319
N20920 X0.2008 Y-0.132
N20925 X0.2011 Y-0.1322
N20930 X0.2014 Y-0.1324
N20935 X0.2017 Y-0.1325
N20940 X0.202 Y-0.1327
N20945 X0.2023 Y-0.1328
N20950 X0.2025 Y-0.133
N20955 X0.2028 Y-0.1331
N20960 X0.203 Y-0.1333
N20965 X0.2032 Y-0.1335
N20970 X0.2034 Y-0.1336
N20975 X0.2036 Y-0.1338
N20980 X0.2038 Y-0.134
N20985 X0.2039 Y-0.1342
N20990 X0.2041 Y-0.1344
N20995 X0.2043 Y-0.1346
N21000 X0.2045 Y-0.1348
N21005 X0.2047 Y-0.1351
N21010 X0.205 Y-0.1354
N21015 X0.2052 Y-0.1357
N21020 X0.2054 Y-0.136
N21025 X0.2056 Y-0.1363
N21030 X0.2057 Y-0.1364
N21035 X0.2058 Y-0.1366
N21040 X0.206 Y-0.1369
N21045 X0.2061 Y-0.1373
N21050 X0.2063 Y-0.1376
N21055 X0.2065 Y-0.138
N21060 X0.2066 Y-0.1383
N21065 X0.2068 Y-0.1386
N21070 X0.2069 Y-0.139
N21075 X0.207 Y-0.1393
N21080 X0.2071 Y-0.1396
N21085 X0.2072 Y-0.1399
N21090 X0.2073 Y-0.1401
N21095 X0.2074 Y-0.1404
N21100 X0.2075 Y-0.1407
N21105 Y-0.1411
N21110 X0.2076 Y-0.1414
N21115 Y-0.1417
N21120 X0.2077 Y-0.1421
N21125 Y-0.1424
N21130 Y-0.1428
N21135 X0.2078 Y-0.1432
N21140 Y-0.1436
N21145 Y-0.144
N21150 Y-0.1442
N21155 Y-0.1445
N21160 Y-0.145
N21165 X0.2077 Y-0.1455
N21170 Y-0.146
N21175 X0.2076 Y-0.1464
N21180 Y-0.1469
N21185 X0.2075 Y-0.1473
N21190 X0.2074 Y-0.1477
N21195 X0.2073 Y-0.1481
N21200 X0.2072 Y-0.1485
N21205 X0.2071 Y-0.1488
N21210 X0.207 Y-0.1492
N21215 X0.2069 Y-0.1495
N21220 X0.2067 Y-0.1498
N21225 X0.2066 Y-0.1501
N21230 X0.2064 Y-0.1505
N21235 X0.2062 Y-0.1508
N21240 X0.2059 Y-0.1512
N21245 X0.2057 Y-0.1516
N21250 X0.2054 Y-0.1519
N21255 X0.2051 Y-0.1523
N21260 X0.2048 Y-0.1527
N21265 X0.2045 Y-0.1531
N21270 X0.2044 Y-0.1532
N21275 X0.2043 Y-0.1533
N21280 X0.2038 Y-0.1537
N21285 X0.2033 Y-0.1541
N21290 X0.2029 Y-0.1544
N21295 X0.2024 Y-0.1548
N21300 X0.2019 Y-0.1551
N21305 X0.2015 Y-0.1554
N21310 X0.2011 Y-0.1557
N21315 X0.2006 Y-0.1559
N21320 X0.2002 Y-0.1562
N21325 X0.1998 Y-0.1564
N21330 X0.1993 Y-0.1566
N21335 X0.1989 Y-0.1568
N21340 X0.1984 Y-0.1569
N21345 X0.1979 Y-0.1571
N21350 X0.1975 Y-0.1572
N21355 X0.1969 Y-0.1574 Z-0.0099
N21360 X0.1937 Y-0.1581 Z-0.0098
N21365 X0.1924 Y-0.1583
N21370 X0.1917 Y-0.1585 Z-0.01
N21375 X0.1915
N21380 X0.1914
N21385 X0.191 Y-0.1586
N21390 X0.1906
N21395 X0.1902
N21400 X0.1901
N21405 X0.1897 Y-0.1587
N21410 X0.1893
N21415 X0.1889
N21420 X0.1885
N21425 X0.1881
N21430 X0.1877
N21435 X0.1873
N21440 X0.1869
N21445 X0.1868
N21450 X0.1685
N21455 G2 X0.1649 Y-0.1551 I0. J0.0036
N21460 G1 Y-0.1338
N21465 G2 X0.1674 Y-0.1303 I0.0036 J0.
N21470 G3 X0.1649 Y-0.1338 I0.0011 J-0.0035
N21475 G1 Y-0.1551
N21480 G3 X0.1685 Y-0.1587 I0.0036 J0.
N21485 G1 X0.1868
N21490 X0.1869
N21495 X0.1873
N21500 X0.1877
N21505 X0.1881
N21510 X0.1885
N21515 X0.1889
N21520 X0.1893
N21525 X0.1897
N21530 X0.1901 Y-0.1586
N21535 X0.1902
N21540 X0.1906
N21545 X0.191
N21550 X0.1914 Y-0.1585
N21555 X0.1915
N21560 X0.1917
N21565 G3 X0.1897 Y-0.162 I0.0016 J-0.0033
N21570 G1 Y-0.1619
N21575 X0.1896
N21580 X0.1894 Y-0.1618
N21585 X0.1892 Y-0.1616
N21590 G3 X0.1889 Y-0.1614 I-0.0022 J-0.0029
N21595 G1 X0.1886 Y-0.1612
N21600 X0.1884 Y-0.1611
N21605 X0.1883 Y-0.161
N21610 X0.1882
N21615 X0.1881 Y-0.1609
N21620 X0.1879 Y-0.1608
N21625 X0.1877 Y-0.1607
N21630 X0.1875 Y-0.1606
N21635 X0.1873 Y-0.1605
N21640 Y-0.1604
N21645 X0.1871
N21650 Y-0.1603
N21655 X0.1869
N21660 X0.1868 Y-0.1602
N21665 X0.1867
N21670 X0.1866 Y-0.1601
N21675 X0.1864
N21680 Y-0.16
N21685 X0.1862
N21690 Y-0.1599
N21695 X0.186
N21700 X0.1859 Y-0.1598
N21705 X0.1858
N21710 X0.1857
N21715 X0.1856 Y-0.1597
N21720 X0.1855
N21725 X0.1853 Y-0.1596
N21730 X0.1851
N21735 X0.1849 Y-0.1595
N21740 X0.1847 Y-0.1594
N21745 X0.1845
N21750 X0.1844 Y-0.1593
N21755 X0.1842
N21760 G3 X0.1837 Y-0.1592 I-0.001 J-0.0035
N21765 G1 X0.1835 Y-0.1591
N21770 X0.1833
N21775 X0.1832
N21780 X0.183
N21785 X0.1828
N21790 X0.1826 Y-0.159
N21795 X0.1824
N21800 X0.1822
N21805 X0.182
N21810 X0.1819
N21815 X0.1817 Y-0.1589
N21820 X0.1815
N21825 X0.1814
N21830 X0.1812
N21835 X0.181
N21840 X0.1808
N21845 X0.1807
N21850 X0.1805
N21855 X0.1803 Y-0.1588
N21860 X0.1801
N21865 X0.1799
N21870 X0.1797
N21875 X0.1796
N21880 X0.1794
N21885 X0.1792
N21890 X0.179
N21895 X0.1788
N21900 X0.1685
N21905 G3 X0.1649 Y-0.1625 I0. J-0.0036
N21910 G1 Y-0.1874
N21915 X0.1685 Y-0.1911 Z0.
N21920 X0.1649 Y-0.1874 Z-0.01
N21925 X0.1636
N21930 X0.1649
N21935 Y-0.1625
N21940 G2 X0.1685 Y-0.1588 I0.0036 J0.
N21945 G1 X0.1788
N21950 X0.179
N21955 X0.1792
N21960 X0.1794
N21965 X0.1796
N21970 X0.1797
N21975 X0.1799
N21980 X0.1801
N21985 X0.1803
N21990 X0.1805 Y-0.1589
N21995 X0.1807
N22000 X0.1808
N22005 X0.181
N22010 X0.1812
N22015 X0.1814
N22020 X0.1815
N22025 X0.1817
