%
(1001)
(ENGRAVING BIT 1800 RPM 60 MINUTES)
(T4  D=0.125 CR=0. TAPER=20DEG - ZMIN=-0.0174 - CHAMFER MILL)
N10 G90 G94 G17 G91.1
N15 G20
N20 G53 G0 Z0.
(ENGRAVE2)
N25 M9
N30 T4 M6
N35 S2000 M3
N40 G54
N45 M8
N55 G0 X0.0369 Y-0.3911
N60 G43 Z0.3 H4
N65 G0 Z0.05
N70 G1 Z0. F0.35
N75 X0.041 Y-0.387 Z-0.0112
N80 X0.0451 Y-0.3911 Z0.
N85 X0.041 Y-0.387 Z-0.0112
N90 Y-0.3405
N95 X0.0411 Y-0.339 Z-0.0116
N100 X0.0415 Y-0.3375 Z-0.0128
N105 X0.0422 Y-0.336 Z-0.0147
N110 X0.0432 Y-0.3344 Z-0.0174
N115 X0.0426 Y-0.3324 Z-0.0157
N120 X0.0369 Y-0.3267 Z0.
N125 X0.0426 Y-0.3324 Z-0.0157
N130 X0.0456 Y-0.3267 Z0.
N135 X0.0426 Y-0.3324 Z-0.0157
N140 X0.0432 Y-0.3344 Z-0.0174
N145 X0.0449 Y-0.3352 Z-0.0147
N150 X0.0463 Y-0.336 Z-0.0127
N155 X0.0475 Y-0.337 Z-0.0116
N160 X0.0485 Y-0.3382 Z-0.0112
N165 X0.0761 Y-0.3795
N170 X0.077 Y-0.3807 Z-0.0116
N175 X0.0782 Y-0.3818 Z-0.0128
N180 X0.0797 Y-0.3826 Z-0.0147
N185 X0.0813 Y-0.3833 Z-0.0174
N190 X0.082 Y-0.3854 Z-0.0157
N195 X0.0876 Y-0.3911 Z0.
N200 X0.082 Y-0.3854 Z-0.0157
N205 X0.0789 Y-0.3911 Z0.
N210 X0.082 Y-0.3854 Z-0.0157
N215 X0.0813 Y-0.3833 Z-0.0174
N220 X0.0823 Y-0.3818 Z-0.0147
N225 X0.083 Y-0.3803 Z-0.0128
N230 X0.0834 Y-0.3788 Z-0.0116
N235 X0.0836 Y-0.3773 Z-0.0112
N240 Y-0.3308
N245 X0.0876 Y-0.3267 Z0.
N250 X0.0836 Y-0.3308 Z-0.0112
N255 X0.0795 Y-0.3267 Z0.
N260 G0 Z0.1
N265 X0.0369 Y-0.0911
N270 Z0.05
N275 G1 Z0. F0.35
N280 X0.041 Y-0.087 Z-0.0113
N285 X0.0451 Y-0.0911 Z0.
N290 X0.041 Y-0.087 Z-0.0113
N295 Y-0.0363
N300 X0.0411 Y-0.0348 Z-0.0116
N305 X0.0415 Y-0.0334 Z-0.0127
N310 X0.0421 Y-0.0319 Z-0.0144
N315 X0.0369 Y-0.0267 Z0.
N320 X0.0421 Y-0.0319 Z-0.0144
N325 X0.0436 Y-0.0316 Z-0.0135
N330 X0.0451 Y-0.0315 Z-0.0132
N335 X0.0462 Z-0.0133
N340 X0.0497 Y-0.0267 Z0.
N345 X0.0462 Y-0.0315 Z-0.0133
N350 X0.0473 Y-0.0326 Z-0.0116
N355 X0.0481 Y-0.0338 Z-0.0105
N360 X0.0486 Y-0.0351 Z-0.0102
N365 X0.064 Y-0.0809 Z-0.0098
N370 X0.0647 Y-0.083 Z-0.0097
N375 X0.0653 Y-0.0842 Z-0.0101
N380 X0.0661 Y-0.0854 Z-0.0111
N385 X0.0671 Y-0.0864 Z-0.0129
N390 X0.0638 Y-0.0911 Z0.
N395 X0.0671 Y-0.0864 Z-0.0129
N400 X0.0681 Y-0.0865 Z-0.0127
N405 X0.0714 Y-0.0911 Z0.
N410 X0.0681 Y-0.0865 Z-0.0127
N415 X0.0691 Y-0.0857 Z-0.0109
N420 X0.0699 Y-0.0848 Z-0.0096
N425 X0.0706 Y-0.0839 Z-0.0088
N430 X0.071 Y-0.0829 Z-0.0086
N435 X0.0717 Y-0.0807
N440 X0.0871 Y-0.0361 Z-0.0089
N445 X0.0876 Y-0.035 Z-0.0093
N450 X0.0884 Y-0.0339 Z-0.0103
N455 X0.0894 Y-0.0329 Z-0.012
N460 X0.0907 Y-0.032 Z-0.0145
N465 X0.0869 Y-0.0267 Z0.
N470 X0.0907 Y-0.032 Z-0.0145
N475 X0.0917 Y-0.0321 Z-0.0148
N480 X0.0928 Y-0.0323 Z-0.0153
N485 X0.0984 Y-0.0267 Z0.
N490 X0.0928 Y-0.0323 Z-0.0153
N495 X0.0934 Y-0.0335 Z-0.0136
N500 X0.0939 Y-0.0347 Z-0.0123
N505 X0.0942 Y-0.036 Z-0.0115
N510 X0.0943 Y-0.0372 Z-0.0113
N515 Y-0.087
N520 X0.0902 Y-0.0911 Z0.
N525 X0.0943 Y-0.087 Z-0.0113
N530 X0.0984 Y-0.0911 Z0.
N535 G0 Z0.1
N540 X0.0369 Y-0.1704
N545 Z0.05
N550 G1 Z0. F0.35
N555 X0.0396 Y-0.1726 Z-0.0068
N560 X0.0416 Y-0.1741 Z-0.0114
N565 X0.0437 Y-0.1713 Z-0.0042
N570 X0.0449 Y-0.1697 Z-0.0001
N575 X0.0437 Y-0.1713 Z-0.0042
N580 X0.0416 Y-0.1741 Z-0.0114
N585 X0.0417 Y-0.1749 Z-0.0115
N590 X0.0424 Y-0.1767
N595 X0.0439 Y-0.1796
N600 X0.0449 Y-0.1809
N605 X0.0462 Y-0.1823
N610 X0.0474 Y-0.1835
N615 X0.0488 Y-0.1845 Z-0.0114
N620 X0.0509 Y-0.1857 Z-0.0113
N625 X0.0523 Y-0.1863 Z-0.0111
N630 X0.0553 Y-0.1872 Z-0.0109
N635 X0.0575 Y-0.1878 Z-0.0107
N640 X0.0597 Y-0.1881 Z-0.0106
N645 X0.0638 Y-0.1883 Z-0.0105
N650 X0.0668 Y-0.1882
N655 X0.0686 Y-0.188
N660 X0.0707 Y-0.1876 Z-0.0106
N665 X0.0734 Y-0.1868 Z-0.0105
N670 X0.0747 Y-0.1864
N675 X0.0755 Y-0.186 Z-0.0106
N680 X0.0769 Y-0.1852 Z-0.0105
N685 X0.0783 Y-0.1844 Z-0.0106
N690 X0.0795 Y-0.1833 Z-0.0107
N695 X0.081 Y-0.1817 Z-0.0106
N700 X0.0817 Y-0.1808 Z-0.0107
N705 X0.082 Y-0.1803 Z-0.0108
N710 X0.0828 Y-0.1788
N715 X0.0834 Y-0.1773 Z-0.011
N720 X0.0838 Y-0.176 Z-0.0111
N725 X0.084 Y-0.1739 Z-0.0112
N730 Y-0.1731 Z-0.0113
N735 X0.0839 Y-0.171 Z-0.0114
N740 X0.0836 Y-0.1696 Z-0.0116
N745 X0.0831 Y-0.1683 Z-0.0117
N750 X0.0822 Y-0.1665 Z-0.0118
N755 X0.0817 Y-0.1658 Z-0.0117
N760 X0.0804 Y-0.1644 Z-0.0118
N765 X0.0792 Y-0.1633 Z-0.0119
N770 X0.0778 Y-0.1623 Z-0.0118
N775 X0.0761 Y-0.1614
N780 X0.0746 Y-0.1608
N785 X0.0723 Y-0.16
N790 X0.0693 Y-0.159
N795 X0.0644 Y-0.1578
N800 X0.0586 Y-0.1564 Z-0.0116
N805 X0.0556 Y-0.1556
N810 X0.0531 Y-0.1547
N815 X0.0507 Y-0.1536 Z-0.0117
N820 X0.0494 Y-0.1529
N825 X0.0478 Y-0.1519 Z-0.0115
N830 X0.0472 Y-0.1514
N835 X0.046 Y-0.1501
N840 X0.0452 Y-0.1491 Z-0.0116
N845 X0.0445 Y-0.1479 Z-0.0115
N850 X0.044 Y-0.1466
N855 X0.0437 Y-0.1454 Z-0.0114
N860 X0.0435 Y-0.1433 Z-0.0113
N865 Y-0.1424 Z-0.0112
N870 X0.0438 Y-0.1402
N875 X0.0442 Y-0.1389 Z-0.011
N880 X0.0448 Y-0.1375 Z-0.0108
N885 X0.0456 Y-0.1361
N890 X0.0465 Y-0.135 Z-0.0107
N895 X0.0479 Y-0.1336
N900 X0.0491 Y-0.1327 Z-0.0105
N905 X0.0511 Y-0.1316
N910 X0.0522 Y-0.1311 Z-0.0104
N915 X0.0542 Y-0.1304 Z-0.0102
N920 X0.0557 Y-0.1299
N925 X0.0575 Y-0.1296
N930 X0.0597 Y-0.1294 Z-0.0103
N935 X0.063 Y-0.1293
N940 X0.0664 Y-0.1296
N945 X0.0687 Y-0.1299 Z-0.0102
N950 X0.0705 Y-0.1304 Z-0.0103
N955 X0.0724 Y-0.1311 Z-0.0105
N960 X0.0738 Y-0.1318 Z-0.0107
N965 X0.0761 Y-0.1332 Z-0.0109
N970 X0.0773 Y-0.1342 Z-0.0112
N975 X0.0785 Y-0.1355 Z-0.0113
N980 X0.0797 Y-0.1371 Z-0.0114
N985 X0.0805 Y-0.1385
N990 X0.0812 Y-0.1402 Z-0.0115
N995 X0.0814 Y-0.141
N1000 X0.0793 Y-0.1438 Z-0.0041
N1005 X0.0781 Y-0.1454 Z-0.0001
N1010 X0.0793 Y-0.1438 Z-0.0041
N1015 X0.0814 Y-0.141 Z-0.0115
N1020 X0.083 Y-0.1421 Z-0.0079
N1025 X0.0862 Y-0.1448 Z0.
N1030 G0 Z0.1
N1035 X0.0844 Y-0.2463
N1040 Z0.05
N1045 G1 Z0. F0.35
N1050 X0.0847 Y-0.2457 Z-0.0016
N1055 X0.087 Y-0.2413 Z-0.0117
N1060 X0.0895 Y-0.2426 Z-0.0068
N1065 X0.0927 Y-0.2443 Z0.
N1070 X0.0895 Y-0.2426 Z-0.0068
N1075 X0.087 Y-0.2413 Z-0.0117
N1080 X0.0861 Y-0.2394 Z-0.0116
N1085 X0.085 Y-0.2379 Z-0.0115
N1090 X0.0837 Y-0.2363 Z-0.0112
N1095 X0.0822 Y-0.2347 Z-0.0111
N1100 X0.0809 Y-0.2335 Z-0.0109
N1105 X0.0803 Y-0.2331 Z-0.0107
N1110 X0.079 Y-0.2323 Z-0.0106
N1115 X0.0766 Y-0.231 Z-0.0104
N1120 X0.0749 Y-0.2304 Z-0.0103
N1125 X0.0733 Y-0.2299 Z-0.0102
N1130 X0.0712 Y-0.2296 Z-0.0101
N1135 X0.0688 Y-0.2293 Z-0.01
N1140 X0.0668
N1145 X0.0628 Y-0.2296
N1150 X0.0604 Y-0.23
N1155 X0.0589 Y-0.2304
N1160 X0.0568 Y-0.2312
N1165 X0.0549 Y-0.2321 Z-0.0102
N1170 X0.0532 Y-0.233 Z-0.0103
N1175 X0.0523 Y-0.2336
N1180 X0.0501 Y-0.2353 Z-0.0107
N1185 X0.0485 Y-0.2368 Z-0.0109
N1190 X0.0472 Y-0.2383 Z-0.011
N1195 X0.0461 Y-0.2399 Z-0.0111
N1200 X0.0449 Y-0.242 Z-0.0114
N1205 X0.0443 Y-0.2432 Z-0.0116
N1210 X0.0437 Y-0.2448
N1215 X0.0426 Y-0.248 Z-0.0119
N1220 X0.0421 Y-0.2503 Z-0.0121
N1225 X0.0417 Y-0.2529
N1230 X0.0414 Y-0.2561
N1235 X0.0413 Y-0.2591
N1240 X0.0416 Y-0.2638 Z-0.0119
N1245 X0.042 Y-0.2664
N1250 X0.0426 Y-0.2691 Z-0.0117
N1255 X0.0435 Y-0.2722 Z-0.0115
N1260 X0.0443 Y-0.2745 Z-0.0114
N1265 X0.0461 Y-0.278 Z-0.0113
N1270 X0.0472 Y-0.2796 Z-0.0112
N1275 X0.0484 Y-0.2811 Z-0.0111
N1280 X0.0498 Y-0.2824 Z-0.011
N1285 X0.0517 Y-0.284
N1290 X0.0527 Y-0.2847
N1295 X0.0537 Y-0.2854 Z-0.0108
N1300 X0.0566 Y-0.2867 Z-0.0106
N1305 X0.0587 Y-0.2875 Z-0.0104
N1310 X0.0609 Y-0.288 Z-0.0102
N1315 X0.0631 Y-0.2883 Z-0.0101
N1320 X0.0663 Y-0.2886 Z-0.01
N1325 X0.0679 Y-0.2885 Z-0.0101
N1330 X0.0709 Y-0.2882 Z-0.0102
N1335 X0.0733 Y-0.2878 Z-0.0104
N1340 X0.0749 Y-0.2873 Z-0.0105
N1345 X0.0761 Y-0.2868 Z-0.0107
N1350 X0.0779 Y-0.286 Z-0.0108
N1355 X0.0804 Y-0.2844 Z-0.011
N1360 X0.0814 Y-0.2837 Z-0.0111
N1365 X0.0819 Y-0.2833 Z-0.0112
N1370 X0.0844 Y-0.2805 Z-0.0114
N1375 X0.0857 Y-0.2789 Z-0.0116
N1380 X0.0868 Y-0.2772 Z-0.0117
N1385 X0.0877 Y-0.2752 Z-0.0118
N1390 X0.0883 Y-0.2737
N1395 X0.0862 Y-0.27 Z-0.0034
N1400 X0.0853 Y-0.2685 Z0.
N1405 X0.0862 Y-0.27 Z-0.0034
N1410 X0.0883 Y-0.2737 Z-0.0118
N1415 X0.0929 Y-0.2712 Z-0.0021
N1420 X0.0938 Y-0.2707 Z0.
N1425 G0 Z0.1
N1430 X0.0844 Y-0.4347
N1435 Z0.05
N1440 G1 Z0. F0.35
N1445 X0.0847 Y-0.434 Z-0.0016
N1450 X0.087 Y-0.4297 Z-0.0117
N1455 X0.0895 Y-0.4309 Z-0.0068
N1460 X0.0927 Y-0.4327 Z0.
N1465 X0.0895 Y-0.4309 Z-0.0068
N1470 X0.087 Y-0.4297 Z-0.0117
N1475 X0.0861 Y-0.4278 Z-0.0116
N1480 X0.085 Y-0.4262 Z-0.0115
N1485 X0.0837 Y-0.4247 Z-0.0112
N1490 X0.0822 Y-0.4231 Z-0.0111
N1495 X0.0809 Y-0.4219 Z-0.0109
N1500 X0.0803 Y-0.4215 Z-0.0107
N1505 X0.079 Y-0.4206 Z-0.0106
N1510 X0.0766 Y-0.4194 Z-0.0104
N1515 X0.0749 Y-0.4187 Z-0.0103
N1520 X0.0737 Y-0.4184 Z-0.0102
N1525 X0.0716 Y-0.418 Z-0.0101
N1530 X0.0692 Y-0.4177 Z-0.01
N1535 X0.0668 Y-0.4176
N1540 X0.0628 Y-0.4179
N1545 X0.0607 Y-0.4183
N1550 X0.0589 Y-0.4188
N1555 X0.0568 Y-0.4196
N1560 X0.0549 Y-0.4205 Z-0.0102
N1565 X0.0532 Y-0.4214 Z-0.0103
N1570 X0.0523 Y-0.422
N1575 X0.0501 Y-0.4236 Z-0.0107
N1580 X0.0485 Y-0.4252 Z-0.0109
N1585 X0.0472 Y-0.4267 Z-0.011
N1590 X0.0461 Y-0.4283 Z-0.0111
N1595 X0.0449 Y-0.4303 Z-0.0114
N1600 X0.0443 Y-0.4316 Z-0.0116
N1605 X0.0437 Y-0.4332
N1610 X0.0426 Y-0.4363 Z-0.0119
N1615 X0.0421 Y-0.4387 Z-0.0121
N1620 X0.0417 Y-0.4412
N1625 X0.0414 Y-0.4444
N1630 X0.0413 Y-0.4475
N1635 X0.0416 Y-0.4522 Z-0.0119
N1640 X0.042 Y-0.4548
N1645 X0.0426 Y-0.4575 Z-0.0117
N1650 X0.0435 Y-0.4606 Z-0.0115
N1655 X0.0443 Y-0.4629 Z-0.0114
N1660 X0.0461 Y-0.4663 Z-0.0113
N1665 X0.0472 Y-0.468 Z-0.0112
N1670 X0.0484 Y-0.4694 Z-0.0111
N1675 X0.0497 Y-0.4708 Z-0.011
N1680 X0.0514 Y-0.4722
N1685 X0.0527 Y-0.4731
N1690 X0.0537 Y-0.4737 Z-0.0108
N1695 X0.0566 Y-0.4751 Z-0.0106
N1700 X0.0587 Y-0.4758 Z-0.0104
N1705 X0.0609 Y-0.4764 Z-0.0102
N1710 X0.0632 Y-0.4767 Z-0.0101
N1715 X0.0666 Y-0.4769 Z-0.01
N1720 X0.0679 Z-0.0101
N1725 X0.0709 Y-0.4766 Z-0.0102
N1730 X0.0733 Y-0.4761 Z-0.0104
N1735 X0.0749 Y-0.4757 Z-0.0105
N1740 X0.0761 Y-0.4752 Z-0.0107
N1745 X0.0779 Y-0.4743 Z-0.0108
N1750 X0.0804 Y-0.4728 Z-0.011
N1755 X0.0814 Y-0.4721 Z-0.0111
N1760 X0.0819 Y-0.4716 Z-0.0112
N1765 X0.0844 Y-0.4689 Z-0.0114
N1770 X0.0857 Y-0.4673 Z-0.0116
N1775 X0.0868 Y-0.4655 Z-0.0117
N1780 X0.0877 Y-0.4636 Z-0.0118
N1785 X0.0883 Y-0.4621
N1790 X0.0862 Y-0.4584 Z-0.0033
N1795 X0.0853 Y-0.4569 Z-0.0001
N1800 X0.0862 Y-0.4584 Z-0.0033
N1805 X0.0883 Y-0.4621 Z-0.0118
N1810 X0.0929 Y-0.4596 Z-0.0021
N1815 X0.0938 Y-0.459 Z0.
N1820 G0 Z0.1
N1825 X0.0949 Y-0.3911
N1830 Z0.05
N1835 G1 Z0. F0.35
N1840 X0.101 Y-0.3869 Z-0.0115
N1845 X0.1039 Y-0.3911 Z0.
N1850 X0.101 Y-0.3869 Z-0.0115
N1855 X0.1073 Y-0.3702 Z-0.0111
N1860 X0.1078 Y-0.3691 Z-0.0113
N1865 X0.1085 Y-0.368 Z-0.0121
N1870 X0.1093 Y-0.3671 Z-0.0133
N1875 Y-0.3657 Z-0.0119
N1880 X0.1095 Y-0.3645 Z-0.0111
N1885 X0.1098 Y-0.3633 Z-0.0108
N1890 X0.1178 Y-0.342 Z-0.0104
N1895 X0.119 Y-0.3387 Z-0.0101
N1900 X0.1199 Y-0.3358 Z-0.0096
N1905 X0.121 Y-0.3323 Z-0.009
N1910 X0.1215 Y-0.3313 Z-0.0092
N1915 X0.1222 Y-0.3303 Z-0.01
N1920 X0.1197 Y-0.3267 Z0.
N1925 X0.1222 Y-0.3303 Z-0.01
N1930 X0.1231 Y-0.3301 Z-0.0095
N1935 X0.124 Z-0.0093
N1940 X0.1252 Y-0.3302 Z-0.0096
N1945 X0.1263 Y-0.3305 Z-0.0103
N1950 X0.1288 Y-0.3267 Z0.
N1955 X0.1263 Y-0.3305 Z-0.0103
N1960 X0.1269 Y-0.3313 Z-0.0098
N1965 X0.1273 Y-0.3321 Z-0.0096
N1970 X0.1284 Y-0.3352 Z-0.01
N1975 X0.13 Y-0.3395 Z-0.0104
N1980 X0.1393 Y-0.3632 Z-0.0115
N1985 X0.1396 Y-0.3644 Z-0.0118
N1990 X0.1398 Y-0.3656 Z-0.0126
N1995 Y-0.3669 Z-0.0139
N2000 X0.1386 Y-0.3674 Z-0.0117
N2005 X0.138 Y-0.3676 Z-0.0109
N2010 X0.1367 Y-0.368 Z-0.0099
N2015 X0.1353 Y-0.3681 Z-0.0095
N2020 X0.1135
N2025 X0.1123 Y-0.368 Z-0.0098
N2030 X0.111 Y-0.3677 Z-0.0107
N2035 X0.11 Y-0.3673 Z-0.0121
N2040 X0.1093 Y-0.3671 Z-0.0133
N2045 X0.11 Y-0.3673 Z-0.0121
N2050 X0.111 Y-0.3677 Z-0.0107
N2055 X0.1123 Y-0.368 Z-0.0098
N2060 X0.1135 Y-0.3681 Z-0.0095
N2065 X0.1353
N2070 X0.1367 Y-0.368 Z-0.0099
N2075 X0.138 Y-0.3676 Z-0.0109
N2080 X0.1386 Y-0.3674 Z-0.0117
N2085 X0.1398 Y-0.3669 Z-0.0139
N2090 X0.1407 Y-0.3679 Z-0.0127
N2095 X0.1414 Y-0.3689 Z-0.012
N2100 X0.142 Y-0.3701 Z-0.0117
N2105 X0.1486 Y-0.3867 Z-0.0123
N2110 X0.1455 Y-0.3911 Z0.
N2115 X0.1486 Y-0.3867 Z-0.0123
N2120 X0.1552 Y-0.3911 Z0.
N2125 G0 Z0.1
N2130 X0.0973 Y-0.4795
N2135 Z0.05
N2140 G1 Z0. F0.35
N2145 X0.1034 Y-0.4753 Z-0.0115
N2150 X0.1063 Y-0.4795 Z0.
N2155 X0.1034 Y-0.4753 Z-0.0115
N2160 X0.1096 Y-0.4585 Z-0.0111
N2165 X0.1102 Y-0.4574 Z-0.0113
N2170 X0.1108 Y-0.4564 Z-0.0121
N2175 X0.1117 Y-0.4554 Z-0.0133
N2180 X0.1124 Y-0.4557 Z-0.0121
N2185 X0.1134 Y-0.4561 Z-0.0107
N2190 X0.1146 Y-0.4564 Z-0.0098
N2195 X0.1159 Y-0.4565 Z-0.0095
N2200 X0.1377
N2205 X0.139 Y-0.4564 Z-0.0099
N2210 X0.1403 Y-0.456 Z-0.0109
N2215 X0.141 Y-0.4557 Z-0.0117
N2220 X0.1422 Y-0.4553 Z-0.0139
N2225 X0.1431 Y-0.4562 Z-0.0127
N2230 X0.1438 Y-0.4573 Z-0.012
N2235 X0.1443 Y-0.4584 Z-0.0118
N2240 X0.1509 Y-0.475 Z-0.0123
N2245 X0.1576 Y-0.4795 Z0.
N2250 X0.1509 Y-0.475 Z-0.0123
N2255 X0.1479 Y-0.4795 Z0.
N2260 X0.1509 Y-0.475 Z-0.0123
N2265 X0.1443 Y-0.4584 Z-0.0118
N2270 X0.1438 Y-0.4573 Z-0.012
N2275 X0.1431 Y-0.4562 Z-0.0127
N2280 X0.1422 Y-0.4553 Z-0.0139
N2285 Y-0.454 Z-0.0126
N2290 X0.142 Y-0.4527 Z-0.0118
N2295 X0.1416 Y-0.4515 Z-0.0115
N2300 X0.1347 Y-0.4338 Z-0.0108
N2305 X0.1338 Y-0.4316 Z-0.0107
N2310 X0.1319 Y-0.4268 Z-0.0103
N2315 X0.1298 Y-0.4208 Z-0.0096
N2320 X0.1292 Y-0.4196 Z-0.0098
N2325 X0.1287 Y-0.4188 Z-0.0103
N2330 X0.1312 Y-0.4151 Z0.
N2335 X0.1287 Y-0.4188 Z-0.0103
N2340 X0.1275 Y-0.4185 Z-0.0096
N2345 X0.1264 Y-0.4184 Z-0.0093
N2350 X0.1255 Y-0.4185 Z-0.0095
N2355 X0.1245 Y-0.4187 Z-0.01
N2360 X0.122 Y-0.4151 Z0.
N2365 X0.1245 Y-0.4187 Z-0.01
N2370 X0.1239 Y-0.4196 Z-0.0092
N2375 X0.1234 Y-0.4206 Z-0.009
N2380 X0.1223 Y-0.4241 Z-0.0096
N2385 X0.1214 Y-0.427 Z-0.0101
N2390 X0.1202 Y-0.4304 Z-0.0104
N2395 X0.1122 Y-0.4516 Z-0.0108
N2400 X0.1118 Y-0.4528 Z-0.0111
N2405 X0.1117 Y-0.4541 Z-0.0119
N2410 Y-0.4554 Z-0.0133
N2415 G0 Z0.1
N2420 X0.0973 Y-0.2911
N2425 Z0.05
N2430 G1 Z0. F0.35
N2435 X0.1034 Y-0.2869 Z-0.0115
N2440 X0.1063 Y-0.2911 Z0.
N2445 X0.1034 Y-0.2869 Z-0.0115
N2450 X0.1096 Y-0.2702 Z-0.0111
N2455 X0.1102 Y-0.2691 Z-0.0113
N2460 X0.1108 Y-0.268 Z-0.0121
N2465 X0.1117 Y-0.2671 Z-0.0133
N2470 Y-0.2657 Z-0.0119
N2475 X0.1118 Y-0.2645 Z-0.0111
N2480 X0.1122 Y-0.2633 Z-0.0108
N2485 X0.1202 Y-0.242 Z-0.0104
N2490 X0.1214 Y-0.2387 Z-0.0101
N2495 X0.1223 Y-0.2358 Z-0.0096
N2500 X0.1234 Y-0.2323 Z-0.009
N2505 X0.1239 Y-0.2313 Z-0.0092
N2510 X0.1245 Y-0.2303 Z-0.01
N2515 X0.122 Y-0.2267 Z0.
N2520 X0.1245 Y-0.2303 Z-0.01
N2525 X0.1255 Y-0.2301 Z-0.0095
N2530 X0.1264 Z-0.0093
N2535 X0.1275 Y-0.2302 Z-0.0096
N2540 X0.1287 Y-0.2305 Z-0.0103
N2545 X0.1312 Y-0.2267 Z0.
N2550 X0.1287 Y-0.2305 Z-0.0103
N2555 X0.1292 Y-0.2313 Z-0.0098
N2560 X0.1297 Y-0.2321 Z-0.0096
N2565 X0.1308 Y-0.2352 Z-0.01
N2570 X0.1323 Y-0.2395 Z-0.0104
N2575 X0.1416 Y-0.2632 Z-0.0115
N2580 X0.142 Y-0.2644 Z-0.0118
N2585 X0.1422 Y-0.2656 Z-0.0126
N2590 Y-0.2669 Z-0.0139
N2595 X0.1415 Y-0.2672 Z-0.0125
N2600 X0.1403 Y-0.2676 Z-0.0109
N2605 X0.139 Y-0.268 Z-0.0099
N2610 X0.1377 Y-0.2681 Z-0.0095
N2615 X0.1159
N2620 X0.1146 Y-0.268 Z-0.0098
N2625 X0.1134 Y-0.2677 Z-0.0107
N2630 X0.1128 Y-0.2675 Z-0.0114
N2635 X0.1117 Y-0.2671 Z-0.0133
N2640 X0.1128 Y-0.2675 Z-0.0114
N2645 X0.1134 Y-0.2677 Z-0.0107
N2650 X0.1146 Y-0.268 Z-0.0098
N2655 X0.1159 Y-0.2681 Z-0.0095
N2660 X0.1377
N2665 X0.139 Y-0.268 Z-0.0099
N2670 X0.1403 Y-0.2676 Z-0.0109
N2675 X0.1415 Y-0.2672 Z-0.0125
N2680 X0.1422 Y-0.2669 Z-0.0139
N2685 X0.1431 Y-0.2679 Z-0.0127
N2690 X0.1438 Y-0.2689 Z-0.012
N2695 X0.1443 Y-0.2701 Z-0.0118
N2700 X0.1509 Y-0.2867 Z-0.0123
N2705 X0.1479 Y-0.2911 Z0.
N2710 X0.1509 Y-0.2867 Z-0.0123
N2715 X0.1576 Y-0.2911 Z0.
N2720 G0 Z0.1
N2725 X0.1 Y-0.1911
N2730 Z0.05
N2735 G1 Z0. F0.35
N2740 X0.1047 Y-0.1863 Z-0.013
N2745 X0.106 Y-0.1869 Z-0.0116
N2750 X0.1073 Y-0.1872 Z-0.0107
N2755 X0.1085 Y-0.1873 Z-0.0104
N2760 X0.1443
N2765 X0.1481 Y-0.1911 Z0.
N2770 X0.1443 Y-0.1873 Z-0.0104
N2775 X0.1481 Y-0.1835 Z0.
N2780 X0.1443 Y-0.1873 Z-0.0104
N2785 X0.1085
N2790 X0.1073 Y-0.1872 Z-0.0107
N2795 X0.106 Y-0.1869 Z-0.0116
N2800 X0.1047 Y-0.1863 Z-0.013
N2805 X0.1044 Y-0.1849 Z-0.012
N2810 X0.1043 Y-0.1835 Z-0.0117
N2815 Y-0.1615
N2820 X0.1044 Y-0.1603 Z-0.012
N2825 X0.1046 Y-0.159 Z-0.0127
N2830 X0.1051 Y-0.1578 Z-0.014
N2835 X0.1059 Z-0.0127
N2840 X0.1065 Z-0.0118
N2845 X0.1074 Z-0.0109
N2850 X0.108 Z-0.0105
N2855 X0.1404 Z-0.0104
N2860 X0.1442 Y-0.1615 Z0.
N2865 X0.1404 Y-0.1578 Z-0.0104
N2870 X0.1442 Y-0.154 Z0.
N2875 X0.1404 Y-0.1578 Z-0.0104
N2880 X0.108 Z-0.0105
N2885 X0.1074 Z-0.0109
N2890 X0.1065 Z-0.0118
N2895 X0.1059 Z-0.0127
N2900 X0.1051 Z-0.014
N2905 X0.1046 Y-0.1565 Z-0.0127
N2910 X0.1044 Y-0.1552 Z-0.012
N2915 X0.1043 Y-0.154 Z-0.0117
N2920 Y-0.1343
N2925 X0.1044 Y-0.1328 Z-0.012
N2930 X0.1047 Y-0.1314 Z-0.013
N2935 X0.1 Y-0.1267 Z0.
N2940 X0.1047 Y-0.1314 Z-0.013
N2945 X0.106 Y-0.1309 Z-0.0116
N2950 X0.1073 Y-0.1306 Z-0.0107
N2955 X0.1085 Y-0.1305 Z-0.0104
N2960 X0.1428
N2965 X0.1466 Y-0.1342 Z0.
N2970 X0.1428 Y-0.1305 Z-0.0104
N2975 X0.1466 Y-0.1267 Z0.
N2980 G0 Z0.1
N2985 X0.1421 Y-0.0884
N2990 Z0.05
N2995 G1 Z-0.0101 F0.35
N3000 X0.1453 Y-0.0881 Z-0.0102
N3005 X0.1475 Y-0.0876
N3010 X0.1495 Y-0.087
N3015 X0.1503 Y-0.0867
N3020 X0.152 Y-0.086 Z-0.0103
N3025 X0.1536 Y-0.0851 Z-0.0106
N3030 X0.155 Y-0.0842 Z-0.0108
N3035 X0.1575 Y-0.0823 Z-0.0111
N3040 X0.1588 Y-0.0812
N3045 X0.1595 Y-0.0805 Z-0.0112
N3050 X0.1605 Y-0.0791 Z-0.0115
N3055 X0.1618 Y-0.0772 Z-0.0116
N3060 X0.1631 Y-0.075 Z-0.0117
N3065 X0.1643 Y-0.0724 Z-0.0116
N3070 X0.165 Y-0.0708
N3075 X0.1656 Y-0.0689 Z-0.0117
N3080 X0.1661 Y-0.0666 Z-0.0119
N3085 X0.1665 Y-0.0638 Z-0.012
N3090 X0.1667 Y-0.0595 Z-0.0121
N3095 X0.1666 Y-0.0558 Z-0.012
N3100 X0.1663 Y-0.0529
N3105 X0.1659 Y-0.0505 Z-0.0119
N3110 X0.1652 Y-0.048 Z-0.0118
N3115 X0.1639 Y-0.0443 Z-0.0116
N3120 X0.1634 Y-0.0433
N3125 X0.1618 Y-0.0405 Z-0.0114
N3130 X0.1605 Y-0.0385 Z-0.0113
N3135 X0.1592 Y-0.037 Z-0.0111
N3140 X0.1574 Y-0.0354 Z-0.0109
N3145 X0.1551 Y-0.0336 Z-0.0108
N3150 X0.1537 Y-0.0327 Z-0.0106
N3155 X0.1508 Y-0.0313 Z-0.0104
N3160 X0.1489 Y-0.0305 Z-0.0103
N3165 X0.1469 Y-0.03 Z-0.0102
N3170 X0.1449 Y-0.0296 Z-0.0101
N3175 X0.1412 Y-0.0293
N3180 X0.1401 Y-0.0292
N3185 X0.1363 Y-0.0296
N3190 X0.1338 Y-0.03 Z-0.0102
N3195 X0.1315 Y-0.0306 Z-0.0104
N3200 X0.1297 Y-0.0313 Z-0.0105
N3205 X0.1276 Y-0.0324 Z-0.0106
N3210 X0.1255 Y-0.0337 Z-0.0107
N3215 X0.1224 Y-0.0361 Z-0.0106
N3220 X0.1216 Y-0.0369 Z-0.0108
N3225 X0.1211 Y-0.0374 Z-0.0111
N3230 X0.121 Y-0.0376
N3235 X0.1188 Y-0.0408 Z-0.0112
N3240 X0.1173 Y-0.0433 Z-0.0113
N3245 X0.1162 Y-0.0454 Z-0.0115
N3250 X0.1155 Y-0.0475 Z-0.0116
N3255 X0.1151 Y-0.0487 Z-0.0117
N3260 X0.1146 Y-0.0513 Z-0.0118
N3265 X0.1142 Y-0.0544 Z-0.0119
N3270 X0.1139 Y-0.0597 Z-0.0121
N3275 X0.1141 Y-0.0622 Z-0.012
N3280 X0.1144 Y-0.0653 Z-0.0119
N3285 X0.1147 Y-0.0673 Z-0.0118
N3290 X0.1154 Y-0.0699 Z-0.0115
N3295 X0.116 Y-0.0717 Z-0.0114
N3300 X0.1168 Y-0.0736
N3305 X0.1175 Y-0.0749
N3310 X0.1188 Y-0.0771 Z-0.0113
N3315 X0.1201 Y-0.079
N3320 X0.1215 Y-0.0807 Z-0.0109
N3325 X0.1231 Y-0.0822 Z-0.0108
N3330 X0.1256 Y-0.0842 Z-0.0107
N3335 X0.1271 Y-0.0851 Z-0.0105
N3340 X0.1283 Y-0.0857 Z-0.0103
N3345 X0.13 Y-0.0866 Z-0.0102
N3350 X0.1317 Y-0.0872
N3355 X0.1334 Y-0.0877
N3360 X0.1358 Y-0.0882
N3365 X0.1398 Y-0.0885 Z-0.01
N3370 X0.1421 Y-0.0884 Z-0.0101
N3375 G0 Z0.1
N3380 X0.1572 Y-0.3343
N3385 Z0.05
N3390 G1 Z0. F0.35
N3395 X0.161 Y-0.3305 Z-0.0104
N3400 X0.1572 Y-0.3267 Z0.
N3405 X0.161 Y-0.3305 Z-0.0104
N3410 X0.1784
N3415 X0.1798 Y-0.3306 Z-0.0108
N3420 X0.1812 Y-0.331 Z-0.0119
N3425 X0.1827 Y-0.3317 Z-0.0137
N3430 X0.1841 Y-0.331 Z-0.0119
N3435 X0.1855 Y-0.3306 Z-0.0108
N3440 X0.1869 Y-0.3305 Z-0.0104
N3445 X0.2044
N3450 X0.2082 Y-0.3267 Z0.
N3455 X0.2044 Y-0.3305 Z-0.0104
N3460 X0.2082 Y-0.3343 Z0.
N3465 X0.2044 Y-0.3305 Z-0.0104
N3470 X0.1869
N3475 X0.1855 Y-0.3306 Z-0.0108
N3480 X0.1841 Y-0.331 Z-0.0119
N3485 X0.1827 Y-0.3317 Z-0.0137
N3490 Y-0.3327 Z-0.0125
N3495 Y-0.3334 Z-0.012
N3500 Y-0.3343 Z-0.0117
N3505 Y-0.3869
N3510 X0.1784 Y-0.3911 Z0.
N3515 X0.1827 Y-0.3869 Z-0.0117
N3520 X0.1869 Y-0.3911 Z0.
N3525 G0 Z0.1
N3530 X0.16 Y-0.1911
N3535 Z0.05
N3540 G1 Z0. F0.35
N3545 X0.1643 Y-0.1868 Z-0.0117
N3550 X0.1685 Y-0.1911 Z0.
N3555 X0.1643 Y-0.1868 Z-0.0117
N3560 Y-0.1625
N3565 Y-0.1612 Z-0.012
N3570 X0.1646 Y-0.16 Z-0.0127
N3575 X0.1651 Y-0.1588 Z-0.0139
N3580 X0.1664 Z-0.0116
N3585 X0.1674 Z-0.0106
N3590 X0.168 Z-0.0102
N3595 X0.1685 Z-0.0101
N3600 X0.1813 Z-0.0102
N3605 X0.1833 Y-0.1589 Z-0.0105
N3610 X0.1845 Y-0.159 Z-0.0109
N3615 X0.1864 Y-0.1594 Z-0.0118
N3620 X0.1878 Y-0.1596 Z-0.0126
N3625 X0.1888 Y-0.1599 Z-0.0134
N3630 X0.1892 Y-0.1609 Z-0.0116
N3635 X0.1897 Y-0.1619 Z-0.0101
N3640 X0.1901 Y-0.1627 Z-0.0092
N3645 X0.1907 Y-0.1634 Z-0.0086
N3650 X0.1911 Y-0.1639 Z-0.0084
N3655 X0.1916 Y-0.1643 Z-0.0085
N3660 X0.1923 Y-0.1649 Z-0.0089
N3665 X0.1944 Y-0.1666 Z-0.0103
N3670 X0.1955 Y-0.1676 Z-0.0109
N3675 X0.196 Y-0.1682 Z-0.0111
N3680 X0.1984 Y-0.1712 Z-0.0119
N3685 X0.1999 Y-0.1731 Z-0.0122
N3690 X0.2018 Y-0.176 Z-0.0124
N3695 X0.2085 Y-0.1866
N3700 X0.2167 Y-0.1911 Z0.
N3705 X0.2085 Y-0.1866 Z-0.0124
N3710 X0.2061 Y-0.1911 Z0.
N3715 X0.2085 Y-0.1866 Z-0.0124
N3720 X0.2018 Y-0.176
N3725 X0.1999 Y-0.1731 Z-0.0122
N3730 X0.1984 Y-0.1712 Z-0.0119
N3735 X0.196 Y-0.1682 Z-0.0111
N3740 X0.1955 Y-0.1676 Z-0.0109
N3745 X0.1944 Y-0.1666 Z-0.0103
N3750 X0.1923 Y-0.1649 Z-0.0089
N3755 X0.1916 Y-0.1643 Z-0.0085
N3760 X0.1911 Y-0.1639 Z-0.0084
N3765 X0.1907 Y-0.1634 Z-0.0086
N3770 X0.1901 Y-0.1627 Z-0.0092
N3775 X0.1897 Y-0.1619 Z-0.0101
N3780 X0.1892 Y-0.1609 Z-0.0116
N3785 X0.1888 Y-0.1599 Z-0.0134
N3790 X0.1897 Y-0.1594 Z-0.0119
N3795 X0.1906 Y-0.1589 Z-0.0109
N3800 X0.1914 Y-0.1586 Z-0.0102
N3805 X0.1923 Y-0.1584 Z-0.0098
N3810 X0.194 Y-0.158
N3815 X0.1969 Y-0.1574 Z-0.0099
N3820 X0.1979 Y-0.1571 Z-0.0101
N3825 X0.1997 Y-0.1563 Z-0.0103
N3830 X0.2011 Y-0.1555 Z-0.0105
N3835 X0.2023 Y-0.1545 Z-0.0108
N3840 X0.2039 Y-0.153 Z-0.0113
N3845 X0.2043 Y-0.1526 Z-0.0114
N3850 X0.2051 Y-0.1514 Z-0.0116
N3855 X0.206 Y-0.1498 Z-0.0119
N3860 X0.2064 Y-0.1488 Z-0.012
N3865 X0.2067 Y-0.1473
N3870 X0.2071 Y-0.1448
N3875 X0.207 Y-0.1433 Z-0.0121
N3880 X0.2068 Y-0.1413
N3885 X0.2064 Y-0.1398
N3890 X0.2058 Y-0.1383 Z-0.012
N3895 X0.2051 Y-0.1369
N3900 X0.204 Y-0.1353
N3905 X0.2031 Y-0.1343
N3910 X0.2022 Y-0.1335 Z-0.0117
N3915 X0.2005 Y-0.1325 Z-0.0115
N3920 X0.1993 Y-0.132 Z-0.0111
N3925 X0.1972 Y-0.1312 Z-0.0105
N3930 X0.1957 Y-0.1308 Z-0.0102
N3935 X0.1938 Y-0.1305 Z-0.01
N3940 X0.1918 Y-0.1303 Z-0.0098
N3945 X0.1685 Y-0.1302
N3950 X0.1672 Y-0.1303 Z-0.0101
N3955 X0.1659 Y-0.1307 Z-0.0111
N3960 X0.1646 Y-0.1313 Z-0.0127
N3965 X0.16 Y-0.1267 Z0.
N3970 X0.1646 Y-0.1313 Z-0.0127
N3975 X0.1643 Y-0.1325 Z-0.012
N3980 Y-0.1338 Z-0.0117
N3985 Y-0.1551
N3990 Y-0.1563 Z-0.012
N3995 X0.1646 Y-0.1575 Z-0.0127
N4000 X0.1651 Y-0.1588 Z-0.0139
N4005 G0 Z0.1
N4010 X0.164 Y-0.2911
N4015 Z0.05
N4020 G1 Z0. F0.35
N4025 X0.1688 Y-0.2864 Z-0.013
N4030 X0.17 Y-0.2869 Z-0.0116
N4035 X0.1713 Y-0.2872 Z-0.0107
N4040 X0.1726 Y-0.2873 Z-0.0104
N4045 X0.2005
N4050 X0.2043 Y-0.2911 Z0.
N4055 X0.2005 Y-0.2873 Z-0.0104
N4060 X0.2043 Y-0.2835 Z0.
N4065 X0.2005 Y-0.2873 Z-0.0104
N4070 X0.1726
N4075 X0.1713 Y-0.2872 Z-0.0107
N4080 X0.17 Y-0.2869 Z-0.0116
N4085 X0.1688 Y-0.2864 Z-0.013
N4090 X0.1684 Y-0.2849 Z-0.012
N4095 X0.1683 Y-0.2835 Z-0.0117
N4100 Y-0.231
N4105 X0.1725 Y-0.2267 Z0.
N4110 X0.1683 Y-0.231 Z-0.0117
N4115 X0.164 Y-0.2267 Z0.
N4120 G0 Z0.1
N4125 X0.1645 Y-0.4795
N4130 Z0.05
N4135 G1 Z0. F0.35
N4140 X0.1688 Y-0.4752 Z-0.0117
N4145 X0.173 Y-0.4795 Z0.
N4150 X0.1688 Y-0.4752 Z-0.0117
N4155 Y-0.4509
N4160 X0.1689 Y-0.4496 Z-0.012
N4165 X0.1691 Y-0.4484 Z-0.0127
N4170 X0.1696 Y-0.4472 Z-0.0139
N4175 X0.1691 Y-0.4459 Z-0.0127
N4180 X0.1689 Y-0.4447 Z-0.012
N4185 X0.1688 Y-0.4435 Z-0.0117
N4190 Y-0.4222
N4195 X0.1689 Y-0.4209 Z-0.012
N4200 X0.1691 Y-0.4197 Z-0.0127
N4205 X0.1645 Y-0.4151 Z0.
N4210 X0.1691 Y-0.4197 Z-0.0127
N4215 X0.1704 Y-0.4191 Z-0.0111
N4220 X0.1717 Y-0.4187 Z-0.0101
N4225 X0.173 Y-0.4186 Z-0.0098
N4230 X0.1931
N4235 X0.1965 Y-0.4187 Z-0.0099
N4240 X0.1983 Y-0.4189 Z-0.01
N4245 X0.2002 Y-0.4192 Z-0.0102
N4250 X0.2022 Y-0.4197 Z-0.0106
N4255 X0.2043 Y-0.4206 Z-0.0113
N4260 X0.205 Y-0.4209 Z-0.0115
N4265 X0.2065 Y-0.4217 Z-0.0117
N4270 X0.2075 Y-0.4226 Z-0.012
N4275 X0.2085 Y-0.4237
N4280 X0.2096 Y-0.4252
N4285 X0.2103 Y-0.4266
N4290 X0.211 Y-0.4282 Z-0.0121
N4295 X0.2113 Y-0.4296
N4300 X0.2116 Y-0.4322
N4305 X0.2115 Y-0.4341 Z-0.012
N4310 X0.2112 Y-0.436
N4315 X0.2109 Y-0.4372
N4320 X0.2104 Y-0.4384 Z-0.0119
N4325 X0.2092 Y-0.4404 Z-0.0115
N4330 X0.2088 Y-0.441 Z-0.0114
N4335 X0.2075 Y-0.4423 Z-0.011
N4340 X0.2064 Y-0.4433 Z-0.0106
N4345 X0.2052 Y-0.4441 Z-0.0105
N4350 X0.2038 Y-0.4449 Z-0.0103
N4355 X0.202 Y-0.4456 Z-0.01
N4360 X0.2003 Y-0.4461 Z-0.0099
N4365 X0.1979 Y-0.4466 Z-0.0097
N4370 X0.1969 Y-0.4467 Z-0.0098
N4375 X0.196 Y-0.447 Z-0.0101
N4380 X0.1952 Y-0.4473 Z-0.0108
N4385 X0.1943 Y-0.4477 Z-0.0119
N4390 X0.1934 Y-0.4483 Z-0.0134
N4395 X0.1914 Y-0.4478 Z-0.012
N4400 X0.1898 Y-0.4476 Z-0.0112
N4405 X0.1882 Y-0.4473 Z-0.0106
N4410 X0.1857 Y-0.4472 Z-0.0102
N4415 X0.1836 Z-0.0101
N4420 X0.1829
N4425 X0.1725 Z-0.0102
N4430 X0.1719 Z-0.0106
N4435 X0.171 Z-0.0116
N4440 X0.1703 Z-0.0126
N4445 X0.1696 Z-0.0139
N4450 X0.1703 Z-0.0126
N4455 X0.171 Z-0.0116
N4460 X0.1719 Z-0.0106
N4465 X0.1725 Z-0.0102
N4470 X0.1829 Z-0.0101
N4475 X0.1836
N4480 X0.1857 Z-0.0102
N4485 X0.1882 Y-0.4473 Z-0.0106
N4490 X0.1898 Y-0.4476 Z-0.0112
N4495 X0.1914 Y-0.4478 Z-0.012
N4500 X0.1934 Y-0.4483 Z-0.0134
N4505 X0.1935 Y-0.4486 Z-0.0129
N4510 X0.194 Y-0.4498 Z-0.0108
N4515 X0.1943 Y-0.4505 Z-0.0098
N4520 X0.1948 Y-0.4513 Z-0.009
N4525 X0.1952 Y-0.4518 Z-0.0086
N4530 X0.1956 Y-0.4522 Z-0.0085
N4535 X0.1961 Y-0.4527
N4540 X0.1969 Y-0.4533 Z-0.0089
N4545 X0.1986 Y-0.4547 Z-0.0101
N4550 X0.2002 Y-0.4562 Z-0.011
N4555 X0.2019 Y-0.4583 Z-0.0116
N4560 X0.2034 Y-0.4602 Z-0.012
N4565 X0.2051 Y-0.4625 Z-0.0123
N4570 X0.2131 Y-0.475 Z-0.0124
N4575 X0.2106 Y-0.4795 Z0.
N4580 X0.2131 Y-0.475 Z-0.0124
N4585 X0.2213 Y-0.4795 Z0.
N4590 G0 Z0.1
N4595 X0.1822 Y-0.0911
N4600 Z0.05
N4605 G1 Z0. F0.35
N4610 X0.1869 Y-0.0864 Z-0.013
N4615 X0.1881 Y-0.0869 Z-0.0116
N4620 X0.1894 Y-0.0872 Z-0.0107
N4625 X0.1907 Y-0.0873 Z-0.0104
N4630 X0.2044
N4635 X0.2049
N4640 X0.2082 Y-0.0872 Z-0.0105
N4645 X0.2108 Y-0.087
N4650 X0.214 Y-0.0864 Z-0.0107
N4655 X0.2153 Y-0.0861
N4660 X0.2174 Y-0.0854 Z-0.0108
N4665 X0.2192 Y-0.0846 Z-0.0109
N4670 X0.2207 Y-0.0837 Z-0.0111
N4675 X0.2219 Y-0.0829
N4680 X0.2231 Y-0.0818 Z-0.0112
N4685 X0.2242 Y-0.0806 Z-0.0114
N4690 X0.2258 Y-0.0786 Z-0.0115
N4695 X0.2268 Y-0.077
N4700 X0.2278 Y-0.0752 Z-0.0117
N4705 X0.2287 Y-0.0729 Z-0.0118
N4710 X0.2292 Y-0.0715
N4715 X0.23 Y-0.0684 Z-0.0119
N4720 X0.2305 Y-0.0658 Z-0.012
N4725 X0.2308 Y-0.0635
N4730 X0.231 Y-0.059 Z-0.0121
N4735 X0.2309 Y-0.0549 Z-0.012
N4740 X0.2306 Y-0.052 Z-0.0119
N4745 X0.2302 Y-0.0496 Z-0.0118
N4750 X0.2297 Y-0.0476
N4755 X0.2289 Y-0.0452 Z-0.0119
N4760 X0.2282 Y-0.0435
N4765 X0.2272 Y-0.0412 Z-0.0117
N4770 X0.2267 Y-0.0404
N4775 X0.2257 Y-0.039
N4780 X0.2244 Y-0.0373 Z-0.0115
N4785 X0.2231 Y-0.0359 Z-0.0114
N4790 X0.2218 Y-0.0348 Z-0.0113
N4795 X0.2202 Y-0.0337
N4800 X0.2188 Y-0.0329 Z-0.0112
N4805 X0.2168 Y-0.032 Z-0.0108
N4810 X0.2156 Y-0.0316
N4815 X0.2139 Y-0.0313 Z-0.0107
N4820 X0.2115 Y-0.0309 Z-0.0106
N4825 X0.2086 Y-0.0306 Z-0.0105
N4830 X0.1907 Y-0.0305 Z-0.0104
N4835 X0.1894 Y-0.0306 Z-0.0107
N4840 X0.1881 Y-0.0309 Z-0.0116
N4845 X0.1869 Y-0.0314 Z-0.013
N4850 X0.1822 Y-0.0267 Z0.
N4855 X0.1869 Y-0.0314 Z-0.013
N4860 X0.1865 Y-0.0329 Z-0.012
N4865 X0.1864 Y-0.0343 Z-0.0117
N4870 Y-0.0835
N4875 X0.1865 Y-0.0849 Z-0.012
N4880 X0.1869 Y-0.0864 Z-0.013
N4885 G0 Z0.1
N4890 X0.2159 Y-0.2911
N4895 Z0.05
N4900 G1 Z0. F0.35
N4905 X0.2202 Y-0.2869 Z-0.0117
N4910 X0.2244 Y-0.2911 Z0.
N4915 X0.2202 Y-0.2869 Z-0.0117
N4920 Y-0.231
N4925 X0.2159 Y-0.2267 Z0.
N4930 X0.2202 Y-0.231 Z-0.0117
N4935 X0.2244 Y-0.2267 Z0.
N4940 G0 Z0.1
N4945 X0.2173 Y-0.3911
N4950 Z0.05
N4955 G1 Z0. F0.35
N4960 X0.2215 Y-0.3869 Z-0.0117
N4965 X0.2258 Y-0.3911 Z0.
N4970 X0.2215 Y-0.3869 Z-0.0117
N4975 Y-0.3608
N4980 X0.2216 Y-0.3595 Z-0.012
N4985 X0.2219 Y-0.3582 Z-0.0127
N4990 X0.2224 Y-0.357 Z-0.014
N4995 X0.2219 Y-0.3557 Z-0.0127
N5000 X0.2216 Y-0.3544 Z-0.012
N5005 X0.2215 Y-0.3531 Z-0.0117
N5010 Y-0.331
N5015 X0.2258 Y-0.3267 Z0.
N5020 X0.2215 Y-0.331 Z-0.0117
N5025 X0.2173 Y-0.3267 Z0.
N5030 X0.2215 Y-0.331 Z-0.0117
N5035 Y-0.3531
N5040 X0.2216 Y-0.3544 Z-0.012
N5045 X0.2219 Y-0.3557 Z-0.0127
N5050 X0.2224 Y-0.357 Z-0.014
N5055 X0.2237 Z-0.0119
N5060 X0.2246 Z-0.0109
N5065 X0.2253 Z-0.0105
N5070 X0.2258 Z-0.0104
N5075 X0.2598 Z-0.0105
N5080 X0.2604 Z-0.0109
N5085 X0.2613 Z-0.0119
N5090 X0.2619 Z-0.0127
N5095 X0.2627 Z-0.014
N5100 X0.2631 Y-0.3557 Z-0.0127
N5105 X0.2634 Y-0.3544 Z-0.012
N5110 X0.2635 Y-0.3531 Z-0.0117
N5115 Y-0.331
N5120 X0.2593 Y-0.3267 Z0.
N5125 X0.2635 Y-0.331 Z-0.0117
N5130 X0.2678 Y-0.3267 Z0.
N5135 X0.2635 Y-0.331 Z-0.0117
N5140 Y-0.3531
N5145 X0.2634 Y-0.3544 Z-0.012
N5150 X0.2631 Y-0.3557 Z-0.0127
N5155 X0.2627 Y-0.357 Z-0.014
N5160 X0.2631 Y-0.3582 Z-0.0127
N5165 X0.2634 Y-0.3595 Z-0.012
N5170 X0.2635 Y-0.3608 Z-0.0117
N5175 Y-0.3869
N5180 X0.2678 Y-0.3911 Z0.
N5185 X0.2635 Y-0.3869 Z-0.0117
N5190 X0.2593 Y-0.3911 Z0.
N5195 G0 Z0.1
N5200 X0.2261 Y-0.1911
N5205 Z0.05
N5210 G1 Z0. F0.35
N5215 X0.2305 Y-0.1866 Z-0.0124
N5220 X0.235 Y-0.1821 Z0.
N5225 X0.2305 Y-0.1866 Z-0.0124
N5230 X0.2261 Y-0.1821 Z0.
N5235 X0.2305 Y-0.1866 Z-0.0124
N5240 X0.235 Y-0.1911 Z0.
N5245 G0 Z0.1
N5250 X0.2261 Y-0.1534
N5255 Z0.05
N5260 G1 Z0. F0.35
N5265 X0.2305 Y-0.1489 Z-0.0124
N5270 X0.2261 Y-0.1444 Z0.
N5275 X0.2305 Y-0.1489 Z-0.0124
N5280 X0.235 Y-0.1444 Z0.
N5285 X0.2305 Y-0.1489 Z-0.0124
N5290 X0.235 Y-0.1534 Z0.
N5295 G0 Z0.1
N5300 X0.229 Y-0.4795
N5305 Z0.05
N5310 G1 Z0. F0.35
N5315 X0.2338 Y-0.4747 Z-0.013
N5320 X0.235 Y-0.4753 Z-0.0116
N5325 X0.2363 Y-0.4756 Z-0.0107
N5330 X0.2376 Y-0.4757 Z-0.0104
N5335 X0.2655
N5340 X0.2693 Y-0.4795 Z0.
N5345 X0.2655 Y-0.4757 Z-0.0104
N5350 X0.2693 Y-0.4719 Z0.
N5355 X0.2655 Y-0.4757 Z-0.0104
N5360 X0.2376
N5365 X0.2363 Y-0.4756 Z-0.0107
N5370 X0.235 Y-0.4753 Z-0.0116
N5375 X0.2338 Y-0.4747 Z-0.013
N5380 X0.2334 Y-0.4733 Z-0.012
N5385 X0.2333 Y-0.4719 Z-0.0117
N5390 Y-0.4193
N5395 X0.2375 Y-0.4151 Z0.
N5400 X0.2333 Y-0.4193 Z-0.0117
N5405 X0.229 Y-0.4151 Z0.
N5410 G0 Z0.1
N5415 X0.2391 Y-0.2911
N5420 Z0.05
N5425 G1 Z0. F0.35
N5430 X0.2438 Y-0.2864 Z-0.013
N5435 X0.2435 Y-0.2849 Z-0.012
N5440 X0.2434 Y-0.2835 Z-0.0117
N5445 Y-0.2614
N5450 Y-0.2601 Z-0.012
N5455 X0.2437 Y-0.2588 Z-0.0127
N5460 X0.2442 Y-0.2576 Z-0.014
N5465 X0.245 Z-0.0127
N5470 X0.2456 Z-0.0119
N5475 X0.2465 Z-0.0109
N5480 X0.2471 Z-0.0105
N5485 X0.2615 Z-0.0104
N5490 X0.2629 Z-0.0105
N5495 X0.265 Z-0.0106
N5500 X0.2667 Y-0.2575 Z-0.0109
N5505 X0.2681 Z-0.0113
N5510 X0.27 Z-0.0122
N5515 X0.271 Z-0.0128
N5520 X0.2717 Y-0.2582 Z-0.0114
N5525 X0.2724 Y-0.2587 Z-0.0102
N5530 X0.2732 Y-0.2593 Z-0.0094
N5535 X0.2737 Y-0.2596 Z-0.0092
N5540 X0.2742 Y-0.2598 Z-0.0091
N5545 X0.2752 Y-0.2602 Z-0.0092
N5550 X0.2766 Y-0.2609 Z-0.0095
N5555 X0.2779 Y-0.2617 Z-0.0101
N5560 X0.279 Y-0.2626 Z-0.0105
N5565 X0.2801 Y-0.2637 Z-0.0108
N5570 X0.2812 Y-0.2652 Z-0.0114
N5575 X0.2821 Y-0.2667 Z-0.0116
N5580 X0.2827 Y-0.2681 Z-0.0119
N5585 X0.283 Y-0.2694 Z-0.012
N5590 X0.2833 Y-0.2719 Z-0.0121
N5595 Y-0.2731
N5600 X0.2831 Y-0.2751
N5605 X0.2828 Y-0.2765 Z-0.012
N5610 X0.2822 Y-0.2782 Z-0.0119
N5615 X0.2814 Y-0.2799 Z-0.0118
N5620 X0.2806 Y-0.2813
N5625 X0.2796 Y-0.2825 Z-0.0117
N5630 X0.2786 Y-0.2835 Z-0.0115
N5635 X0.2771 Y-0.2845 Z-0.0112
N5640 X0.2761 Y-0.2851 Z-0.0111
N5645 X0.2744 Y-0.2858 Z-0.0108
N5650 X0.2727 Y-0.2864 Z-0.0106
N5655 X0.2708 Y-0.2868 Z-0.0104
N5660 X0.2691 Y-0.2871
N5665 X0.2665 Y-0.2873
N5670 X0.2636
N5675 X0.2476
N5680 X0.2464 Y-0.2872 Z-0.0107
N5685 X0.2451 Y-0.2869 Z-0.0116
N5690 X0.2438 Y-0.2864 Z-0.013
N5695 X0.2451 Y-0.2869 Z-0.0116
N5700 X0.2464 Y-0.2872 Z-0.0107
N5705 X0.2476 Y-0.2873 Z-0.0104
N5710 X0.2636
N5715 X0.2665
N5720 X0.2691 Y-0.2871
N5725 X0.2708 Y-0.2868
N5730 X0.2727 Y-0.2864 Z-0.0106
N5735 X0.2744 Y-0.2858 Z-0.0108
N5740 X0.2761 Y-0.2851 Z-0.0111
N5745 X0.2771 Y-0.2845 Z-0.0112
N5750 X0.2786 Y-0.2835 Z-0.0115
N5755 X0.2796 Y-0.2825 Z-0.0117
N5760 X0.2806 Y-0.2813 Z-0.0118
N5765 X0.2814 Y-0.2799
N5770 X0.2822 Y-0.2782 Z-0.0119
N5775 X0.2828 Y-0.2765 Z-0.012
N5780 X0.2831 Y-0.2751 Z-0.0121
N5785 X0.2833 Y-0.2731
N5790 Y-0.2719
N5795 X0.283 Y-0.2694 Z-0.012
N5800 X0.2827 Y-0.2681 Z-0.0119
N5805 X0.2821 Y-0.2667 Z-0.0116
N5810 X0.2812 Y-0.2652 Z-0.0114
N5815 X0.2801 Y-0.2637 Z-0.0108
N5820 X0.279 Y-0.2626 Z-0.0105
N5825 X0.2779 Y-0.2617 Z-0.0101
N5830 X0.2766 Y-0.2609 Z-0.0095
N5835 X0.2752 Y-0.2602 Z-0.0092
N5840 X0.2742 Y-0.2598 Z-0.0091
N5845 X0.2737 Y-0.2596 Z-0.0092
N5850 X0.2732 Y-0.2593 Z-0.0094
N5855 X0.2724 Y-0.2587 Z-0.0102
N5860 X0.2717 Y-0.2582 Z-0.0114
N5865 X0.271 Y-0.2575 Z-0.0128
N5870 X0.2717 Y-0.2564 Z-0.0107
N5875 X0.2724 Y-0.2556 Z-0.0094
N5880 X0.2729 Y-0.2551 Z-0.0087
N5885 X0.2735 Y-0.2547 Z-0.0083
N5890 X0.2741 Y-0.2543 Z-0.0082
N5895 X0.275 Y-0.2537 Z-0.0084
N5900 X0.2764 Y-0.2526 Z-0.0089
N5905 X0.2775 Y-0.2515 Z-0.0093
N5910 X0.2783 Y-0.2504 Z-0.0098
N5915 X0.2792 Y-0.2489 Z-0.0103
N5920 X0.2797 Y-0.2477 Z-0.0106
N5925 X0.2802 Y-0.2461 Z-0.0111
N5930 X0.2803 Y-0.2449 Z-0.0113
N5935 X0.2804 Y-0.2434 Z-0.0115
N5940 Y-0.2428 Z-0.0116
N5945 X0.2801 Y-0.2408
N5950 X0.2798 Y-0.2395
N5955 X0.2791 Y-0.2381 Z-0.0115
N5960 X0.2783 Y-0.2365 Z-0.0114
N5965 X0.2775 Y-0.2354 Z-0.0113
N5970 X0.2764 Y-0.2342 Z-0.0112
N5975 X0.2753 Y-0.2333 Z-0.011
N5980 X0.2742 Y-0.2327 Z-0.0109
N5985 X0.273 Y-0.2321 Z-0.0108
N5990 X0.2714 Y-0.2315 Z-0.0106
N5995 X0.2694 Y-0.2311 Z-0.0107
N6000 X0.2674 Y-0.2308 Z-0.0106
N6005 X0.2648 Y-0.2306 Z-0.0105
N6010 X0.2613 Y-0.2305 Z-0.0104
N6015 X0.2476
N6020 X0.2464 Y-0.2306 Z-0.0107
N6025 X0.2451 Y-0.2309 Z-0.0116
N6030 X0.2438 Y-0.2314 Z-0.013
N6035 X0.2391 Y-0.2267 Z0.
N6040 X0.2438 Y-0.2314 Z-0.013
N6045 X0.2435 Y-0.2329 Z-0.012
N6050 X0.2434 Y-0.2343 Z-0.0117
N6055 Y-0.2538
N6060 Y-0.255 Z-0.012
N6065 X0.2437 Y-0.2563 Z-0.0127
N6070 X0.2442 Y-0.2576 Z-0.014
N6075 G0 Z0.1
N6080 X0.2473 Y-0.0911
N6085 Z0.05
N6090 G1 Z0. F0.35
N6095 X0.2521 Y-0.0864 Z-0.013
N6100 X0.2533 Y-0.0869 Z-0.0116
N6105 X0.2546 Y-0.0872 Z-0.0107
N6110 X0.2558 Y-0.0873 Z-0.0104
N6115 X0.2916
N6120 X0.2954 Y-0.0911 Z0.
N6125 X0.2916 Y-0.0873 Z-0.0104
N6130 X0.2954 Y-0.0835 Z0.
N6135 X0.2916 Y-0.0873 Z-0.0104
N6140 X0.2558
N6145 X0.2546 Y-0.0872 Z-0.0107
N6150 X0.2533 Y-0.0869 Z-0.0116
N6155 X0.2521 Y-0.0864 Z-0.013
N6160 X0.2517 Y-0.0849 Z-0.012
N6165 X0.2516 Y-0.0835 Z-0.0117
N6170 Y-0.0616
N6175 X0.2517 Y-0.0603 Z-0.012
N6180 X0.2519 Y-0.0591 Z-0.0127
N6185 X0.2524 Y-0.0578 Z-0.014
N6190 X0.2538 Z-0.0118
N6195 X0.2547 Z-0.0109
N6200 X0.2553 Z-0.0105
N6205 X0.2558 Z-0.0104
N6210 X0.2877
N6215 X0.2915 Y-0.0616 Z0.
N6220 X0.2877 Y-0.0578 Z-0.0104
N6225 X0.2915 Y-0.054 Z0.
N6230 X0.2877 Y-0.0578 Z-0.0104
N6235 X0.2558
N6240 X0.2553 Z-0.0105
N6245 X0.2547 Z-0.0109
N6250 X0.2538 Z-0.0118
N6255 X0.2524 Z-0.014
N6260 X0.2519 Y-0.0565 Z-0.0127
N6265 X0.2517 Y-0.0553 Z-0.012
N6270 X0.2516 Y-0.054 Z-0.0117
N6275 Y-0.0343
N6280 X0.2517 Y-0.0329 Z-0.012
N6285 X0.2521 Y-0.0314 Z-0.013
N6290 X0.2473 Y-0.0267 Z0.
N6295 X0.2521 Y-0.0314 Z-0.013
N6300 X0.2533 Y-0.0309 Z-0.0116
N6305 X0.2546 Y-0.0306 Z-0.0107
N6310 X0.2558 Y-0.0305 Z-0.0104
N6315 X0.2901
N6320 X0.2939 Y-0.0343 Z0.
N6325 X0.2901 Y-0.0305 Z-0.0104
N6330 X0.2939 Y-0.0267 Z0.
N6335 G0 Z0.1
N6340 X0.2749 Y-0.3911
N6345 Z0.05
N6350 G1 Z0. F0.35
N6355 X0.281 Y-0.3869 Z-0.0115
N6360 X0.2839 Y-0.3911 Z0.
N6365 X0.281 Y-0.3869 Z-0.0115
N6370 X0.2873 Y-0.3702 Z-0.0111
N6375 X0.2878 Y-0.3691 Z-0.0113
N6380 X0.2885 Y-0.368 Z-0.0121
N6385 X0.2893 Y-0.3671 Z-0.0133
N6390 Y-0.3657 Z-0.0119
N6395 X0.2895 Y-0.3645 Z-0.0111
N6400 X0.2898 Y-0.3633 Z-0.0108
N6405 X0.2978 Y-0.342 Z-0.0104
N6410 X0.299 Y-0.3387 Z-0.0101
N6415 X0.2999 Y-0.3358 Z-0.0096
N6420 X0.301 Y-0.3323 Z-0.009
N6425 X0.3015 Y-0.3313 Z-0.0092
N6430 X0.3022 Y-0.3303 Z-0.01
N6435 X0.2997 Y-0.3267 Z0.
N6440 X0.3022 Y-0.3303 Z-0.01
N6445 X0.3031 Y-0.3301 Z-0.0095
N6450 X0.304 Z-0.0093
N6455 X0.3052 Y-0.3302 Z-0.0096
N6460 X0.3063 Y-0.3305 Z-0.0103
N6465 X0.3088 Y-0.3267 Z0.
N6470 X0.3063 Y-0.3305 Z-0.0103
N6475 X0.3069 Y-0.3313 Z-0.0098
N6480 X0.3073 Y-0.3321 Z-0.0096
N6485 X0.3084 Y-0.3352 Z-0.01
N6490 X0.31 Y-0.3395 Z-0.0104
N6495 X0.3193 Y-0.3632 Z-0.0115
N6500 X0.3196 Y-0.3644 Z-0.0118
N6505 X0.3198 Y-0.3656 Z-0.0126
N6510 Y-0.3669 Z-0.0139
N6515 X0.3191 Y-0.3672 Z-0.0125
N6520 X0.318 Y-0.3676 Z-0.0109
N6525 X0.3167 Y-0.368 Z-0.0099
N6530 X0.3153 Y-0.3681 Z-0.0095
N6535 X0.2935
N6540 X0.2923 Y-0.368 Z-0.0098
N6545 X0.291 Y-0.3677 Z-0.0107
N6550 X0.2905 Y-0.3675 Z-0.0114
N6555 X0.2893 Y-0.3671 Z-0.0133
N6560 X0.2905 Y-0.3675 Z-0.0114
N6565 X0.291 Y-0.3677 Z-0.0107
N6570 X0.2923 Y-0.368 Z-0.0098
N6575 X0.2935 Y-0.3681 Z-0.0095
N6580 X0.3153
N6585 X0.3167 Y-0.368 Z-0.0099
N6590 X0.318 Y-0.3676 Z-0.0109
N6595 X0.3191 Y-0.3672 Z-0.0125
N6600 X0.3198 Y-0.3669 Z-0.0139
N6605 X0.3207 Y-0.3679 Z-0.0127
N6610 X0.3214 Y-0.3689 Z-0.012
N6615 X0.322 Y-0.3701 Z-0.0117
N6620 X0.3286 Y-0.3867 Z-0.0123
N6625 X0.3255 Y-0.3911 Z0.
N6630 X0.3286 Y-0.3867 Z-0.0123
N6635 X0.3352 Y-0.3911 Z0.
N6640 G0 Z0.1
N6645 X0.2766 Y-0.4588
N6650 Z0.05
N6655 G1 Z0. F0.35
N6660 X0.2793 Y-0.461 Z-0.0068
N6665 X0.2812 Y-0.4625 Z-0.0114
N6670 X0.2833 Y-0.4597 Z-0.0042
N6675 X0.2846 Y-0.4581 Z-0.0001
N6680 X0.2833 Y-0.4597 Z-0.0042
N6685 X0.2812 Y-0.4625 Z-0.0114
N6690 X0.2814 Y-0.4633 Z-0.0115
N6695 X0.282 Y-0.4651
N6700 X0.2834 Y-0.4677
N6705 X0.2837 Y-0.4682
N6710 X0.2845 Y-0.4693
N6715 X0.2858 Y-0.4708
N6720 X0.287 Y-0.4719
N6725 X0.2884 Y-0.4728 Z-0.0114
N6730 X0.2906 Y-0.474 Z-0.0113
N6735 X0.2916 Y-0.4745 Z-0.0111
N6740 X0.2928 Y-0.475 Z-0.011
N6745 X0.2953 Y-0.4758 Z-0.0108
N6750 X0.2973 Y-0.4762 Z-0.0107
N6755 X0.2998 Y-0.4765 Z-0.0106
N6760 X0.3035 Y-0.4767 Z-0.0105
N6765 X0.3061 Y-0.4766
N6770 X0.3083 Y-0.4764
N6775 X0.3104 Y-0.476 Z-0.0106
N6780 X0.313 Y-0.4752 Z-0.0105
N6785 X0.3145 Y-0.4747 Z-0.0106
N6790 X0.3164 Y-0.4737 Z-0.0105
N6795 X0.3179 Y-0.4728 Z-0.0106
N6800 X0.3192 Y-0.4717 Z-0.0107
N6805 X0.3206 Y-0.4701 Z-0.0106
N6810 X0.3213 Y-0.4692 Z-0.0107
N6815 X0.3216 Y-0.4687 Z-0.0108
N6820 X0.3225 Y-0.4672
N6825 X0.323 Y-0.4657 Z-0.011
N6830 X0.3234 Y-0.4644 Z-0.0111
N6835 X0.3237 Y-0.4623 Z-0.0112
N6840 Y-0.4615 Z-0.0113
N6845 X0.3235 Y-0.4594 Z-0.0114
N6850 X0.3232 Y-0.4579 Z-0.0116
N6855 X0.3226 Y-0.4565 Z-0.0117
N6860 X0.3218 Y-0.4549 Z-0.0118
N6865 X0.3213 Y-0.4542 Z-0.0117
N6870 X0.3198 Y-0.4525 Z-0.0119
N6875 X0.3189 Y-0.4518
N6880 X0.3175 Y-0.4508 Z-0.0118
N6885 X0.3158 Y-0.4498
N6890 X0.3142 Y-0.4492
N6895 X0.3119 Y-0.4484
N6900 X0.309 Y-0.4474
N6905 X0.3045 Y-0.4463
N6910 X0.2982 Y-0.4448 Z-0.0116
N6915 X0.2952 Y-0.444
N6920 X0.2927 Y-0.4431
N6925 X0.2903 Y-0.442 Z-0.0117
N6930 X0.289 Y-0.4413
N6935 X0.2874 Y-0.4403 Z-0.0115
N6940 X0.2866 Y-0.4397
N6945 X0.2856 Y-0.4385
N6950 X0.2848 Y-0.4375 Z-0.0116
N6955 X0.2842 Y-0.4363 Z-0.0115
N6960 X0.2836 Y-0.435
N6965 X0.2834 Y-0.4338 Z-0.0114
N6970 X0.2831 Y-0.4317 Z-0.0113
N6975 X0.2832 Y-0.4308 Z-0.0112
N6980 X0.2835 Y-0.4286
N6985 X0.2838 Y-0.4273 Z-0.011
N6990 X0.2845 Y-0.4259 Z-0.0108
N6995 X0.2853 Y-0.4245
N7000 X0.2864 Y-0.4232 Z-0.0107
N7005 X0.2875 Y-0.422
N7010 X0.2887 Y-0.4211 Z-0.0105
N7015 X0.2907 Y-0.42
N7020 X0.2918 Y-0.4195 Z-0.0104
N7025 X0.2935 Y-0.4189 Z-0.0102
N7030 X0.2955 Y-0.4183
N7035 X0.2976 Y-0.4179
N7040 X0.2994 Y-0.4178 Z-0.0103
N7045 X0.3021 Y-0.4177
N7050 X0.3061 Y-0.418
N7055 X0.3083 Y-0.4183 Z-0.0102
N7060 X0.3101 Y-0.4188 Z-0.0103
N7065 X0.312 Y-0.4195 Z-0.0105
N7070 X0.3134 Y-0.4202 Z-0.0107
N7075 X0.3158 Y-0.4215 Z-0.0109
N7080 X0.317 Y-0.4226 Z-0.0112
N7085 X0.3182 Y-0.424 Z-0.0113
N7090 X0.3193 Y-0.4255 Z-0.0114
N7095 X0.3201 Y-0.4269
N7100 X0.3208 Y-0.4286 Z-0.0115
N7105 X0.3211 Y-0.4294
N7110 X0.319 Y-0.4322 Z-0.0041
N7115 X0.3177 Y-0.4338 Z0.
N7120 X0.319 Y-0.4322 Z-0.0041
N7125 X0.3211 Y-0.4294 Z-0.0115
N7130 X0.3227 Y-0.4305 Z-0.0079
N7135 X0.3254 Y-0.4328 Z-0.0012
N7140 X0.3259 Y-0.4332 Z0.
N7145 G0 Z0.1
N7150 X0.2997 Y-0.2911
N7155 Z0.05
N7160 G1 Z0. F0.35
N7165 X0.3044 Y-0.2864 Z-0.013
N7170 X0.3057 Y-0.2869 Z-0.0116
N7175 X0.3069 Y-0.2872 Z-0.0107
N7180 X0.3082 Y-0.2873 Z-0.0104
N7185 X0.3439
N7190 X0.3477 Y-0.2911 Z0.
N7195 X0.3439 Y-0.2873 Z-0.0104
N7200 X0.3477 Y-0.2835 Z0.
N7205 X0.3439 Y-0.2873 Z-0.0104
N7210 X0.3082
N7215 X0.3069 Y-0.2872 Z-0.0107
N7220 X0.3057 Y-0.2869 Z-0.0116
N7225 X0.3044 Y-0.2864 Z-0.013
N7230 X0.304 Y-0.2849 Z-0.012
N7235 X0.3039 Y-0.2835 Z-0.0117
N7240 Y-0.2616
N7245 X0.304 Y-0.2603 Z-0.012
N7250 X0.3043 Y-0.2591 Z-0.0127
N7255 X0.3047 Y-0.2578 Z-0.014
N7260 X0.3055 Z-0.0127
N7265 X0.3061 Z-0.0118
N7270 X0.307 Z-0.0109
N7275 X0.3077 Z-0.0105
N7280 X0.34 Z-0.0104
N7285 X0.3438 Y-0.254 Z0.
N7290 X0.34 Y-0.2578 Z-0.0104
N7295 X0.3438 Y-0.2616 Z0.
N7300 X0.34 Y-0.2578 Z-0.0104
N7305 X0.3077 Z-0.0105
N7310 X0.307 Z-0.0109
N7315 X0.3061 Z-0.0118
N7320 X0.3055 Z-0.0127
N7325 X0.3047 Z-0.014
N7330 X0.3043 Y-0.2565 Z-0.0127
N7335 X0.304 Y-0.2553 Z-0.012
N7340 X0.3039 Y-0.254 Z-0.0117
N7345 Y-0.2343
N7350 X0.304 Y-0.2329 Z-0.012
N7355 X0.3044 Y-0.2314 Z-0.013
N7360 X0.2997 Y-0.2267 Z0.
N7365 X0.3044 Y-0.2314 Z-0.013
N7370 X0.3057 Y-0.2309 Z-0.0116
N7375 X0.3069 Y-0.2306 Z-0.0107
N7380 X0.3082 Y-0.2305 Z-0.0104
N7385 X0.3424
N7390 X0.3462 Y-0.2343 Z0.
N7395 X0.3424 Y-0.2305 Z-0.0104
N7400 X0.3462 Y-0.2267 Z0.
N7405 G0 Z0.1
N7410 X0.3003 Y-0.1911
N7415 Z0.05
N7420 G1 Z0. F0.35
N7425 X0.3046 Y-0.1868 Z-0.0117
N7430 X0.3088 Y-0.1911 Z0.
N7435 X0.3046 Y-0.1868 Z-0.0117
N7440 Y-0.1618
N7445 X0.3047 Y-0.1605 Z-0.012
N7450 X0.3049 Y-0.1593 Z-0.0127
N7455 X0.3054 Y-0.158 Z-0.014
N7460 X0.3068 Z-0.0119
N7465 X0.3077 Z-0.0109
N7470 X0.3083 Z-0.0105
N7475 X0.3088 Z-0.0104
N7480 X0.3353
N7485 X0.3391 Y-0.1542 Z0.
N7490 X0.3353 Y-0.158 Z-0.0104
N7495 X0.3391 Y-0.1618 Z0.
N7500 X0.3353 Y-0.158 Z-0.0104
N7505 X0.3088
N7510 X0.3083 Z-0.0105
N7515 X0.3077 Z-0.0109
N7520 X0.3068 Z-0.0119
N7525 X0.3054 Z-0.014
N7530 X0.3049 Y-0.1567 Z-0.0127
N7535 X0.3047 Y-0.1555 Z-0.012
N7540 X0.3046 Y-0.1542 Z-0.0117
N7545 Y-0.1343
N7550 X0.3047 Y-0.1328 Z-0.012
N7555 X0.3051 Y-0.1314 Z-0.013
N7560 X0.3003 Y-0.1267 Z0.
N7565 X0.3051 Y-0.1314 Z-0.013
N7570 X0.3063 Y-0.1309 Z-0.0116
N7575 X0.3076 Y-0.1306 Z-0.0107
N7580 X0.3088 Y-0.1305 Z-0.0104
N7585 X0.34
N7590 X0.3438 Y-0.1342 Z0.
N7595 X0.34 Y-0.1305 Z-0.0104
N7600 X0.3438 Y-0.1267 Z0.
N7605 G0 Z0.1
N7610 X0.3068 Y-0.0911
N7615 Z0.05
N7620 G1 Z0. F0.35
N7625 X0.3116 Y-0.0864 Z-0.013
N7630 X0.3128 Y-0.0869 Z-0.0116
N7635 X0.3141 Y-0.0872 Z-0.0107
N7640 X0.3153 Y-0.0873 Z-0.0104
N7645 X0.3433
N7650 X0.347 Y-0.0911 Z0.
N7655 X0.3433 Y-0.0873 Z-0.0104
N7660 X0.347 Y-0.0835 Z0.
N7665 X0.3433 Y-0.0873 Z-0.0104
N7670 X0.3153
N7675 X0.3141 Y-0.0872 Z-0.0107
N7680 X0.3128 Y-0.0869 Z-0.0116
N7685 X0.3116 Y-0.0864 Z-0.013
N7690 X0.3112 Y-0.0849 Z-0.012
N7695 X0.3111 Y-0.0835 Z-0.0117
N7700 Y-0.031
N7705 X0.3153 Y-0.0267 Z0.
N7710 X0.3111 Y-0.031 Z-0.0117
N7715 X0.3068 Y-0.0267 Z0.
N7720 G0 Z0.1
N7725 X0.3391 Y-0.4795
N7730 Z0.05
N7735 G1 Z0. F0.35
N7740 X0.3439 Y-0.4747 Z-0.013
N7745 X0.3451 Y-0.4753 Z-0.0116
N7750 X0.3464 Y-0.4756 Z-0.0107
N7755 X0.3476 Y-0.4757 Z-0.0104
N7760 X0.3674 Y-0.4756
N7765 X0.3703 Y-0.4753
N7770 X0.3733 Y-0.4746 Z-0.0107
N7775 X0.3747 Y-0.4741 Z-0.0109
N7780 X0.3763 Y-0.4734 Z-0.0111
N7785 X0.3774 Y-0.4727 Z-0.0113
N7790 X0.3789 Y-0.4716 Z-0.0116
N7795 X0.3799 Y-0.4705 Z-0.0117
N7800 X0.3808 Y-0.4693 Z-0.0118
N7805 X0.3817 Y-0.4678 Z-0.0119
N7810 X0.3822 Y-0.4666
N7815 X0.3828 Y-0.4649 Z-0.012
N7820 X0.3831 Y-0.4634 Z-0.0121
N7825 X0.3833 Y-0.4613
N7830 Y-0.4599
N7835 X0.383 Y-0.4578 Z-0.012
N7840 X0.3827 Y-0.4564 Z-0.0119
N7845 X0.3821 Y-0.455 Z-0.0116
N7850 X0.3813 Y-0.4535 Z-0.0114
N7855 X0.3801 Y-0.452 Z-0.0108
N7860 X0.379 Y-0.451 Z-0.0105
N7865 X0.3782 Y-0.4503 Z-0.0102
N7870 X0.3768 Y-0.4494 Z-0.0096
N7875 X0.3755 Y-0.4487 Z-0.0092
N7880 X0.3742 Y-0.4482 Z-0.0091
N7885 X0.3737 Y-0.4479 Z-0.0092
N7890 X0.3732 Y-0.4476 Z-0.0094
N7895 X0.3724 Y-0.4471 Z-0.0102
N7900 X0.3717 Y-0.4465 Z-0.0114
N7905 X0.371 Y-0.4458 Z-0.0128
N7910 X0.3699 Z-0.0121
N7915 X0.368 Y-0.4459 Z-0.0113
N7920 X0.3664 Z-0.0108
N7925 X0.3646 Z-0.0105
N7930 X0.3625 Z-0.0104
N7935 X0.3471 Z-0.0105
N7940 X0.3465 Z-0.0109
N7945 X0.3456 Z-0.0119
N7950 X0.345 Z-0.0127
N7955 X0.3442 Z-0.014
N7960 X0.3438 Y-0.4472 Z-0.0127
N7965 X0.3435 Y-0.4485 Z-0.012
N7970 X0.3434 Y-0.4497 Z-0.0117
N7975 Y-0.4719
N7980 X0.3435 Y-0.4733 Z-0.012
N7985 X0.3439 Y-0.4747 Z-0.013
N7990 X0.3435 Y-0.4733 Z-0.012
N7995 X0.3434 Y-0.4719 Z-0.0117
N8000 Y-0.4497
N8005 X0.3435 Y-0.4485 Z-0.012
N8010 X0.3438 Y-0.4472 Z-0.0127
N8015 X0.3442 Y-0.4459 Z-0.014
N8020 X0.3438 Y-0.4447 Z-0.0127
N8025 X0.3435 Y-0.4434 Z-0.012
N8030 X0.3434 Y-0.4421 Z-0.0117
N8035 Y-0.4226
N8040 X0.3435 Y-0.4212 Z-0.012
N8045 X0.3439 Y-0.4198 Z-0.013
N8050 X0.3391 Y-0.4151 Z0.
N8055 X0.3439 Y-0.4198 Z-0.013
N8060 X0.3451 Y-0.4193 Z-0.0116
N8065 X0.3464 Y-0.419 Z-0.0107
N8070 X0.3476 Y-0.4188 Z-0.0104
N8075 X0.3652 Y-0.4189 Z-0.0105
N8080 X0.3674 Y-0.4191 Z-0.0106
N8085 X0.3695 Y-0.4194 Z-0.0107
N8090 X0.3717 Y-0.42 Z-0.0106
N8095 X0.3739 Y-0.4208 Z-0.0109
N8100 X0.375 Y-0.4215
N8105 X0.3761 Y-0.4223 Z-0.0112
N8110 X0.3769 Y-0.4231 Z-0.0113
N8115 X0.3781 Y-0.4245
N8120 X0.3789 Y-0.4259 Z-0.0115
N8125 X0.3797 Y-0.4277 Z-0.0116
N8130 X0.3801 Y-0.4289
N8135 X0.3803 Y-0.4305
N8140 X0.3804 Y-0.4321 Z-0.0115
N8145 X0.3803 Y-0.4333 Z-0.0113
N8150 X0.3801 Y-0.4346 Z-0.0111
N8155 X0.3797 Y-0.4361 Z-0.0106
N8160 X0.3791 Y-0.4375 Z-0.0102
N8165 X0.3783 Y-0.4388 Z-0.0097
N8170 X0.3772 Y-0.4402 Z-0.0092
N8175 X0.3762 Y-0.4412 Z-0.0088
N8180 X0.3747 Y-0.4423 Z-0.0083
N8185 X0.374 Y-0.4427 Z-0.0082
N8190 X0.3734 Y-0.4431 Z-0.0084
N8195 X0.3729 Y-0.4436 Z-0.0088
N8200 X0.3724 Y-0.444 Z-0.0094
N8205 X0.3718 Y-0.4448 Z-0.0107
N8210 X0.371 Y-0.4458 Z-0.0128
N8215 G0 Z0.1
N8220 X0.3419 Y-0.3911
N8225 Z0.05
N8230 G1 Z0. F0.35
N8235 X0.346 Y-0.387 Z-0.0112
N8240 X0.3501 Y-0.3911 Z0.
N8245 X0.346 Y-0.387 Z-0.0112
N8250 Y-0.3405
N8255 X0.3462 Y-0.339 Z-0.0116
N8260 X0.3466 Y-0.3375 Z-0.0128
N8265 X0.3473 Y-0.336 Z-0.0147
N8270 X0.3482 Y-0.3344 Z-0.0174
N8275 X0.3476 Y-0.3324 Z-0.0157
N8280 X0.3507 Y-0.3267 Z0.
N8285 X0.3476 Y-0.3324 Z-0.0157
N8290 X0.3419 Y-0.3267 Z0.
N8295 X0.3476 Y-0.3324 Z-0.0157
N8300 X0.3482 Y-0.3344 Z-0.0174
N8305 X0.3499 Y-0.3352 Z-0.0147
N8310 X0.3513 Y-0.336 Z-0.0127
N8315 X0.3525 Y-0.337 Z-0.0116
N8320 X0.3535 Y-0.3382 Z-0.0112
N8325 X0.3811 Y-0.3795
N8330 X0.3821 Y-0.3807 Z-0.0116
N8335 X0.3833 Y-0.3818 Z-0.0128
N8340 X0.3847 Y-0.3826 Z-0.0147
N8345 X0.3863 Y-0.3833 Z-0.0174
N8350 X0.387 Y-0.3854 Z-0.0157
N8355 X0.3839 Y-0.3911 Z0.
N8360 X0.387 Y-0.3854 Z-0.0157
N8365 X0.3927 Y-0.3911 Z0.
N8370 X0.387 Y-0.3854 Z-0.0157
N8375 X0.3863 Y-0.3833 Z-0.0174
N8380 X0.3873 Y-0.3818 Z-0.0147
N8385 X0.388 Y-0.3803 Z-0.0128
N8390 X0.3885 Y-0.3788 Z-0.0116
N8395 X0.3886 Y-0.3773 Z-0.0112
N8400 Y-0.3308
N8405 X0.3927 Y-0.3267 Z0.
N8410 X0.3886 Y-0.3308 Z-0.0112
N8415 X0.3845 Y-0.3267 Z0.
N8420 G0 Z0.1
N8425 X0.3546 Y-0.1911
N8430 Z0.05
N8435 G1 Z0. F0.35
N8440 X0.3587 Y-0.187 Z-0.0113
N8445 X0.3628 Y-0.1911 Z0.
N8450 X0.3587 Y-0.187 Z-0.0113
N8455 Y-0.1362
N8460 X0.3588 Y-0.1348 Z-0.0116
N8465 X0.3592 Y-0.1333 Z-0.0127
N8470 X0.3598 Y-0.1319 Z-0.0144
N8475 X0.3546 Y-0.1267 Z0.
N8480 X0.3598 Y-0.1319 Z-0.0144
N8485 X0.3613 Y-0.1316 Z-0.0135
N8490 X0.3628 Y-0.1314 Z-0.0132
N8495 X0.3639 Y-0.1315 Z-0.0133
N8500 X0.3674 Y-0.1267 Z0.
N8505 X0.3639 Y-0.1315 Z-0.0133
N8510 X0.365 Y-0.1326 Z-0.0116
N8515 X0.3658 Y-0.1338 Z-0.0105
N8520 X0.3663 Y-0.135 Z-0.0102
N8525 X0.3817 Y-0.1809 Z-0.0098
N8530 X0.3824 Y-0.1829 Z-0.0097
N8535 X0.3829 Y-0.1842 Z-0.0101
N8540 X0.3837 Y-0.1853 Z-0.0111
N8545 X0.3848 Y-0.1864 Z-0.0129
N8550 X0.3814 Y-0.1911 Z0.
N8555 X0.3848 Y-0.1864 Z-0.0129
N8560 X0.3857 Z-0.0127
N8565 X0.3858
N8570 X0.3891 Y-0.1911 Z0.
N8575 X0.3858 Y-0.1864 Z-0.0127
N8580 X0.3868 Y-0.1856 Z-0.0109
N8585 X0.3876 Y-0.1848 Z-0.0096
N8590 X0.3882 Y-0.1838 Z-0.0088
N8595 X0.3887 Y-0.1828 Z-0.0086
N8600 X0.3894 Y-0.1806
N8605 X0.4048 Y-0.1361 Z-0.0089
N8610 X0.4053 Y-0.1349 Z-0.0093
N8615 X0.4061 Y-0.1338 Z-0.0103
N8620 X0.4071 Y-0.1328 Z-0.012
N8625 X0.4083 Y-0.1319 Z-0.0145
N8630 X0.4046 Y-0.1267 Z0.
N8635 X0.4083 Y-0.1319 Z-0.0145
N8640 X0.4094 Y-0.132 Z-0.0147
N8645 X0.4105 Y-0.1322 Z-0.0153
N8650 X0.416 Y-0.1267 Z0.
N8655 X0.4105 Y-0.1322 Z-0.0153
N8660 X0.4111 Y-0.1335 Z-0.0136
N8665 X0.4116 Y-0.1347 Z-0.0123
N8670 X0.4119 Y-0.1359 Z-0.0115
N8675 X0.412 Y-0.1372 Z-0.0113
N8680 Y-0.187
N8685 X0.416 Y-0.1911 Z0.
N8690 X0.412 Y-0.187 Z-0.0113
N8695 X0.4079 Y-0.1911 Z0.
N8700 G0 Z0.1
N8705 X0.3584 Y-0.0911
N8710 Z0.05
N8715 G1 Z0. F0.35
N8720 X0.3629 Y-0.0866 Z-0.0124
N8725 X0.3584 Y-0.0821 Z0.
N8730 X0.3629 Y-0.0866 Z-0.0124
N8735 X0.3674 Y-0.0911 Z0.
N8740 X0.3629 Y-0.0866 Z-0.0124
N8745 X0.3674 Y-0.0821 Z0.
N8750 G0 Z0.1
N8755 X0.3584 Y-0.0534
N8760 Z0.05
N8765 G1 Z0. F0.35
N8770 X0.3629 Y-0.049 Z-0.0124
N8775 X0.3674 Y-0.0534 Z0.
N8780 X0.3629 Y-0.049 Z-0.0124
N8785 X0.3674 Y-0.0445 Z0.
N8790 X0.3629 Y-0.049 Z-0.0124
N8795 X0.3584 Y-0.0445 Z0.
N8800 G0 Z0.1
N8805 X0.3597 Y-0.2911
N8810 Z0.05
N8815 G1 Z0. F0.35
N8820 X0.3639 Y-0.2869 Z-0.0117
N8825 X0.3681 Y-0.2911 Z0.
N8830 X0.3639 Y-0.2869 Z-0.0117
N8835 Y-0.2625
N8840 X0.364 Y-0.2613 Z-0.012
N8845 X0.3643 Y-0.26 Z-0.0127
N8850 X0.3647 Y-0.2588 Z-0.0139
N8855 X0.3655 Z-0.0126
N8860 X0.3661 Z-0.0116
N8865 X0.367 Z-0.0106
N8870 X0.3676 Z-0.0102
N8875 X0.378 Z-0.0101
N8880 X0.3804 Z-0.0102
N8885 X0.3825 Y-0.2589 Z-0.0105
N8890 X0.3839 Y-0.2591 Z-0.0108
N8895 X0.3853 Y-0.2593 Z-0.0114
N8900 X0.3868 Y-0.2596 Z-0.0122
N8905 X0.3885 Y-0.26 Z-0.0134
N8910 X0.3886 Y-0.2602 Z-0.0129
N8915 X0.3891 Y-0.2614 Z-0.0108
N8920 X0.3895 Y-0.2622 Z-0.0098
N8925 X0.3899 Y-0.2629 Z-0.009
N8930 X0.3903 Y-0.2634 Z-0.0086
N8935 X0.3907 Y-0.2639 Z-0.0085
N8940 X0.3912 Y-0.2643
N8945 X0.3924 Y-0.2652 Z-0.0092
N8950 X0.3939 Y-0.2665 Z-0.0102
N8955 X0.3954 Y-0.268 Z-0.0111
N8960 X0.3974 Y-0.2704 Z-0.0117
N8965 X0.3986 Y-0.2719 Z-0.012
N8970 X0.4002 Y-0.2742 Z-0.0123
N8975 X0.4082 Y-0.2866 Z-0.0124
N8980 X0.4057 Y-0.2911 Z0.
N8985 X0.4082 Y-0.2866 Z-0.0124
N8990 X0.4164 Y-0.2911 Z0.
N8995 X0.4082 Y-0.2866 Z-0.0124
N9000 X0.4002 Y-0.2742 Z-0.0123
N9005 X0.3986 Y-0.2719 Z-0.012
N9010 X0.3974 Y-0.2704 Z-0.0117
N9015 X0.3954 Y-0.268 Z-0.0111
N9020 X0.3939 Y-0.2665 Z-0.0102
N9025 X0.3924 Y-0.2652 Z-0.0092
N9030 X0.3912 Y-0.2643 Z-0.0085
N9035 X0.3907 Y-0.2639
N9040 X0.3903 Y-0.2634 Z-0.0086
N9045 X0.3899 Y-0.2629 Z-0.009
N9050 X0.3895 Y-0.2622 Z-0.0098
N9055 X0.3891 Y-0.2614 Z-0.0108
N9060 X0.3886 Y-0.2602 Z-0.0129
N9065 X0.3885 Y-0.26 Z-0.0134
N9070 X0.3894 Y-0.2594 Z-0.0119
N9075 X0.3903 Y-0.2589 Z-0.0108
N9080 X0.3911 Y-0.2586 Z-0.0101
N9085 X0.392 Y-0.2584 Z-0.0098
N9090 X0.3933 Y-0.2581
N9095 X0.3965 Y-0.2574 Z-0.0099
N9100 X0.3979 Y-0.257 Z-0.0101
N9105 X0.3994 Y-0.2563 Z-0.0103
N9110 X0.4008 Y-0.2554 Z-0.0105
N9115 X0.4021 Y-0.2544 Z-0.0108
N9120 X0.4035 Y-0.2531 Z-0.0113
N9125 X0.4038 Y-0.2528 Z-0.0114
N9130 X0.4043 Y-0.2521 Z-0.0115
N9135 X0.4056 Y-0.2499 Z-0.0119
N9140 X0.406 Y-0.2489 Z-0.012
N9145 X0.4063 Y-0.2476
N9150 X0.4066 Y-0.2457
N9155 X0.4067 Y-0.2438 Z-0.0121
N9160 X0.4064 Y-0.2412
N9165 X0.4061 Y-0.2399
N9170 X0.4054 Y-0.2382 Z-0.0119
N9175 X0.4047 Y-0.2368 Z-0.012
N9180 X0.4038 Y-0.2356
N9185 X0.4027 Y-0.2343
N9190 X0.402 Y-0.2337 Z-0.0118
N9195 X0.4012 Y-0.2332 Z-0.0116
N9200 X0.3998 Y-0.2324 Z-0.0115
N9205 X0.3977 Y-0.2315 Z-0.0107
N9210 X0.3961 Y-0.231 Z-0.0104
N9215 X0.3944 Y-0.2306 Z-0.0101
N9220 X0.3921 Y-0.2304 Z-0.0099
N9225 X0.3891 Y-0.2303 Z-0.0098
N9230 X0.3882
N9235 X0.3682
N9240 X0.3669 Y-0.2304 Z-0.0101
N9245 X0.3656 Y-0.2307 Z-0.0111
N9250 X0.3643 Y-0.2313 Z-0.0127
N9255 X0.3597 Y-0.2267 Z0.
N9260 X0.3643 Y-0.2313 Z-0.0127
N9265 X0.364 Y-0.2326 Z-0.012
N9270 X0.3639 Y-0.2338 Z-0.0117
N9275 Y-0.2551
N9280 X0.364 Y-0.2564 Z-0.012
N9285 X0.3643 Y-0.2576 Z-0.0127
N9290 X0.3647 Y-0.2588 Z-0.0139
N9295 G0 Z0.1
N9300 X0.3924 Y-0.4795
N9305 Z0.05
N9310 G1 Z0. F0.35
N9315 X0.3985 Y-0.4753 Z-0.0115
N9320 X0.4015 Y-0.4795 Z0.
N9325 X0.3985 Y-0.4753 Z-0.0115
N9330 X0.4048 Y-0.4585 Z-0.0111
N9335 X0.4053 Y-0.4574 Z-0.0113
N9340 X0.406 Y-0.4564 Z-0.0121
N9345 X0.4068 Y-0.4554 Z-0.0133
N9350 Y-0.4541 Z-0.0119
N9355 X0.407 Y-0.4528 Z-0.0111
N9360 X0.4073 Y-0.4516 Z-0.0108
N9365 X0.4152 Y-0.4309 Z-0.0105
N9370 X0.4163 Y-0.4275 Z-0.0102
N9375 X0.4173 Y-0.4246 Z-0.0097
N9380 X0.4185 Y-0.4206 Z-0.009
N9385 X0.419 Y-0.4196 Z-0.0092
N9390 X0.4197 Y-0.4187 Z-0.01
N9395 X0.4172 Y-0.4151 Z0.
N9400 X0.4197 Y-0.4187 Z-0.01
N9405 X0.4206 Y-0.4185 Z-0.0095
N9410 X0.4216 Y-0.4184 Z-0.0093
N9415 X0.4227 Y-0.4185 Z-0.0096
N9420 X0.4238 Y-0.4188 Z-0.0103
N9425 X0.4263 Y-0.4151 Z0.
N9430 X0.4238 Y-0.4188 Z-0.0103
N9435 X0.4244 Y-0.4196 Z-0.0098
N9440 X0.4248 Y-0.4205 Z-0.0096
N9445 X0.4259 Y-0.4235 Z-0.01
N9450 X0.4275 Y-0.4278 Z-0.0104
N9455 X0.4368 Y-0.4515 Z-0.0115
N9460 X0.4371 Y-0.4527 Z-0.0118
N9465 X0.4373 Y-0.454 Z-0.0126
N9470 X0.4374 Y-0.4553 Z-0.0139
N9475 X0.4366 Y-0.4556 Z-0.0125
N9480 X0.4355 Y-0.456 Z-0.0109
N9485 X0.4342 Y-0.4564 Z-0.0099
N9490 X0.4328 Y-0.4565 Z-0.0095
N9495 X0.411
N9500 X0.4098 Y-0.4564 Z-0.0098
N9505 X0.4085 Y-0.4561 Z-0.0107
N9510 X0.408 Y-0.4558 Z-0.0114
N9515 X0.4068 Y-0.4554 Z-0.0133
N9520 X0.408 Y-0.4558 Z-0.0114
N9525 X0.4085 Y-0.4561 Z-0.0107
N9530 X0.4098 Y-0.4564 Z-0.0098
N9535 X0.411 Y-0.4565 Z-0.0095
N9540 X0.4328
N9545 X0.4342 Y-0.4564 Z-0.0099
N9550 X0.4355 Y-0.456 Z-0.0109
N9555 X0.4366 Y-0.4556 Z-0.0125
N9560 X0.4374 Y-0.4553 Z-0.0139
N9565 X0.4382 Y-0.4562 Z-0.0127
N9570 X0.4389 Y-0.4573 Z-0.012
N9575 X0.4394 Y-0.4583 Z-0.0117
N9580 X0.4461 Y-0.475 Z-0.0123
N9585 X0.443 Y-0.4795 Z0.
N9590 X0.4461 Y-0.475 Z-0.0123
N9595 X0.4527 Y-0.4795 Z0.
N9600 G0 Z0.1
N9605 X0.4257 Y-0.2911
N9610 Z0.05
N9615 G1 Z0. F0.35
N9620 X0.4302 Y-0.2866 Z-0.0124
N9625 X0.4347 Y-0.2911 Z0.
N9630 X0.4302 Y-0.2866 Z-0.0124
N9635 X0.4347 Y-0.2821 Z0.
N9640 X0.4302 Y-0.2866 Z-0.0124
N9645 X0.4257 Y-0.2821 Z0.
N9650 G0 Z0.1
N9655 Y-0.2534
N9660 Z0.05
N9665 G1 Z0. F0.35
N9670 X0.4302 Y-0.249 Z-0.0124
N9675 X0.4347 Y-0.2534 Z0.
N9680 X0.4302 Y-0.249 Z-0.0124
N9685 X0.4257 Y-0.2445 Z0.
N9690 X0.4302 Y-0.249 Z-0.0124
N9695 X0.4347 Y-0.2445 Z0.
N9700 G0 Z0.1
N9705 X0.4295 Y-0.1911
N9710 Z0.05
N9715 G1 Z0. F0.35
N9720 X0.4342 Y-0.1863 Z-0.013
N9725 X0.4355 Y-0.1869 Z-0.0116
N9730 X0.4367 Y-0.1872 Z-0.0107
N9735 X0.438 Y-0.1873 Z-0.0104
N9740 X0.454
N9745 X0.4568 Y-0.1872
N9750 X0.4596 Y-0.187
N9755 X0.4615 Y-0.1867 Z-0.0105
N9760 X0.4631 Y-0.1863 Z-0.0106
N9765 X0.4648 Y-0.1858 Z-0.0108
N9770 X0.4664 Y-0.1851 Z-0.0111
N9775 X0.4675 Y-0.1844 Z-0.0113
N9780 X0.4689 Y-0.1835 Z-0.0115
N9785 X0.4695 Y-0.183 Z-0.0116
N9790 X0.4705 Y-0.1819 Z-0.0118
N9795 X0.4713 Y-0.1807
N9800 X0.4719 Y-0.1796
N9805 X0.4728 Y-0.1776 Z-0.012
N9810 X0.4733 Y-0.1762
N9815 X0.4735 Y-0.1746 Z-0.0121
N9820 X0.4737 Y-0.1724
N9825 X0.4735 Y-0.17
N9830 X0.4732 Y-0.1686 Z-0.012
N9835 X0.4727 Y-0.1673 Z-0.0117
N9840 X0.4718 Y-0.1655 Z-0.0114
N9845 X0.4709 Y-0.1642 Z-0.011
N9850 X0.4699 Y-0.163 Z-0.0107
N9855 X0.4689 Y-0.1621 Z-0.0103
N9860 X0.4675 Y-0.1612 Z-0.0097
N9865 X0.4662 Y-0.1605 Z-0.0093
N9870 X0.4649 Y-0.1599 Z-0.0091
N9875 X0.4643 Y-0.1597
N9880 X0.4636 Y-0.1592 Z-0.0094
N9885 X0.4628 Y-0.1587 Z-0.0102
N9890 X0.4621 Y-0.1581 Z-0.0113
N9895 X0.4614 Y-0.1574 Z-0.0128
N9900 X0.4621 Y-0.1564 Z-0.0107
N9905 X0.4628 Y-0.1556 Z-0.0094
N9910 X0.4632 Y-0.1552 Z-0.0088
N9915 X0.4638 Y-0.1547 Z-0.0084
N9920 X0.4641 Y-0.1544 Z-0.0082
N9925 X0.465 Y-0.1539 Z-0.0083
N9930 X0.4664 Y-0.1529 Z-0.0087
N9935 X0.4676 Y-0.1518 Z-0.0092
N9940 X0.4685 Y-0.1506 Z-0.0097
N9945 X0.4694 Y-0.1492 Z-0.0102
N9950 X0.47 Y-0.1477 Z-0.0106
N9955 X0.4705 Y-0.1462 Z-0.0111
N9960 X0.4707 Y-0.1449 Z-0.0113
N9965 X0.4708 Y-0.1431 Z-0.0116
N9970 X0.4705 Y-0.1412
N9975 X0.4703 Y-0.1399
N9980 X0.4698 Y-0.1387
N9985 X0.4688 Y-0.1368 Z-0.0114
N9990 X0.4683 Y-0.136 Z-0.0113
N9995 X0.4673 Y-0.1347
N10000 X0.4663 Y-0.1338 Z-0.0111
N10005 X0.4652 Y-0.133 Z-0.0109
N10010 X0.4637 Y-0.1322 Z-0.0108
N10015 X0.4621 Y-0.1316 Z-0.0106
N10020 X0.4614 Y-0.1314
N10025 X0.4594 Y-0.131 Z-0.0107
N10030 X0.4571 Y-0.1306 Z-0.0106
N10035 X0.4546 Y-0.1305 Z-0.0105
N10040 X0.4509 Z-0.0104
N10045 X0.438
N10050 X0.4367 Y-0.1306 Z-0.0107
N10055 X0.4355 Y-0.1309 Z-0.0116
N10060 X0.4342 Y-0.1314 Z-0.013
N10065 X0.4295 Y-0.1267 Z0.
N10070 X0.4342 Y-0.1314 Z-0.013
N10075 X0.4338 Y-0.1328 Z-0.012
N10080 X0.4337 Y-0.1343 Z-0.0117
N10085 Y-0.1537
N10090 X0.4338 Y-0.155 Z-0.012
N10095 X0.4341 Y-0.1563 Z-0.0127
N10100 X0.4346 Y-0.1575 Z-0.014
N10105 X0.4353 Z-0.0127
N10110 X0.4359 Z-0.0119
N10115 X0.4368 Z-0.0109
N10120 X0.4375 Z-0.0105
N10125 X0.4519 Z-0.0104
N10130 X0.4533 Z-0.0105
N10135 X0.4554 Z-0.0106
N10140 X0.4571 Z-0.0109
N10145 X0.4585 Z-0.0113
N10150 X0.4604 Y-0.1574 Z-0.0122
N10155 X0.4614 Z-0.0128
N10160 X0.4604 Z-0.0122
N10165 X0.4585 Y-0.1575 Z-0.0113
N10170 X0.4571 Z-0.0109
N10175 X0.4554 Z-0.0106
N10180 X0.4533 Z-0.0105
N10185 X0.4519 Z-0.0104
N10190 X0.4375 Z-0.0105
N10195 X0.4368 Z-0.0109
N10200 X0.4359 Z-0.0119
N10205 X0.4353 Z-0.0127
N10210 X0.4346 Z-0.014
N10215 X0.4341 Y-0.1588 Z-0.0127
N10220 X0.4338 Y-0.1601 Z-0.012
N10225 X0.4337 Y-0.1613 Z-0.0117
N10230 Y-0.1835
N10235 X0.4338 Y-0.1849 Z-0.012
N10240 X0.4342 Y-0.1863 Z-0.013
N10245 G0 Z0.1
N10250 X0.4322 Y-0.0911
N10255 Z0.05
N10260 G1 Z0. F0.35
N10265 X0.4362 Y-0.087 Z-0.0112
N10270 X0.4403 Y-0.0911 Z0.
N10275 X0.4362 Y-0.087 Z-0.0112
N10280 Y-0.0405
N10285 X0.4364 Y-0.039 Z-0.0116
N10290 X0.4368 Y-0.0375 Z-0.0128
N10295 X0.4375 Y-0.036 Z-0.0147
N10300 X0.4385 Y-0.0344 Z-0.0174
N10305 X0.4378 Y-0.0324 Z-0.0157
N10310 X0.4322 Y-0.0267 Z0.
N10315 X0.4378 Y-0.0324 Z-0.0157
N10320 X0.4409 Y-0.0267 Z0.
N10325 X0.4378 Y-0.0324 Z-0.0157
N10330 X0.4385 Y-0.0344 Z-0.0174
N10335 X0.4401 Y-0.0352 Z-0.0147
N10340 X0.4416 Y-0.036 Z-0.0127
N10345 X0.4427 Y-0.037 Z-0.0116
N10350 X0.4437 Y-0.0382 Z-0.0112
N10355 X0.4713 Y-0.0795
N10360 X0.4723 Y-0.0807 Z-0.0116
N10365 X0.4735 Y-0.0818 Z-0.0128
N10370 X0.4749 Y-0.0826 Z-0.0147
N10375 X0.4766 Y-0.0833 Z-0.0174
N10380 X0.4772 Y-0.0854 Z-0.0157
N10385 X0.4829 Y-0.0911 Z0.
N10390 X0.4772 Y-0.0854 Z-0.0157
N10395 X0.4742 Y-0.0911 Z0.
N10400 X0.4772 Y-0.0854 Z-0.0157
N10405 X0.4766 Y-0.0833 Z-0.0174
N10410 X0.4776 Y-0.0818 Z-0.0147
N10415 X0.4783 Y-0.0803 Z-0.0128
N10420 X0.4787 Y-0.0788 Z-0.0116
N10425 X0.4788 Y-0.0773 Z-0.0112
N10430 Y-0.0308
N10435 X0.4829 Y-0.0267 Z0.
N10440 X0.4788 Y-0.0308 Z-0.0112
N10445 X0.4747 Y-0.0267 Z0.
N10450 G0 Z0.1
N10455 X0.4325 Y-0.3911
N10460 Z0.05
N10465 G1 Z0. F0.35
N10470 X0.4367 Y-0.3869 Z-0.0117
N10475 X0.441 Y-0.3911 Z0.
N10480 X0.4367 Y-0.3869 Z-0.0117
N10485 Y-0.3619
N10490 X0.4368 Y-0.3606 Z-0.012
N10495 X0.4371 Y-0.3593 Z-0.0127
N10500 X0.4376 Y-0.358 Z-0.014
N10505 X0.4383 Z-0.0127
N10510 X0.4389 Z-0.0119
N10515 X0.4398 Z-0.0109
N10520 X0.4405 Z-0.0105
N10525 X0.4674 Z-0.0104
N10530 X0.4712 Y-0.3543 Z0.
N10535 X0.4674 Y-0.358 Z-0.0104
N10540 X0.4712 Y-0.3618 Z0.
N10545 X0.4674 Y-0.358 Z-0.0104
N10550 X0.4405 Z-0.0105
N10555 X0.4398 Z-0.0109
N10560 X0.4389 Z-0.0119
N10565 X0.4383 Z-0.0127
N10570 X0.4376 Z-0.014
N10575 X0.4371 Y-0.3568 Z-0.0127
N10580 X0.4368 Y-0.3555 Z-0.012
N10585 X0.4367 Y-0.3542 Z-0.0117
N10590 Y-0.3343
N10595 X0.4368 Y-0.3329 Z-0.012
N10600 X0.4372 Y-0.3314 Z-0.013
N10605 X0.4325 Y-0.3267 Z0.
N10610 X0.4372 Y-0.3314 Z-0.013
N10615 X0.4385 Y-0.3309 Z-0.0116
N10620 X0.4397 Y-0.3306 Z-0.0107
N10625 X0.441 Y-0.3305 Z-0.0104
N10630 X0.4721
N10635 X0.4759 Y-0.3343 Z0.
N10640 X0.4721 Y-0.3305 Z-0.0104
N10645 X0.4759 Y-0.3267 Z0.
N10650 G0 Z0.1
N10655 X0.4595 Y-0.4795
N10660 Z0.05
N10665 G1 Z0. F0.35
N10670 X0.4643 Y-0.4747 Z-0.013
N10675 X0.4655 Y-0.4753 Z-0.0116
N10680 X0.4668 Y-0.4756 Z-0.0107
N10685 X0.468 Y-0.4757 Z-0.0104
N10690 X0.4818
N10695 X0.4853 Y-0.4756 Z-0.0105
N10700 X0.4879 Y-0.4754
N10705 X0.491 Y-0.4748 Z-0.0106
N10710 X0.4927 Y-0.4745 Z-0.0107
N10715 X0.4948 Y-0.4737 Z-0.0108
N10720 X0.4965 Y-0.473 Z-0.0109
N10725 X0.4979 Y-0.4722 Z-0.011
N10730 X0.4994 Y-0.4711 Z-0.0112
N10735 X0.5005 Y-0.4701
N10740 X0.5015 Y-0.4691 Z-0.0114
N10745 X0.5032 Y-0.467 Z-0.0115
N10750 X0.5042 Y-0.4653
N10755 X0.5052 Y-0.4635 Z-0.0117
N10760 X0.5061 Y-0.4613 Z-0.0118
N10765 X0.5067 Y-0.4594 Z-0.0119
N10770 X0.5073 Y-0.4571
N10775 X0.5079 Y-0.4543 Z-0.012
N10780 X0.5082 Y-0.452
N10785 X0.5084 Y-0.4474 Z-0.0121
N10790 X0.5083 Y-0.4433 Z-0.012
N10795 X0.508 Y-0.4404 Z-0.0119
N10800 X0.5076 Y-0.4382 Z-0.0118
N10805 X0.5071 Y-0.4359
N10810 X0.5063 Y-0.4335 Z-0.0119
N10815 X0.5054 Y-0.4314 Z-0.0118
N10820 X0.5046 Y-0.4295 Z-0.0117
N10825 X0.5039 Y-0.4285
N10830 X0.5031 Y-0.4272
N10835 X0.5014 Y-0.4252 Z-0.0115
N10840 X0.5001 Y-0.424 Z-0.0114
N10845 X0.4992 Y-0.4232 Z-0.0113
N10850 X0.4973 Y-0.4219
N10855 X0.4963 Y-0.4213 Z-0.0112
N10860 X0.4941 Y-0.4203 Z-0.0108
N10865 X0.4929 Y-0.42
N10870 X0.4912 Y-0.4196 Z-0.0107
N10875 X0.4889 Y-0.4192 Z-0.0106
N10880 X0.486 Y-0.4189 Z-0.0105
N10885 X0.468 Y-0.4188 Z-0.0104
N10890 X0.4668 Y-0.419 Z-0.0107
N10895 X0.4655 Y-0.4193 Z-0.0116
N10900 X0.4643 Y-0.4198 Z-0.013
N10905 X0.4595 Y-0.4151 Z0.
N10910 X0.4643 Y-0.4198 Z-0.013
N10915 X0.4639 Y-0.4212 Z-0.012
N10920 X0.4638 Y-0.4226 Z-0.0117
N10925 Y-0.4719
N10930 X0.4639 Y-0.4733 Z-0.012
N10935 X0.4643 Y-0.4747 Z-0.013
N10940 G0 Z0.1
N10945 X0.4871 Y-0.3911
N10950 Z0.05
N10955 G1 Z0. F0.35
N10960 X0.4914 Y-0.3869 Z-0.0117
N10965 X0.4956 Y-0.3911 Z0.
N10970 X0.4914 Y-0.3869 Z-0.0117
N10975 Y-0.3625
N10980 X0.4915 Y-0.3613 Z-0.012
N10985 X0.4917 Y-0.36 Z-0.0127
N10990 X0.4922 Y-0.3588 Z-0.0139
N10995 X0.493 Z-0.0126
N11000 X0.4936 Z-0.0116
N11005 X0.4945 Z-0.0106
N11010 X0.4951 Z-0.0102
N11015 X0.5055 Z-0.0101
N11020 X0.5079 Z-0.0102
N11025 X0.51 Y-0.3589 Z-0.0105
N11030 X0.5114 Y-0.3591 Z-0.0108
N11035 X0.5128 Y-0.3593 Z-0.0114
N11040 X0.5143 Y-0.3596 Z-0.0122
N11045 X0.516 Y-0.36 Z-0.0134
N11050 X0.5161 Y-0.3602 Z-0.0129
N11055 X0.5165 Y-0.3614 Z-0.0109
N11060 X0.5169 Y-0.3622 Z-0.0098
N11065 X0.5173 Y-0.3627 Z-0.0092
N11070 X0.5178 Y-0.3634 Z-0.0086
N11075 X0.5182 Y-0.3639 Z-0.0085
N11080 X0.5187 Y-0.3643
N11085 X0.5197 Y-0.3651 Z-0.009
N11090 X0.5212 Y-0.3663 Z-0.0101
N11095 X0.5228 Y-0.3679 Z-0.011
N11100 X0.5245 Y-0.3699 Z-0.0116
N11105 X0.526 Y-0.3718 Z-0.012
N11110 X0.5277 Y-0.3742 Z-0.0123
N11115 X0.5357 Y-0.3866 Z-0.0124
N11120 X0.5439 Y-0.3911 Z0.
N11125 X0.5357 Y-0.3866 Z-0.0124
N11130 X0.5332 Y-0.3911 Z0.
N11135 X0.5357 Y-0.3866 Z-0.0124
N11140 X0.5277 Y-0.3742 Z-0.0123
N11145 X0.526 Y-0.3718 Z-0.012
N11150 X0.5245 Y-0.3699 Z-0.0116
N11155 X0.5228 Y-0.3679 Z-0.011
N11160 X0.5212 Y-0.3663 Z-0.0101
N11165 X0.5197 Y-0.3651 Z-0.009
N11170 X0.5187 Y-0.3643 Z-0.0085
N11175 X0.5182 Y-0.3639
N11180 X0.5178 Y-0.3634 Z-0.0086
N11185 X0.5173 Y-0.3627 Z-0.0092
N11190 X0.5169 Y-0.3622 Z-0.0098
N11195 X0.5165 Y-0.3614 Z-0.0109
N11200 X0.5161 Y-0.3602 Z-0.0129
N11205 X0.516 Y-0.36 Z-0.0134
N11210 X0.5169 Y-0.3594 Z-0.0119
N11215 X0.5177 Y-0.359 Z-0.0109
N11220 X0.5186 Y-0.3586 Z-0.0102
N11225 X0.5194 Y-0.3584 Z-0.0098
N11230 X0.5208 Y-0.3581
N11235 X0.524 Y-0.3574 Z-0.0099
N11240 X0.525 Y-0.3571 Z-0.0101
N11245 X0.5268 Y-0.3563 Z-0.0103
N11250 X0.5282 Y-0.3555 Z-0.0105
N11255 X0.5295 Y-0.3545 Z-0.0108
N11260 X0.531 Y-0.3531 Z-0.0113
N11265 X0.5314 Y-0.3527 Z-0.0114
N11270 X0.5322 Y-0.3514 Z-0.0116
N11275 X0.533 Y-0.3499 Z-0.0119
N11280 X0.5336 Y-0.3486 Z-0.012
N11285 X0.5339 Y-0.347
N11290 X0.5342 Y-0.3445
N11295 X0.5341 Y-0.3423 Z-0.0121
N11300 X0.5338 Y-0.3407
N11305 X0.5335 Y-0.3395 Z-0.012
N11310 X0.5328 Y-0.338 Z-0.0119
N11315 X0.5322 Y-0.3368 Z-0.012
N11320 X0.5311 Y-0.3353
N11325 X0.5302 Y-0.3344
N11330 X0.5293 Y-0.3336 Z-0.0117
N11335 X0.5276 Y-0.3326 Z-0.0115
N11340 X0.5265 Y-0.332 Z-0.0112
N11345 X0.5243 Y-0.3312 Z-0.0105
N11350 X0.5228 Y-0.3308 Z-0.0102
N11355 X0.5209 Y-0.3305 Z-0.01
N11360 X0.5189 Y-0.3303 Z-0.0098
N11365 X0.4956
N11370 X0.4943 Y-0.3304 Z-0.0101
N11375 X0.493 Y-0.3307 Z-0.0111
N11380 X0.4917 Y-0.3313 Z-0.0127
N11385 X0.4871 Y-0.3267 Z0.
N11390 X0.4917 Y-0.3313 Z-0.0127
N11395 X0.4915 Y-0.3326 Z-0.012
N11400 X0.4914 Y-0.3338 Z-0.0117
N11405 Y-0.3551
N11410 X0.4915 Y-0.3564 Z-0.012
N11415 X0.4917 Y-0.3576 Z-0.0127
N11420 X0.4922 Y-0.3588 Z-0.0139
N11425 G0 Z0.1
N11430 X0.49 Y-0.1267
N11435 Z0.05
N11440 G1 Z0. F0.35
N11445 X0.4942 Y-0.1309 Z-0.0117
N11450 X0.4985 Y-0.1267 Z0.
N11455 X0.4942 Y-0.1309 Z-0.0117
N11460 X0.4943 Y-0.1678
N11465 X0.4946 Y-0.1709
N11470 X0.495 Y-0.1736
N11475 X0.4957 Y-0.1763 Z-0.0116
N11480 X0.496 Y-0.1775 Z-0.0115
N11485 X0.4967 Y-0.179 Z-0.0117
N11490 X0.4978 Y-0.1809
N11495 X0.4987 Y-0.1821
N11500 X0.4997 Y-0.1832 Z-0.0116
N11505 X0.5011 Y-0.1844 Z-0.0114
N11510 X0.5028 Y-0.1855 Z-0.0112
N11515 X0.5038 Y-0.186 Z-0.011
N11520 X0.5067 Y-0.1871 Z-0.0108
N11525 X0.5086 Y-0.1877 Z-0.0107
N11530 X0.5108 Y-0.1881 Z-0.0106
N11535 X0.5131 Y-0.1883 Z-0.0105
N11540 X0.5155 Z-0.0106
N11545 X0.5191 Y-0.1881
N11550 X0.5213 Y-0.1878 Z-0.0107
N11555 X0.5231 Y-0.1874 Z-0.0108
N11560 X0.5249 Y-0.1868
N11565 X0.5265 Y-0.1861 Z-0.011
N11570 X0.5285 Y-0.185 Z-0.0113
N11575 X0.5308 Y-0.1833 Z-0.0112
N11580 X0.5314 Y-0.1827 Z-0.0113
N11585 X0.5322 Y-0.1816 Z-0.0117
N11590 X0.533 Y-0.1804 Z-0.0119
N11595 X0.5338 Y-0.1789
N11600 X0.5345 Y-0.1774
N11605 X0.535 Y-0.1757 Z-0.0117
N11610 X0.5355 Y-0.1739 Z-0.0116
N11615 X0.536 Y-0.1716
N11620 X0.5363 Y-0.1688
N11625 X0.5364 Y-0.1657 Z-0.0117
N11630 Y-0.1638
N11635 Y-0.1309
N11640 X0.5321 Y-0.1267 Z0.
N11645 X0.5364 Y-0.1309 Z-0.0117
N11650 X0.5406 Y-0.1267 Z0.
N11655 G0 Z0.1
N11660 X0.4977 Y-0.0911
N11665 Z0.05
N11670 G1 Z0. F0.35
N11675 X0.5019 Y-0.0869 Z-0.0117
N11680 X0.5062 Y-0.0911 Z0.
N11685 X0.5019 Y-0.0869 Z-0.0117
N11690 Y-0.0619
N11695 X0.502 Y-0.0606 Z-0.012
N11700 X0.5023 Y-0.0593 Z-0.0127
N11705 X0.5028 Y-0.058 Z-0.014
N11710 X0.5035 Z-0.0127
N11715 X0.5041 Z-0.0119
N11720 X0.505 Z-0.0109
N11725 X0.5057 Z-0.0105
N11730 X0.5326 Z-0.0104
N11735 X0.5364 Y-0.0543 Z0.
N11740 X0.5326 Y-0.058 Z-0.0104
N11745 X0.5364 Y-0.0618 Z0.
N11750 X0.5326 Y-0.058 Z-0.0104
N11755 X0.5057 Z-0.0105
N11760 X0.505 Z-0.0109
N11765 X0.5041 Z-0.0119
N11770 X0.5035 Z-0.0127
N11775 X0.5028 Z-0.014
N11780 X0.5023 Y-0.0568 Z-0.0127
N11785 X0.502 Y-0.0555 Z-0.012
N11790 X0.5019 Y-0.0542 Z-0.0117
N11795 Y-0.0343
N11800 X0.502 Y-0.0329 Z-0.012
N11805 X0.5024 Y-0.0314 Z-0.013
N11810 X0.4977 Y-0.0267 Z0.
N11815 X0.5024 Y-0.0314 Z-0.013
N11820 X0.5037 Y-0.0309 Z-0.0116
N11825 X0.5049 Y-0.0306 Z-0.0107
N11830 X0.5062 Y-0.0305 Z-0.0104
N11835 X0.5373
N11840 X0.5411 Y-0.0343 Z0.
N11845 X0.5373 Y-0.0305 Z-0.0104
N11850 X0.5411 Y-0.0267 Z0.
N11855 G0 Z0.1
N11860 X0.4993 Y-0.2911
N11865 Z0.05
N11870 G1 Z0. F0.35
N11875 X0.5034 Y-0.287 Z-0.0113
N11880 X0.5074 Y-0.2911 Z0.
N11885 X0.5034 Y-0.287 Z-0.0113
N11890 Y-0.2363
N11895 X0.5035 Y-0.2348 Z-0.0116
N11900 X0.5039 Y-0.2334 Z-0.0127
N11905 X0.5045 Y-0.2319 Z-0.0144
N11910 X0.4993 Y-0.2267 Z0.
N11915 X0.5045 Y-0.2319 Z-0.0144
N11920 X0.506 Y-0.2316 Z-0.0135
N11925 X0.5075 Y-0.2315 Z-0.0132
N11930 X0.5086 Z-0.0133
N11935 X0.5121 Y-0.2267 Z0.
N11940 X0.5086 Y-0.2315 Z-0.0133
N11945 X0.5096 Y-0.2326 Z-0.0116
N11950 X0.5104 Y-0.2338 Z-0.0105
N11955 X0.511 Y-0.2351 Z-0.0102
N11960 X0.5264 Y-0.2809 Z-0.0098
N11965 X0.5271 Y-0.283 Z-0.0097
N11970 X0.5276 Y-0.2842 Z-0.0101
N11975 X0.5284 Y-0.2854 Z-0.0111
N11980 X0.5295 Y-0.2864 Z-0.0129
N11985 X0.5261 Y-0.2911 Z0.
N11990 X0.5295 Y-0.2864 Z-0.0129
N11995 X0.5304 Y-0.2865 Z-0.0127
N12000 X0.5305
N12005 X0.5338 Y-0.2911 Z0.
N12010 X0.5305 Y-0.2865 Z-0.0127
N12015 X0.5315 Y-0.2857 Z-0.0109
N12020 X0.5323 Y-0.2848 Z-0.0096
N12025 X0.5329 Y-0.2839 Z-0.0088
N12030 X0.5334 Y-0.2829 Z-0.0086
N12035 X0.5341 Y-0.2807
N12040 X0.5494 Y-0.2361 Z-0.0089
N12045 X0.55 Y-0.235 Z-0.0093
N12050 X0.5508 Y-0.2339 Z-0.0103
N12055 X0.5518 Y-0.2329 Z-0.012
N12060 X0.553 Y-0.232 Z-0.0145
N12065 X0.5493 Y-0.2267 Z0.
N12070 X0.553 Y-0.232 Z-0.0145
N12075 X0.5541 Y-0.2321 Z-0.0147
N12080 X0.5551 Y-0.2323 Z-0.0153
N12085 X0.5607 Y-0.2267 Z0.
N12090 X0.5551 Y-0.2323 Z-0.0153
N12095 X0.5558 Y-0.2335 Z-0.0136
N12100 X0.5563 Y-0.2347 Z-0.0123
N12105 X0.5565 Y-0.236 Z-0.0115
N12110 X0.5566 Y-0.2372 Z-0.0113
N12115 Y-0.287
N12120 X0.5525 Y-0.2911 Z0.
N12125 X0.5566 Y-0.287 Z-0.0113
N12130 X0.5607 Y-0.2911 Z0.
N12135 G0 Z0.1
N12140 X0.525 Y-0.4888
N12145 Z0.05
N12150 G1 Z0. F0.35
N12155 X0.5262 Y-0.4891 Z-0.0021
N12160 X0.5279 Y-0.4895 Z-0.0056
N12165 X0.5272 Y-0.4922 Z-0.0001
N12170 X0.5279 Y-0.4895 Z-0.0056
N12175 X0.5288 Y-0.4889 Z-0.0058
N12180 X0.5297 Y-0.488 Z-0.006
N12185 X0.5307 Y-0.4867 Z-0.0061
N12190 X0.5313 Y-0.4853 Z-0.0062
N12195 X0.5318 Y-0.4837 Z-0.0063
N12200 X0.5321 Y-0.4823
N12205 X0.5323 Y-0.4796 Z-0.0062
N12210 X0.5322 Y-0.4783 Z-0.0066
N12215 X0.5317 Y-0.4772 Z-0.0078
N12220 X0.5311 Y-0.4761 Z-0.0097
N12225 X0.5301 Y-0.475 Z-0.0124
N12230 X0.5256 Y-0.4794 Z-0.0001
N12235 X0.5301 Y-0.475 Z-0.0124
N12240 X0.5256 Y-0.4705 Z0.
N12245 X0.5301 Y-0.475 Z-0.0124
N12250 X0.5346 Y-0.4705 Z0.
N12255 G0 Z0.1
N12260 X0.5451 Y-0.0911
N12265 Z0.05
N12270 G1 Z0. F0.35
N12275 X0.5512 Y-0.0869 Z-0.0115
N12280 X0.5542 Y-0.0911 Z0.
N12285 X0.5512 Y-0.0869 Z-0.0115
N12290 X0.5575 Y-0.0702 Z-0.0111
N12295 X0.558 Y-0.0691 Z-0.0113
N12300 X0.5587 Y-0.068 Z-0.0121
N12305 X0.5595 Y-0.0671 Z-0.0133
N12310 Y-0.0657 Z-0.0119
N12315 X0.5597 Y-0.0645 Z-0.0111
N12320 X0.56 Y-0.0633 Z-0.0108
N12325 X0.5679 Y-0.0425 Z-0.0105
N12330 X0.5692 Y-0.0387 Z-0.0101
N12335 X0.5701 Y-0.0358 Z-0.0096
N12340 X0.5712 Y-0.0323 Z-0.009
N12345 X0.5717 Y-0.0313 Z-0.0092
N12350 X0.5724 Y-0.0303 Z-0.01
N12355 X0.5699 Y-0.0267 Z0.
N12360 X0.5724 Y-0.0303 Z-0.01
N12365 X0.5733 Y-0.0301 Z-0.0095
N12370 X0.5743 Z-0.0093
N12375 X0.5754 Y-0.0302 Z-0.0096
N12380 X0.5765 Y-0.0305 Z-0.0103
N12385 X0.579 Y-0.0267 Z0.
N12390 X0.5765 Y-0.0305 Z-0.0103
N12395 X0.5771 Y-0.0313 Z-0.0098
N12400 X0.5775 Y-0.0321 Z-0.0096
N12405 X0.5784 Y-0.0346 Z-0.0099
N12410 X0.58 Y-0.039 Z-0.0104
N12415 X0.5895 Y-0.0632 Z-0.0115
N12420 X0.5898 Y-0.0644 Z-0.0118
N12425 X0.59 Y-0.0656 Z-0.0126
N12430 X0.5901 Y-0.0669 Z-0.0139
N12435 X0.5893 Y-0.0672 Z-0.0125
N12440 X0.5882 Y-0.0676 Z-0.0109
N12445 X0.5869 Y-0.068 Z-0.0099
N12450 X0.5856 Y-0.0681 Z-0.0095
N12455 X0.5637
N12460 X0.5625 Y-0.068 Z-0.0098
N12465 X0.5613 Y-0.0677 Z-0.0107
N12470 X0.5607 Y-0.0675 Z-0.0114
N12475 X0.5595 Y-0.0671 Z-0.0133
N12480 X0.5607 Y-0.0675 Z-0.0114
N12485 X0.5613 Y-0.0677 Z-0.0107
N12490 X0.5625 Y-0.068 Z-0.0098
N12495 X0.5637 Y-0.0681 Z-0.0095
N12500 X0.5856
N12505 X0.5869 Y-0.068 Z-0.0099
N12510 X0.5882 Y-0.0676 Z-0.0109
N12515 X0.5893 Y-0.0672 Z-0.0125
N12520 X0.5901 Y-0.0669 Z-0.0139
N12525 X0.5909 Y-0.0679 Z-0.0127
N12530 X0.5916 Y-0.0689 Z-0.012
N12535 X0.5922 Y-0.0701 Z-0.0118
N12540 X0.5988 Y-0.0867 Z-0.0123
N12545 X0.5957 Y-0.0911 Z0.
N12550 X0.5988 Y-0.0867 Z-0.0123
N12555 X0.6054 Y-0.0911 Z0.
N12560 G0 Z0.1
N12565 X0.552 Y-0.1704
N12570 Z0.05
N12575 G1 Z-0.0001 F0.35
N12580 X0.5552 Y-0.173 Z-0.0081
N12585 X0.5566 Y-0.1741 Z-0.0114
N12590 X0.5569 Y-0.1737 Z-0.0104
N12595 X0.56 Y-0.1697 Z0.
N12600 X0.5569 Y-0.1737 Z-0.0104
N12605 X0.5566 Y-0.1741 Z-0.0114
N12610 X0.5568 Y-0.1749 Z-0.0115
N12615 X0.5574 Y-0.1766
N12620 X0.5588 Y-0.1793
N12625 X0.5591 Y-0.1798
N12630 X0.5602 Y-0.1812
N12635 X0.5615 Y-0.1827
N12640 X0.5626 Y-0.1836
N12645 X0.5641 Y-0.1846 Z-0.0113
N12650 X0.566 Y-0.1857
N12655 X0.5674 Y-0.1863 Z-0.0111
N12660 X0.5703 Y-0.1872 Z-0.0109
N12665 X0.5726 Y-0.1878 Z-0.0107
N12670 X0.5748 Y-0.1881 Z-0.0106
N12675 X0.5789 Y-0.1883 Z-0.0105
N12680 X0.5818 Y-0.1882
N12685 X0.584 Y-0.188
N12690 X0.5858 Y-0.1876 Z-0.0106
N12695 X0.5884 Y-0.1868 Z-0.0105
N12700 X0.5899 Y-0.1863 Z-0.0106
N12705 X0.5918 Y-0.1853 Z-0.0105
N12710 X0.5933 Y-0.1844 Z-0.0106
N12715 X0.5946 Y-0.1833 Z-0.0107
N12720 X0.596 Y-0.1817 Z-0.0106
N12725 X0.5967 Y-0.1808 Z-0.0107
N12730 X0.5972 Y-0.18 Z-0.0108
N12735 X0.598 Y-0.1786
N12740 X0.5985 Y-0.1773 Z-0.011
N12745 X0.5988 Y-0.176 Z-0.0111
N12750 X0.5991 Y-0.1739 Z-0.0112
N12755 Y-0.173 Z-0.0113
N12760 X0.5989 Y-0.171 Z-0.0114
N12765 X0.5986 Y-0.1695 Z-0.0116
N12770 X0.5982 Y-0.1684 Z-0.0117
N12775 X0.5972 Y-0.1665 Z-0.0118
N12780 X0.5967 Y-0.1658 Z-0.0117
N12785 X0.5952 Y-0.1642 Z-0.0119
N12790 X0.5944 Y-0.1634
N12795 X0.593 Y-0.1624 Z-0.0118
N12800 X0.5912 Y-0.1615
N12805 X0.5896 Y-0.1608
N12810 X0.5873 Y-0.16
N12815 X0.584 Y-0.1589
N12820 X0.5794 Y-0.1578
N12825 X0.5736 Y-0.1564 Z-0.0116
N12830 X0.5706 Y-0.1556
N12835 X0.5681 Y-0.1547
N12840 X0.5657 Y-0.1536 Z-0.0117
N12845 X0.5644 Y-0.1529
N12850 X0.5628 Y-0.1519 Z-0.0115
N12855 X0.5622 Y-0.1514
N12860 X0.5611 Y-0.1502
N12865 X0.5602 Y-0.1491 Z-0.0116
N12870 X0.5596 Y-0.1479 Z-0.0115
N12875 X0.559 Y-0.1465
N12880 X0.5588 Y-0.1454 Z-0.0114
N12885 X0.5585 Y-0.1433 Z-0.0113
N12890 X0.5586 Y-0.1424 Z-0.0112
N12895 X0.5588 Y-0.1403
N12900 X0.5591 Y-0.1392 Z-0.0111
N12905 X0.5597 Y-0.1378 Z-0.0109
N12910 X0.5603 Y-0.1367 Z-0.0108
N12915 X0.5608 Y-0.136
N12920 X0.5616 Y-0.135 Z-0.0107
N12925 X0.5627 Y-0.1338
N12930 X0.5636 Y-0.133 Z-0.0106
N12935 X0.5644 Y-0.1325 Z-0.0105
N12940 X0.5667 Y-0.1313
N12945 X0.5688 Y-0.1305 Z-0.0103
N12950 X0.5706 Y-0.13 Z-0.0102
N12955 X0.5724 Y-0.1296
N12960 X0.5747 Y-0.1294 Z-0.0103
N12965 X0.5775 Y-0.1293
N12970 X0.5813 Y-0.1295
N12975 X0.5833 Y-0.1298
N12980 X0.5851 Y-0.1303
N12985 X0.5867 Y-0.1309 Z-0.0104
N12990 X0.5888 Y-0.1318 Z-0.0107
N12995 X0.5912 Y-0.1332 Z-0.0109
N13000 X0.5924 Y-0.1342 Z-0.0112
N13005 X0.5936 Y-0.1355 Z-0.0113
N13010 X0.5947 Y-0.1371 Z-0.0114
N13015 X0.5955 Y-0.1385
N13020 X0.5961 Y-0.1398 Z-0.0115
N13025 X0.5965 Y-0.141
N13030 X0.5944 Y-0.1438 Z-0.0041
N13035 X0.5931 Y-0.1454 Z-0.0001
N13040 X0.5944 Y-0.1438 Z-0.0041
N13045 X0.5965 Y-0.141 Z-0.0115
N13050 X0.5981 Y-0.1421 Z-0.008
N13055 X0.6008 Y-0.1444 Z-0.0012
N13060 X0.6013 Y-0.1448 Z0.
N13065 G0 Z0.1
N13070 X0.5522 Y-0.3911
N13075 Z0.05
N13080 G1 Z0. F0.35
N13085 X0.5569 Y-0.3864 Z-0.013
N13090 X0.5582 Y-0.3869 Z-0.0116
N13095 X0.5594 Y-0.3872 Z-0.0107
N13100 X0.5607 Y-0.3873 Z-0.0104
N13105 X0.5964
N13110 X0.6002 Y-0.3911 Z0.
N13115 X0.5964 Y-0.3873 Z-0.0104
N13120 X0.6002 Y-0.3835 Z0.
N13125 X0.5964 Y-0.3873 Z-0.0104
N13130 X0.5607
N13135 X0.5594 Y-0.3872 Z-0.0107
N13140 X0.5582 Y-0.3869 Z-0.0116
N13145 X0.5569 Y-0.3864 Z-0.013
N13150 X0.5565 Y-0.3849 Z-0.012
N13155 X0.5564 Y-0.3835 Z-0.0117
N13160 Y-0.3616
N13165 X0.5565 Y-0.3603 Z-0.012
N13170 X0.5568 Y-0.3591 Z-0.0127
N13175 X0.5573 Y-0.3578 Z-0.014
N13180 X0.558 Z-0.0127
N13185 X0.5586 Z-0.0118
N13190 X0.5595 Z-0.0109
N13195 X0.5602 Z-0.0105
N13200 X0.5925 Z-0.0104
N13205 X0.5963 Y-0.354 Z0.
N13210 X0.5925 Y-0.3578 Z-0.0104
N13215 X0.5963 Y-0.3616 Z0.
N13220 X0.5925 Y-0.3578 Z-0.0104
N13225 X0.5602 Z-0.0105
N13230 X0.5595 Z-0.0109
N13235 X0.5586 Z-0.0118
N13240 X0.558 Z-0.0127
N13245 X0.5573 Z-0.014
N13250 X0.5568 Y-0.3565 Z-0.0127
N13255 X0.5565 Y-0.3553 Z-0.012
N13260 X0.5564 Y-0.354 Z-0.0117
N13265 Y-0.3343
N13270 X0.5565 Y-0.3329 Z-0.012
N13275 X0.5569 Y-0.3314 Z-0.013
N13280 X0.5522 Y-0.3267 Z0.
N13285 X0.5569 Y-0.3314 Z-0.013
N13290 X0.5582 Y-0.3309 Z-0.0116
N13295 X0.5594 Y-0.3306 Z-0.0107
N13300 X0.5607 Y-0.3305 Z-0.0104
N13305 X0.5949
N13310 X0.5987 Y-0.3343 Z0.
N13315 X0.5949 Y-0.3305 Z-0.0104
N13320 X0.5987 Y-0.3267 Z0.
N13325 G0 Z0.1
N13330 X0.5746 Y-0.2267
N13335 Z0.05
N13340 G1 Z0. F0.35
N13345 X0.5789 Y-0.231 Z-0.0117
N13350 X0.5831 Y-0.2267 Z0.
N13355 X0.5789 Y-0.231 Z-0.0117
N13360 X0.579 Y-0.2678
N13365 X0.5792 Y-0.2709
N13370 X0.5796 Y-0.2733
N13375 X0.5803 Y-0.2763 Z-0.0116
N13380 X0.5807 Y-0.2775 Z-0.0115
N13385 X0.5812 Y-0.2788 Z-0.0117
N13390 X0.5825 Y-0.2811
N13395 X0.5835 Y-0.2825
N13400 X0.5845 Y-0.2835 Z-0.0115
N13405 X0.5859 Y-0.2845 Z-0.0114
N13410 X0.5875 Y-0.2856 Z-0.0112
N13415 X0.5884 Y-0.286 Z-0.011
N13420 X0.5913 Y-0.2872 Z-0.0108
N13425 X0.5933 Y-0.2878 Z-0.0107
N13430 X0.5954 Y-0.2881 Z-0.0106
N13435 X0.5977 Y-0.2883 Z-0.0105
N13440 X0.6001 Y-0.2884 Z-0.0106
N13445 X0.6037 Y-0.2882
N13450 X0.6061 Y-0.2879 Z-0.0107
N13455 X0.608 Y-0.2874 Z-0.0108
N13460 X0.6097 Y-0.2868
N13465 X0.6112 Y-0.2861 Z-0.011
N13470 X0.6131 Y-0.285 Z-0.0113
N13475 X0.6154 Y-0.2833 Z-0.0112
N13480 X0.616 Y-0.2828 Z-0.0113
N13485 X0.6169 Y-0.2816 Z-0.0117
N13490 X0.6177 Y-0.2803 Z-0.0119
N13495 X0.6188 Y-0.2782 Z-0.012
N13500 X0.6191 Y-0.2775 Z-0.0119
N13505 X0.6197 Y-0.2757 Z-0.0117
N13510 X0.6202 Y-0.274 Z-0.0116
N13515 X0.6206 Y-0.2716
N13520 X0.6209 Y-0.2689
N13525 X0.621 Y-0.2654 Z-0.0117
N13530 Y-0.2639
N13535 Y-0.231
N13540 X0.6168 Y-0.2267 Z0.
N13545 X0.621 Y-0.231 Z-0.0117
N13550 X0.6253 Y-0.2267 Z0.
N13555 G0 Z0.1
N13560 X0.6117 Y-0.1741
N13565 Z0.05
N13570 G1 Z0. F0.35
N13575 X0.6163 Y-0.1774 Z-0.0106
N13580 X0.6166 Y-0.1775 Z-0.0112
N13585 X0.6184 Y-0.1747 Z-0.0042
N13590 X0.6196 Y-0.173 Z-0.0001
N13595 X0.6184 Y-0.1747 Z-0.0042
N13600 X0.6166 Y-0.1775 Z-0.0112
N13605 X0.6171 Y-0.1791
N13610 X0.6178 Y-0.1805 Z-0.011
N13615 X0.6187 Y-0.1819 Z-0.0108
N13620 X0.6201 Y-0.1837 Z-0.0105
N13625 X0.6208 Y-0.1845 Z-0.0104
N13630 X0.6217 Y-0.1853 Z-0.0099
N13635 X0.6231 Y-0.1863 Z-0.0098
N13640 X0.625 Y-0.1874 Z-0.0096
N13645 X0.6264 Y-0.188 Z-0.0094
N13650 X0.6278 Y-0.1884 Z-0.0092
N13655 X0.6296 Y-0.1887 Z-0.009
N13660 X0.6322 Y-0.1889
N13665 X0.6334 Y-0.1888
N13670 X0.636 Y-0.1885 Z-0.0091
N13675 X0.6378 Y-0.1881 Z-0.0093
N13680 X0.6394 Y-0.1876 Z-0.0095
N13685 X0.6408 Y-0.1869 Z-0.0097
N13690 X0.6425 Y-0.1857 Z-0.0099
N13695 X0.6445 Y-0.1842 Z-0.0102
N13700 X0.6453 Y-0.1834 Z-0.0105
N13705 X0.6468 Y-0.1814 Z-0.0107
N13710 X0.6478 Y-0.1799 Z-0.0109
N13715 X0.6486 Y-0.1783 Z-0.0112
N13720 X0.6489 Y-0.1773 Z-0.0113
N13725 X0.6493 Y-0.1755 Z-0.0114
N13730 X0.6496 Y-0.1735
N13735 X0.6497 Y-0.1718 Z-0.0115
N13740 X0.6494 Y-0.169 Z-0.0116
N13745 X0.6491 Y-0.1675 Z-0.0115
N13750 X0.6485 Y-0.166 Z-0.0112
N13755 X0.6478 Y-0.1645 Z-0.011
N13760 X0.6473 Y-0.1638 Z-0.0109
N13765 X0.6458 Y-0.162 Z-0.0103
N13770 X0.6449 Y-0.1612 Z-0.0099
N13775 X0.6441 Y-0.1606 Z-0.0094
N13780 X0.6426 Y-0.1597 Z-0.0087
N13785 X0.641 Y-0.159 Z-0.008
N13790 X0.6404 Y-0.1587 Z-0.0078
N13795 X0.6399 Y-0.1583 Z-0.008
N13800 X0.6393 Y-0.1579 Z-0.0084
N13805 X0.6389 Y-0.1575 Z-0.0089
N13810 X0.6381 Y-0.1567 Z-0.0103
N13815 X0.6377 Y-0.1562 Z-0.0114
N13820 X0.6364 Y-0.1563 Z-0.0103
N13825 X0.6351 Y-0.1564 Z-0.0095
N13830 X0.6336 Y-0.1565 Z-0.0088
N13835 X0.6327 Y-0.1566 Z-0.0086
N13840 X0.6309 Y-0.1567 Z-0.0085
N13845 X0.6287 Y-0.1542 Z-0.0015
N13850 X0.6282 Y-0.1537 Z-0.0001
N13855 X0.6287 Y-0.1542 Z-0.0015
N13860 X0.6309 Y-0.1567 Z-0.0085
N13865 X0.6291 Y-0.1586 Z-0.0041
N13870 X0.6273 Y-0.1606 Z0.
N13875 X0.6291 Y-0.1586 Z-0.0041
N13880 X0.6309 Y-0.1567 Z-0.0085
N13885 X0.6327 Y-0.1566 Z-0.0086
N13890 X0.6336 Y-0.1565 Z-0.0088
N13895 X0.6351 Y-0.1564 Z-0.0095
N13900 X0.6364 Y-0.1563 Z-0.0103
N13905 X0.6377 Y-0.1562 Z-0.0114
N13910 X0.6384 Y-0.1553 Z-0.0099
N13915 X0.639 Y-0.1546 Z-0.009
N13920 X0.6397 Y-0.154 Z-0.0085
N13925 X0.6402 Y-0.1536 Z-0.0083
N13930 X0.6409 Y-0.1532 Z-0.0086
N13935 X0.6426 Y-0.1519 Z-0.0092
N13940 X0.6435 Y-0.1511 Z-0.0096
N13945 X0.6444 Y-0.15 Z-0.0099
N13950 X0.6451 Y-0.149 Z-0.0102
N13955 X0.6457 Y-0.1478 Z-0.0106
N13960 X0.6462 Y-0.1465 Z-0.0109
N13965 X0.6464 Y-0.1454 Z-0.0111
N13970 X0.6466 Y-0.1433 Z-0.0112
N13975 X0.6465 Y-0.1412 Z-0.0111
N13980 X0.6463 Y-0.1399 Z-0.011
N13985 X0.6458 Y-0.1385 Z-0.0107
N13990 X0.6453 Y-0.1372 Z-0.0105
N13995 X0.6445 Y-0.1358 Z-0.0103
N14000 X0.6433 Y-0.1344 Z-0.0102
N14005 X0.6422 Y-0.1332 Z-0.0098
N14010 X0.6405 Y-0.132 Z-0.0095
N14015 X0.6388 Y-0.1311 Z-0.0092
N14020 X0.6374 Y-0.1305 Z-0.009
N14025 X0.6361 Y-0.1301
N14030 X0.6342 Y-0.1298 Z-0.0089
N14035 X0.6321 Y-0.1296
N14040 X0.6295 Y-0.1299 Z-0.009
N14045 X0.6277 Y-0.1301 Z-0.0091
N14050 X0.6262 Y-0.1306 Z-0.0093
N14055 X0.6246 Y-0.1314 Z-0.0095
N14060 X0.6225 Y-0.1327 Z-0.0097
N14065 X0.6216 Y-0.1334 Z-0.0099
N14070 X0.6199 Y-0.1354 Z-0.0103
N14075 X0.6188 Y-0.137 Z-0.0105
N14080 X0.6181 Y-0.1383 Z-0.0107
N14085 X0.6174 Y-0.14 Z-0.0108
N14090 X0.618 Y-0.1409 Z-0.0086
N14095 X0.6204 Y-0.1445 Z0.
N14100 X0.618 Y-0.1409 Z-0.0086
N14105 X0.6174 Y-0.14 Z-0.0108
N14110 X0.6171 Y-0.1402 Z-0.01
N14115 X0.6125 Y-0.1431 Z0.
N14120 G0 Z0.1
N14125 X0.6119 Y-0.3911
N14130 Z0.05
N14135 G1 Z0. F0.35
N14140 X0.616 Y-0.387 Z-0.0112
N14145 X0.6201 Y-0.3911 Z0.
N14150 X0.616 Y-0.387 Z-0.0112
N14155 Y-0.3405
N14160 X0.6162 Y-0.339 Z-0.0116
N14165 X0.6166 Y-0.3375 Z-0.0128
N14170 X0.6173 Y-0.336 Z-0.0147
N14175 X0.6182 Y-0.3344 Z-0.0174
N14180 X0.6176 Y-0.3324 Z-0.0157
N14185 X0.6119 Y-0.3267 Z0.
N14190 X0.6176 Y-0.3324 Z-0.0157
N14195 X0.6207 Y-0.3267 Z0.
N14200 X0.6176 Y-0.3324 Z-0.0157
N14205 X0.6182 Y-0.3344 Z-0.0174
N14210 X0.6199 Y-0.3352 Z-0.0147
N14215 X0.6213 Y-0.336 Z-0.0127
N14220 X0.6225 Y-0.337 Z-0.0116
N14225 X0.6235 Y-0.3382 Z-0.0112
N14230 X0.6511 Y-0.3795
N14235 X0.6521 Y-0.3807 Z-0.0116
N14240 X0.6533 Y-0.3818 Z-0.0128
N14245 X0.6547 Y-0.3826 Z-0.0147
N14250 X0.6563 Y-0.3833 Z-0.0174
N14255 X0.657 Y-0.3854 Z-0.0157
N14260 X0.6539 Y-0.3911 Z0.
N14265 X0.657 Y-0.3854 Z-0.0157
N14270 X0.6627 Y-0.3911 Z0.
N14275 X0.657 Y-0.3854 Z-0.0157
N14280 X0.6563 Y-0.3833 Z-0.0174
N14285 X0.6573 Y-0.3818 Z-0.0147
N14290 X0.658 Y-0.3803 Z-0.0128
N14295 X0.6585 Y-0.3788 Z-0.0116
N14300 X0.6586 Y-0.3773 Z-0.0112
N14305 Y-0.3308
N14310 X0.6627 Y-0.3267 Z0.
N14315 X0.6586 Y-0.3308 Z-0.0112
N14320 X0.6545 Y-0.3267 Z0.
N14325 G0 Z0.1
N14330 X0.6124 Y-0.0911
N14335 Z0.05
N14340 G1 Z0. F0.35
N14345 X0.6166 Y-0.0869 Z-0.0117
N14350 X0.6209 Y-0.0911 Z0.
N14355 X0.6166 Y-0.0869 Z-0.0117
N14360 Y-0.0625
N14365 X0.6167 Y-0.0613 Z-0.012
N14370 X0.617 Y-0.06 Z-0.0127
N14375 X0.6174 Y-0.0588 Z-0.0139
N14380 X0.6182 Z-0.0126
N14385 X0.6188 Z-0.0116
N14390 X0.6197 Z-0.0106
N14395 X0.6204 Z-0.0102
N14400 X0.6308 Z-0.0101
N14405 X0.6331 Z-0.0102
N14410 X0.6352 Y-0.0589 Z-0.0105
N14415 X0.6367 Y-0.0591 Z-0.0108
N14420 X0.638 Y-0.0593 Z-0.0114
N14425 X0.6395 Y-0.0596 Z-0.0122
N14430 X0.6412 Y-0.06 Z-0.0134
N14435 X0.6413 Y-0.0602 Z-0.0129
N14440 X0.6418 Y-0.0614 Z-0.0109
N14445 X0.6422 Y-0.0622 Z-0.0098
N14450 X0.6425 Y-0.0627 Z-0.0092
N14455 X0.643 Y-0.0634 Z-0.0086
N14460 X0.6434 Y-0.0639 Z-0.0085
N14465 X0.6439 Y-0.0643
N14470 X0.6449 Y-0.0651 Z-0.009
N14475 X0.6464 Y-0.0663 Z-0.0101
N14480 X0.648 Y-0.0679 Z-0.011
N14485 X0.6498 Y-0.0699 Z-0.0116
N14490 X0.6513 Y-0.0718 Z-0.012
N14495 X0.6529 Y-0.0742 Z-0.0123
N14500 X0.6609 Y-0.0866 Z-0.0124
N14505 X0.6584 Y-0.0911 Z0.
N14510 X0.6609 Y-0.0866 Z-0.0124
N14515 X0.6691 Y-0.0911 Z0.
N14520 X0.6609 Y-0.0866 Z-0.0124
N14525 X0.6529 Y-0.0742 Z-0.0123
N14530 X0.6513 Y-0.0718 Z-0.012
N14535 X0.6498 Y-0.0699 Z-0.0116
N14540 X0.648 Y-0.0679 Z-0.011
N14545 X0.6464 Y-0.0663 Z-0.0101
N14550 X0.6449 Y-0.0651 Z-0.009
N14555 X0.6439 Y-0.0643 Z-0.0085
N14560 X0.6434 Y-0.0639
N14565 X0.643 Y-0.0634 Z-0.0086
N14570 X0.6425 Y-0.0627 Z-0.0092
N14575 X0.6422 Y-0.0622 Z-0.0098
N14580 X0.6418 Y-0.0614 Z-0.0109
N14585 X0.6413 Y-0.0602 Z-0.0129
N14590 X0.6412 Y-0.06 Z-0.0134
N14595 X0.6422 Y-0.0594 Z-0.0119
N14600 X0.643 Y-0.0589 Z-0.0108
N14605 X0.6439 Y-0.0586 Z-0.0101
N14610 X0.6447 Y-0.0584 Z-0.0098
N14615 X0.646 Y-0.0582
N14620 X0.6487 Y-0.0576 Z-0.0099
N14625 X0.6501 Y-0.0572 Z-0.01
N14630 X0.6517 Y-0.0565 Z-0.0103
N14635 X0.6532 Y-0.0556 Z-0.0105
N14640 X0.6545 Y-0.0547 Z-0.0107
N14645 X0.6559 Y-0.0534 Z-0.0112
N14650 X0.6566 Y-0.0527 Z-0.0114
N14655 X0.6571 Y-0.052 Z-0.0115
N14660 X0.6582 Y-0.0502 Z-0.0119
N14665 X0.6587 Y-0.0488 Z-0.012
N14670 X0.6591 Y-0.0474
N14675 X0.6594 Y-0.0457
N14680 Y-0.0438 Z-0.0121
N14685 X0.6591 Y-0.0412
N14690 X0.6588 Y-0.0399
N14695 X0.6582 Y-0.0383 Z-0.0119
N14700 X0.6575 Y-0.0369 Z-0.012
N14705 X0.6571 Y-0.0364
N14710 X0.6558 Y-0.0347
N14715 X0.6551 Y-0.034 Z-0.0119
N14720 X0.6543 Y-0.0334 Z-0.0117
N14725 X0.6529 Y-0.0326 Z-0.0115
N14730 X0.6521 Y-0.0322 Z-0.0113
N14735 X0.6499 Y-0.0314 Z-0.0106
N14740 X0.6482 Y-0.0309 Z-0.0103
N14745 X0.6465 Y-0.0306 Z-0.01
N14750 X0.6441 Y-0.0303 Z-0.0098
N14755 X0.6413
N14760 X0.6409
N14765 X0.6209
N14770 X0.6196 Y-0.0304 Z-0.0101
N14775 X0.6183 Y-0.0307 Z-0.0111
N14780 X0.617 Y-0.0313 Z-0.0127
N14785 X0.6124 Y-0.0267 Z0.
N14790 X0.617 Y-0.0313 Z-0.0127
N14795 X0.6167 Y-0.0326 Z-0.012
N14800 X0.6166 Y-0.0338 Z-0.0117
N14805 Y-0.0551
N14810 X0.6167 Y-0.0564 Z-0.012
N14815 X0.617 Y-0.0576 Z-0.0127
N14820 X0.6174 Y-0.0588 Z-0.0139
N14825 G0 Z0.1
N14830 X0.6195 Y-0.4347
N14835 Z0.05
N14840 G1 Z0. F0.35
N14845 X0.6203 Y-0.4333 Z-0.0032
N14850 X0.6222 Y-0.4297 Z-0.0117
N14855 X0.6224 Y-0.4298 Z-0.0113
N14860 X0.6279 Y-0.4327 Z0.
N14865 X0.6224 Y-0.4298 Z-0.0113
N14870 X0.6222 Y-0.4297 Z-0.0117
N14875 X0.6212 Y-0.4278 Z-0.0116
N14880 X0.6202 Y-0.4262 Z-0.0115
N14885 X0.6189 Y-0.4246 Z-0.0112
N14890 X0.6174 Y-0.4231 Z-0.0111
N14895 X0.6161 Y-0.4219 Z-0.0109
N14900 X0.6155 Y-0.4215 Z-0.0107
N14905 X0.6141 Y-0.4206 Z-0.0106
N14910 X0.6117 Y-0.4194 Z-0.0104
N14915 X0.6101 Y-0.4187 Z-0.0103
N14920 X0.6088 Y-0.4184 Z-0.0102
N14925 X0.6067 Y-0.418 Z-0.0101
N14930 X0.6044 Y-0.4177 Z-0.01
N14935 X0.602 Y-0.4176
N14940 X0.598 Y-0.4179
N14945 X0.5958 Y-0.4183
N14950 X0.5941 Y-0.4188
N14955 X0.5919 Y-0.4196
N14960 X0.59 Y-0.4205 Z-0.0102
N14965 X0.5883 Y-0.4214 Z-0.0103
N14970 X0.5878 Y-0.4217
N14975 X0.5862 Y-0.4229 Z-0.0105
N14980 X0.5844 Y-0.4244 Z-0.0108
N14985 X0.583 Y-0.4259 Z-0.011
N14990 X0.5819 Y-0.4273
N14995 X0.5806 Y-0.4293 Z-0.0113
N15000 X0.5795 Y-0.4316 Z-0.0116
N15005 X0.5788 Y-0.4332
N15010 X0.5778 Y-0.4364 Z-0.0119
N15015 X0.5772 Y-0.4387 Z-0.0121
N15020 X0.5768 Y-0.4412
N15025 X0.5766 Y-0.4444
N15030 X0.5765 Y-0.4475
N15035 X0.5768 Y-0.452 Z-0.012
N15040 X0.5771 Y-0.4547 Z-0.0119
N15045 X0.5776 Y-0.4568 Z-0.0118
N15050 X0.5785 Y-0.46 Z-0.0116
N15055 X0.5795 Y-0.4629 Z-0.0114
N15060 X0.5813 Y-0.4663 Z-0.0113
N15065 X0.5824 Y-0.468 Z-0.0112
N15070 X0.5837 Y-0.4696 Z-0.0111
N15075 X0.5849 Y-0.4708 Z-0.011
N15080 X0.5866 Y-0.4722
N15085 X0.5878 Y-0.4731
N15090 X0.5889 Y-0.4737 Z-0.0108
N15095 X0.5917 Y-0.4751 Z-0.0106
N15100 X0.5939 Y-0.4758 Z-0.0104
N15105 X0.5961 Y-0.4764 Z-0.0102
N15110 X0.5984 Y-0.4767 Z-0.0101
N15115 X0.6017 Y-0.4769 Z-0.01
N15120 X0.603 Z-0.0101
N15125 X0.6061 Y-0.4766 Z-0.0102
N15130 X0.6084 Y-0.4761 Z-0.0104
N15135 X0.6101 Y-0.4757 Z-0.0105
N15140 X0.6113 Y-0.4752 Z-0.0107
N15145 X0.6135 Y-0.474 Z-0.0108
N15150 X0.6155 Y-0.4728 Z-0.011
N15155 X0.6165 Y-0.4721 Z-0.0111
N15160 X0.6171 Y-0.4716 Z-0.0112
N15165 X0.6196 Y-0.4689 Z-0.0114
N15170 X0.6209 Y-0.4673 Z-0.0116
N15175 X0.622 Y-0.4655 Z-0.0117
N15180 X0.6229 Y-0.4636 Z-0.0118
N15185 X0.6235 Y-0.4621
N15190 X0.6205 Y-0.4569 Z0.
N15195 X0.6235 Y-0.4621 Z-0.0118
N15200 X0.6281 Y-0.4596 Z-0.0021
N15205 X0.629 Y-0.459 Z0.
N15210 G0 Z0.1
N15215 X0.6325 Y-0.4795
N15220 Z0.05
N15225 G1 Z0. F0.35
N15230 X0.6386 Y-0.4753 Z-0.0115
N15235 X0.6415 Y-0.4795 Z0.
N15240 X0.6386 Y-0.4753 Z-0.0115
N15245 X0.6448 Y-0.4585 Z-0.0111
N15250 X0.6453 Y-0.4574 Z-0.0113
N15255 X0.646 Y-0.4564 Z-0.0121
N15260 X0.6469 Y-0.4554 Z-0.0133
N15265 X0.6468 Y-0.4541 Z-0.0119
N15270 X0.647 Y-0.4528 Z-0.0111
N15275 X0.6474 Y-0.4516 Z-0.0108
N15280 X0.6554 Y-0.4304 Z-0.0104
N15285 X0.6567 Y-0.4266 Z-0.0101
N15290 X0.6578 Y-0.4231 Z-0.0094
N15295 X0.6585 Y-0.4206 Z-0.009
N15300 X0.659 Y-0.4196 Z-0.0092
N15305 X0.6597 Y-0.4187 Z-0.01
N15310 X0.6572 Y-0.4151 Z0.
N15315 X0.6597 Y-0.4187 Z-0.01
N15320 X0.6606 Y-0.4185 Z-0.0095
N15325 X0.6616 Y-0.4184 Z-0.0093
N15330 X0.6627 Y-0.4185 Z-0.0096
N15335 X0.6638 Y-0.4188 Z-0.0103
N15340 X0.6664 Y-0.4151 Z0.
N15345 X0.6638 Y-0.4188 Z-0.0103
N15350 X0.6644 Y-0.4196 Z-0.0098
N15355 X0.6648 Y-0.4205 Z-0.0096
N15360 X0.6655 Y-0.4224 Z-0.0099
N15365 X0.6675 Y-0.4279 Z-0.0104
N15370 X0.6768 Y-0.4515 Z-0.0115
N15375 X0.6772 Y-0.4527 Z-0.0118
N15380 X0.6774 Y-0.454 Z-0.0126
N15385 Y-0.4553 Z-0.0139
N15390 X0.6762 Y-0.4557 Z-0.0117
N15395 X0.6755 Y-0.456 Z-0.0109
N15400 X0.6742 Y-0.4564 Z-0.0099
N15405 X0.6729 Y-0.4565 Z-0.0095
N15410 X0.651
N15415 X0.6498 Y-0.4564 Z-0.0098
N15420 X0.6486 Y-0.4561 Z-0.0107
N15425 X0.6475 Y-0.4557 Z-0.0121
N15430 X0.6469 Y-0.4554 Z-0.0133
N15435 X0.6475 Y-0.4557 Z-0.0121
N15440 X0.6486 Y-0.4561 Z-0.0107
N15445 X0.6498 Y-0.4564 Z-0.0098
N15450 X0.651 Y-0.4565 Z-0.0095
N15455 X0.6729
N15460 X0.6742 Y-0.4564 Z-0.0099
N15465 X0.6755 Y-0.456 Z-0.0109
N15470 X0.6762 Y-0.4557 Z-0.0117
N15475 X0.6774 Y-0.4553 Z-0.0139
N15480 X0.6782 Y-0.4562 Z-0.0127
N15485 X0.6789 Y-0.4573 Z-0.012
N15490 X0.6795 Y-0.4584 Z-0.0118
N15495 X0.6861 Y-0.475 Z-0.0123
N15500 X0.683 Y-0.4795 Z0.
N15505 X0.6861 Y-0.475 Z-0.0123
N15510 X0.6927 Y-0.4795 Z0.
N15515 G0 Z0.1
N15520 X0.6391 Y-0.2911
N15525 Z0.05
N15530 G1 Z0. F0.35
N15535 X0.6439 Y-0.2864 Z-0.013
N15540 X0.6451 Y-0.2869 Z-0.0116
N15545 X0.6464 Y-0.2872 Z-0.0107
N15550 X0.6476 Y-0.2873 Z-0.0104
N15555 X0.6756
N15560 X0.6794 Y-0.2911 Z0.
N15565 X0.6756 Y-0.2873 Z-0.0104
N15570 X0.6794 Y-0.2835 Z0.
N15575 X0.6756 Y-0.2873 Z-0.0104
N15580 X0.6476
N15585 X0.6464 Y-0.2872 Z-0.0107
N15590 X0.6451 Y-0.2869 Z-0.0116
N15595 X0.6439 Y-0.2864 Z-0.013
N15600 X0.6435 Y-0.2849 Z-0.012
N15605 X0.6434 Y-0.2835 Z-0.0117
N15610 Y-0.231
N15615 X0.6391 Y-0.2267 Z0.
N15620 X0.6434 Y-0.231 Z-0.0117
N15625 X0.6476 Y-0.2267 Z0.
N15630 G0 Z0.1
N15635 X0.6607 Y-0.1911
N15640 Z0.05
N15645 G1 Z-0.0001 F0.35
N15650 X0.6614 Y-0.1904 Z-0.0019
N15655 X0.6631 Y-0.1888 Z-0.0062
N15660 X0.6647 Y-0.1875 Z-0.0098
N15665 X0.6671 Y-0.1859 Z-0.0142
N15670 X0.6687 Y-0.1867 Z-0.0121
N15675 X0.6702 Y-0.1871 Z-0.0109
N15680 X0.6717 Y-0.1873 Z-0.0104
N15685 X0.6995
N15690 X0.7033 Y-0.1835 Z0.
N15695 X0.6995 Y-0.1873 Z-0.0104
N15700 X0.7033 Y-0.1911 Z0.
N15705 X0.6995 Y-0.1873 Z-0.0104
N15710 X0.6717
N15715 X0.6702 Y-0.1871 Z-0.0109
N15720 X0.6687 Y-0.1867 Z-0.0121
N15725 X0.6671 Y-0.1859 Z-0.0142
N15730 X0.6672 Y-0.185 Z-0.0132
N15735 X0.6673 Y-0.1839 Z-0.0121
N15740 X0.6676 Y-0.183 Z-0.0114
N15745 X0.668 Y-0.182 Z-0.0109
N15750 X0.6686 Y-0.1811 Z-0.0107
N15755 X0.6701 Y-0.1791 Z-0.0105
N15760 X0.6715 Y-0.1776 Z-0.0103
N15765 X0.6728 Y-0.1762
N15770 X0.6752 Y-0.1739
N15775 X0.6786 Y-0.1709 Z-0.0102
N15780 X0.6859 Y-0.1647
N15785 X0.6891 Y-0.1617 Z-0.0103
N15790 X0.6921 Y-0.1586 Z-0.0105
N15795 X0.6942 Y-0.1563 Z-0.0106
N15800 X0.6946 Y-0.1558 Z-0.0107
N15805 X0.696 Y-0.1538 Z-0.0109
N15810 X0.697 Y-0.1521 Z-0.011
N15815 X0.698 Y-0.15 Z-0.0111
N15820 X0.6986 Y-0.1479 Z-0.0113
N15825 X0.6989 Y-0.1465
N15830 X0.6991 Y-0.1446 Z-0.0112
N15835 Y-0.1438 Z-0.0111
N15840 X0.6988 Y-0.1411
N15845 X0.6984 Y-0.1396 Z-0.011
N15850 X0.6979 Y-0.1382 Z-0.0109
N15855 X0.697 Y-0.1367 Z-0.0107
N15860 X0.6959 Y-0.1352 Z-0.0106
N15865 X0.695 Y-0.1342 Z-0.0105
N15870 X0.6939 Y-0.1333 Z-0.0101
N15875 X0.6921 Y-0.132 Z-0.0099
N15880 X0.6903 Y-0.131 Z-0.0097
N15885 X0.6887 Y-0.1304 Z-0.0094
N15890 X0.6872 Y-0.1301 Z-0.0092
N15895 X0.6853 Y-0.1298 Z-0.009
N15900 X0.6826 Y-0.1297
N15905 X0.6794 Y-0.13 Z-0.0091
N15910 X0.6775 Y-0.1303 Z-0.0093
N15915 X0.6762 Y-0.1307 Z-0.0094
N15920 X0.6747 Y-0.1314 Z-0.0096
N15925 X0.673 Y-0.1325 Z-0.0098
N15930 X0.6711 Y-0.1339 Z-0.0101
N15935 X0.6708 Y-0.1341 Z-0.0102
N15940 X0.669 Y-0.1365 Z-0.0105
N15945 X0.6679 Y-0.1382 Z-0.0107
N15950 X0.6674 Y-0.1395 Z-0.0108
N15955 X0.6668 Y-0.1414 Z-0.0109
N15960 Y-0.1415
N15965 X0.6683 Y-0.1434 Z-0.006
N15970 X0.6703 Y-0.1458 Z0.
N15975 X0.6683 Y-0.1434 Z-0.006
N15980 X0.6668 Y-0.1415 Z-0.0109
N15985 X0.6643 Y-0.1434 Z-0.0051
N15990 X0.6622 Y-0.145 Z0.
N15995 G0 Z0.1
N16000 X0.6847 Y-0.2343
N16005 Z0.05
N16010 G1 Z0. F0.35
N16015 X0.6885 Y-0.2305 Z-0.0104
N16020 X0.6847 Y-0.2267 Z0.
N16025 X0.6885 Y-0.2305 Z-0.0104
N16030 X0.7059
N16035 X0.7073 Y-0.2306 Z-0.0108
N16040 X0.7088 Y-0.231 Z-0.0119
N16045 X0.7102 Y-0.2317 Z-0.0137
N16050 X0.7116 Y-0.231 Z-0.0119
N16055 X0.713 Y-0.2306 Z-0.0108
N16060 X0.7144 Y-0.2305 Z-0.0104
N16065 X0.732
N16070 X0.7357 Y-0.2267 Z0.
N16075 X0.732 Y-0.2305 Z-0.0104
N16080 X0.7357 Y-0.2343 Z0.
N16085 X0.732 Y-0.2305 Z-0.0104
N16090 X0.7144
N16095 X0.713 Y-0.2306 Z-0.0108
N16100 X0.7116 Y-0.231 Z-0.0119
N16105 X0.7102 Y-0.2317 Z-0.0137
N16110 Y-0.2327 Z-0.0125
N16115 Y-0.2334 Z-0.012
N16120 Y-0.2343 Z-0.0117
N16125 Y-0.2869
N16130 X0.7059 Y-0.2911 Z0.
N16135 X0.7102 Y-0.2869 Z-0.0117
N16140 X0.7144 Y-0.2911 Z0.
N16145 G0 Z0.1
N16150 X0.7092 Y-0.1756
N16155 Z0.05
N16160 G1 Z0. F0.35
N16165 X0.7136 Y-0.1712 Z-0.0121
N16170 X0.7147 Y-0.1717 Z-0.0109
N16175 X0.7158 Y-0.1719 Z-0.0102
N16180 X0.717 Y-0.172 Z-0.01
N16185 X0.7371
N16190 X0.7377 Z-0.0101
N16195 X0.7385 Z-0.0106
N16200 X0.7389 Z-0.0111
N16205 X0.7395 Z-0.0119
N16210 X0.7402 Z-0.0131
N16215 X0.7411 Z-0.0147
N16220 X0.742 Z-0.0131
N16225 X0.7427 Z-0.0119
N16230 X0.7432 Z-0.0111
N16235 X0.7437 Z-0.0106
N16240 X0.7444 Z-0.0101
N16245 X0.745 Z-0.01
N16250 X0.7501
N16255 X0.7537 Y-0.1684 Z0.
N16260 X0.7501 Y-0.172 Z-0.01
N16265 X0.7537 Y-0.1756 Z0.
N16270 X0.7501 Y-0.172 Z-0.01
N16275 X0.745
N16280 X0.7444 Z-0.0101
N16285 X0.7437 Z-0.0106
N16290 X0.7432 Z-0.0111
N16295 X0.7427 Z-0.0119
N16300 X0.742 Z-0.0131
N16305 X0.7411 Z-0.0147
N16310 Y-0.1728 Z-0.0134
N16315 Y-0.1735 Z-0.0124
N16320 Y-0.1744 Z-0.0114
N16325 Y-0.1751 Z-0.011
N16330 Y-0.1871 Z-0.0109
N16335 X0.745 Y-0.1911 Z0.
N16340 X0.7411 Y-0.1871 Z-0.0109
N16345 X0.7371 Y-0.1911 Z0.
N16350 X0.7411 Y-0.1871 Z-0.0109
N16355 Y-0.1751 Z-0.011
N16360 Y-0.1744 Z-0.0114
N16365 Y-0.1735 Z-0.0124
N16370 Y-0.1728 Z-0.0134
N16375 Y-0.172 Z-0.0147
N16380 Y-0.1712 Z-0.0134
N16385 Y-0.1706 Z-0.0124
N16390 Y-0.1696 Z-0.0114
N16395 Y-0.169 Z-0.011
N16400 Y-0.1394 Z-0.0109
N16405 X0.741 Y-0.1382 Z-0.0111
N16410 X0.7407 Y-0.137 Z-0.0119
N16415 X0.7403 Y-0.1358 Z-0.0131
N16420 X0.7396 Y-0.1346 Z-0.0149
N16425 X0.7408 Y-0.1309 Z-0.0117
N16430 X0.745 Y-0.1267 Z0.
N16435 X0.7408 Y-0.1309 Z-0.0117
N16440 X0.7386 Y-0.1267 Z0.
N16445 X0.7408 Y-0.1309 Z-0.0117
N16450 X0.7396 Y-0.1346 Z-0.0149
N16455 X0.738 Y-0.1351 Z-0.012
N16460 X0.7366 Y-0.1357 Z-0.01
N16465 X0.7355 Y-0.1366 Z-0.0088
N16470 X0.7346 Y-0.1376 Z-0.0084
N16475 X0.7143 Y-0.1666 Z-0.0087
N16480 X0.7138 Y-0.1675 Z-0.009
N16485 X0.7134 Y-0.1685 Z-0.0097
N16490 X0.7132 Y-0.1697 Z-0.011
N16495 X0.7136 Y-0.1712 Z-0.0121
N16500 G0 Z0.1
N16505 X0.722 Y-0.3463
N16510 Z0.05
N16515 G1 Z0. F0.35
N16520 X0.7247 Y-0.3413 Z-0.0117
N16525 X0.7256 Y-0.3418 Z-0.0099
N16530 X0.7304 Y-0.3443 Z0.
N16535 X0.7256 Y-0.3418 Z-0.0099
N16540 X0.7247 Y-0.3413 Z-0.0117
N16545 X0.7237 Y-0.3394 Z-0.0116
N16550 X0.7227 Y-0.3379 Z-0.0115
N16555 X0.7214 Y-0.3363 Z-0.0112
N16560 X0.7198 Y-0.3347 Z-0.0111
N16565 X0.7186 Y-0.3335 Z-0.0109
N16570 X0.718 Y-0.3331 Z-0.0107
N16575 X0.7166 Y-0.3323 Z-0.0106
N16580 X0.7142 Y-0.331 Z-0.0104
N16585 X0.7126 Y-0.3304 Z-0.0103
N16590 X0.7109 Y-0.3299 Z-0.0102
N16595 X0.7089 Y-0.3296 Z-0.0101
N16600 X0.7064 Y-0.3293 Z-0.01
N16605 X0.7045
N16610 X0.7004 Y-0.3296
N16615 X0.698 Y-0.33
N16620 X0.6966 Y-0.3304
N16625 X0.6944 Y-0.3312
N16630 X0.6925 Y-0.3321 Z-0.0102
N16635 X0.6908 Y-0.333 Z-0.0103
N16640 X0.6899 Y-0.3336
N16645 X0.6878 Y-0.3353 Z-0.0107
N16650 X0.686 Y-0.3369 Z-0.0109
N16655 X0.6849 Y-0.3383 Z-0.011
N16660 X0.6839 Y-0.3397 Z-0.0111
N16665 X0.6829 Y-0.3413 Z-0.0113
N16670 X0.6819 Y-0.3434 Z-0.0116
N16675 X0.6813 Y-0.3448
N16680 X0.6803 Y-0.348 Z-0.0119
N16685 X0.6797 Y-0.3503 Z-0.0121
N16690 X0.6793 Y-0.3529
N16695 X0.679 Y-0.356
N16700 Y-0.3591
N16705 X0.6792 Y-0.3636 Z-0.012
N16710 X0.6796 Y-0.3663 Z-0.0119
N16715 X0.68 Y-0.3684 Z-0.0118
N16720 X0.681 Y-0.3716 Z-0.0116
N16725 X0.682 Y-0.3745 Z-0.0114
N16730 X0.6838 Y-0.378 Z-0.0113
N16735 X0.6848 Y-0.3796 Z-0.0112
N16740 X0.686 Y-0.3811 Z-0.0111
N16745 X0.6874 Y-0.3824 Z-0.011
N16750 X0.6893 Y-0.384
N16755 X0.6903 Y-0.3847
N16760 X0.6914 Y-0.3854 Z-0.0108
N16765 X0.6942 Y-0.3867 Z-0.0106
N16770 X0.6964 Y-0.3875 Z-0.0104
N16775 X0.6985 Y-0.388 Z-0.0102
N16780 X0.7008 Y-0.3883 Z-0.0101
N16785 X0.704 Y-0.3886 Z-0.01
N16790 X0.7055 Y-0.3885 Z-0.0101
N16795 X0.7086 Y-0.3882 Z-0.0102
N16800 X0.7109 Y-0.3878 Z-0.0104
N16805 X0.7125 Y-0.3873 Z-0.0105
N16810 X0.7138 Y-0.3868 Z-0.0107
N16815 X0.7155 Y-0.386 Z-0.0108
N16820 X0.718 Y-0.3844 Z-0.011
N16825 X0.719 Y-0.3837 Z-0.0111
N16830 X0.7195 Y-0.3833 Z-0.0112
N16835 X0.7221 Y-0.3805 Z-0.0114
N16840 X0.7236 Y-0.3786 Z-0.0116
N16845 X0.7244 Y-0.3772 Z-0.0117
N16850 X0.7254 Y-0.3752 Z-0.0118
N16855 X0.726 Y-0.3737
N16860 X0.7238 Y-0.37 Z-0.0033
N16865 X0.723 Y-0.3686 Z-0.0001
N16870 X0.7238 Y-0.37 Z-0.0033
N16875 X0.726 Y-0.3737 Z-0.0118
N16880 X0.7305 Y-0.3712 Z-0.0021
N16885 X0.7315 Y-0.3707 Z0.
N16890 G0 Z0.1
N16895 X0.7423 Y-0.3911
N16900 Z0.05
N16905 G1 Z0. F0.35
N16910 X0.7465 Y-0.3869 Z-0.0117
N16915 X0.7508 Y-0.3911 Z0.
N16920 X0.7465 Y-0.3869 Z-0.0117
N16925 Y-0.3608
N16930 X0.7466 Y-0.3595 Z-0.012
N16935 X0.7469 Y-0.3582 Z-0.0127
N16940 X0.7474 Y-0.357 Z-0.014
N16945 X0.7469 Y-0.3557 Z-0.0127
N16950 X0.7466 Y-0.3544 Z-0.012
N16955 X0.7465 Y-0.3531 Z-0.0117
N16960 Y-0.331
N16965 X0.7423 Y-0.3267 Z0.
