%
(1001)
(6MM END MILL 2000 RPM)
(T1  D=0.2362 CR=0. - ZMIN=-0.265 - FLAT END MILL)
N10 G90 G94 G17 G91.1
N15 G20
N20 G53 G0 Z0.
(2D CONTOUR2)
N25 T1 M6
N30 S2000 M3
N35 G54
N40 M8
N45 G0 X0.2264 Y1.2429
N50 G43 Z0.6 H1
N55 G0 Z0.2
N60 G1 Z0.0994 F1.
N65 Z-0.0364
N70 G19 G2 Y1.2193 Z-0.06 J-0.0236 K0.
N75 G1 Y1.1957 F8.
N80 G17 G3 X0.25 Y1.1721 I0.0236 J0.
N85 G1 X2.2864 F10.
N90 G2 X2.4164 Y1.158 I0. J-0.6082
N95 X2.5411 Y1.1183 I-0.151 J-0.6899
N100 G3 X2.5758 I0.0174 J0.041
N105 G2 X2.7005 Y1.158 I0.2756 J-0.6502
N110 X2.8305 Y1.1721 I0.13 J-0.5941
N115 G1 X3.3125
N120 G2 X3.9271 Y0.5575 I0. J-0.6146
N125 G1 Y0.145
N130 G2 X3.25 Y-0.5321 I-0.6771 J0.
N135 G1 X0.25
N140 G2 X-0.4271 Y0.145 I0. J0.6771
N145 G3 X-0.4289 Y0.4801 I-29.9695 J0.
N150 G2 X-0.3514 Y0.8061 I0.6913 J0.0077
N155 X0.25 Y1.1721 I0.602 J-0.3122
N160 X0.4105 Y1.0652 I0.0002 J-0.1736
N165 G3 X0.5709 Y0.9583 I0.1605 J0.067
N170 G1 X2.2864
N175 G2 X2.4241 Y0.9351 I0. J-0.4208
N180 X2.5475 Y0.8697 I-0.1493 J-0.4311
N185 G3 X2.5694 I0.0109 J0.0146
N190 G2 X2.6928 Y0.9351 I0.2727 J-0.3657
N195 X2.8305 Y0.9583 I0.1377 J-0.3977
N200 G1 X3.3125
N205 G2 X3.7133 Y0.5575 I0. J-0.4008
N210 G1 Y0.145
N215 G2 X3.25 Y-0.3183 I-0.4633 J0.
N220 G1 X0.25
N225 G2 X-0.2133 Y0.145 I0. J0.4633
N230 G1 Y0.495
N235 G2 X0.25 Y0.9583 I0.4633 J0.
N240 G1 X0.5709
N245 G2 X0.7183 Y0.86 I0. J-0.1597
N250 G3 X0.8657 Y0.7617 I0.1474 J0.0614
N255 G1 X2.2864
N260 G2 X2.5151 Y0.5982 I0. J-0.2417
N265 G3 X2.6018 I0.0433 J0.0148
N270 G2 X2.8305 Y0.7617 I0.2287 J-0.0782
N275 G1 X3.3125
N280 G2 X3.5167 Y0.5575 I0. J-0.2042
N285 G1 Y0.145
N290 G2 X3.25 Y-0.1217 I-0.2667 J0.
N295 G1 X0.25
N300 G2 X-0.0167 Y0.145 I0. J0.2667
N305 G1 Y0.495
N310 G2 X0.25 Y0.7617 I0.2667 J0.
N315 G1 X0.8657
N320 G3 X0.8893 Y0.7854 I0. J0.0236 F8.
N325 G1 Y0.809
N330 G19 G3 Y0.8326 Z-0.0364 J0. K0.0236
N335 G0 Z0.2
N340 X0.2264 Y1.2429
N345 G1 Z0.0394 F1.
N350 Z-0.0964
N355 G2 Y1.2193 Z-0.12 J-0.0236 K0.
N360 G1 Y1.1957 F8.
N365 G17 G3 X0.25 Y1.1721 I0.0236 J0.
N370 G1 X2.2864 F10.
N375 G2 X2.4164 Y1.158 I0. J-0.6082
N380 X2.5411 Y1.1183 I-0.151 J-0.6899
N385 G3 X2.5758 I0.0174 J0.041
N390 G2 X2.7005 Y1.158 I0.2756 J-0.6502
N395 X2.8305 Y1.1721 I0.13 J-0.5941
N400 G1 X3.3125
N405 G2 X3.9271 Y0.5575 I0. J-0.6146
N410 G1 Y0.145
N415 G2 X3.25 Y-0.5321 I-0.6771 J0.
N420 G1 X0.25
N425 G2 X-0.4271 Y0.145 I0. J0.6771
N430 G3 X-0.4289 Y0.4801 I-29.9695 J0.
N435 G2 X-0.3514 Y0.8061 I0.6913 J0.0077
N440 X0.25 Y1.1721 I0.602 J-0.3122
N445 X0.4105 Y1.0652 I0.0002 J-0.1736
N450 G3 X0.5709 Y0.9583 I0.1605 J0.067
N455 G1 X2.2864
N460 G2 X2.4241 Y0.9351 I0. J-0.4208
N465 X2.5475 Y0.8697 I-0.1493 J-0.4311
N470 G3 X2.5694 I0.0109 J0.0146
N475 G2 X2.6928 Y0.9351 I0.2727 J-0.3657
N480 X2.8305 Y0.9583 I0.1377 J-0.3977
N485 G1 X3.3125
N490 G2 X3.7133 Y0.5575 I0. J-0.4008
N495 G1 Y0.145
N500 G2 X3.25 Y-0.3183 I-0.4633 J0.
N505 G1 X0.25
N510 G2 X-0.2133 Y0.145 I0. J0.4633
N515 G1 Y0.495
N520 G2 X0.25 Y0.9583 I0.4633 J0.
N525 G1 X0.5709
N530 G2 X0.7183 Y0.86 I0. J-0.1597
N535 G3 X0.8657 Y0.7617 I0.1474 J0.0614
N540 G1 X2.2864
N545 G2 X2.5151 Y0.5982 I0. J-0.2417
N550 G3 X2.6018 I0.0433 J0.0148
N555 G2 X2.8305 Y0.7617 I0.2287 J-0.0782
N560 G1 X3.3125
N565 G2 X3.5167 Y0.5575 I0. J-0.2042
N570 G1 Y0.145
N575 G2 X3.25 Y-0.1217 I-0.2667 J0.
N580 G1 X0.25
N585 G2 X-0.0167 Y0.145 I0. J0.2667
N590 G1 Y0.495
N595 G2 X0.25 Y0.7617 I0.2667 J0.
N600 G1 X0.8657
N605 G3 X0.8893 Y0.7854 I0. J0.0236 F8.
N610 G1 Y0.809
N615 G19 G3 Y0.8326 Z-0.0964 J0. K0.0236
N620 G0 Z0.2
N625 X0.2264 Y1.2429
N630 G1 Z-0.0206 F1.
N635 Z-0.1564
N640 G2 Y1.2193 Z-0.18 J-0.0236 K0.
N645 G1 Y1.1957 F8.
N650 G17 G3 X0.25 Y1.1721 I0.0236 J0.
N655 G1 X2.2864 F10.
N660 G2 X2.4164 Y1.158 I0. J-0.6082
N665 X2.5411 Y1.1183 I-0.151 J-0.6899
N670 G3 X2.5758 I0.0174 J0.041
N675 G2 X2.7005 Y1.158 I0.2756 J-0.6502
N680 X2.8305 Y1.1721 I0.13 J-0.5941
N685 G1 X3.3125
N690 G2 X3.9271 Y0.5575 I0. J-0.6146
N695 G1 Y0.145
N700 G2 X3.25 Y-0.5321 I-0.6771 J0.
N705 G1 X0.25
N710 G2 X-0.4271 Y0.145 I0. J0.6771
N715 G3 X-0.4289 Y0.4801 I-29.9695 J0.
N720 G2 X-0.3514 Y0.8061 I0.6913 J0.0077
N725 X0.25 Y1.1721 I0.602 J-0.3122
N730 X0.4105 Y1.0652 I0.0002 J-0.1736
N735 G3 X0.5709 Y0.9583 I0.1605 J0.067
N740 G1 X2.2864
N745 G2 X2.4241 Y0.9351 I0. J-0.4208
N750 X2.5475 Y0.8697 I-0.1493 J-0.4311
N755 G3 X2.5694 I0.0109 J0.0146
N760 G2 X2.6928 Y0.9351 I0.2727 J-0.3657
N765 X2.8305 Y0.9583 I0.1377 J-0.3977
N770 G1 X3.3125
N775 G2 X3.7133 Y0.5575 I0. J-0.4008
N780 G1 Y0.145
N785 G2 X3.25 Y-0.3183 I-0.4633 J0.
N790 G1 X0.25
N795 G2 X-0.2133 Y0.145 I0. J0.4633
N800 G1 Y0.495
N805 G2 X0.25 Y0.9583 I0.4633 J0.
N810 G1 X0.5709
N815 G2 X0.7183 Y0.86 I0. J-0.1597
N820 G3 X0.8657 Y0.7617 I0.1474 J0.0614
N825 G1 X2.2864
N830 G2 X2.5151 Y0.5982 I0. J-0.2417
N835 G3 X2.6018 I0.0433 J0.0148
N840 G2 X2.8305 Y0.7617 I0.2287 J-0.0782
N845 G1 X3.3125
N850 G2 X3.5167 Y0.5575 I0. J-0.2042
N855 G1 Y0.145
N860 G2 X3.25 Y-0.1217 I-0.2667 J0.
N865 G1 X0.25
N870 G2 X-0.0167 Y0.145 I0. J0.2667
N875 G1 Y0.495
N880 G2 X0.25 Y0.7617 I0.2667 J0.
N885 G1 X0.8657
N890 G3 X0.8893 Y0.7854 I0. J0.0236 F8.
N895 G1 Y0.809
N900 G19 G3 Y0.8326 Z-0.1564 J0. K0.0236
N905 G0 Z0.2
N910 X0.2264 Y1.2429
N915 G1 Z-0.0806 F1.
N920 Z-0.2164
N925 G2 Y1.2193 Z-0.24 J-0.0236 K0.
N930 G1 Y1.1957 F8.
N935 G17 G3 X0.25 Y1.1721 I0.0236 J0.
N940 G1 X2.2864 F10.
N945 G2 X2.4164 Y1.158 I0. J-0.6082
N950 X2.5411 Y1.1183 I-0.151 J-0.6899
N955 G3 X2.5758 I0.0174 J0.041
N960 G2 X2.7005 Y1.158 I0.2756 J-0.6502
N965 X2.8305 Y1.1721 I0.13 J-0.5941
N970 G1 X3.3125
N975 G2 X3.9271 Y0.5575 I0. J-0.6146
N980 G1 Y0.145
N985 G2 X3.25 Y-0.5321 I-0.6771 J0.
N990 G1 X0.25
N995 G2 X-0.4271 Y0.145 I0. J0.6771
N1000 G3 X-0.4289 Y0.4801 I-29.9695 J0.
N1005 G2 X-0.3514 Y0.8061 I0.6913 J0.0077
N1010 X0.25 Y1.1721 I0.602 J-0.3122
N1015 X0.4105 Y1.0652 I0.0002 J-0.1736
N1020 G3 X0.5709 Y0.9583 I0.1605 J0.067
N1025 G1 X2.2864
N1030 G2 X2.4241 Y0.9351 I0. J-0.4208
N1035 X2.5475 Y0.8697 I-0.1493 J-0.4311
N1040 G3 X2.5694 I0.0109 J0.0146
N1045 G2 X2.6928 Y0.9351 I0.2727 J-0.3657
N1050 X2.8305 Y0.9583 I0.1377 J-0.3977
N1055 G1 X3.3125
N1060 G2 X3.7133 Y0.5575 I0. J-0.4008
N1065 G1 Y0.145
N1070 G2 X3.25 Y-0.3183 I-0.4633 J0.
N1075 G1 X0.25
N1080 G2 X-0.2133 Y0.145 I0. J0.4633
N1085 G1 Y0.495
N1090 G2 X0.25 Y0.9583 I0.4633 J0.
N1095 G1 X0.5709
N1100 G2 X0.7183 Y0.86 I0. J-0.1597
N1105 G3 X0.8657 Y0.7617 I0.1474 J0.0614
N1110 G1 X2.2864
N1115 G2 X2.5151 Y0.5982 I0. J-0.2417
N1120 G3 X2.6018 I0.0433 J0.0148
N1125 G2 X2.8305 Y0.7617 I0.2287 J-0.0782
N1130 G1 X3.3125
N1135 G2 X3.5167 Y0.5575 I0. J-0.2042
N1140 G1 Y0.145
N1145 G2 X3.25 Y-0.1217 I-0.2667 J0.
N1150 G1 X0.25
N1155 G2 X-0.0167 Y0.145 I0. J0.2667
N1160 G1 Y0.495
N1165 G2 X0.25 Y0.7617 I0.2667 J0.
N1170 G1 X0.8657
N1175 G3 X0.8893 Y0.7854 I0. J0.0236 F8.
N1180 G1 Y0.809
N1185 G19 G3 Y0.8326 Z-0.2164 J0. K0.0236
N1190 G0 Z0.2
N1195 X0.2264 Y1.2429
N1200 G1 Z-0.1406 F1.
N1205 Z-0.2414
N1210 G2 Y1.2193 Z-0.265 J-0.0236 K0.
N1215 G1 Y1.1957 F8.
N1220 G17 G3 X0.25 Y1.1721 I0.0236 J0.
N1225 G1 X2.2864 F10.
N1230 G2 X2.4164 Y1.158 I0. J-0.6082
N1235 X2.5411 Y1.1183 I-0.151 J-0.6899
N1240 G3 X2.5758 I0.0174 J0.041
N1245 G2 X2.7005 Y1.158 I0.2756 J-0.6502
N1250 X2.8305 Y1.1721 I0.13 J-0.5941
N1255 G1 X3.3125
N1260 G2 X3.9271 Y0.5575 I0. J-0.6146
N1265 G1 Y0.145
N1270 G2 X3.25 Y-0.5321 I-0.6771 J0.
N1275 G1 X0.25
N1280 G2 X-0.4271 Y0.145 I0. J0.6771
N1285 G3 X-0.4289 Y0.4801 I-29.9695 J0.
N1290 G2 X-0.3514 Y0.8061 I0.6913 J0.0077
N1295 X0.25 Y1.1721 I0.602 J-0.3122
N1300 X0.4105 Y1.0652 I0.0002 J-0.1736
N1305 G3 X0.5709 Y0.9583 I0.1605 J0.067
N1310 G1 X2.2864
N1315 G2 X2.4241 Y0.9351 I0. J-0.4208
N1320 X2.5475 Y0.8697 I-0.1493 J-0.4311
N1325 G3 X2.5694 I0.0109 J0.0146
N1330 G2 X2.6928 Y0.9351 I0.2727 J-0.3657
N1335 X2.8305 Y0.9583 I0.1377 J-0.3977
N1340 G1 X3.3125
N1345 G2 X3.7133 Y0.5575 I0. J-0.4008
N1350 G1 Y0.145
N1355 G2 X3.25 Y-0.3183 I-0.4633 J0.
N1360 G1 X0.25
N1365 G2 X-0.2133 Y0.145 I0. J0.4633
N1370 G1 Y0.495
N1375 G2 X0.25 Y0.9583 I0.4633 J0.
N1380 G1 X0.5709
N1385 G2 X0.7183 Y0.86 I0. J-0.1597
N1390 G3 X0.8657 Y0.7617 I0.1474 J0.0614
N1395 G1 X2.2864
N1400 G2 X2.5151 Y0.5982 I0. J-0.2417
N1405 G3 X2.6018 I0.0433 J0.0148
N1410 G2 X2.8305 Y0.7617 I0.2287 J-0.0782
N1415 G1 X3.3125
N1420 G2 X3.5167 Y0.5575 I0. J-0.2042
N1425 G1 Y0.145
N1430 G2 X3.25 Y-0.1217 I-0.2667 J0.
N1435 G1 X0.25
N1440 G2 X-0.0167 Y0.145 I0. J0.2667
N1445 G1 Y0.495
N1450 G2 X0.25 Y0.7617 I0.2667 J0.
N1455 G1 X0.8657
N1460 G2 X0.8834 Y0.7499 I0. J-0.0192
N1465 G3 X0.9011 Y0.7381 I0.0177 J0.0074
N1470 G1 X2.2864 F7.
N1475 G2 X2.4928 Y0.5905 I0. J-0.2181
N1480 G3 X2.6241 I0.0657 J0.0224
N1485 G2 X2.8305 Y0.7381 I0.2064 J-0.0705
N1490 G1 X3.3125
N1495 G2 X3.4931 Y0.5575 I0. J-0.1806
N1500 G1 Y0.145
N1505 G2 X3.25 Y-0.0981 I-0.2431 J0.
N1510 G1 X0.25
N1515 G2 X0.0069 Y0.145 I0. J0.2431
N1520 G1 Y0.495
N1525 G2 X0.25 Y0.7381 I0.2431 J0.
N1530 G1 X2.2864
N1535 G2 X2.4928 Y0.5905 I0. J-0.2181
N1540 G3 X2.6241 I0.0657 J0.0224
N1545 G2 X2.8305 Y0.7381 I0.2064 J-0.0705
N1550 G1 X3.3125
N1555 G2 X3.4931 Y0.5575 I0. J-0.1806
N1560 G1 Y0.145
N1565 G2 X3.25 Y-0.0981 I-0.2431 J0.
N1570 G1 X0.25
N1575 G2 X0.0069 Y0.145 I0. J0.2431
N1580 G1 Y0.495
N1585 G2 X0.25 Y0.7381 I0.2431 J0.
N1590 G1 X0.9011
N1595 G3 X0.9248 Y0.7617 I0. J0.0236 F8.
N1600 G1 Y0.7854
N1605 G19 G3 Y0.809 Z-0.2414 J0. K0.0236
N1610 G0 Z0.6
N1615 G17
N1620 M9
N1625 G53 G0 Z0.
N1630 M30
%
