%
(1001)
(6MM END MILL 2000 RPM)
(T1  D=0.2362 CR=0. - ZMIN=-0.26 - FLAT END MILL)
N10 G90 G94 G17 G91.1
N15 G20
N20 G53 G0 Z0.
(2D POCKET1 2)
N25 T1 M6
N30 S2000 M3
N35 G54
N40 M8
N45 G0 X0.4287 Y0.3369
N50 G43 Z0.35 H1
N55 G0 Z0.1236
N60 G18 G3 X0.4059 Z0.1 I-0.0236 K0. F4.
N65 G1 X0.285 Z0.0958
N70 G17 G3 Y0.2631 Z0.0917 I0. J-0.0369
N75 G1 X2.035 Z0.0306
N80 G3 Y0.3369 Z0.0266 I0. J0.0369
N85 G1 X0.285 Z-0.0345
N90 G3 Y0.2631 Z-0.0386 I0. J-0.0369
N95 G1 X0.3074 Z-0.0394
N100 X2.035 F12.
N105 G3 Y0.3369 I0. J0.0369
N110 G1 X0.285
N115 G3 Y0.2631 I0. J-0.0369
N120 G1 X0.3074
N125 X1.4349 Z-0.0787 F4.
N130 X2.035 F12.
N135 G3 Y0.3369 I0. J0.0369
N140 G1 X0.285
N145 G3 Y0.2631 I0. J-0.0369
N150 G1 X1.4349
N155 X2.035 Z-0.0997 F4.
N160 G3 Y0.3369 Z-0.1037 I0. J0.0369
N165 G1 X1.6236 Z-0.1181
N170 X0.285 F12.
N175 G3 Y0.2631 I0. J-0.0369
N180 G1 X1.4349
N185 X2.035
N190 G3 Y0.3369 I0. J0.0369
N195 G1 X1.6236
N200 X0.4962 Z-0.1575 F4.
N205 X0.285 F12.
N210 G3 Y0.2631 I0. J-0.0369
N215 G1 X2.035
N220 G3 Y0.3369 I0. J0.0369
N225 G1 X0.4962
N230 X0.285 Z-0.1649 F4.
N235 G3 Y0.2631 Z-0.1689 I0. J-0.0369
N240 G1 X1.0853 Z-0.1969
N245 X2.035 F12.
N250 G3 Y0.3369 I0. J0.0369
N255 G1 X0.4962
N260 X0.285
N265 G3 Y0.2631 I0. J-0.0369
N270 G1 X1.0853
N275 X2.035 Z-0.23 F4.
N280 G3 Y0.3369 Z-0.2341 I0. J0.0369
N285 G1 X1.9732 Z-0.2362
N290 X0.285 F12.
N295 G3 Y0.2631 I0. J-0.0369
N300 G1 X2.035
N305 G3 Y0.3369 I0. J0.0369
N310 G1 X1.9732
N315 X1.5786 Z-0.25 F4.
N320 X0.285 F12.
N325 G3 Y0.2631 I0. J-0.0369
N330 G1 X2.035
N335 G3 Y0.3369 I0. J0.0369
N340 G1 X1.5786
N345 X1.5749 Y0.3366 Z-0.2494 F8.
N350 X1.5714 Y0.3358 Z-0.2488
N355 X1.5683 Y0.3346 Z-0.2472
N360 X1.5655 Y0.3329 Z-0.2455
N365 X1.5634 Y0.3314 Z-0.2429
N370 X1.5615 Y0.3296 Z-0.2403
N375 X1.5594 Y0.327 Z-0.2337
N380 X1.5587 Y0.326 Z-0.2264
N385 G0 Z0.35
(2D CONTOUR1 2)
N390 G0 Z0.6
N395 X0.2614 Y0.324
N400 Z0.2
N405 G1 Z0.0394 F1.
N410 Z-0.2364
N415 G19 G2 Y0.3004 Z-0.26 J-0.0236 K0.
N420 G1 Y0.2767 F10.
N425 G17 G3 X0.285 Y0.2531 I0.0236 J0.
N430 G1 X2.035
N435 G3 Y0.3469 I0. J0.0469
N440 G1 X0.285
N445 G3 Y0.2531 I0. J-0.0469
N450 X0.3086 Y0.2767 I0. J0.0236
N455 G1 Y0.3004
N460 G19 G3 Y0.324 Z-0.2364 J0. K0.0236
N465 G0 Z0.6
N470 G17
N475 M9
N480 G53 G0 Z0.
N485 M30
%
